; generated by SuperSlicer 2.3.57 on 2022-02-16 at 02:22:54 UTC


;
;

;
;
; 

; external perimeters extrusion width = 0.20mm
; perimeters extrusion width = 0.23mm
; infill extrusion width = 0.36mm
; solid infill extrusion width = 0.28mm
; top infill extrusion width = 0.20mm
; first layer extrusion width = 0.24mm

; object:{"name":"10","id":"10.STL id:0 copy 0","object_center":[152.500000,150.000002,0.000000],"boundingbox_center":[152.500000,150.000002,2.264427],"boundingbox_size":[28.515906,8.433911,4.528854]}
; plater:{"center":[152.500000,150.000002,0.000000],"boundingbox_center":[152.500000,150.000002,2.264427],"boundingbox_size":[28.515906,8.433911,4.528854]}

;TYPE:Custom
START_PRINT T_BED=60 T_EXTRUDER=210
M107
G21 ; set units to millimeters
G90 ; use absolute coordinates
M83 ; use relative distances for extrusion
; Filament gcode
M104 S210 ; set temperature
M109 S210 ; set temperature and wait for it to be reached
M190 S60 ; set bed temperature and wait for it to be reached
M107
;LAYER_CHANGE
;Z:0.14
;HEIGHT:0.14
G1 Z0.14 F9000
G1 E-0.6 F3000
G1 X136.118 Y144.02 F9000
G1 E0.6 F1800
; External perimeter
;Skirt
SET_VELOCITY_LIMIT ACCEL=3000 ACCEL_TO_DECEL=3000 SQUARE_CORNER_VELOCITY=8

; Support material

;TYPE:Skirt
;WIDTH:0.24
G1 X135.677 Y144.581 E0.00872
G1 X135.255 Y145.383 E0.01107
G1 X135.131 Y145.768 E0.00494
G1 X135.055 Y146.165 E0.00494
G1 X135.027 Y147.15 E0.01204
G1 X135.09 Y147.776 E0.00768
G1 X135.269 Y148.378 E0.00768
G1 X135.461 Y148.775 E0.00538
G1 X135.707 Y149.146 E0.00544
G1 X136 Y149.481 E0.00544
G1 X136.331 Y149.771 E0.00538
G1 X146.311 Y156.804 E0.1492
G1 X146.737 Y157.056 E0.00604
G1 X147.19 Y157.241 E0.00599
G1 X147.671 Y157.357 E0.00604
G1 X148.163 Y157.401 E0.00604
G1 X153.716 Y157.393 E0.06786
G1 X154.814 Y157.328 E0.01345
G1 X157.486 Y157.06 E0.03281
G1 X157.906 Y156.983 E0.00522
G1 X158.313 Y156.853 E0.00522
G1 X160.492 Y155.932 E0.02891
G1 X160.891 Y155.725 E0.00549
G1 X168.567 Y150.61 E0.11273
G1 X168.99 Y150.262 E0.0067
G1 X169.353 Y149.845 E0.00675
G1 X169.64 Y149.378 E0.0067
G1 X169.846 Y148.87 E0.0067
G1 X169.982 Y148.192 E0.00845
G1 X169.989 Y147.348 E0.01031
G1 X169.885 Y146.715 E0.00785
G1 X169.662 Y146.117 E0.00779
G1 X169.304 Y145.541 E0.00829
G1 X168.84 Y145.053 E0.00823
G1 X168.287 Y144.668 E0.00823
G1 X167.668 Y144.404 E0.00823
G1 X160.84 Y142.813 E0.08568
G1 X160.016 Y142.664 E0.01023
G1 X149.636 Y142.568 E0.12686
G1 X144.353 Y142.629 E0.06457
G1 X142.139 Y142.697 E0.02707
G1 X138.237 Y142.974 E0.0478
G1 X137.768 Y143.059 E0.00582
G1 X137.289 Y143.218 E0.00617
G1 X136.66 Y143.555 E0.00872
G1 X136.141 Y144 E0.00836
G1 X136.295 Y144.138 F9000
G1 F1800
G1 X135.871 Y144.668 E0.00829
G1 X135.465 Y145.423 E0.01048
G1 X135.297 Y145.986 E0.00717
G1 X135.237 Y146.569 E0.00717
G1 X135.26 Y147.516 E0.01157
G1 X135.445 Y148.253 E0.00929
G1 X135.628 Y148.643 E0.00526
G1 X135.86 Y149 E0.00521
G1 X136.139 Y149.323 E0.00521
G1 X136.459 Y149.604 E0.00521
G1 X146.426 Y156.628 E0.14901
G1 X146.826 Y156.866 E0.00569
G1 X147.253 Y157.04 E0.00563
G1 X147.705 Y157.15 E0.00569
G1 X148.164 Y157.191 E0.00563
G1 X153.704 Y157.183 E0.0677
G1 X154.799 Y157.119 E0.01341
G1 X157.458 Y156.852 E0.03266
G1 X157.852 Y156.78 E0.00489
G1 X158.233 Y156.658 E0.00489
G1 X160.407 Y155.74 E0.02884
G1 X160.782 Y155.546 E0.00516
G1 X168.444 Y150.439 E0.11253
G1 X168.85 Y150.105 E0.00643
G1 X169.192 Y149.71 E0.00638
G1 X169.464 Y149.26 E0.00643
G1 X169.656 Y148.775 E0.00638
G1 X169.776 Y148.143 E0.00786
G1 X169.777 Y147.333 E0.00989
G1 X169.674 Y146.742 E0.00733
G1 X169.46 Y146.182 E0.00733
G1 X169.12 Y145.646 E0.00775
G1 X168.682 Y145.194 E0.0077
G1 X168.157 Y144.837 E0.00775
G1 X167.571 Y144.594 E0.00775
G1 X160.792 Y143.017 E0.08506
G1 X159.993 Y142.872 E0.00992
G1 X149.637 Y142.778 E0.12656
G1 X144.358 Y142.839 E0.06452
G1 X142.16 Y142.906 E0.02686
G1 X138.274 Y143.182 E0.04761
G1 X137.85 Y143.255 E0.00526
G1 X137.417 Y143.393 E0.00554
G1 X136.815 Y143.704 E0.00828
G1 X136.318 Y144.119 E0.00792
; INIT printing object 10.STL id:0 copy 0
G1 E-0.6 F3000
; printing object 10.STL id:0 copy 0
G1 X156.896 Y151.232 F9000
G1 E0.6 F1800
; External perimeter
;Perimeter
SET_VELOCITY_LIMIT ACCEL=2000 ACCEL_TO_DECEL=2000 SQUARE_CORNER_VELOCITY=8

; Overhang perimeter

;TYPE:Internal perimeter
G1 X154.586 Y152.668 E0.03323
G1 X154.584 Y152.651 E0.00021
G1 X153.524 Y153.644 E0.01775
G1 X150.607 Y151.254 E0.04609
G1 X148.176 Y153.657 E0.04177
G1 X138.712 Y146.897 E0.14212
G1 X138.75 Y146.634 E0.00325
G1 X139.252 Y146.721 E0.00622
G1 X139.844 Y146.782 E0.00728
G1 X140.519 Y146.784 E0.00825
G1 X140.976 Y146.752 E0.0056
G1 X141.344 Y146.68 E0.00457
G1 X142.185 Y146.372 E0.01095
G1 X142.349 Y146.337 E0.00205
G1 X143.155 Y146.335 E0.00985
G1 X143.718 Y146.394 E0.00693
G1 X144.437 Y146.273 E0.0089
G1 X145.704 Y146.271 E0.01549
G1 X146.062 Y146.279 E0.00437
G1 X146.214 Y146.307 E0.00188
G1 X146.771 Y146.539 E0.00738
G1 X147.039 Y146.623 E0.00344
G1 X147.318 Y146.663 E0.00344
G1 X147.611 Y146.657 E0.00358
G1 X147.985 Y146.587 E0.00465
G1 X148.679 Y146.415 E0.00874
G1 X149.142 Y146.26 E0.00596
G1 X149.298 Y146.225 E0.00196
G1 X149.63 Y146.213 E0.00406
G1 X149.92 Y146.229 E0.00354
G1 X150.202 Y146.245 E0.00346
G1 X150.677 Y146.328 E0.00588
G1 X151.055 Y146.458 E0.00489
G1 X151.495 Y146.647 E0.00585
G1 X151.82 Y146.746 E0.00415
G1 X152.056 Y146.779 E0.00292
G1 X152.352 Y146.753 E0.00363
G1 X152.536 Y146.689 E0.00238
G1 X153.031 Y146.432 E0.00682
G1 X153.205 Y146.377 E0.00223
G1 X153.441 Y146.339 E0.00291
G1 X153.726 Y146.334 E0.00348
G1 X154.153 Y146.388 E0.00527
G1 X154.876 Y146.554 E0.00906
G1 X155.088 Y146.57 E0.00259
G1 X155.393 Y146.522 E0.00377
G1 X155.762 Y146.374 E0.00487
G1 X155.819 Y146.365 E0.00071
G1 X155.957 Y146.363 E0.00168
G1 X156.47 Y146.423 E0.00632
G1 X157.645 Y146.469 E0.01436
G1 X158.019 Y146.444 E0.00459
G1 X158.621 Y146.338 E0.00747
G1 X159.267 Y146.279 E0.00793
G1 X159.644 Y146.291 E0.0046
G1 X160.029 Y146.367 E0.0048
G1 X160.902 Y146.613 E0.01109
G1 X161.498 Y146.926 E0.00823
G1 X162.174 Y147.168 E0.00877
G1 X162.53 Y147.244 E0.00445
G1 X163.206 Y147.277 E0.00827
G1 X163.299 Y147.295 E0.00115
G1 X163.362 Y147.318 E0.00083
G1 X163.673 Y147.505 E0.00443
G1 X163.906 Y147.607 E0.00311
G1 X164.145 Y147.635 E0.00295
G1 X164.313 Y147.615 E0.00207
G1 X164.599 Y147.534 E0.00362
G1 X164.772 Y147.515 E0.00213
G1 X164.875 Y147.53 E0.00128
G1 X165.759 Y147.789 E0.01126
G1 X165.194 Y148.139 E0.00812
G1 X162.402 Y150.106 E0.04174
G1 X159.191 Y152.466 E0.04869
G1 X157.682 Y151.047 E0.02531
G1 X157.195 Y151.203 E0.00626
G1 X157.134 Y151.556 E0.00437
G1 X156.971 Y151.56 E0.002
G1 X156.902 Y151.261 E0.00375
G1 X154.436 Y153.078 F9000
; External perimeter
;ExternalPerimeter
SET_VELOCITY_LIMIT ACCEL=1000 ACCEL_TO_DECEL=1000 SQUARE_CORNER_VELOCITY=8

; Perimeter

;TYPE:External perimeter
G1 F1800
G1 X153.533 Y153.923 E0.01511
G1 X153.486 Y153.885 E0.00068
G1 X153.394 Y153.809 E0.00141
G1 X150.62 Y151.536 E0.04383
G1 X150.577 Y151.578 E0.00067
G1 X150.492 Y151.662 E0.00141
G1 X148.198 Y153.93 E0.03942
G1 X148.149 Y153.895 E0.00068
G1 X148.051 Y153.826 E0.00141
G1 X138.516 Y147.015 E0.14319
G1 X138.462 Y147.015 E0.00067
G1 X138.462 Y146.955 E0.00065
G1 X138.462 Y146.835 E0.00139
G1 X138.462 Y146.711 E0.00152
G1 X138.522 Y146.711 E0.00065
G1 X138.527 Y146.711 E-0.00002
G1 X138.536 Y146.652 E0.00068
G1 X138.553 Y146.533 E0.00141
G1 X138.562 Y146.467 E0.00081
G1 X138.582 Y146.417 E0.00066
G1 X138.602 Y146.395 E0.00037
G1 X139.281 Y146.513 E0.00842
G1 X139.855 Y146.572 E0.00706
G1 X140.512 Y146.574 E0.00803
G1 X140.949 Y146.543 E0.00535
G1 X141.287 Y146.477 E0.00421
G1 X142.127 Y146.17 E0.01093
G1 X142.327 Y146.128 E0.0025
G1 X143.165 Y146.125 E0.01025
G1 X143.712 Y146.182 E0.00671
G1 X144.419 Y146.063 E0.00877
G1 X145.707 Y146.061 E0.01573
G1 X146.083 Y146.07 E0.0046
G1 X146.274 Y146.104 E0.00236
G1 X146.843 Y146.341 E0.00754
G1 X147.086 Y146.417 E0.00311
G1 X147.331 Y146.452 E0.00303
G1 X147.59 Y146.447 E0.00316
G1 X147.941 Y146.382 E0.00436
G1 X148.62 Y146.213 E0.00856
G1 X149.086 Y146.057 E0.00599
G1 X149.272 Y146.016 E0.00233
G1 X149.632 Y146.003 E0.00441
G1 X149.931 Y146.02 E0.00366
G1 X150.226 Y146.036 E0.00362
G1 X150.729 Y146.124 E0.00624
G1 X151.131 Y146.262 E0.00519
G1 X151.567 Y146.449 E0.0058
G1 X151.865 Y146.54 E0.00381
G1 X152.062 Y146.568 E0.00243
G1 X152.308 Y146.546 E0.00302
G1 X152.453 Y146.496 E0.00188
G1 X152.951 Y146.237 E0.00686
G1 X153.157 Y146.172 E0.00264
G1 X153.422 Y146.129 E0.00328
G1 X153.737 Y146.124 E0.00385
G1 X154.19 Y146.181 E0.00558
G1 X154.908 Y146.346 E0.009
G1 X155.079 Y146.359 E0.0021
G1 X155.337 Y146.319 E0.00318
G1 X155.705 Y146.171 E0.00485
G1 X155.8 Y146.155 E0.00118
G1 X155.968 Y146.153 E0.00205
G1 X156.487 Y146.214 E0.00638
G1 X157.642 Y146.258 E0.01412
G1 X157.994 Y146.235 E0.00432
G1 X158.593 Y146.13 E0.00743
G1 X159.261 Y146.069 E0.0082
G1 X159.667 Y146.081 E0.00497
G1 X160.078 Y146.162 E0.00511
G1 X160.98 Y146.417 E0.01146
G1 X161.583 Y146.733 E0.00832
G1 X162.231 Y146.966 E0.00842
G1 X162.557 Y147.035 E0.00407
G1 X163.231 Y147.068 E0.00825
G1 X163.354 Y147.091 E0.00154
G1 X163.453 Y147.127 E0.00128
G1 X163.769 Y147.318 E0.00451
G1 X163.961 Y147.402 E0.00256
G1 X164.145 Y147.424 E0.00226
G1 X164.272 Y147.408 E0.00156
G1 X164.559 Y147.327 E0.00364
G1 X164.775 Y147.304 E0.00266
G1 X164.92 Y147.324 E0.00179
G1 X165.587 Y147.52 E0.00849
G1 X165.931 Y147.547 E0.00423
G1 X166.007 Y147.587 E0.00104
G1 X166.056 Y147.662 E0.0011
G1 X166.447 Y147.66 E0.00478
G1 X166.561 Y147.674 E0.00141
G1 X166.561 Y147.734 E0.00068
G1 X166.561 Y147.778 E0.00048
G1 X166.502 Y147.786 E0.00068
G1 X166.473 Y147.79 E0.00031
G1 X166.157 Y147.79 E0.00386
G1 X165.31 Y148.314 E0.01217
G1 X162.525 Y150.276 E0.04164
G1 X159.175 Y152.739 E0.0508
G1 X159.131 Y152.697 E0.00068
G1 X159.044 Y152.615 E0.00142
G1 X157.629 Y151.285 E0.02374
G1 X157.38 Y151.364 E0.00319
G1 X157.37 Y151.424 E0.00071
G1 X157.35 Y151.542 E0.00144
G1 X157.194 Y152.444 E0.01119
G1 X157.153 Y152.926 E0.0059
G1 X157.09 Y153.328 E0.00498
G1 X157.075 Y153.27 E0.00007
G1 X157.047 Y153.154 E0.0008
G1 X157.026 Y153.072 E0.00103
G1 X156.917 Y152.262 E0.00999
G1 X156.757 Y151.566 E0.00874
G1 X156.706 Y151.597 E0.00057
G1 X156.604 Y151.661 E0.00131
G1 X154.75 Y152.814 E0.02667
G1 X154.543 Y153.69 E0.01101
G1 X154.531 Y153.717 E0.00036
G1 X154.522 Y153.658 E0.00007
G1 X154.505 Y153.539 E0.0008
G1 X154.44 Y153.108 E0.00533
;WIPE_START
G1 X154.331 Y152.908 F9000
;WIPE_END
G1 E-0.59998 F3000
G1 X157.07 Y152.52 F9000
G1 E0.6 F1800
; External perimeter
;GapFill
SET_VELOCITY_LIMIT ACCEL=2000 ACCEL_TO_DECEL=2000 SQUARE_CORNER_VELOCITY=8

; Skirt

;TYPE:Gap fill
;WIDTH:0.0829394
G1 X157.068 Y152.429 E0.00028
;WIDTH:0.121915
G1 X157.071 Y152.237 E0.00103
;WIDTH:0.15301
G1 X157.07 Y152.183 E0.00038
;WIDTH:0.206163
G1 X157.065 Y151.992 E0.00196
;WIDTH:0.291047
G1 X157.059 Y151.8 E0.00291
;WIDTH:0.355192
G1 X157.055 Y151.654 E0.00277
G1 X165.093 Y147.626 F9000
; External perimeter
;SolidInfill
SET_VELOCITY_LIMIT ACCEL=2000 ACCEL_TO_DECEL=2000 SQUARE_CORNER_VELOCITY=8

; Bridge infill

;TYPE:Solid infill
;WIDTH:0.243372
G1 F2400
G1 X165.36 Y147.893 E0.00468
G1 X165.176 Y148.007 E0.00267
G1 X164.814 Y147.644 E0.00636
G1 X164.77 Y147.638 E0.00054
G1 X164.622 Y147.654 E0.00185
G1 X164.548 Y147.675 E0.00096
G1 X165 Y148.127 E0.00792
G1 X164.826 Y148.25 E0.00264
G1 X164.313 Y147.737 E0.00899
G1 X164.146 Y147.758 E0.00209
G1 X164.022 Y147.743 E0.00155
G1 X164.651 Y148.373 E0.01103
G1 X164.477 Y148.495 E0.00264
G1 X163.566 Y147.584 E0.01596
G1 X163.263 Y147.414 E0.00431
G1 X163.088 Y147.403 E0.00218
G1 X164.303 Y148.618 E0.0213
G1 X164.129 Y148.741 E0.00264
G1 X162.77 Y147.382 E0.02382
G1 X162.513 Y147.365 E0.00319
G1 X162.44 Y147.349 E0.00092
G1 X163.954 Y148.863 E0.02654
G1 X163.78 Y148.986 E0.00264
G1 X162.045 Y147.251 E0.0304
G1 X161.582 Y147.085 E0.0061
G1 X163.606 Y149.109 E0.03547
G1 X163.432 Y149.232 E0.00264
G1 X161.004 Y146.804 E0.04255
G1 X160.857 Y146.727 E0.00206
G1 X160.541 Y146.637 E0.00407
G1 X163.258 Y149.354 E0.04761
G1 X163.083 Y149.477 E0.00264
G1 X160.127 Y146.521 E0.05181
G1 X160.001 Y146.485 E0.00163
G1 X159.744 Y146.435 E0.00324
G1 X162.909 Y149.6 E0.05547
G1 X162.735 Y149.722 E0.00264
G1 X159.418 Y146.406 E0.05813
G1 X159.271 Y146.401 E0.00182
G1 X159.13 Y146.414 E0.00176
G1 X162.561 Y149.845 E0.06013
G1 X162.387 Y149.968 E0.00264
G1 X158.857 Y146.439 E0.06185
G1 X158.637 Y146.459 E0.00274
G1 X158.589 Y146.467 E0.0006
G1 X162.214 Y150.093 E0.06353
G1 X162.043 Y150.218 E0.00263
G1 X158.337 Y146.512 E0.06496
G1 X158.084 Y146.556 E0.00318
G1 X161.872 Y150.344 E0.06638
G1 X161.701 Y150.47 E0.00263
G1 X157.811 Y146.58 E0.06818
G1 X157.646 Y146.591 E0.00205
G1 X157.52 Y146.586 E0.00157
G1 X161.53 Y150.596 E0.07028
G1 X161.359 Y150.722 E0.00263
G1 X157.211 Y146.574 E0.07269
G1 X156.902 Y146.562 E0.00383
G1 X161.188 Y150.847 E0.0751
G1 X161.017 Y150.973 E0.00263
G1 X156.593 Y146.55 E0.07752
G1 X156.461 Y146.545 E0.00164
G1 X156.269 Y146.523 E0.0024
G1 X160.845 Y151.099 E0.0802
G1 X160.674 Y151.225 E0.00263
G1 X155.935 Y146.485 E0.08306
G1 X155.842 Y146.486 E0.00116
G1 X155.694 Y146.541 E0.00195
G1 X160.503 Y151.351 E0.08429
G1 X160.332 Y151.476 E0.00263
G1 X155.477 Y146.621 E0.08509
G1 X155.423 Y146.641 E0.00071
G1 X155.23 Y146.671 E0.00243
G1 X160.161 Y151.602 E0.08642
G1 X159.99 Y151.728 E0.00263
G1 X154.943 Y146.681 E0.08845
G1 X154.858 Y146.675 E0.00106
G1 X154.575 Y146.61 E0.0036
G1 X159.819 Y151.854 E0.0919
G1 X159.648 Y151.98 E0.00263
G1 X154.19 Y146.522 E0.09565
G1 X154.132 Y146.508 E0.00073
G1 X153.843 Y146.472 E0.00361
G1 X159.476 Y152.105 E0.09873
G1 X159.305 Y152.231 E0.00263
G1 X153.534 Y146.459 E0.10115
G1 X153.452 Y146.461 E0.00101
G1 X153.268 Y146.491 E0.00231
G1 X157.693 Y150.916 E0.07756
G1 X157.468 Y150.988 E0.00293
G1 X153.043 Y146.563 E0.07755
G1 X152.848 Y146.664 E0.00273
G1 X157.243 Y151.06 E0.07703
G1 X157.018 Y151.132 E0.00293
G1 X152.652 Y146.766 E0.07652
G1 X152.585 Y146.801 E0.00094
G1 X152.441 Y146.851 E0.00189
G1 X156.762 Y151.172 E0.07572
G1 X156.579 Y151.286 E0.00267
G1 X152.183 Y146.89 E0.07703
G1 X152.053 Y146.902 E0.00162
G1 X151.872 Y146.876 E0.00227
G1 X156.395 Y151.4 E0.07928
G1 X156.212 Y151.514 E0.00267
G1 X151.464 Y146.765 E0.08322
G1 X151.011 Y146.572 E0.0061
G1 X150.954 Y146.552 E0.00075
G1 X156.029 Y151.627 E0.08895
G1 X155.846 Y151.741 E0.00267
G1 X150.531 Y146.426 E0.09315
G1 X150.173 Y146.365 E0.0045
G1 X155.663 Y151.855 E0.09622
G1 X155.48 Y151.969 E0.00267
G1 X149.859 Y146.348 E0.09851
G1 X149.629 Y146.335 E0.00285
G1 X149.552 Y146.338 E0.00095
G1 X155.297 Y152.083 E0.10068
G1 X155.114 Y152.197 E0.00267
G1 X149.273 Y146.356 E0.10237
G1 X149.174 Y146.377 E0.00125
G1 X149.042 Y146.422 E0.00173
G1 X154.931 Y152.311 E0.10321
G1 X154.748 Y152.425 E0.00267
G1 X148.82 Y146.496 E0.1039
G1 X148.713 Y146.532 E0.00139
G1 X148.589 Y146.563 E0.00159
G1 X154.546 Y152.52 E0.1044
G1 X154.393 Y152.663 E0.0026
G1 X148.351 Y146.622 E0.10588
G1 X148.113 Y146.681 E0.00304
G1 X154.24 Y152.807 E0.10736
G1 X154.086 Y152.951 E0.0026
G1 X147.869 Y146.733 E0.10897
G1 X147.617 Y146.778 E0.00316
G1 X153.933 Y153.094 E0.11068
G1 X153.78 Y153.238 E0.0026
G1 X147.326 Y146.784 E0.1131
G1 X147.012 Y146.742 E0.00392
G1 X146.975 Y146.73 E0.00048
G1 X153.626 Y153.381 E0.11656
G1 X153.518 Y153.483 E0.00183
G1 X153.032 Y153.084 E0.00779
G1 X146.51 Y146.562 E0.1143
G1 X146.179 Y146.424 E0.00445
G1 X146.052 Y146.401 E0.0016
G1 X151.385 Y151.734 E0.09346
G1 X150.599 Y151.09 E0.01259
G1 X150.521 Y151.167 E0.00136
G1 X145.754 Y146.4 E0.08355
G1 X145.456 Y146.399 E0.00369
G1 X150.372 Y151.315 E0.08615
G1 X150.223 Y151.462 E0.0026
G1 X145.158 Y146.398 E0.08876
G1 X144.86 Y146.397 E0.00369
G1 X150.073 Y151.61 E0.09136
G1 X149.924 Y151.757 E0.0026
G1 X144.562 Y146.395 E0.09397
G1 X144.447 Y146.395 E0.00143
G1 X144.291 Y146.421 E0.00196
G1 X149.775 Y151.905 E0.0961
G1 X149.625 Y152.053 E0.0026
G1 X144.037 Y146.464 E0.09794
G1 X143.782 Y146.507 E0.00319
G1 X149.476 Y152.2 E0.09978
G1 X149.327 Y152.348 E0.0026
G1 X143.469 Y146.49 E0.10265
