; generated by SuperSlicer 2.5.59 on 2022-12-18 at 01:25:45 UTC


;
;

;
;
; 

; external perimeters extrusion width = 0.40mm
; perimeters extrusion width = 0.46mm
; infill extrusion width = 0.64mm
; solid infill extrusion width = 0.56mm
; top infill extrusion width = 0.40mm
; support material extrusion width = 0.46mm
; first layer extrusion width = 0.50mm

; external perimeters extrusion width = 0.40mm
; perimeters extrusion width = 0.46mm
; infill extrusion width = 0.64mm
; solid infill extrusion width = 0.56mm
; top infill extrusion width = 0.40mm
; support material extrusion width = 0.46mm
; first layer extrusion width = 0.50mm

; external perimeters extrusion width = 0.40mm
; perimeters extrusion width = 0.46mm
; infill extrusion width = 0.64mm
; solid infill extrusion width = 0.56mm
; top infill extrusion width = 0.40mm
; support material extrusion width = 0.46mm
; first layer extrusion width = 0.50mm

; external perimeters extrusion width = 0.40mm
; perimeters extrusion width = 0.46mm
; infill extrusion width = 0.64mm
; solid infill extrusion width = 0.56mm
; top infill extrusion width = 0.40mm
; support material extrusion width = 0.46mm
; first layer extrusion width = 0.50mm

; external perimeters extrusion width = 0.40mm
; perimeters extrusion width = 0.46mm
; infill extrusion width = 0.64mm
; solid infill extrusion width = 0.56mm
; top infill extrusion width = 0.40mm
; support material extrusion width = 0.46mm
; first layer extrusion width = 0.50mm

; external perimeters extrusion width = 0.40mm
; perimeters extrusion width = 0.46mm
; infill extrusion width = 0.64mm
; solid infill extrusion width = 0.56mm
; top infill extrusion width = 0.40mm
; support material extrusion width = 0.46mm
; first layer extrusion width = 0.50mm

; external perimeters extrusion width = 0.40mm
; perimeters extrusion width = 0.46mm
; infill extrusion width = 0.64mm
; solid infill extrusion width = 0.56mm
; top infill extrusion width = 0.40mm
; support material extrusion width = 0.46mm
; first layer extrusion width = 0.50mm

; object:{"name":"1x1(1)","id":"1x1(1).stl id:0 copy 0","object_center":[98.350000,137.179250,0.000000],"boundingbox_center":[98.350000,137.179250,7.300000],"boundingbox_size":[34.099998,23.200001,14.600000]}
; object:{"name":"1x1(1)","id":"1x1(1).stl id:1 copy 0","object_center":[212.650001,150.000000,0.000000],"boundingbox_center":[212.650001,150.000000,7.300000],"boundingbox_size":[34.099998,23.200001,14.600000]}
; object:{"name":"1x1(1)","id":"1x1(1).stl id:2 copy 0","object_center":[92.350001,166.379251,0.000000],"boundingbox_center":[92.350001,166.379251,7.300000],"boundingbox_size":[34.099998,23.200001,14.600000]}
; object:{"name":"1x1(1)","id":"1x1(1).stl id:3 copy 0","object_center":[212.650000,120.800000,0.000000],"boundingbox_center":[212.650000,120.800000,7.300000],"boundingbox_size":[34.099998,23.200001,14.600000]}
; object:{"name":"1x2(2)","id":"1x2(2).stl id:4 copy 0","object_center":[132.450001,176.199999,0.000000],"boundingbox_center":[132.450001,176.199999,7.300000],"boundingbox_size":[34.099998,46.400002,14.600000]}
; object:{"name":"1x3","id":"1x3.stl id:5 copy 0","object_center":[172.550001,176.200000,0.000000],"boundingbox_center":[172.550001,176.200000,7.300000],"boundingbox_size":[34.099998,69.599998,14.600000]}
; object:{"name":"2x2(1)","id":"2x2(1).stl id:6 copy 0","object_center":[155.500000,112.200000,0.000000],"boundingbox_center":[155.500000,112.200000,7.300000],"boundingbox_size":[68.199997,46.400002,14.600000]}
; plater:{"center":[152.500001,149.999999,0.000000],"boundingbox_center":[152.500001,149.999999,7.300000],"boundingbox_size":[154.399998,122.000000,14.600000]}

M73 P0 R138


; Pre-Processed for Cancel-Object support by preprocess_cancellation v0.2.0
; 7 known objects
EXCLUDE_OBJECT_DEFINE NAME=1x1_1_stl_id_0_copy_0 CENTER=98.416,137.325 POLYGON=[[81.502,125.779],[81.502,148.579],[115.192,148.579],[115.192,125.779]]
EXCLUDE_OBJECT_DEFINE NAME=1x1_1_stl_id_2_copy_0 CENTER=92.373,166.594 POLYGON=[[75.502,154.979],[75.502,177.779],[109.192,177.779],[109.192,154.979]]
EXCLUDE_OBJECT_DEFINE NAME=1x2_2_stl_id_4_copy_0 CENTER=132.620,176.731 POLYGON=[[115.6,153.2],[115.6,199.2],[149.3,199.2],[149.3,153.2]]
EXCLUDE_OBJECT_DEFINE NAME=1x3_stl_id_5_copy_0 CENTER=173.161,176.826 POLYGON=[[155.7,141.6],[155.7,210.8],[189.4,210.8],[189.4,141.6]]
EXCLUDE_OBJECT_DEFINE NAME=1x1_1_stl_id_1_copy_0 CENTER=212.502,150.313 POLYGON=[[195.802,138.6],[195.802,161.4],[229.492,161.4],[229.492,138.6]]
EXCLUDE_OBJECT_DEFINE NAME=1x1_1_stl_id_3_copy_0 CENTER=212.667,121.115 POLYGON=[[195.802,109.4],[195.802,132.2],[229.492,132.2],[229.492,109.4]]
EXCLUDE_OBJECT_DEFINE NAME=2x2_1_stl_id_6_copy_0 CENTER=156.298,112.293 POLYGON=[[121.6,89.2],[121.6,135.2],[189.398,135.2],[189.398,89.2]]
;TYPE:Custom
START_PRINT T_BED=60 T_EXTRUDER=200
M107
G21 ; set units to millimeters
G90 ; use absolute coordinates
M83 ; use relative distances for extrusion
; Filament gcode
PRESSURE_ADVANCE_SELECT FILAMENT=PLA
;_TOOLCHANGE 0
M104 S200 ; set temperature
M109 S200 ; set temperature and wait for it to be reached
M190 S60 ; set bed temperature and wait for it to be reached
M107
;LAYER_CHANGE
;Z:0.2
;HEIGHT:0.2
G1 Z0.2 F9000
G92 E0
M73 P0 R138
G1 E-0.8 F3000
M204 S1000
G1 X98.614 Y108.095 F9000
G1 E0.8 F1800
;TYPE:Skirt
;WIDTH:0.52
G1 X80.546 Y124.577 E0.92164
G1 X79.949 Y125.232 E0.0334
G1 X79.568 Y125.786 E0.02535
G1 X79.239 Y126.41 E0.02657
G1 X78.896 Y127.408 E0.03978
G1 X72.77 Y157.301 E1.14997
G1 X72.742 Y175.136 E0.67213
G1 X72.856 Y175.968 E0.03163
G1 X73.207 Y177.073 E0.04368
G1 X73.578 Y177.787 E0.03034
G1 X74.298 Y178.733 E0.04479
G1 X75.008 Y179.372 E0.03599
G1 X75.784 Y179.872 E0.03482
G1 X116.399 Y201.533 E1.73468
G1 X157.276 Y213.388 E1.60396
G1 X158.705 Y213.572 E0.05429
G1 X186.47 Y213.571 E1.04636
G1 X187.656 Y213.43 E0.045
G1 X188.693 Y213.093 E0.04111
G1 X189.863 Y212.413 E0.05098
G1 X190.52 Y211.838 E0.03293
G1 X231.051 Y161.947 E2.4224
G1 X231.761 Y160.77 E0.05182
G1 X232.104 Y159.771 E0.03978
G1 X232.269 Y158.508 E0.04803
G1 X232.269 Y112.294 E1.74159
G1 X232.183 Y111.421 E0.03307
G1 X231.902 Y110.385 E0.04046
G1 X231.612 Y109.734 E0.02684
G1 X231.01 Y108.808 E0.04165
G1 X230.241 Y108.013 E0.04165
G1 X229.336 Y107.38 E0.04165
G1 X188.842 Y86.975 E1.70883
G1 X187.847 Y86.619 E0.03981
G1 X186.432 Y86.428 E0.0538
G1 X170.978 Y86.428 E0.5824
G1 X124.604 Y86.428 E1.74766
G1 X123.442 Y86.549 E0.04402
G1 X122.336 Y86.895 E0.04366
G1 X121.592 Y87.278 E0.03155
G1 X120.747 Y87.903 E0.03962
G1 X98.614 Y108.095 E1.12907
G1 X98.935 Y108.447 F9000
G1 F1800
G1 X80.881 Y124.917 E0.92097
G1 X79.97 Y126.042 E0.05454
G1 X79.67 Y126.615 E0.02437
G1 X79.362 Y127.511 E0.03571
G1 X73.245 Y157.347 E1.14778
G1 X73.217 Y175.095 E0.66883
G1 X73.32 Y175.856 E0.02896
G1 X73.649 Y176.894 E0.04102
G1 X73.991 Y177.549 E0.02784
G1 X74.638 Y178.398 E0.04025
G1 X75.304 Y178.998 E0.03379
G1 X76.009 Y179.452 E0.03157
G1 X116.57 Y201.087 E1.73246
G1 X157.409 Y212.93 E1.60243
G1 X158.705 Y213.095 E0.04924
G1 X186.47 Y213.094 E1.04636
G1 X187.541 Y212.967 E0.04062
G1 X188.515 Y212.651 E0.0386
G1 X189.566 Y212.04 E0.04582
G1 X190.171 Y211.512 E0.03026
G1 X230.68 Y161.647 E2.42115
G1 X231.33 Y160.564 E0.0476
G1 X231.638 Y159.668 E0.03571
G1 X231.792 Y158.508 E0.04412
G1 X231.792 Y112.294 E1.74159
G1 X231.711 Y111.487 E0.03057
G1 X231.45 Y110.536 E0.03717
G1 X231.197 Y109.969 E0.0234
G1 X230.647 Y109.117 E0.03821
G1 X229.944 Y108.386 E0.03821
G1 X229.115 Y107.803 E0.0382
G1 X188.627 Y87.401 E1.70859
G1 X187.712 Y87.076 E0.03661
G1 X186.432 Y86.905 E0.04864
G1 X170.978 Y86.905 E0.5824
G1 X124.604 Y86.905 E1.74766
G1 X123.549 Y87.014 E0.03995
G1 X122.511 Y87.339 E0.041
G1 X121.83 Y87.691 E0.02888
G1 X121.068 Y88.255 E0.03574
G1 X98.935 Y108.447 E1.12906
G1 E-0.8 F3000
; printing object 1x1(1).stl id:0 copy 0
EXCLUDE_OBJECT_START NAME=1x1_1_stl_id_0_copy_0
G1 X98.935 Y127.887 F9000
G1 E0.8 F1800
;TYPE:Internal perimeter
;WIDTH:0.5
G1 X112.171 Y127.887 E0.47792
G1 X112.364 Y127.907 E0.00699
G1 X112.532 Y127.957 E0.00634
G1 X112.683 Y128.036 E0.00614
G1 X112.816 Y128.141 E0.00613
G1 X112.926 Y128.271 E0.00614
G1 X113.01 Y128.419 E0.00614
G1 X113.066 Y128.585 E0.00634
G1 X113.09 Y128.755 E0.00619
G1 X113.09 Y145.597 E0.60812
G1 X113.051 Y145.824 E0.00831
G1 X112.975 Y146.009 E0.00721
G1 X112.854 Y146.179 E0.00755
G1 X112.69 Y146.321 E0.0078
G1 X112.59 Y146.379 E0.00418
G1 X112.48 Y146.423 E0.00428
G1 X112.334 Y146.458 E0.00543
G1 X112.182 Y146.471 E0.00548
G1 X84.535 Y146.471 E0.99823
G1 X84.277 Y146.438 E0.00941
G1 X84.084 Y146.363 E0.00748
G1 X83.906 Y146.239 E0.00783
G1 X83.758 Y146.069 E0.00812
G1 X83.701 Y145.969 E0.00417
G1 X83.656 Y145.859 E0.00428
G1 X83.621 Y145.713 E0.00543
G1 X83.608 Y145.562 E0.00548
G1 X83.609 Y128.778 E0.606
G1 X83.645 Y128.542 E0.0086
G1 X83.725 Y128.35 E0.00753
G1 X83.846 Y128.179 E0.00755
G1 X84.01 Y128.038 E0.0078
G1 X84.11 Y127.98 E0.00418
G1 X84.22 Y127.935 E0.00428
G1 X84.366 Y127.9 E0.00543
G1 X84.518 Y127.887 E0.00548
G1 X98.935 Y127.887 E0.52055
G1 X98.935 Y127.43 F9000
G1 F1800
G1 X112.195 Y127.43 E0.47878
G1 X112.453 Y127.457 E0.00937
G1 X112.704 Y127.531 E0.00944
G1 X112.933 Y127.651 E0.00931
G1 X113.135 Y127.811 E0.00931
G1 X113.302 Y128.007 E0.00932
G1 X113.429 Y128.232 E0.00931
G1 X113.512 Y128.48 E0.00944
G1 X113.547 Y128.723 E0.00886
G1 X113.547 Y145.636 E0.61065
G1 X113.494 Y145.951 E0.01156
G1 X113.377 Y146.232 E0.01096
G1 X113.194 Y146.489 E0.01139
G1 X113.084 Y146.597 E0.00556
G1 X112.957 Y146.695 E0.00582
G1 X112.791 Y146.79 E0.00692
G1 X112.62 Y146.86 E0.00666
G1 X112.407 Y146.911 E0.00789
G1 X112.202 Y146.928 E0.00743
G1 X84.506 Y146.928 E1.00002
G1 X84.164 Y146.884 E0.01246
G1 X84.017 Y146.838 E0.00555
G1 X83.867 Y146.769 E0.00594
G1 X83.727 Y146.684 E0.00594
G1 X83.598 Y146.581 E0.00594
G1 X83.483 Y146.464 E0.00594
G1 X83.385 Y146.336 E0.00582
G1 X83.289 Y146.17 E0.00691
G1 X83.22 Y145.999 E0.00666
G1 X83.169 Y145.787 E0.00789
G1 X83.151 Y145.582 E0.00742
G1 X83.152 Y128.743 E0.60799
G1 X83.169 Y128.568 E0.00633
G1 X83.202 Y128.418 E0.00556
G1 X83.323 Y128.127 E0.01139
G1 X83.506 Y127.87 E0.01139
G1 X83.616 Y127.762 E0.00556
G1 X83.743 Y127.664 E0.00582
G1 X83.909 Y127.568 E0.00692
G1 X84.08 Y127.499 E0.00666
G1 X84.293 Y127.448 E0.00789
G1 X84.498 Y127.43 E0.00743
G1 X98.935 Y127.43 E0.52127
G1 X98.935 Y126.973 F9000
;TYPE:External perimeter
G1 F1800
G1 X112.219 Y126.973 E0.47965
G1 X112.543 Y127.007 E0.01175
G1 X112.876 Y127.106 E0.01255
G1 X113.183 Y127.265 E0.01249
G1 X113.454 Y127.481 E0.01249
G1 X113.679 Y127.744 E0.01249
G1 X113.849 Y128.045 E0.01249
G1 X113.959 Y128.375 E0.01255
G1 X114.004 Y128.691 E0.01153
G1 X114.004 Y145.674 E0.61318
G1 X113.936 Y146.079 E0.01482
G1 X113.78 Y146.455 E0.01471
G1 X113.543 Y146.787 E0.01471
G1 X113.385 Y146.942 E0.00801
G1 X113.211 Y147.076 E0.00791
G1 X112.992 Y147.202 E0.00915
G1 X112.759 Y147.296 E0.00904
G1 X112.481 Y147.363 E0.01034
G1 X112.222 Y147.386 E0.00937
G1 X84.476 Y147.386 E1.00181
G1 X84.065 Y147.332 E0.01498
G1 X83.853 Y147.265 E0.00802
G1 X83.652 Y147.174 E0.00796
G1 X83.464 Y147.059 E0.00796
G1 X83.292 Y146.921 E0.00796
G1 X83.137 Y146.764 E0.00796
G1 X83.004 Y146.59 E0.00791
G1 X82.877 Y146.371 E0.00915
G1 X82.783 Y146.139 E0.00904
G1 X82.716 Y145.86 E0.01034
G1 X82.694 Y145.602 E0.00937
G1 X82.695 Y128.721 E0.6095
G1 X82.716 Y128.497 E0.00813
G1 X82.764 Y128.28 E0.00802
G1 X82.92 Y127.904 E0.01471
G1 X83.157 Y127.572 E0.01471
G1 X83.315 Y127.416 E0.00801
G1 X83.489 Y127.283 E0.00791
G1 X83.708 Y127.156 E0.00915
G1 X83.941 Y127.062 E0.00904
G1 X84.219 Y126.996 E0.01034
G1 X84.478 Y126.973 E0.00937
G1 X98.935 Y126.973 E0.52199
;WIPE_START
M204 S3000
G1 X99.135 Y127.319 F9000
;WIPE_END
G1 E-0.8 F3000
M204 S1000
G1 X112.261 Y127.976 F9000
G1 E0.8 F1800
;TYPE:Solid infill
;WIDTH:0.495431
G1 F2400
G1 X113.013 Y128.728 E0.03805
G1 X113.021 Y129.383 F9000
G1 F2400
G1 X111.614 Y127.975 E0.0712
G1 X110.967 Y127.975 F9000
G1 F2400
G1 X113.021 Y130.029 E0.10393
G1 X113.021 Y130.675 F9000
G1 F2400
G1 X110.32 Y127.974 E0.13666
G1 X109.673 Y127.974 F9000
G1 F2400
G1 X113.021 Y131.322 E0.16939
G1 X113.021 Y131.968 F9000
G1 F2400
G1 X109.026 Y127.973 E0.20212
G1 X108.379 Y127.973 F9000
G1 F2400
G1 X113.021 Y132.615 E0.23484
G1 X113.021 Y133.261 F9000
G1 F2400
G1 X107.732 Y127.973 E0.26757
G1 X107.086 Y127.972 F9000
G1 F2400
G1 X113.021 Y133.907 E0.3003
G1 X113.021 Y134.554 F9000
G1 F2400
G1 X106.439 Y127.972 E0.33303
G1 X105.792 Y127.971 F9000
G1 F2400
G1 X113.021 Y135.2 E0.36576
G1 X113.021 Y135.847 F9000
G1 F2400
G1 X105.145 Y127.971 E0.39849
G1 X104.498 Y127.97 F9000
G1 F2400
G1 X113.021 Y136.493 E0.43122
G1 X113.021 Y137.14 F9000
G1 F2400
G1 X103.851 Y127.97 E0.46395
G1 X103.204 Y127.969 F9000
G1 F2400
G1 X113.021 Y137.786 E0.49667
G1 X113.021 Y138.432 F9000
G1 F2400
G1 X102.557 Y127.969 E0.5294
G1 X101.911 Y127.968 F9000
G1 F2400
G1 X113.021 Y139.079 E0.56213
G1 X113.021 Y139.725 F9000
G1 F2400
G1 X101.264 Y127.968 E0.59486
G1 X100.617 Y127.967 F9000
G1 F2400
G1 X113.021 Y140.372 E0.62759
G1 X113.021 Y141.018 F9000
G1 F2400
G1 X99.97 Y127.967 E0.66032
G1 X99.323 Y127.966 F9000
G1 F2400
G1 X113.021 Y141.664 E0.69305
G1 X113.021 Y142.311 F9000
G1 F2400
G1 X98.676 Y127.966 E0.72578
G1 X98.029 Y127.965 F9000
G1 F2400
G1 X113.021 Y142.957 E0.7585
G1 X113.021 Y143.604 F9000
G1 F2400
G1 X97.382 Y127.965 E0.79123
G1 X96.736 Y127.965 F9000
G1 F2400
G1 X113.021 Y144.25 E0.82396
G1 X113.021 Y144.896 F9000
G1 F2400
G1 X96.089 Y127.964 E0.85669
G1 X95.442 Y127.964 F9000
G1 F2400
G1 X113.021 Y145.543 E0.88942
G1 X112.862 Y146.03 F9000
G1 F2400
G1 X94.795 Y127.963 E0.91412
G1 X94.148 Y127.963 F9000
G1 F2400
G1 X112.493 Y146.308 E0.92817
G1 X111.942 Y146.403 F9000
G1 F2400
G1 X93.501 Y127.962 E0.933
G1 X92.854 Y127.962 F9000
G1 F2400
G1 X111.295 Y146.403 E0.93303
G1 X110.649 Y146.403 F9000
G1 F2400
G1 X92.207 Y127.961 E0.93305
M73 P1 R137
G1 X91.56 Y127.961 F9000
G1 F2400
G1 X110.003 Y146.403 E0.93308
G1 X109.356 Y146.403 F9000
G1 F2400
G1 X90.914 Y127.96 E0.9331
G1 X90.267 Y127.96 F9000
G1 F2400
G1 X108.71 Y146.403 E0.93312
G1 X108.063 Y146.403 F9000
G1 F2400
G1 X89.62 Y127.959 E0.93315
G1 X88.973 Y127.959 F9000
G1 F2400
G1 X107.417 Y146.403 E0.93317
G1 X106.771 Y146.403 F9000
G1 F2400
G1 X88.326 Y127.958 E0.93319
G1 X87.679 Y127.958 F9000
G1 F2400
G1 X106.124 Y146.403 E0.93322
G1 X105.478 Y146.403 F9000
G1 F2400
G1 X87.032 Y127.957 E0.93324
G1 X86.385 Y127.957 F9000
G1 F2400
G1 X104.831 Y146.403 E0.93327
M73 P1 R137
G1 X104.185 Y146.403 F9000
G1 F2400
G1 X85.739 Y127.957 E0.93329
G1 X85.092 Y127.956 F9000
G1 F2400
G1 X103.538 Y146.403 E0.93331
G1 X102.892 Y146.403 F9000
G1 F2400
G1 X84.464 Y127.975 E0.93238
G1 X83.997 Y128.154 F9000
G1 F2400
G1 X102.246 Y146.403 E0.92331
G1 X101.599 Y146.403 F9000
G1 F2400
G1 X83.743 Y128.546 E0.90345
G1 X83.677 Y129.127 F9000
G1 F2400
G1 X100.953 Y146.403 E0.87405
G1 X100.306 Y146.403 F9000
G1 F2400
G1 X83.677 Y129.774 E0.84135
G1 X83.677 Y130.42 F9000
G1 F2400
G1 X99.66 Y146.403 E0.80865
G1 X99.014 Y146.403 F9000
G1 F2400
G1 X83.677 Y131.066 E0.77594
G1 X83.677 Y131.713 F9000
G1 F2400
G1 X98.367 Y146.403 E0.74324
G1 X97.721 Y146.403 F9000
G1 F2400
G1 X83.677 Y132.359 E0.71054
G1 X83.677 Y133.006 F9000
G1 F2400
G1 X97.074 Y146.403 E0.67783
G1 X96.428 Y146.403 F9000
G1 F2400
G1 X83.677 Y133.652 E0.64513
G1 X83.677 Y134.298 F9000
G1 F2400
G1 X95.782 Y146.403 E0.61243
G1 X95.135 Y146.403 F9000
G1 F2400
G1 X83.677 Y134.945 E0.57973
G1 X83.677 Y135.591 F9000
G1 F2400
G1 X94.489 Y146.403 E0.54702
G1 X93.842 Y146.403 F9000
G1 F2400
G1 X83.677 Y136.237 E0.51432
G1 X83.677 Y136.884 F9000
G1 F2400
G1 X93.196 Y146.403 E0.48162
G1 X92.55 Y146.403 F9000
G1 F2400
G1 X83.677 Y137.53 E0.44891
G1 X83.677 Y138.177 F9000
G1 F2400
G1 X91.903 Y146.403 E0.41621
G1 X91.257 Y146.403 F9000
G1 F2400
G1 X83.677 Y138.823 E0.38351
G1 X83.677 Y139.469 F9000
G1 F2400
G1 X90.61 Y146.403 E0.3508
G1 X89.964 Y146.403 F9000
G1 F2400
G1 X83.677 Y140.116 E0.3181
G1 X83.677 Y140.762 F9000
G1 F2400
G1 X89.318 Y146.403 E0.2854
