; generated by SuperSlicer 2.5.59 on 2022-12-18 at 19:33:11 UTC


;
;

;
;
; 

; external perimeters extrusion width = 0.40mm
; perimeters extrusion width = 0.46mm
; infill extrusion width = 0.64mm
; solid infill extrusion width = 0.56mm
; top infill extrusion width = 0.40mm
; support material extrusion width = 0.46mm
; first layer extrusion width = 0.50mm

; external perimeters extrusion width = 0.40mm
; perimeters extrusion width = 0.46mm
; infill extrusion width = 0.64mm
; solid infill extrusion width = 0.56mm
; top infill extrusion width = 0.40mm
; support material extrusion width = 0.46mm
; first layer extrusion width = 0.50mm

; external perimeters extrusion width = 0.40mm
; perimeters extrusion width = 0.46mm
; infill extrusion width = 0.64mm
; solid infill extrusion width = 0.56mm
; top infill extrusion width = 0.40mm
; support material extrusion width = 0.46mm
; first layer extrusion width = 0.50mm

; external perimeters extrusion width = 0.40mm
; perimeters extrusion width = 0.46mm
; infill extrusion width = 0.64mm
; solid infill extrusion width = 0.56mm
; top infill extrusion width = 0.40mm
; support material extrusion width = 0.46mm
; first layer extrusion width = 0.50mm

; external perimeters extrusion width = 0.40mm
; perimeters extrusion width = 0.46mm
; infill extrusion width = 0.64mm
; solid infill extrusion width = 0.56mm
; top infill extrusion width = 0.40mm
; support material extrusion width = 0.46mm
; first layer extrusion width = 0.50mm

; external perimeters extrusion width = 0.40mm
; perimeters extrusion width = 0.46mm
; infill extrusion width = 0.64mm
; solid infill extrusion width = 0.56mm
; top infill extrusion width = 0.40mm
; support material extrusion width = 0.46mm
; first layer extrusion width = 0.50mm

; external perimeters extrusion width = 0.40mm
; perimeters extrusion width = 0.46mm
; infill extrusion width = 0.64mm
; solid infill extrusion width = 0.56mm
; top infill extrusion width = 0.40mm
; support material extrusion width = 0.46mm
; first layer extrusion width = 0.50mm

; object:{"name":"1x1","id":"1x1.stl id:0 copy 0","object_center":[169.550001,94.600000,0.000000],"boundingbox_center":[169.550001,94.600000,7.300000],"boundingbox_size":[34.099998,23.200001,14.600000]}
; object:{"name":"2x2","id":"2x2.stl id:1 copy 0","object_center":[112.400001,112.200001,0.000000],"boundingbox_center":[112.400001,112.200001,7.300000],"boundingbox_size":[68.199997,46.400002,14.600000]}
; object:{"name":"2x1","id":"2x1.stl id:2 copy 0","object_center":[186.600001,123.800000,0.000000],"boundingbox_center":[186.600001,123.800000,7.300000],"boundingbox_size":[68.199997,23.200001,14.600000]}
; object:{"name":"1x2(2)","id":"1x2(2).stl id:3 copy 0","object_center":[169.550001,164.600000,0.000000],"boundingbox_center":[169.550001,164.600000,7.300000],"boundingbox_size":[34.099998,46.400002,14.600000]}
; object:{"name":"1x1","id":"1x1.stl id:4 copy 0","object_center":[152.500001,205.400001,0.000000],"boundingbox_center":[152.500001,205.400001,7.300000],"boundingbox_size":[34.099998,23.200001,14.600000]}
; object:{"name":"2x2","id":"2x2.stl id:5 copy 0","object_center":[112.400001,164.600001,0.000000],"boundingbox_center":[112.400001,164.600001,7.300000],"boundingbox_size":[68.199997,46.400002,14.600000]}
; object:{"name":"1x2(2)","id":"1x2(2).stl id:6 copy 0","object_center":[209.650001,164.600000,0.000000],"boundingbox_center":[209.650001,164.600000,7.300000],"boundingbox_size":[34.099998,46.400002,14.600000]}
; plater:{"center":[152.500001,150.000000,0.000000],"boundingbox_center":[152.500001,150.000000,7.300000],"boundingbox_size":[148.399998,134.000002,14.600000]}

M73 P0 R160


; Pre-Processed for Cancel-Object support by preprocess_cancellation v0.2.0
; 7 known objects
EXCLUDE_OBJECT_DEFINE NAME=1x1_stl_id_0_copy_0 CENTER=169.563,94.894 POLYGON=[[152.702,83.2],[152.702,106.0],[186.392,106.0],[186.392,83.2]]
EXCLUDE_OBJECT_DEFINE NAME=2x1_stl_id_2_copy_0 CENTER=188.465,123.599 POLYGON=[[152.7,112.4],[152.7,135.2],[220.5,135.2],[220.5,112.4]]
EXCLUDE_OBJECT_DEFINE NAME=1x2_2_stl_id_3_copy_0 CENTER=169.747,164.907 POLYGON=[[152.7,141.6],[152.7,187.6],[186.4,187.6],[186.4,141.6]]
EXCLUDE_OBJECT_DEFINE NAME=1x2_2_stl_id_6_copy_0 CENTER=209.596,164.943 POLYGON=[[192.8,141.6],[192.8,187.6],[226.5,187.6],[226.5,141.6]]
EXCLUDE_OBJECT_DEFINE NAME=1x1_stl_id_4_copy_0 CENTER=152.549,205.507 POLYGON=[[135.652,194.0],[135.652,216.8],[169.342,216.8],[169.342,194.0]]
EXCLUDE_OBJECT_DEFINE NAME=2x2_stl_id_5_copy_0 CENTER=113.104,164.980 POLYGON=[[78.5,141.6],[78.5,187.6],[146.298,187.6],[146.298,141.6]]
EXCLUDE_OBJECT_DEFINE NAME=2x2_stl_id_1_copy_0 CENTER=113.128,112.283 POLYGON=[[78.5,89.2],[78.5,135.2],[146.298,135.2],[146.298,89.2]]
;TYPE:Custom
START_PRINT T_BED=60 T_EXTRUDER=200
M107
G21 ; set units to millimeters
G90 ; use absolute coordinates
M83 ; use relative distances for extrusion
; Filament gcode
PRESSURE_ADVANCE_SELECT FILAMENT=PLA
;_TOOLCHANGE 0
M104 S200 ; set temperature
M109 S200 ; set temperature and wait for it to be reached
M190 S60 ; set bed temperature and wait for it to be reached
M107
;LAYER_CHANGE
;Z:0.2
;HEIGHT:0.2
G1 Z0.2 F9000
G92 E0
M73 P0 R160
G1 E-0.8 F3000
M204 S1000
G1 X77.368 Y88.174 F9000
G1 E0.8 F1800
;TYPE:Skirt
;WIDTH:0.52
G1 X76.647 Y89.079 E0.04359
G1 X76.199 Y89.922 E0.03599
G1 X75.851 Y91.025 E0.04359
G1 X75.728 Y92.166 E0.04323
G1 X75.728 Y184.633 E3.48472
G1 X75.849 Y185.758 E0.04261
G1 X76.195 Y186.864 E0.04368
G1 X76.848 Y188.012 E0.04978
G1 X77.474 Y188.733 E0.03597
G1 X78.007 Y189.192 E0.02655
G1 X78.844 Y189.724 E0.03736
G1 X135.994 Y218.924 E2.41859
G1 X136.796 Y219.263 E0.0328
G1 X137.654 Y219.484 E0.03341
G1 X138.616 Y219.572 E0.0364
G1 X166.383 Y219.572 E1.04642
G1 X167.853 Y219.369 E0.05592
G1 X168.942 Y218.957 E0.04387
G1 X226.188 Y189.707 E2.42265
G1 X227.072 Y189.131 E0.03979
G1 X227.598 Y188.662 E0.02655
G1 X228.211 Y187.93 E0.03597
G1 X228.833 Y186.801 E0.04859
G1 X229.151 Y185.758 E0.04109
G1 X229.272 Y184.596 E0.04403
G1 X229.271 Y144.531 E1.50988
G1 X229.143 Y143.39 E0.04329
G1 X223.143 Y114.19 E1.12342
G1 X222.902 Y113.385 E0.03166
G1 X222.418 Y112.391 E0.04165
G1 X222.01 Y111.808 E0.02684
G1 X221.345 Y111.099 E0.03662
G1 X187.245 Y81.899 E1.69186
G1 X185.886 Y80.998 E0.06145
G1 X184.847 Y80.619 E0.04167
G1 X183.821 Y80.448 E0.03921
G1 X155.367 Y80.44 E1.0723
G1 X80.878 Y86.466 E2.81635
G1 X79.537 Y86.776 E0.05187
G1 X78.74 Y87.134 E0.03292
G1 X78.088 Y87.548 E0.02912
G1 X77.368 Y88.174 E0.03597
G1 X77.702 Y88.514 F9000
G1 F1800
G1 X77.054 Y89.328 E0.03921
G1 X76.633 Y90.12 E0.03379
G1 X76.32 Y91.112 E0.03921
G1 X76.205 Y92.166 E0.03994
G1 X76.205 Y184.633 E3.48472
G1 X76.313 Y185.65 E0.03854
G1 X76.639 Y186.689 E0.04102
G1 X77.226 Y187.722 E0.04478
G1 X77.814 Y188.398 E0.03377
G1 X78.304 Y188.819 E0.02436
G1 X79.061 Y189.3 E0.03378
G1 X136.211 Y218.5 E2.41859
G1 X136.939 Y218.808 E0.02981
G1 X137.745 Y219.015 E0.03137
G1 X138.616 Y219.095 E0.03296
G1 X166.383 Y219.095 E1.04642
G1 X167.742 Y218.905 E0.0517
G1 X168.725 Y218.532 E0.03962
G1 X225.971 Y189.282 E2.42265
G1 X226.769 Y188.763 E0.0359
G1 X227.252 Y188.333 E0.02436
G1 X227.828 Y187.647 E0.03377
G1 X228.387 Y186.63 E0.04374
G1 X228.686 Y185.651 E0.03858
G1 X228.795 Y184.596 E0.03996
G1 X228.794 Y144.531 E1.50988
G1 X228.676 Y143.486 E0.03965
G1 X222.676 Y114.286 E1.12342
G1 X222.45 Y113.536 E0.0295
G1 X222.003 Y112.626 E0.03821
G1 X221.035 Y111.461 E0.05708
G1 X186.935 Y82.261 E1.69186
G1 X185.666 Y81.421 E0.05735
G1 X184.712 Y81.076 E0.03822
G1 X183.771 Y80.923 E0.03592
G1 X155.406 Y80.916 E1.06897
G1 X80.917 Y86.941 E2.81635
G1 X79.712 Y87.22 E0.0466
G1 X78.979 Y87.547 E0.03026
G1 X78.378 Y87.926 E0.02676
G1 X77.702 Y88.514 E0.03377
G1 E-0.8 F3000
; printing object 1x1.stl id:0 copy 0
EXCLUDE_OBJECT_START NAME=1x1_stl_id_0_copy_0
G1 X154.809 Y88.519 F9000
G1 E0.8 F1800
;TYPE:Internal perimeter
;WIDTH:0.5
G1 X154.809 Y86.199 E0.08376
G1 X154.845 Y85.963 E0.0086
G1 X154.925 Y85.77 E0.00753
G1 X155.046 Y85.6 E0.00755
G1 X155.21 Y85.459 E0.0078
G1 X155.31 Y85.401 E0.00418
G1 X155.42 Y85.356 E0.00428
G1 X155.566 Y85.321 E0.00543
G1 X155.718 Y85.308 E0.00548
G1 X183.371 Y85.308 E0.99847
G1 X183.564 Y85.328 E0.00699
G1 X183.732 Y85.378 E0.00634
G1 X183.883 Y85.456 E0.00614
G1 X184.016 Y85.562 E0.00613
G1 X184.126 Y85.691 E0.00614
G1 X184.21 Y85.839 E0.00614
G1 X184.266 Y86.006 E0.00634
G1 X184.29 Y86.176 E0.00619
G1 X184.29 Y103.018 E0.60812
G1 X184.251 Y103.245 E0.00831
G1 X184.175 Y103.43 E0.00721
G1 X184.054 Y103.6 E0.00755
G1 X183.89 Y103.741 E0.0078
G1 X183.79 Y103.799 E0.00418
G1 X183.68 Y103.844 E0.00428
G1 X183.534 Y103.879 E0.00543
G1 X183.382 Y103.892 E0.00548
G1 X155.735 Y103.892 E0.99823
G1 X155.477 Y103.859 E0.00941
G1 X155.284 Y103.784 E0.00748
G1 X155.106 Y103.659 E0.00783
G1 X154.958 Y103.49 E0.00812
G1 X154.901 Y103.39 E0.00417
G1 X154.856 Y103.28 E0.00428
G1 X154.821 Y103.134 E0.00543
G1 X154.808 Y102.982 E0.00548
G1 X154.809 Y88.519 E0.52224
G1 X154.352 Y88.519 F9000
G1 F1800
G1 X154.352 Y86.164 E0.08503
G1 X154.369 Y85.989 E0.00633
G1 X154.402 Y85.839 E0.00556
G1 X154.523 Y85.547 E0.01139
G1 X154.706 Y85.291 E0.01139
G1 X154.816 Y85.183 E0.00556
G1 X154.943 Y85.085 E0.00582
G1 X155.109 Y84.989 E0.00692
G1 X155.28 Y84.92 E0.00666
G1 X155.493 Y84.869 E0.00789
G1 X155.698 Y84.851 E0.00743
G1 X183.395 Y84.851 E1.00006
G1 X183.653 Y84.878 E0.00937
G1 X183.904 Y84.952 E0.00944
G1 X184.133 Y85.071 E0.00931
G1 X184.335 Y85.232 E0.00931
G1 X184.502 Y85.428 E0.00932
G1 X184.629 Y85.653 E0.00931
G1 X184.712 Y85.901 E0.00944
G1 X184.747 Y86.144 E0.00886
G1 X184.747 Y103.056 E0.61065
G1 X184.694 Y103.372 E0.01156
G1 X184.577 Y103.653 E0.01096
G1 X184.394 Y103.909 E0.01139
G1 X184.284 Y104.017 E0.00556
G1 X184.157 Y104.115 E0.00582
G1 X183.991 Y104.211 E0.00692
G1 X183.82 Y104.28 E0.00666
G1 X183.607 Y104.331 E0.00789
G1 X183.402 Y104.349 E0.00743
G1 X155.706 Y104.349 E1.00002
G1 X155.364 Y104.305 E0.01246
G1 X155.217 Y104.258 E0.00555
G1 X155.067 Y104.19 E0.00594
G1 X154.927 Y104.104 E0.00594
G1 X154.798 Y104.002 E0.00594
G1 X154.683 Y103.884 E0.00594
G1 X154.585 Y103.757 E0.00582
G1 X154.489 Y103.591 E0.00691
G1 X154.42 Y103.42 E0.00666
G1 X154.369 Y103.207 E0.00789
G1 X154.351 Y103.002 E0.00742
G1 X154.352 Y88.519 E0.52296
G1 X153.895 Y88.518 F9000
;TYPE:External perimeter
G1 F1800
G1 X153.895 Y86.142 E0.08582
G1 X153.916 Y85.917 E0.00813
G1 X153.964 Y85.701 E0.00802
G1 X154.12 Y85.324 E0.01471
G1 X154.357 Y84.993 E0.01471
G1 X154.515 Y84.837 E0.00801
G1 X154.689 Y84.704 E0.00791
G1 X154.908 Y84.577 E0.00915
G1 X155.141 Y84.483 E0.00904
G1 X155.419 Y84.416 E0.01034
G1 X155.678 Y84.394 E0.00937
G1 X183.419 Y84.394 E1.00164
G1 X183.743 Y84.428 E0.01175
G1 X184.076 Y84.526 E0.01255
G1 X184.383 Y84.686 E0.01249
G1 X184.654 Y84.902 E0.01249
G1 X184.879 Y85.165 E0.01249
G1 X185.049 Y85.466 E0.01249
G1 X185.159 Y85.795 E0.01255
G1 X185.204 Y86.112 E0.01153
G1 X185.204 Y103.094 E0.61318
G1 X185.136 Y103.499 E0.01482
G1 X184.98 Y103.876 E0.01471
G1 X184.743 Y104.207 E0.01471
G1 X184.585 Y104.363 E0.00801
G1 X184.411 Y104.496 E0.00791
G1 X184.192 Y104.623 E0.00915
G1 X183.959 Y104.717 E0.00904
G1 X183.681 Y104.784 E0.01034
G1 X183.422 Y104.806 E0.00937
G1 X155.676 Y104.806 E1.00181
G1 X155.265 Y104.753 E0.01498
G1 X155.053 Y104.686 E0.00802
G1 X154.852 Y104.595 E0.00796
G1 X154.664 Y104.479 E0.00796
G1 X154.492 Y104.342 E0.00796
G1 X154.337 Y104.185 E0.00796
G1 X154.204 Y104.011 E0.00791
G1 X154.077 Y103.792 E0.00915
G1 X153.983 Y103.559 E0.00904
G1 X153.916 Y103.281 E0.01034
G1 X153.894 Y103.022 E0.00937
G1 X153.895 Y88.518 E0.52368
;WIPE_START
M204 S3000
G1 X154.241 Y88.319 F9000
;WIPE_END
G1 E-0.8 F3000
M204 S1000
G1 X183.461 Y85.397 F9000
G1 E0.8 F1800
;TYPE:Solid infill
;WIDTH:0.495431
G1 F2400
G1 X184.213 Y86.149 E0.03805
G1 X184.221 Y86.803 F9000
G1 F2400
G1 X182.814 Y85.396 E0.0712
G1 X182.167 Y85.396 F9000
G1 F2400
G1 X184.221 Y87.45 E0.10393
G1 X184.221 Y88.096 F9000
G1 F2400
G1 X181.52 Y85.395 E0.13666
G1 X180.873 Y85.395 F9000
G1 F2400
G1 X184.221 Y88.743 E0.16939
G1 X184.221 Y89.389 F9000
G1 F2400
G1 X180.226 Y85.394 E0.20212
G1 X179.579 Y85.394 F9000
G1 F2400
G1 X184.221 Y90.035 E0.23484
G1 X184.221 Y90.682 F9000
G1 F2400
G1 X178.932 Y85.393 E0.26757
G1 X178.286 Y85.393 F9000
G1 F2400
G1 X184.221 Y91.328 E0.3003
G1 X184.221 Y91.975 F9000
G1 F2400
G1 X177.639 Y85.392 E0.33303
G1 X176.992 Y85.392 F9000
G1 F2400
G1 X184.221 Y92.621 E0.36576
G1 X184.221 Y93.267 F9000
G1 F2400
G1 X176.345 Y85.391 E0.39849
G1 X175.698 Y85.391 F9000
M73 P1 R159
G1 F2400
G1 X184.221 Y93.914 E0.43122
G1 X184.221 Y94.56 F9000
G1 F2400
G1 X175.051 Y85.39 E0.46395
G1 X174.404 Y85.39 F9000
G1 F2400
G1 X184.221 Y95.207 E0.49667
G1 X184.221 Y95.853 F9000
G1 F2400
G1 X173.757 Y85.39 E0.5294
G1 X173.111 Y85.389 F9000
G1 F2400
G1 X184.221 Y96.499 E0.56213
G1 X184.221 Y97.146 F9000
G1 F2400
G1 X172.464 Y85.389 E0.59486
G1 X171.817 Y85.388 F9000
G1 F2400
G1 X184.221 Y97.792 E0.62759
G1 X184.221 Y98.439 F9000
G1 F2400
G1 X171.17 Y85.388 E0.66032
G1 X170.523 Y85.387 F9000
G1 F2400
G1 X184.221 Y99.085 E0.69305
G1 X184.221 Y99.732 F9000
G1 F2400
G1 X169.876 Y85.387 E0.72578
G1 X169.229 Y85.386 F9000
G1 F2400
G1 X184.221 Y100.378 E0.7585
G1 X184.221 Y101.024 F9000
G1 F2400
G1 X168.582 Y85.386 E0.79123
G1 X167.936 Y85.385 F9000
G1 F2400
G1 X184.221 Y101.671 E0.82396
G1 X184.221 Y102.317 F9000
G1 F2400
G1 X167.289 Y85.385 E0.85669
G1 X166.642 Y85.384 F9000
G1 F2400
G1 X184.221 Y102.964 E0.88942
G1 X184.062 Y103.451 F9000
G1 F2400
G1 X165.995 Y85.384 E0.91412
G1 X165.348 Y85.383 F9000
G1 F2400
G1 X183.693 Y103.728 E0.92817
G1 X183.142 Y103.824 F9000
G1 F2400
G1 X164.701 Y85.383 E0.933
G1 X164.054 Y85.382 F9000
G1 F2400
G1 X182.495 Y103.824 E0.93303
G1 X181.849 Y103.824 F9000
G1 F2400
G1 X163.407 Y85.382 E0.93305
G1 X162.76 Y85.382 F9000
G1 F2400
G1 X181.203 Y103.824 E0.93308
G1 X180.556 Y103.824 F9000
G1 F2400
G1 X162.114 Y85.381 E0.9331
G1 X161.467 Y85.381 F9000
G1 F2400
G1 X179.91 Y103.824 E0.93312
G1 X179.263 Y103.824 F9000
G1 F2400
G1 X160.82 Y85.38 E0.93315
G1 X160.173 Y85.38 F9000
G1 F2400
G1 X178.617 Y103.824 E0.93317
G1 X177.971 Y103.824 F9000
G1 F2400
G1 X159.526 Y85.379 E0.93319
G1 X158.879 Y85.379 F9000
G1 F2400
G1 X177.324 Y103.824 E0.93322
G1 X176.678 Y103.824 F9000
G1 F2400
G1 X158.232 Y85.378 E0.93324
G1 X157.585 Y85.378 F9000
G1 F2400
G1 X176.031 Y103.824 E0.93327
G1 X175.385 Y103.824 F9000
G1 F2400
G1 X156.939 Y85.377 E0.93329
G1 X156.292 Y85.377 F9000
G1 F2400
G1 X174.738 Y103.824 E0.93331
G1 X174.092 Y103.824 F9000
G1 F2400
G1 X155.664 Y85.395 E0.93238
G1 X155.197 Y85.575 F9000
G1 F2400
G1 X173.446 Y103.824 E0.92331
G1 X172.799 Y103.824 F9000
G1 F2400
G1 X154.943 Y85.967 E0.90345
G1 X154.877 Y86.548 F9000
G1 F2400
G1 X172.153 Y103.824 E0.87405
G1 X171.506 Y103.824 F9000
G1 F2400
G1 X154.877 Y87.194 E0.84135
G1 X154.877 Y87.841 F9000
G1 F2400
G1 X170.86 Y103.824 E0.80865
G1 X170.214 Y103.824 F9000
G1 F2400
G1 X154.877 Y88.487 E0.77594
G1 X154.877 Y89.134 F9000
G1 F2400
G1 X169.567 Y103.824 E0.74324
G1 X168.921 Y103.824 F9000
G1 F2400
G1 X154.877 Y89.78 E0.71054
G1 X154.877 Y90.426 F9000
G1 F2400
G1 X168.274 Y103.824 E0.67783
G1 X167.628 Y103.824 F9000
G1 F2400
G1 X154.877 Y91.073 E0.64513
G1 X154.877 Y91.719 F9000
G1 F2400
G1 X166.982 Y103.824 E0.61243
G1 X166.335 Y103.824 F9000
G1 F2400
G1 X154.877 Y92.365 E0.57973
G1 X154.877 Y93.012 F9000
G1 F2400
G1 X165.689 Y103.824 E0.54702
G1 X165.042 Y103.824 F9000
G1 F2400
G1 X154.877 Y93.658 E0.51432
G1 X154.877 Y94.305 F9000
G1 F2400
G1 X164.396 Y103.824 E0.48162
M73 P1 R159
G1 X163.75 Y103.824 F9000
G1 F2400
G1 X154.877 Y94.951 E0.44891
G1 X154.877 Y95.597 F9000
G1 F2400
G1 X163.103 Y103.824 E0.41621
G1 X162.457 Y103.824 F9000
G1 F2400
G1 X154.877 Y96.244 E0.38351
G1 X154.877 Y96.89 F9000
G1 F2400
G1 X161.81 Y103.824 E0.3508
G1 X161.164 Y103.824 F9000
G1 F2400
G1 X154.877 Y97.536 E0.3181
G1 X154.877 Y98.183 F9000
G1 F2400
G1 X160.518 Y103.824 E0.2854
G1 X159.871 Y103.824 F9000
G1 F2400
G1 X154.877 Y98.829 E0.25269
