; generated by SuperSlicer 2.5.59 on 2022-12-20 at 19:46:18 UTC


;
;

;
;
; 

; external perimeters extrusion width = 0.40mm
; perimeters extrusion width = 0.46mm
; infill extrusion width = 0.64mm
; solid infill extrusion width = 0.56mm
; top infill extrusion width = 0.40mm
; first layer extrusion width = 0.50mm

; external perimeters extrusion width = 0.40mm
; perimeters extrusion width = 0.46mm
; infill extrusion width = 0.64mm
; solid infill extrusion width = 0.56mm
; top infill extrusion width = 0.40mm
; first layer extrusion width = 0.50mm

; external perimeters extrusion width = 0.40mm
; perimeters extrusion width = 0.46mm
; infill extrusion width = 0.64mm
; solid infill extrusion width = 0.56mm
; top infill extrusion width = 0.40mm
; first layer extrusion width = 0.50mm

; external perimeters extrusion width = 0.40mm
; perimeters extrusion width = 0.46mm
; infill extrusion width = 0.64mm
; solid infill extrusion width = 0.56mm
; top infill extrusion width = 0.40mm
; first layer extrusion width = 0.50mm

; external perimeters extrusion width = 0.40mm
; perimeters extrusion width = 0.46mm
; infill extrusion width = 0.64mm
; solid infill extrusion width = 0.56mm
; top infill extrusion width = 0.40mm
; first layer extrusion width = 0.50mm

; external perimeters extrusion width = 0.40mm
; perimeters extrusion width = 0.46mm
; infill extrusion width = 0.64mm
; solid infill extrusion width = 0.56mm
; top infill extrusion width = 0.40mm
; first layer extrusion width = 0.50mm

; external perimeters extrusion width = 0.40mm
; perimeters extrusion width = 0.46mm
; infill extrusion width = 0.64mm
; solid infill extrusion width = 0.56mm
; top infill extrusion width = 0.40mm
; first layer extrusion width = 0.50mm

; object:{"name":"1x2(2)","id":"1x2(2).stl id:0 copy 0","object_center":[169.550000,120.800000,0.000000],"boundingbox_center":[169.550000,120.800000,7.300000],"boundingbox_size":[34.099998,46.400002,14.600000]}
; object:{"name":"2x1","id":"2x1.stl id:1 copy 0","object_center":[186.600000,161.600000,0.000000],"boundingbox_center":[186.600000,161.600000,7.300000],"boundingbox_size":[68.199997,23.200001,14.600000]}
; object:{"name":"1x2(2)","id":"1x2(2).stl id:2 copy 0","object_center":[209.650000,120.800000,0.000000],"boundingbox_center":[209.650000,120.800000,7.300000],"boundingbox_size":[34.099998,46.400002,14.600000]}
; object:{"name":"2x1_with_seperation","id":"2x1_with_seperation.stl id:3 copy 0","object_center":[186.600000,190.800000,0.000000],"boundingbox_center":[186.600000,190.800000,7.300000],"boundingbox_size":[68.199997,23.200001,14.600000]}
; object:{"name":"1x2(2)","id":"1x2(2).stl id:4 copy 0","object_center":[129.450000,97.600000,0.000000],"boundingbox_center":[129.450000,97.600000,7.300000],"boundingbox_size":[34.099998,46.400002,14.600000]}
; object:{"name":"2x2","id":"2x2.stl id:5 copy 0","object_center":[112.400000,150.000000,0.000000],"boundingbox_center":[112.400000,150.000000,7.300000],"boundingbox_size":[68.199997,46.400002,14.600000]}
; object:{"name":"2x2","id":"2x2.stl id:6 copy 0","object_center":[112.400000,202.400000,0.000000],"boundingbox_center":[112.400000,202.400000,7.300000],"boundingbox_size":[68.199997,46.400002,14.600000]}
; plater:{"center":[152.500000,150.000000,0.000000],"boundingbox_center":[152.500000,150.000000,7.300000],"boundingbox_size":[148.399998,151.200002,14.600000]}

M73 P0 R178


; Pre-Processed for Cancel-Object support by preprocess_cancellation v0.2.0
; 7 known objects
EXCLUDE_OBJECT_DEFINE NAME=1x2_2_stl_id_0_copy_0 CENTER=169.695,121.284 POLYGON=[[152.7,97.8],[152.7,143.8],[186.4,143.8],[186.4,97.8]]
EXCLUDE_OBJECT_DEFINE NAME=1x2_2_stl_id_2_copy_0 CENTER=209.625,121.333 POLYGON=[[192.8,97.8],[192.8,143.8],[226.5,143.8],[226.5,97.8]]
EXCLUDE_OBJECT_DEFINE NAME=2x1_stl_id_1_copy_0 CENTER=188.633,161.384 POLYGON=[[152.7,150.2],[152.7,173.0],[220.5,173.0],[220.5,150.2]]
EXCLUDE_OBJECT_DEFINE NAME=2x1_with_seperation_stl_id_3_copy_0 CENTER=188.698,190.792 POLYGON=[[152.7,179.4],[152.7,202.2],[220.5,202.2],[220.5,179.4]]
EXCLUDE_OBJECT_DEFINE NAME=2x2_stl_id_6_copy_0 CENTER=113.185,202.472 POLYGON=[[78.5,179.4],[78.5,225.4],[146.298,225.4],[146.298,179.4]]
EXCLUDE_OBJECT_DEFINE NAME=2x2_stl_id_5_copy_0 CENTER=113.124,150.413 POLYGON=[[78.5,127.0],[78.5,173.0],[146.298,173.0],[146.298,127.0]]
EXCLUDE_OBJECT_DEFINE NAME=1x2_2_stl_id_4_copy_0 CENTER=129.635,98.140 POLYGON=[[112.6,74.6],[112.6,120.6],[146.3,120.6],[146.3,74.6]]
;TYPE:Custom
START_PRINT T_BED=60 T_EXTRUDER=200
M107
G21 ; set units to millimeters
G90 ; use absolute coordinates
M83 ; use relative distances for extrusion
; Filament gcode
PRESSURE_ADVANCE_SELECT FILAMENT=PLA
;_TOOLCHANGE 0
M104 S200 ; set temperature
M109 S200 ; set temperature and wait for it to be reached
M190 S60 ; set bed temperature and wait for it to be reached
M107
;LAYER_CHANGE
;Z:0.2
;HEIGHT:0.2
G1 Z0.2 F9000
G92 E0
G1 E-0.8 F3000
M204 S1000
G1 X110.761 Y74.453 F9000
G1 E0.8 F1800
;TYPE:Skirt
;WIDTH:0.52
G1 X76.701 Y126.794 E2.35338
G1 X76.199 Y127.722 E0.03978
G1 X75.851 Y128.825 E0.04359
G1 X75.728 Y129.966 E0.04323
G1 X75.728 Y222.433 E3.48472
G1 X75.913 Y223.837 E0.05334
G1 X76.195 Y224.664 E0.03293
G1 X76.578 Y225.408 E0.03154
G1 X77 Y226.011 E0.02775
G1 X77.811 Y226.836 E0.04359
G1 X78.379 Y227.253 E0.02655
G1 X79.222 Y227.701 E0.03598
G1 X80.325 Y228.049 E0.04359
G1 X81.466 Y228.172 E0.04323
G1 X143.296 Y228.172 E2.33013
G1 X144.458 Y228.051 E0.04402
G1 X219.21 Y204.713 E2.95119
G1 X220.26 Y204.266 E0.04301
G1 X221.163 Y203.656 E0.04107
G1 X222.142 Y202.625 E0.05359
G1 X222.732 Y201.628 E0.04367
G1 X223.029 Y200.846 E0.03151
G1 X223.245 Y199.759 E0.04176
G1 X229.261 Y141.088 E2.22268
G1 X229.271 Y100.731 E1.52087
G1 X229.027 Y99.158 E0.05998
G1 X228.418 Y97.791 E0.05641
G1 X227.754 Y96.908 E0.04165
G1 X227.241 Y96.413 E0.02684
G1 X226.335 Y95.78 E0.04165
G1 X225.326 Y95.331 E0.04165
G1 X144.724 Y72.012 E3.16209
G1 X143.721 Y71.848 E0.03832
G1 X115.529 Y71.829 E1.06242
M73 P0 R178
G1 X114.474 Y71.941 E0.03999
G1 X113.556 Y72.205 E0.03599
G1 X112.914 Y72.494 E0.02655
G1 X111.974 Y73.112 E0.0424
G1 X111.329 Y73.721 E0.03341
G1 X110.761 Y74.453 E0.03494
G1 X111.161 Y74.713 F9000
G1 F1800
G1 X77.101 Y127.054 E2.35338
G1 X76.633 Y127.92 E0.03709
G1 X76.32 Y128.912 E0.03921
G1 X76.205 Y129.966 E0.03994
G1 X76.205 Y222.433 E3.48472
G1 X76.378 Y223.729 E0.04927
G1 X76.639 Y224.489 E0.03027
G1 X76.991 Y225.17 E0.02888
G1 X77.379 Y225.721 E0.0254
G1 X78.108 Y226.463 E0.03921
G1 X78.628 Y226.846 E0.02436
G1 X79.42 Y227.267 E0.03379
G1 X80.412 Y227.58 E0.03921
G1 X81.466 Y227.695 E0.03994
G1 X143.296 Y227.695 E2.33013
G1 X144.351 Y227.586 E0.03995
G1 X219.067 Y204.258 E2.94982
G1 X220.021 Y203.853 E0.03905
G1 X220.869 Y203.28 E0.03856
G1 X221.751 Y202.351 E0.04827
G1 X222.305 Y201.415 E0.041
G1 X222.575 Y200.699 E0.02885
G1 X222.77 Y199.71 E0.03796
G1 X228.785 Y141.05 E2.22225
G1 X228.794 Y100.731 E1.51946
G1 X228.575 Y99.31 E0.0542
G1 X228.003 Y98.026 E0.05297
G1 X227.391 Y97.218 E0.03821
G1 X226.944 Y96.786 E0.0234
G1 X226.115 Y96.203 E0.03821
G1 X225.19 Y95.788 E0.0382
G1 X144.592 Y72.471 E3.16198
G1 X143.671 Y72.323 E0.03515
G1 X115.529 Y72.306 E1.06054
G1 X114.577 Y72.407 E0.03608
G1 X113.715 Y72.654 E0.03379
G1 X113.127 Y72.921 E0.02435
G1 X112.28 Y73.477 E0.03817
G1 X111.675 Y74.049 E0.03137
G1 X111.161 Y74.713 E0.03166
G1 E-0.8 F3000
; printing object 1x2(2).stl id:0 copy 0
EXCLUDE_OBJECT_START NAME=1x2_2_stl_id_0_copy_0
G1 X154.95 Y100.323 F9000
G1 E0.8 F1800
;TYPE:Internal perimeter
;WIDTH:0.5
G1 X155.089 Y100.157 E0.0078
G1 X155.264 Y100.027 E0.00788
G1 X155.454 Y99.947 E0.00745
G1 X155.699 Y99.909 E0.00894
G1 X183.371 Y99.908 E0.99914
G1 X183.564 Y99.928 E0.00699
G1 X183.732 Y99.978 E0.00634
G1 X183.883 Y100.056 E0.00614
G1 X184.016 Y100.162 E0.00614
G1 X184.126 Y100.291 E0.00614
G1 X184.21 Y100.439 E0.00613
G1 X184.264 Y100.601 E0.00614
G1 X184.291 Y100.808 E0.00754
G1 X184.292 Y140.75 E1.44217
G1 X184.277 Y140.945 E0.00703
G1 X184.251 Y141.06 E0.00428
G1 X184.206 Y141.176 E0.00448
G1 X184.15 Y141.277 E0.00417
G1 X184.005 Y141.449 E0.00812
G1 X183.83 Y141.576 E0.00782
G1 X183.63 Y141.657 E0.00778
G1 X183.375 Y141.692 E0.00932
G1 X155.718 Y141.692 E0.99859
G1 X155.561 Y141.678 E0.00568
G1 X155.44 Y141.651 E0.00448
G1 X155.324 Y141.606 E0.00448
G1 X155.223 Y141.55 E0.00417
G1 X155.051 Y141.405 E0.00812
G1 X154.924 Y141.23 E0.00782
G1 X154.843 Y141.03 E0.00778
G1 X154.808 Y140.775 E0.00932
G1 X154.808 Y100.85 E1.44153
G1 X154.823 Y100.655 E0.00703
G1 X154.849 Y100.54 E0.00428
G1 X154.894 Y100.424 E0.00448
G1 X154.95 Y100.323 E0.00418
G1 X154.572 Y100.063 F9000
G1 F1800
G1 X154.667 Y99.934 E0.00581
G1 X154.773 Y99.822 E0.00556
G1 X155.037 Y99.627 E0.01182
G1 X155.173 Y99.559 E0.00551
G1 X155.328 Y99.504 E0.00594
G1 X155.489 Y99.469 E0.00594
G1 X155.664 Y99.452 E0.00633
G1 X183.395 Y99.451 E1.00129
G1 X183.653 Y99.478 E0.00937
G1 X183.904 Y99.552 E0.00944
G1 X184.133 Y99.671 E0.00931
G1 X184.335 Y99.832 E0.00931
G1 X184.502 Y100.028 E0.00932
G1 X184.629 Y100.253 E0.00931
G1 X184.711 Y100.497 E0.00932
G1 X184.748 Y100.778 E0.01021
G1 X184.75 Y140.768 E1.4439
G1 X184.73 Y141.014 E0.00891
G1 X184.689 Y141.194 E0.00666
G1 X184.621 Y141.369 E0.00679
G1 X184.528 Y141.537 E0.00692
G1 X184.433 Y141.666 E0.00581
G1 X184.319 Y141.786 E0.00594
G1 X184.192 Y141.891 E0.00594
G1 X184.054 Y141.979 E0.00594
G1 X183.905 Y142.05 E0.00594
G1 X183.749 Y142.102 E0.00594
G1 X183.588 Y142.135 E0.00594
G1 X183.406 Y142.149 E0.00658
G1 X155.698 Y142.149 E1.00044
G1 X155.489 Y142.131 E0.00755
G1 X155.306 Y142.089 E0.00679
G1 X155.131 Y142.021 E0.00679
G1 X154.963 Y141.928 E0.00692
G1 X154.834 Y141.833 E0.00581
G1 X154.714 Y141.719 E0.00594
G1 X154.609 Y141.592 E0.00594
G1 X154.521 Y141.454 E0.00594
G1 X154.45 Y141.305 E0.00594
G1 X154.398 Y141.149 E0.00594
G1 X154.365 Y140.988 E0.00594
G1 X154.351 Y140.806 E0.00658
G1 X154.35 Y100.832 E1.44331
G1 X154.37 Y100.586 E0.00891
G1 X154.411 Y100.406 E0.00666
G1 X154.479 Y100.231 E0.00679
G1 X154.572 Y100.063 E0.00692
G1 X154.186 Y99.815 F9000
;TYPE:External perimeter
G1 F1800
G1 X154.317 Y99.639 E0.00791
G1 X154.469 Y99.478 E0.00802
G1 X154.797 Y99.236 E0.01471
G1 X154.994 Y99.138 E0.00796
G1 X155.202 Y99.064 E0.00796
G1 X155.417 Y99.016 E0.00796
G1 X155.642 Y98.995 E0.00813
G1 X183.419 Y98.994 E1.00294
G1 X183.743 Y99.028 E0.01175
G1 X184.076 Y99.126 E0.01255
G1 X184.383 Y99.286 E0.01249
G1 X184.654 Y99.502 E0.01249
G1 X184.879 Y99.765 E0.01249
G1 X185.049 Y100.066 E0.01249
G1 X185.159 Y100.394 E0.01249
G1 X185.205 Y100.748 E0.01288
G1 X185.207 Y140.786 E1.44563
G1 X185.183 Y141.084 E0.01078
G1 X185.127 Y141.328 E0.00904
G1 X185.037 Y141.563 E0.0091
G1 X184.914 Y141.785 E0.00915
G1 X184.783 Y141.961 E0.00791
G1 X184.632 Y142.121 E0.00796
G1 X184.462 Y142.261 E0.00796
G1 X184.276 Y142.38 E0.00796
G1 X184.077 Y142.474 E0.00796
G1 X183.867 Y142.544 E0.00796
G1 X183.651 Y142.588 E0.00796
G1 X183.424 Y142.606 E0.00824
G1 X155.678 Y142.606 E1.00181
G1 X155.418 Y142.584 E0.00943
G1 X155.172 Y142.527 E0.0091
G1 X154.937 Y142.437 E0.00909
G1 X154.715 Y142.314 E0.00915
G1 X154.539 Y142.183 E0.00791
G1 X154.379 Y142.032 E0.00796
G1 X154.239 Y141.862 E0.00796
G1 X154.12 Y141.676 E0.00796
G1 X154.026 Y141.477 E0.00796
G1 X153.956 Y141.267 E0.00796
G1 X153.912 Y141.051 E0.00796
G1 X153.894 Y140.824 E0.00824
G1 X153.893 Y100.814 E1.44461
G1 X153.917 Y100.516 E0.01078
G1 X153.973 Y100.272 E0.00904
G1 X154.063 Y100.037 E0.0091
G1 X154.186 Y99.815 E0.00915
;WIPE_START
M204 S3000
G1 X154.585 Y99.843 F9000
;WIPE_END
G1 E-0.8 F3000
M204 S1000
G1 X183.443 Y99.997 F9000
G1 E0.8 F1800
;TYPE:Solid infill
;WIDTH:0.49696
G1 F2400
G1 X184.203 Y100.756 E0.03855
G1 X184.223 Y101.422 F9000
G1 F2400
G1 X182.796 Y99.996 E0.07239
G1 X182.149 Y99.996 F9000
G1 F2400
G1 X184.223 Y102.069 E0.10522
G1 X184.223 Y102.715 F9000
G1 F2400
G1 X181.503 Y99.995 E0.13804
G1 X180.856 Y99.995 F9000
G1 F2400
G1 X184.223 Y103.362 E0.17087
G1 X184.223 Y104.008 F9000
G1 F2400
G1 X180.209 Y99.994 E0.2037
G1 X179.562 Y99.994 F9000
G1 F2400
G1 X184.223 Y104.655 E0.23653
G1 X184.223 Y105.301 F9000
G1 F2400
G1 X178.915 Y99.993 E0.26936
G1 X178.268 Y99.993 F9000
G1 F2400
G1 X184.223 Y105.947 E0.30219
G1 X184.223 Y106.594 F9000
G1 F2400
G1 X177.622 Y99.993 E0.33502
G1 X176.975 Y99.992 F9000
G1 F2400
G1 X184.223 Y107.24 E0.36785
G1 X184.223 Y107.887 F9000
G1 F2400
G1 X176.328 Y99.992 E0.40068
G1 X175.681 Y99.991 F9000
G1 F2400
G1 X184.223 Y108.533 E0.43351
G1 X184.223 Y109.18 F9000
G1 F2400
G1 X175.034 Y99.991 E0.46634
G1 X174.387 Y99.99 F9000
G1 F2400
G1 X184.223 Y109.826 E0.49917
G1 X184.223 Y110.472 F9000
G1 F2400
G1 X173.74 Y99.99 E0.532
G1 X173.094 Y99.989 F9000
G1 F2400
G1 X184.223 Y111.119 E0.56483
G1 X184.223 Y111.765 F9000
G1 F2400
G1 X172.447 Y99.989 E0.59766
G1 X171.8 Y99.989 F9000
G1 F2400
G1 X184.223 Y112.412 E0.63049
G1 X184.223 Y113.058 F9000
G1 F2400
G1 X171.153 Y99.988 E0.66332
G1 X170.506 Y99.988 F9000
G1 F2400
G1 X184.223 Y113.705 E0.69615
G1 X184.223 Y114.351 F9000
G1 F2400
G1 X169.859 Y99.987 E0.72898
G1 X169.212 Y99.987 F9000
G1 F2400
G1 X184.223 Y114.997 E0.76181
G1 X184.223 Y115.644 F9000
G1 F2400
G1 X168.566 Y99.986 E0.79464
G1 X167.919 Y99.986 F9000
G1 F2400
G1 X184.223 Y116.29 E0.82747
G1 X184.223 Y116.937 F9000
G1 F2400
G1 X167.272 Y99.985 E0.8603
G1 X166.625 Y99.985 F9000
G1 F2400
G1 X184.223 Y117.583 E0.89313
G1 X184.223 Y118.23 F9000
G1 F2400
G1 X165.978 Y99.984 E0.92596
G1 X165.331 Y99.984 F9000
G1 F2400
G1 X184.223 Y118.876 E0.95879
G1 X184.223 Y119.522 F9000
G1 F2400
G1 X164.684 Y99.984 E0.99162
G1 X164.038 Y99.983 F9000
G1 F2400
G1 X184.223 Y120.169 E1.02445
G1 X184.223 Y120.815 F9000
G1 F2400
G1 X163.391 Y99.983 E1.05728
G1 X162.744 Y99.982 F9000
G1 F2400
G1 X184.223 Y121.462 E1.09011
G1 X184.223 Y122.108 F9000
G1 F2400
G1 X162.097 Y99.982 E1.12294
G1 X161.45 Y99.981 F9000
G1 F2400
G1 X184.223 Y122.755 E1.15577
G1 X184.223 Y123.401 F9000
G1 F2400
G1 X160.803 Y99.981 E1.18859
G1 X160.156 Y99.98 F9000
G1 F2400
G1 X184.223 Y124.047 E1.22142
G1 X184.223 Y124.694 F9000
G1 F2400
G1 X159.51 Y99.98 E1.25425
G1 X158.863 Y99.98 F9000
G1 F2400
G1 X184.223 Y125.34 E1.28708
G1 X184.223 Y125.987 F9000
G1 F2400
G1 X158.216 Y99.979 E1.31991
G1 X157.569 Y99.979 F9000
G1 F2400
G1 X184.223 Y126.633 E1.35274
G1 X184.223 Y127.28 F9000
G1 F2400
G1 X156.922 Y99.978 E1.38557
G1 X156.275 Y99.978 F9000
G1 F2400
G1 X184.223 Y127.926 E1.4184
G1 X184.224 Y128.572 F9000
G1 F2400
G1 X155.646 Y99.994 E1.45036
G1 X155.193 Y100.188 F9000
G1 F2400
G1 X184.224 Y129.219 E1.47333
M73 P1 R177
G1 X184.224 Y129.865 F9000
G1 F2400
G1 X154.949 Y100.59 E1.48573
G1 X154.876 Y101.164 F9000
G1 F2400
G1 X184.224 Y130.512 E1.48942
G1 X184.224 Y131.158 F9000
G1 F2400
G1 X154.876 Y101.811 E1.48942
G1 X154.876 Y102.457 F9000
G1 F2400
G1 X184.224 Y131.805 E1.48942
G1 X184.224 Y132.451 F9000
G1 F2400
G1 X154.876 Y103.103 E1.48942
G1 X154.876 Y103.75 F9000
G1 F2400
G1 X184.224 Y133.097 E1.48942
G1 X184.224 Y133.744 F9000
G1 F2400
G1 X154.876 Y104.396 E1.48942
G1 X154.876 Y105.043 F9000
G1 F2400
G1 X184.224 Y134.39 E1.48942
M73 P1 R177
G1 X184.224 Y135.037 F9000
G1 F2400
G1 X154.876 Y105.689 E1.48943
G1 X154.876 Y106.335 F9000
G1 F2400
G1 X184.224 Y135.683 E1.48943
G1 X184.224 Y136.33 F9000
G1 F2400
G1 X154.876 Y106.982 E1.48943
G1 X154.876 Y107.628 F9000
G1 F2400
G1 X184.224 Y136.976 E1.48943
G1 X184.224 Y137.622 F9000
G1 F2400
G1 X154.876 Y108.275 E1.48943
G1 X154.876 Y108.921 F9000
G1 F2400
G1 X184.224 Y138.269 E1.48943
G1 X184.224 Y138.915 F9000
G1 F2400
G1 X154.876 Y109.568 E1.48943
G1 X154.876 Y110.214 F9000
G1 F2400
G1 X184.224 Y139.562 E1.48943
G1 X184.224 Y140.208 F9000
G1 F2400
G1 X154.876 Y110.86 E1.48943
G1 X154.876 Y111.507 F9000
G1 F2400
G1 X184.2 Y140.83 E1.48821
G1 X184.024 Y141.301 F9000
G1 F2400
G1 X154.876 Y112.153 E1.47929
G1 X154.876 Y112.8 F9000
G1 F2400
G1 X183.632 Y141.556 E1.45941
G1 X183.054 Y141.624 F9000
G1 F2400
G1 X154.876 Y113.446 E1.43005
G1 X154.876 Y114.092 F9000
G1 F2400
G1 X182.407 Y141.624 E1.39724
G1 X181.761 Y141.624 F9000
