; generated by SuperSlicer 2.3.57 on 2022-02-10 at 05:30:52 UTC


;
;

;
;
; 

; external perimeters extrusion width = 0.20mm
; perimeters extrusion width = 0.23mm
; infill extrusion width = 0.36mm
; solid infill extrusion width = 0.28mm
; top infill extrusion width = 0.20mm
; support material extrusion width = 0.21mm
; first layer extrusion width = 0.24mm

; object:{"name":"2","id":"2.STL id:0 copy 0","object_center":[152.643693,142.944338,0.000000],"boundingbox_center":[152.643693,142.944338,3.030534],"boundingbox_size":[35.644882,8.557648,6.061068]}
; plater:{"center":[152.643693,142.944338,0.000000],"boundingbox_center":[152.643693,142.944338,3.030534],"boundingbox_size":[35.644882,8.557648,6.061068]}

;TYPE:Custom
START_PRINT T_BED=60 T_EXTRUDER=200
M107
G21 ; set units to millimeters
G90 ; use absolute coordinates
M83 ; use relative distances for extrusion
; Filament gcode
M109 S200 ; set temperature and wait for it to be reached
M190 S60 ; set bed temperature and wait for it to be reached
;LAYER_CHANGE
;Z:0.14
;HEIGHT:0.14
G1 Z0.14 F9000
G1 E-0.6 F3000
G1 X132.478 Y136.525 F9000
G1 E0.6 F1800
; External perimeter
;Skirt
SET_VELOCITY_LIMIT ACCEL=3000 ACCEL_TO_DECEL=3000 SQUARE_CORNER_VELOCITY=8

; Support material

;TYPE:Skirt
;WIDTH:0.24
G1 X132.198 Y136.876 E0.00549
G1 X131.969 Y137.258 E0.00544
G1 X131.792 Y137.671 E0.00549
G1 X131.674 Y138.1 E0.00544
G1 X131.607 Y138.689 E0.00725
G1 X131.506 Y145.471 E0.08288
G1 X131.562 Y146.316 E0.01036
G1 X131.673 Y146.858 E0.00675
G1 X131.85 Y147.324 E0.0061
G1 X132.092 Y147.755 E0.00604
G1 X132.396 Y148.145 E0.00604
G1 X132.754 Y148.486 E0.00604
G1 X133.163 Y148.772 E0.0061
G1 X133.605 Y148.992 E0.00604
G1 X134.076 Y149.143 E0.00604
G1 X134.564 Y149.223 E0.00604
G1 X169.679 Y150.437 E0.42938
G1 X170.639 Y150.427 E0.01173
G1 X171.305 Y150.302 E0.00829
G1 X171.726 Y150.146 E0.00549
G1 X172.123 Y149.934 E0.00549
G1 X172.484 Y149.674 E0.00544
G1 X172.809 Y149.364 E0.00549
G1 X173.09 Y149.013 E0.00549
G1 X173.32 Y148.627 E0.00549
G1 X173.497 Y148.214 E0.00549
G1 X173.615 Y147.78 E0.00549
G1 X173.681 Y147.146 E0.00779
G1 X173.674 Y138.556 E0.10497
G1 X173.576 Y137.939 E0.00763
G1 X173.365 Y137.352 E0.00763
G1 X173.046 Y136.815 E0.00763
G1 X172.636 Y136.35 E0.00757
G1 X172.147 Y135.97 E0.00757
G1 X171.591 Y135.685 E0.00763
G1 X170.992 Y135.51 E0.00763
G1 X170.371 Y135.451 E0.00763
G1 X134.909 Y135.451 E0.43335
G1 X134.439 Y135.486 E0.00577
G1 X133.982 Y135.586 E0.00571
G1 X133.561 Y135.743 E0.00549
G1 X133.168 Y135.952 E0.00544
G1 X132.804 Y136.215 E0.00549
G1 X132.5 Y136.504 E0.00513
G1 X132.644 Y136.656 F9000
G1 F1800
G1 X132.368 Y136.999 E0.00538
G1 X132.152 Y137.362 E0.00516
G1 X131.986 Y137.754 E0.00521
G1 X131.876 Y138.162 E0.00516
G1 X131.817 Y138.697 E0.00659
G1 X131.716 Y145.468 E0.08274
G1 X131.769 Y146.28 E0.00995
G1 X131.87 Y146.783 E0.00627
G1 X132.033 Y147.219 E0.00569
G1 X132.261 Y147.63 E0.00574
G1 X132.545 Y147.998 E0.00569
G1 X132.885 Y148.322 E0.00574
G1 X133.266 Y148.589 E0.00569
G1 X133.687 Y148.798 E0.00574
G1 X134.13 Y148.94 E0.00569
G1 X134.59 Y149.014 E0.00569
G1 X169.686 Y150.227 E0.42915
G1 X170.607 Y150.219 E0.01125
G1 X171.227 Y150.106 E0.0077
G1 X171.627 Y149.96 E0.00521
G1 X172.004 Y149.761 E0.00521
G1 X172.35 Y149.512 E0.00521
G1 X172.658 Y149.217 E0.00521
G1 X172.924 Y148.884 E0.00521
G1 X173.141 Y148.517 E0.00521
G1 X173.304 Y148.128 E0.00516
G1 X173.414 Y147.716 E0.00521
G1 X173.471 Y147.141 E0.00707
G1 X173.466 Y138.581 E0.1046
G1 X173.376 Y138.001 E0.00717
G1 X173.178 Y137.449 E0.00717
G1 X172.883 Y136.947 E0.00712
G1 X172.496 Y136.506 E0.00717
G1 X172.032 Y136.145 E0.00717
G1 X171.514 Y135.88 E0.00712
G1 X170.95 Y135.716 E0.00717
G1 X170.37 Y135.661 E0.00712
G1 X134.909 Y135.661 E0.43335
G1 X134.48 Y135.692 E0.00526
G1 X134.059 Y135.783 E0.00526
G1 X133.662 Y135.927 E0.00516
G1 X133.286 Y136.126 E0.00521
G1 X132.943 Y136.372 E0.00516
G1 X132.666 Y136.635 E0.00467
; INIT printing object 2.STL id:0 copy 0
G1 E-0.6 F3000
; printing object 2.STL id:0 copy 0
G1 X170.036 Y146.833 F9000
G1 E0.6 F1800
; External perimeter
;Perimeter
SET_VELOCITY_LIMIT ACCEL=2000 ACCEL_TO_DECEL=2000 SQUARE_CORNER_VELOCITY=8

; Overhang perimeter

;TYPE:Internal perimeter
G1 X169.661 Y146.625 E0.00524
G1 X169.094 Y146.542 E0.007
G1 X168.432 Y146.334 E0.00848
G1 X168.111 Y146.272 E0.004
G1 X167.857 Y146.265 E0.0031
G1 X167.629 Y146.296 E0.00282
G1 X167.225 Y146.408 E0.00512
G1 X167.19 Y146.412 E0.00043
G1 X167.161 Y146.409 E0.00036
G1 X167.068 Y146.369 E0.00123
G1 X166.685 Y146.135 E0.00549
G1 X166.466 Y146.044 E0.0029
G1 X166.214 Y145.985 E0.00315
G1 X165.245 Y145.925 E0.01187
G1 X164.887 Y145.835 E0.00451
G1 X164.239 Y145.593 E0.00846
G1 X163.492 Y145.199 E0.01032
G1 X163.039 Y145.064 E0.00577
G1 X162.332 Y144.873 E0.00895
G1 X161.762 Y144.751 E0.00712
G1 X161.176 Y144.718 E0.00717
G1 X160.372 Y144.782 E0.00986
G1 X159.199 Y144.957 E0.01449
G1 X158.066 Y144.926 E0.01385
G1 X156.974 Y144.826 E0.01341
G1 X156.677 Y144.834 E0.00363
G1 X156.44 Y144.879 E0.00295
G1 X155.959 Y145.068 E0.00631
G1 X155.817 Y145.081 E0.00174
G1 X155.701 Y145.065 E0.00143
G1 X155.419 Y144.989 E0.00358
G1 X154.801 Y144.862 E0.00771
G1 X154.179 Y144.789 E0.00766
G1 X153.688 Y144.804 E0.00599
G1 X153.265 Y144.879 E0.00525
G1 X152.869 Y145.013 E0.00511
G1 X152.281 Y145.32 E0.00811
G1 X152.186 Y145.341 E0.00118
G1 X151.95 Y145.313 E0.00291
G1 X151.629 Y145.205 E0.00414
G1 X150.96 Y144.921 E0.00888
G1 X150.37 Y144.759 E0.00747
G1 X149.588 Y144.66 E0.00964
G1 X148.814 Y144.64 E0.00945
G1 X148.439 Y144.672 E0.0046
G1 X148.106 Y144.759 E0.0042
G1 X147.635 Y144.92 E0.00608
G1 X146.914 Y145.1 E0.00909
G1 X146.479 Y145.192 E0.00543
G1 X146.27 Y145.203 E0.00255
G1 X146.056 Y145.179 E0.00264
G1 X145.853 Y145.121 E0.00257
G1 X145.083 Y144.799 E0.0102
G1 X144.759 Y144.733 E0.00404
G1 X144.165 Y144.714 E0.00727
G1 X142.521 Y144.714 E0.02009
G1 X142.031 Y144.781 E0.00604
G1 X141.718 Y144.857 E0.00394
G1 X141.668 Y144.861 E0.00061
G1 X141.28 Y144.813 E0.00479
G1 X140.145 Y144.788 E0.01387
G1 X139.819 Y144.801 E0.00398
G1 X139.426 Y144.892 E0.00493
G1 X138.387 Y145.271 E0.01351
G1 X138.044 Y145.328 E0.00424
G1 X137.346 Y145.362 E0.00855
G1 X136.554 Y145.329 E0.00968
G1 X135.2 Y145.135 E0.01671
G1 X135.217 Y145.013 E0.00151
G1 X135.251 Y144.018 E0.01216
G1 X135.251 Y139.095 E0.06016
G1 X170.036 Y139.095 E0.42509
G1 X170.036 Y146.803 E0.09419
G1 X170.246 Y147.003 F9000
; External perimeter
;ExternalPerimeter
SET_VELOCITY_LIMIT ACCEL=1000 ACCEL_TO_DECEL=1000 SQUARE_CORNER_VELOCITY=8

; Perimeter

;TYPE:External perimeter
G1 F1800
G1 X169.838 Y147.003 E0.00499
G1 X169.788 Y146.935 E0.00103
G1 X169.593 Y146.827 E0.00272
G1 X169.047 Y146.747 E0.00674
G1 X168.38 Y146.538 E0.00854
G1 X168.088 Y146.482 E0.00364
G1 X167.869 Y146.475 E0.00268
G1 X167.672 Y146.502 E0.00243
G1 X167.267 Y146.614 E0.00513
G1 X167.192 Y146.624 E0.00092
G1 X167.106 Y146.614 E0.00106
G1 X166.971 Y146.556 E0.00179
G1 X166.59 Y146.322 E0.00547
G1 X166.401 Y146.245 E0.00249
G1 X166.184 Y146.193 E0.00273
G1 X165.212 Y146.133 E0.01189
G1 X164.825 Y146.036 E0.00489
G1 X164.153 Y145.785 E0.00876
G1 X163.412 Y145.395 E0.01023
G1 X162.981 Y145.266 E0.00549
G1 X162.283 Y145.077 E0.00884
G1 X161.734 Y144.96 E0.00686
G1 X161.179 Y144.929 E0.0068
G1 X160.396 Y144.991 E0.0096
G1 X159.212 Y145.168 E0.01462
G1 X158.054 Y145.135 E0.01416
G1 X156.967 Y145.036 E0.01334
G1 X156.7 Y145.044 E0.00327
G1 X156.499 Y145.082 E0.0025
G1 X156.008 Y145.275 E0.00645
G1 X155.812 Y145.292 E0.0024
G1 X155.66 Y145.271 E0.00188
G1 X155.37 Y145.193 E0.00367
G1 X154.768 Y145.069 E0.00752
G1 X154.17 Y144.999 E0.00736
G1 X153.71 Y145.014 E0.00562
G1 X153.317 Y145.083 E0.00488
G1 X152.951 Y145.206 E0.00472
G1 X152.354 Y145.519 E0.00825
G1 X152.197 Y145.554 E0.00196
G1 X151.903 Y145.519 E0.00362
G1 X151.554 Y145.402 E0.0045
G1 X150.891 Y145.12 E0.00881
G1 X150.329 Y144.965 E0.00712
G1 X149.572 Y144.87 E0.00933
G1 X148.82 Y144.85 E0.00918
G1 X148.474 Y144.88 E0.00424
G1 X148.167 Y144.96 E0.00389
G1 X147.695 Y145.121 E0.0061
G1 X146.961 Y145.305 E0.00924
G1 X146.507 Y145.401 E0.00568
G1 X146.264 Y145.414 E0.00297
G1 X146.014 Y145.385 E0.00307
G1 X145.784 Y145.319 E0.00293
G1 X145.021 Y145.001 E0.0101
G1 X144.735 Y144.942 E0.00358
G1 X144.162 Y144.924 E0.00701
G1 X142.535 Y144.924 E0.01987
G1 X142.07 Y144.987 E0.00573
G1 X141.751 Y145.065 E0.00402
G1 X141.663 Y145.072 E0.00107
G1 X141.264 Y145.022 E0.00491
G1 X140.147 Y144.998 E0.01366
G1 X139.847 Y145.01 E0.00366
G1 X139.486 Y145.094 E0.00453
G1 X138.441 Y145.475 E0.01359
G1 X138.067 Y145.537 E0.00463
G1 X137.346 Y145.572 E0.00882
G1 X136.535 Y145.538 E0.00993
G1 X135.34 Y145.367 E0.01475
G1 X135.228 Y145.439 E0.00162
G1 X135.138 Y145.455 E0.00112
G1 X135.021 Y145.518 E0.00162
G1 X134.951 Y145.61 E0.00141
G1 X134.947 Y145.55 E0.00022
G1 X134.942 Y145.475 E0.00041
G1 X135.008 Y144.995 E0.00592
G1 X135.041 Y144.015 E0.01199
G1 X135.041 Y138.886 E0.06268
G1 X135.101 Y138.886 E0.00066
G1 X135.221 Y138.886 E0.00139
G1 X170.246 Y138.886 E0.42802
G1 X170.246 Y138.946 E0.00065
G1 X170.246 Y139.066 E0.00139
G1 X170.246 Y146.973 E0.09664
;WIPE_START
G1 X170.073 Y146.903 F9000
;WIPE_END
G1 X170.005 Y139.551
; External perimeter
;SolidInfill
SET_VELOCITY_LIMIT ACCEL=2000 ACCEL_TO_DECEL=2000 SQUARE_CORNER_VELOCITY=8

; Bridge infill

;TYPE:Solid infill
;WIDTH:0.241892
G1 F2400
G1 X169.671 Y139.217 E0.00582
G1 X169.374 Y139.217 E0.00366
G1 X169.914 Y139.758 E0.00942
G1 X169.914 Y140.055 E0.00366
G1 X169.077 Y139.217 E0.01459
G1 X168.78 Y139.217 E0.00366
G1 X169.914 Y140.352 E0.01976
G1 X169.914 Y140.649 E0.00366
G1 X168.483 Y139.217 E0.02494
G1 X168.186 Y139.217 E0.00366
G1 X169.914 Y140.946 E0.03011
G1 X169.914 Y141.243 E0.00366
G1 X167.889 Y139.217 E0.03528
G1 X167.592 Y139.217 E0.00366
G1 X169.914 Y141.54 E0.04045
G1 X169.914 Y141.836 E0.00366
G1 X167.295 Y139.217 E0.04562
G1 X166.998 Y139.217 E0.00366
G1 X169.914 Y142.133 E0.0508
G1 X169.914 Y142.43 E0.00366
G1 X166.701 Y139.217 E0.05597
G1 X166.404 Y139.217 E0.00366
G1 X169.914 Y142.727 E0.06114
G1 X169.914 Y143.024 E0.00366
G1 X166.107 Y139.217 E0.06631
G1 X165.811 Y139.217 E0.00366
G1 X169.914 Y143.321 E0.07148
G1 X169.914 Y143.618 E0.00366
G1 X165.514 Y139.217 E0.07666
G1 X165.217 Y139.217 E0.00366
G1 X169.914 Y143.915 E0.08183
G1 X169.914 Y144.212 E0.00366
G1 X164.92 Y139.217 E0.087
G1 X164.623 Y139.217 E0.00366
G1 X169.914 Y144.509 E0.09217
G1 X169.914 Y144.806 E0.00366
G1 X164.326 Y139.217 E0.09734
G1 X164.029 Y139.217 E0.00366
G1 X169.914 Y145.103 E0.10252
G1 X169.914 Y145.4 E0.00366
G1 X163.732 Y139.217 E0.10769
G1 X163.435 Y139.217 E0.00366
G1 X169.914 Y145.696 E0.11286
G1 X169.914 Y145.993 E0.00366
G1 X163.138 Y139.217 E0.11803
G1 X162.841 Y139.217 E0.00366
G1 X169.914 Y146.29 E0.1232
G1 X169.914 Y146.587 E0.00366
G1 X162.544 Y139.217 E0.12838
G1 X162.247 Y139.217 E0.00366
G1 X169.51 Y146.48 E0.1265
G1 X169.162 Y146.429 E0.00433
G1 X161.951 Y139.217 E0.12561
G1 X161.654 Y139.217 E0.00366
G1 X168.739 Y146.303 E0.12342
G1 X168.462 Y146.215 E0.00358
G1 X168.33 Y146.19 E0.00165
G1 X161.357 Y139.217 E0.12146
G1 X161.06 Y139.217 E0.00366
G1 X167.989 Y146.147 E0.1207
G1 X167.851 Y146.143 E0.00171
G1 X167.708 Y146.162 E0.00178
G1 X160.763 Y139.217 E0.12097
G1 X160.466 Y139.217 E0.00366
G1 X167.464 Y146.215 E0.1219
G1 X167.232 Y146.28 E0.00297
G1 X160.169 Y139.217 E0.12302
G1 X159.872 Y139.217 E0.00366
G1 X166.639 Y145.984 E0.11786
G1 X166.503 Y145.928 E0.00181
G1 X166.221 Y145.863 E0.00356
G1 X159.575 Y139.217 E0.11577
G1 X159.278 Y139.217 E0.00366
G1 X165.905 Y145.844 E0.11543
G1 X165.588 Y145.824 E0.00391
G1 X158.981 Y139.217 E0.11508
G1 X158.684 Y139.217 E0.00366
G1 X165.272 Y145.805 E0.11474
G1 X164.924 Y145.718 E0.00442
G1 X164.868 Y145.698 E0.00073
G1 X158.388 Y139.217 E0.11288
G1 X158.091 Y139.217 E0.00366
G1 X164.394 Y145.521 E0.1098
G1 X164.289 Y145.481 E0.00138
G1 X163.801 Y145.225 E0.00679
G1 X157.794 Y139.217 E0.10464
G1 X157.497 Y139.217 E0.00366
G1 X163.292 Y145.013 E0.10095
G1 X163.072 Y144.947 E0.00283
G1 X162.877 Y144.894 E0.0025
G1 X157.2 Y139.217 E0.09888
G1 X156.903 Y139.217 E0.00366
G1 X162.47 Y144.784 E0.09696
G1 X162.361 Y144.754 E0.00139
G1 X162.084 Y144.695 E0.00349
G1 X156.606 Y139.217 E0.09542
G1 X156.309 Y139.217 E0.00366
G1 X161.718 Y144.627 E0.09422
G1 X161.404 Y144.609 E0.00388
G1 X156.012 Y139.217 E0.09392
G1 X155.715 Y139.217 E0.00366
G1 X161.1 Y144.602 E0.0938
G1 X160.825 Y144.624 E0.0034
G1 X155.418 Y139.217 E0.09418
G1 X155.121 Y139.217 E0.00366
G1 X160.55 Y144.646 E0.09456
G1 X160.358 Y144.661 E0.00237
G1 X160.28 Y144.673 E0.00097
G1 X154.824 Y139.217 E0.09503
G1 X154.528 Y139.217 E0.00366
G1 X160.022 Y144.711 E0.0957
G1 X159.763 Y144.75 E0.00322
G1 X154.231 Y139.217 E0.09637
G1 X153.934 Y139.217 E0.00366
G1 X159.505 Y144.789 E0.09704
G1 X159.247 Y144.827 E0.00322
G1 X153.637 Y139.217 E0.09772
G1 X153.34 Y139.217 E0.00366
G1 X158.951 Y144.829 E0.09774
G1 X158.646 Y144.82 E0.00376
G1 X153.043 Y139.217 E0.09759
G1 X152.746 Y139.217 E0.00366
G1 X158.34 Y144.812 E0.09745
G1 X158.073 Y144.804 E0.00329
G1 X158.032 Y144.8 E0.00051
G1 X152.449 Y139.217 E0.09725
G1 X152.152 Y139.217 E0.00366
G1 X157.706 Y144.771 E0.09673
G1 X157.379 Y144.741 E0.00404
G1 X151.855 Y139.217 E0.09622
G1 X151.558 Y139.217 E0.00366
G1 X157.052 Y144.711 E0.0957
G1 X156.978 Y144.704 E0.00092
G1 X156.755 Y144.71 E0.00275
G1 X151.261 Y139.217 E0.09568
G1 X150.964 Y139.217 E0.00366
G1 X156.493 Y144.745 E0.09629
G1 X156.406 Y144.762 E0.00108
G1 X156.267 Y144.817 E0.00184
G1 X150.668 Y139.217 E0.09753
G1 X150.371 Y139.217 E0.00366
G1 X156.054 Y144.9 E0.09899
G1 X155.931 Y144.949 E0.00162
G1 X155.825 Y144.958 E0.00131
G1 X155.812 Y144.955 E0.00017
G1 X150.074 Y139.217 E0.09994
G1 X149.777 Y139.217 E0.00366
G1 X155.433 Y144.873 E0.09852
G1 X155.054 Y144.792 E0.00477
G1 X149.48 Y139.217 E0.0971
G1 X149.183 Y139.217 E0.00366
G1 X154.692 Y144.726 E0.09596
G1 X154.356 Y144.687 E0.00417
G1 X148.886 Y139.217 E0.09528
G1 X148.589 Y139.217 E0.00366
G1 X154.043 Y144.671 E0.095
G1 X153.755 Y144.68 E0.00355
G1 X148.292 Y139.217 E0.09516
G1 X147.995 Y139.217 E0.00366
G1 X153.493 Y144.715 E0.09577
G1 X153.241 Y144.759 E0.00316
G1 X147.698 Y139.217 E0.09654
G1 X147.401 Y139.217 E0.00366
G1 X153.018 Y144.834 E0.09783
G1 X152.821 Y144.9 E0.00256
G1 X152.799 Y144.912 E0.0003
G1 X147.105 Y139.217 E0.09919
G1 X146.808 Y139.217 E0.00366
G1 X152.604 Y145.014 E0.10097
G1 X152.409 Y145.116 E0.00271
G1 X146.511 Y139.217 E0.10274
G1 X146.214 Y139.217 E0.00366
G1 X152.208 Y145.212 E0.10442
G1 X152.18 Y145.218 E0.00036
G1 X151.977 Y145.194 E0.00252
G1 X151.851 Y145.152 E0.00163
G1 X145.917 Y139.217 E0.10337
G1 X145.62 Y139.217 E0.00366
G1 X151.362 Y144.96 E0.10003
G1 X151 Y144.806 E0.00485
G1 X150.878 Y144.772 E0.00156
G1 X145.323 Y139.217 E0.09676
G1 X145.026 Y139.217 E0.00366
G1 X150.468 Y144.659 E0.09479
G1 X150.394 Y144.639 E0.00094
G1 X150.116 Y144.604 E0.00346
G1 X144.729 Y139.217 E0.09383
G1 X144.432 Y139.217 E0.00366
G1 X149.776 Y144.561 E0.09308
G1 X149.597 Y144.538 E0.00222
G1 X149.453 Y144.535 E0.00177
G1 X144.135 Y139.217 E0.09262
G1 X143.838 Y139.217 E0.00366
G1 X149.148 Y144.527 E0.09249
G1 X148.843 Y144.519 E0.00375
G1 X143.541 Y139.217 E0.09235
G1 X143.245 Y139.217 E0.00366
G1 X148.566 Y144.539 E0.0927
G1 X148.418 Y144.552 E0.00183
G1 X148.31 Y144.58 E0.00137
G1 X142.948 Y139.217 E0.09341
G1 X142.651 Y139.217 E0.00366
G1 X148.075 Y144.641 E0.09448
G1 X147.853 Y144.717 E0.00288
G1 X142.354 Y139.217 E0.09579
G1 X142.057 Y139.217 E0.00366
G1 X147.632 Y144.792 E0.09711
G1 X147.601 Y144.803 E0.00041
G1 X147.397 Y144.854 E0.00259
G1 X141.76 Y139.217 E0.09819
G1 X141.463 Y139.217 E0.00366
G1 X147.159 Y144.913 E0.09922
G1 X146.922 Y144.973 E0.00302
G1 X141.166 Y139.217 E0.10025
G1 X140.869 Y139.217 E0.00366
G1 X146.678 Y145.026 E0.10118
G1 X146.463 Y145.071 E0.0027
G1 X146.428 Y145.073 E0.00043
G1 X140.572 Y139.217 E0.102
G1 X140.275 Y139.217 E0.00366
G1 X146.122 Y145.064 E0.10184
G1 X146.08 Y145.059 E0.00052
G1 X145.894 Y145.005 E0.00238
G1 X145.676 Y144.914 E0.00291
