; generated by SuperSlicer 2.3.56 on 2021-06-01 at 23:20:29 UTC

; 

; external perimeters extrusion width = 0.40mm
; perimeters extrusion width = 0.40mm
; infill extrusion width = 0.40mm
; solid infill extrusion width = 0.40mm
; top infill extrusion width = 0.40mm
; first layer extrusion width = 0.40mm


M140 S70 ; set bed temperature
;TYPE:Custom
START_PRINT T_BED=70 T_EXTRUDER=240
M107
G21 ; set units to millimeters
G90 ; use absolute coordinates
M82 ; use absolute distances for extrusion
G92 E0
; Filament gcode
M109 S240 ; set temperature and wait for it to be reached
M190 S70 ; set bed temperature and wait for it to be reached
;LAYER_CHANGE
;Z:0.24
;HEIGHT:0.24
G1 Z0.240000 F9000.000
G1 E-1.00000 F2700.000
G1 X136.992 Y108.456 F9000.000
G1 E0.00000 F2700.000
;TYPE:Skirt
;WIDTH:0.4
G1 F900.000
G1 X137.209 Y108.182 E0.01215
G1 X137.989 Y107.507 E0.04803
G1 X157.606 Y95.302 E0.85142
G1 X159.065 Y94.734 E0.90585
G1 X160.603 Y94.492 E0.95998
G1 X169.006 Y94.477 E1.25219
G1 X169.718 Y94.524 E1.27701
G1 X170.907 Y94.726 E1.31895
G1 X171.584 Y94.953 E1.34377
G1 X172.668 Y95.447 E1.38521
G1 X191.823 Y107.378 E2.16993
G1 X192.693 Y108.082 E2.20883
G1 X193.399 Y108.942 E2.24753
G1 X193.919 Y109.926 E2.28622
G1 X194.232 Y111.000 E2.32512
G1 X194.323 Y111.993 E2.35980
G1 X194.323 Y230.000 E6.46325
G1 X194.209 Y231.113 E6.50214
G1 X193.959 Y231.970 E6.53320
G1 X193.577 Y232.771 E6.56406
G1 X193.072 Y233.500 E6.59491
G1 X192.456 Y234.139 E6.62577
G1 X191.746 Y234.671 E6.65662
G1 X190.954 Y235.085 E6.68768
G1 X190.112 Y235.365 E6.71853
G1 X189.236 Y235.505 E6.74939
G1 X141.188 Y235.523 E8.42015
G1 X140.087 Y235.409 E8.45865
G1 X139.208 Y235.151 E8.49051
G1 X138.379 Y234.748 E8.52257
G1 X137.628 Y234.212 E8.55464
G1 X136.981 Y233.564 E8.58650
G1 X136.447 Y232.812 E8.61856
G1 X136.047 Y231.988 E8.65042
G1 X135.790 Y231.108 E8.68229
G1 X135.681 Y230.193 E8.71435
G1 X135.677 Y111.994 E12.82447
G1 X135.791 Y110.887 E12.86316
G1 X136.092 Y109.900 E12.89905
G1 X136.569 Y108.991 E12.93473
G1 X136.955 Y108.503 E12.95638
G1 X137.227 Y108.720 F9000.000
G1 F900.000
G1 X137.470 Y108.414 E12.96996
G1 X138.205 Y107.780 E13.00371
G1 X157.770 Y95.610 E13.80495
G1 X159.166 Y95.068 E13.85701
G1 X160.638 Y94.838 E13.90880
G1 X169.006 Y94.826 E14.19977
G1 X169.672 Y94.870 E14.22301
G1 X170.817 Y95.063 E14.26339
G1 X171.456 Y95.278 E14.28682
G1 X172.505 Y95.755 E14.32691
G1 X191.631 Y107.669 E15.11044
G1 X192.446 Y108.329 E15.14692
G1 X193.109 Y109.135 E15.18321
G1 X193.598 Y110.063 E15.21969
G1 X193.890 Y111.071 E15.25617
G1 X193.974 Y112.000 E15.28860
G1 X193.974 Y230.000 E19.39182
G1 X193.868 Y231.044 E19.42830
G1 X193.636 Y231.841 E19.45719
G1 X193.276 Y232.596 E19.48628
G1 X192.799 Y233.284 E19.51536
G1 X192.218 Y233.885 E19.54445
G1 X191.552 Y234.382 E19.57334
G1 X190.810 Y234.768 E19.60242
G1 X190.015 Y235.030 E19.63151
G1 X189.189 Y235.160 E19.66059
G1 X141.189 Y235.174 E21.32970
G1 X140.156 Y235.068 E21.36580
G1 X139.327 Y234.823 E21.39585
G1 X138.550 Y234.444 E21.42591
G1 X137.847 Y233.941 E21.45597
G1 X137.242 Y233.332 E21.48584
G1 X136.742 Y232.627 E21.51589
G1 X136.369 Y231.853 E21.54576
G1 X136.129 Y231.029 E21.57562
G1 X136.029 Y230.170 E21.60568
G1 X136.026 Y111.994 E25.71501
G1 X136.132 Y110.956 E25.75130
G1 X136.416 Y110.028 E25.78505
G1 X136.869 Y109.169 E25.81881
G1 X137.189 Y108.767 E25.83671
G92 E0
G1 E-1.00000 F2700.000
G1 X145.452 Y119.452 F9000.000
G1 E0.00000 F2700.000
;TYPE:Perimeter
G1 F900.000
G1 X145.452 Y229.452 E3.82503
G1 X141.748 Y229.452 E3.95380
G1 X141.748 Y112.548 E8.01887
G1 X157.145 Y112.548 E8.55425
G1 X157.203 Y112.539 E8.55630
G1 X157.765 Y112.465 E8.57602
G1 X158.319 Y112.236 E8.59685
G1 X158.402 Y112.192 E8.60012
G1 X158.860 Y111.841 E8.62016
G1 X158.929 Y111.776 E8.62348
G1 X159.271 Y111.330 E8.64301
G1 X159.322 Y111.252 E8.64625
G1 X159.532 Y110.744 E8.66537
G1 X159.559 Y110.677 E8.66789
G1 X159.576 Y110.595 E8.67079
G1 X159.645 Y110.071 E8.68918
G1 X159.648 Y110.019 E8.69100
G1 X159.648 Y101.936 E8.97207
G1 X159.699 Y101.551 E8.98555
G1 X159.834 Y101.227 E8.99778
G1 X160.048 Y100.948 E9.01000
G1 X160.327 Y100.734 E9.02223
G1 X160.651 Y100.599 E9.03445
G1 X161.036 Y100.548 E9.04794
G1 X168.964 Y100.548 E9.32362
G1 X169.349 Y100.599 E9.33711
G1 X169.673 Y100.734 E9.34934
G1 X169.952 Y100.948 E9.36156
G1 X170.166 Y101.227 E9.37379
G1 X170.301 Y101.551 E9.38601
G1 X170.352 Y101.936 E9.39950
G1 X170.352 Y110.019 E9.68057
G1 X170.355 Y110.071 E9.68238
G1 X170.424 Y110.595 E9.70077
G1 X170.441 Y110.677 E9.70367
G1 X170.468 Y110.744 E9.70619
G1 X170.678 Y111.252 E9.72531
G1 X170.729 Y111.330 E9.72856
G1 X171.071 Y111.776 E9.74808
G1 X171.140 Y111.841 E9.75140
G1 X171.598 Y112.192 E9.77144
G1 X171.681 Y112.236 E9.77471
G1 X172.235 Y112.465 E9.79555
G1 X172.797 Y112.539 E9.81526
G1 X172.855 Y112.548 E9.81732
G1 X188.252 Y112.548 E10.35269
G1 X188.252 Y229.452 E14.41777
G1 X184.548 Y229.452 E14.54653
G1 X184.548 Y119.452 E18.37156
G1 X181.452 Y119.452 E18.47926
G1 X181.452 Y229.452 E22.30429
G1 X172.548 Y229.452 E22.61387
G1 X172.548 Y119.452 E26.43891
G1 X169.452 Y119.452 E26.54660
G1 X169.452 Y229.452 E30.37163
G1 X160.548 Y229.452 E30.68122
G1 X160.548 Y119.452 E34.50625
G1 X157.452 Y119.452 E34.61394
G1 X157.452 Y229.452 E38.43897
G1 X148.548 Y229.452 E38.74856
G1 X148.548 Y119.452 E42.57359
G1 X145.512 Y119.452 E42.67920
G1 X145.800 Y119.800 F9000.000
;TYPE:External perimeter
G1 F900.000
G1 X145.800 Y229.800 E46.50423
G1 X141.400 Y229.800 E46.65723
G1 X141.400 Y112.200 E50.74654
G1 X157.116 Y112.200 E51.29305
G1 X157.152 Y112.194 E51.29431
G1 X157.674 Y112.125 E51.31262
G1 X158.172 Y111.919 E51.33134
G1 X158.215 Y111.897 E51.33302
G1 X158.633 Y111.576 E51.35138
G1 X158.670 Y111.542 E51.35311
G1 X158.986 Y111.129 E51.37120
G1 X159.012 Y111.089 E51.37285
G1 X159.209 Y110.614 E51.39074
G1 X159.224 Y110.577 E51.39213
G1 X159.232 Y110.537 E51.39354
G1 X159.298 Y110.036 E51.41110
G1 X159.300 Y110.007 E51.41212
G1 X159.300 Y101.913 E51.69357
G1 X159.360 Y101.460 E51.70944
G1 X159.529 Y101.051 E51.72486
G1 X159.799 Y100.699 E51.74028
G1 X160.151 Y100.429 E51.75569
G1 X160.560 Y100.260 E51.77111
G1 X161.013 Y100.200 E51.78698
G1 X168.987 Y100.200 E52.06426
G1 X169.440 Y100.260 E52.08013
G1 X169.849 Y100.429 E52.09555
G1 X170.201 Y100.699 E52.11096
G1 X170.471 Y101.051 E52.12638
G1 X170.640 Y101.460 E52.14180
G1 X170.700 Y101.913 E52.15767
G1 X170.700 Y110.007 E52.43912
G1 X170.702 Y110.036 E52.44014
G1 X170.768 Y110.537 E52.45770
G1 X170.776 Y110.577 E52.45911
G1 X170.791 Y110.614 E52.46050
G1 X170.988 Y111.089 E52.47839
G1 X171.014 Y111.129 E52.48004
G1 X171.330 Y111.542 E52.49813
G1 X171.367 Y111.576 E52.49986
G1 X171.785 Y111.897 E52.51822
G1 X171.828 Y111.919 E52.51990
G1 X172.326 Y112.125 E52.53862
G1 X172.848 Y112.194 E52.55693
G1 X172.884 Y112.200 E52.55819
G1 X188.600 Y112.200 E53.10470
G1 X188.600 Y229.800 E57.19401
G1 X184.200 Y229.800 E57.34701
G1 X184.200 Y119.800 E61.17204
G1 X181.800 Y119.800 E61.25550
G1 X181.800 Y229.800 E65.08053
G1 X172.200 Y229.800 E65.41435
G1 X172.200 Y119.800 E69.23938
G1 X169.800 Y119.800 E69.32284
G1 X169.800 Y229.800 E73.14787
G1 X160.200 Y229.800 E73.48169
G1 X160.200 Y119.800 E77.30673
G1 X157.800 Y119.800 E77.39018
G1 X157.800 Y229.800 E81.21522
G1 X148.200 Y229.800 E81.54904
G1 X148.200 Y119.800 E85.37407
G1 X145.860 Y119.800 E85.45544
G1 X145.400 Y119.800 F9000.000
G92 E0
G1 E-1.00000 F2700.000
G1 X187.425 Y112.670 F9000.000
G1 E0.00000 F2700.000
;TYPE:Solid infill
;WIDTH:0.404576
G1 F1800.000
G1 X187.973 Y113.218 E0.02724
G1 X187.973 Y113.711 E0.04457
G1 X187.089 Y112.827 E0.08853
G1 X186.596 Y112.827 E0.10586
G1 X187.973 Y114.204 E0.17433
G1 X187.973 Y114.697 E0.19166
G1 X186.103 Y112.827 E0.28464
G1 X185.610 Y112.827 E0.30198
G1 X187.973 Y115.190 E0.41947
G1 X187.973 Y115.682 E0.43681
G1 X185.118 Y112.827 E0.57882
G1 X184.625 Y112.827 E0.59615
G1 X187.973 Y116.175 E0.76267
G1 X187.973 Y116.668 E0.78001
G1 X184.132 Y112.827 E0.97104
G1 X183.639 Y112.827 E0.98838
G1 X187.973 Y117.161 E1.20393
G1 X187.973 Y117.654 E1.22126
G1 X183.146 Y112.827 E1.46132
G1 X182.653 Y112.827 E1.47866
G1 X187.973 Y118.147 E1.74323
G1 X187.973 Y118.639 E1.76057
G1 X182.161 Y112.827 E2.04966
G1 X181.668 Y112.827 E2.06699
G1 X187.973 Y119.132 E2.38060
G1 X187.973 Y119.625 E2.39793
G1 X181.175 Y112.827 E2.73605
G1 X180.682 Y112.827 E2.75338
G1 X187.973 Y120.118 E3.11602
G1 X187.973 Y120.611 E3.13335
G1 X180.189 Y112.827 E3.52050
G1 X179.696 Y112.827 E3.53783
G1 X187.973 Y121.104 E3.94949
G1 X187.973 Y121.597 E3.96682
G1 X179.203 Y112.827 E4.40300
G1 X178.711 Y112.827 E4.42033
G1 X187.973 Y122.089 E4.88102
G1 X187.973 Y122.582 E4.89835
G1 X178.218 Y112.827 E5.38355
G1 X177.725 Y112.827 E5.40088
G1 X184.070 Y119.173 E5.71650
G1 X183.578 Y119.173 E5.73383
G1 X177.232 Y112.827 E6.04945
G1 X176.739 Y112.827 E6.06678
G1 X183.085 Y119.173 E6.38240
G1 X182.592 Y119.173 E6.39973
G1 X176.246 Y112.827 E6.71535
G1 X175.754 Y112.827 E6.73268
G1 X182.099 Y119.173 E7.04830
G1 X181.606 Y119.173 E7.06563
G1 X175.261 Y112.827 E7.38125
G1 X174.768 Y112.827 E7.39858
G1 X181.173 Y119.232 E7.71715
G1 X181.173 Y119.725 E7.73449
G1 X174.275 Y112.827 E8.07757
G1 X173.782 Y112.827 E8.09491
G1 X181.173 Y120.218 E8.46250
G1 X181.173 Y120.711 E8.47984
G1 X173.289 Y112.827 E8.87195
G1 X172.837 Y112.827 E8.88788
G1 X172.790 Y112.821 E8.88952
G1 X181.173 Y121.204 E9.30645
G1 X181.173 Y121.696 E9.32379
G1 X171.954 Y112.477 E9.78234
G92 E0
G1 E-1.00000 F2700.000
G1 X170.220 Y101.873 F9000.000
G1 E0.00000 F2700.000
G1 F1800.000
G1 X169.210 Y100.862 E0.05026
G1 X168.946 Y100.827 E0.05962
G1 X168.682 Y100.827 E0.06890
G1 X170.073 Y102.218 E0.13807
G1 X170.073 Y102.711 E0.15540
G1 X168.189 Y100.827 E0.24909
G1 X167.696 Y100.827 E0.26642
G1 X170.073 Y103.204 E0.38462
G1 X170.073 Y103.697 E0.40196
G1 X167.203 Y100.827 E0.54467
G1 X166.711 Y100.827 E0.56200
G1 X170.073 Y104.189 E0.72923
G1 X170.073 Y104.682 E0.74656
G1 X166.218 Y100.827 E0.93830
G1 X165.725 Y100.827 E0.95564
G1 X170.073 Y105.175 E1.17189
G1 X170.073 Y105.668 E1.18923
G1 X165.232 Y100.827 E1.42999
G1 X164.739 Y100.827 E1.44733
G1 X170.073 Y106.161 E1.71261
G1 X170.073 Y106.654 E1.72994
G1 X164.246 Y100.827 E2.01974
G1 X163.754 Y100.827 E2.03707
G1 X170.073 Y107.146 E2.35138
G1 X170.073 Y107.639 E2.36871
G1 X163.261 Y100.827 E2.70754
G1 X162.768 Y100.827 E2.72487
G1 X170.073 Y108.132 E3.08821
G1 X170.073 Y108.625 E3.10554
G1 X162.275 Y100.827 E3.49339
G1 X161.782 Y100.827 E3.51072
G1 X170.073 Y109.118 E3.92309
G1 X170.073 Y109.611 E3.94042
G1 X161.289 Y100.827 E4.37730
G1 X161.054 Y100.827 E4.38557
G1 X160.826 Y100.857 E4.39365
G1 X170.082 Y110.113 E4.85403
G1 X170.149 Y110.641 E4.87275
G1 X170.157 Y110.681 E4.87417
G1 X160.459 Y100.983 E5.35652
G1 X160.247 Y101.147 E5.36597
G1 X160.196 Y101.212 E5.36889
G1 X181.173 Y122.189 E6.41225
G1 X181.173 Y122.682 E6.42959
G1 X160.013 Y101.522 E7.48205
G1 X159.971 Y101.624 E7.48593
G1 X159.930 Y101.932 E7.49686
G1 X181.173 Y123.175 E8.55345
G1 X181.173 Y123.668 E8.57078
G1 X159.927 Y102.422 E9.62751
G1 X159.927 Y102.915 E9.64484
G1 X181.173 Y124.161 E10.70157
G1 X181.173 Y124.653 E10.71890
G1 X159.927 Y103.408 E11.77563
G1 X159.927 Y103.901 E11.79296
G1 X181.173 Y125.146 E12.84969
G1 X181.173 Y125.639 E12.86702
G1 X159.927 Y104.394 E13.92375
G1 X159.927 Y104.887 E13.94109
G1 X181.173 Y126.132 E14.99781
G1 X181.173 Y126.625 E15.01515
G1 X159.927 Y105.379 E16.07187
G1 X159.927 Y105.872 E16.08921
G1 X181.173 Y127.118 E17.14594
G1 X181.173 Y127.611 E17.16327
G1 X159.927 Y106.365 E18.22000
G1 X159.927 Y106.858 E18.23733
G1 X172.242 Y119.173 E18.84986
G1 X171.749 Y119.173 E18.86719
G1 X159.927 Y107.351 E19.45520
G1 X159.927 Y107.844 E19.47254
G1 X171.256 Y119.173 E20.03603
G1 X170.764 Y119.173 E20.05337
G1 X159.927 Y108.336 E20.59235
G1 X159.927 Y108.829 E20.60969
G1 X170.271 Y119.173 E21.12416
G1 X169.778 Y119.173 E21.14149
G1 X159.927 Y109.322 E21.63145
G1 X159.927 Y109.815 E21.64878
G1 X169.285 Y119.173 E22.11423
G1 X169.173 Y119.173 E22.11817
G1 X169.173 Y119.553 E22.13156
G1 X159.897 Y110.277 E22.59293
G1 X159.851 Y110.641 E22.60583
G1 X159.837 Y110.710 E22.60830
G1 X169.173 Y120.046 E23.07266
G1 X169.173 Y120.539 E23.09000
G1 X159.700 Y111.066 E23.56116
G1 X159.570 Y111.383 E23.57320
G1 X159.551 Y111.411 E23.57437
G1 X169.173 Y121.032 E24.05292
G1 X169.173 Y121.525 E24.07026
G1 X159.343 Y111.695 E24.55919
G1 X159.129 Y111.973 E24.57153
G1 X159.129 Y111.973 E24.57155
G1 X169.173 Y122.018 E25.07113
G1 X169.173 Y122.510 E25.08847
G1 X158.853 Y112.191 E25.60174
G1 X158.578 Y112.409 E25.61408
G1 X169.173 Y123.003 E26.14104
G1 X169.173 Y123.496 E26.15838
G1 X158.245 Y112.568 E26.70193
G1 X157.896 Y112.712 E26.71519
G1 X169.173 Y123.989 E27.27607
G1 X169.173 Y124.482 E27.29341
G1 X157.476 Y112.785 E27.87519
G1 X157.163 Y112.827 E27.88628
G1 X157.025 Y112.827 E27.89114
G1 X169.173 Y124.975 E28.49533
G1 X169.173 Y125.467 E28.51267
G1 X156.533 Y112.827 E29.14138
G1 X156.040 Y112.827 E29.15871
G1 X169.173 Y125.960 E29.81193
G1 X169.173 Y126.453 E29.82927
G1 X155.547 Y112.827 E30.50700
G1 X155.054 Y112.827 E30.52434
G1 X169.173 Y126.946 E31.22659
G1 X169.173 Y127.439 E31.24392
G1 X154.561 Y112.827 E31.97069
G1 X154.068 Y112.827 E31.98802
G1 X160.414 Y119.173 E32.30364
G1 X160.827 Y119.173 E32.31818
G1 X160.827 Y119.586 E32.33272
G1 X169.173 Y127.932 E32.74782
G1 X169.173 Y128.425 E32.76515
G1 X160.827 Y120.079 E33.18024
G1 X160.827 Y120.572 E33.19758
G1 X169.173 Y128.917 E33.61267
G1 X169.173 Y129.410 E33.63001
G1 X160.827 Y121.065 E34.04510
G1 X160.827 Y121.558 E34.06243
G1 X169.173 Y129.903 E34.47753
G1 X169.173 Y130.396 E34.49486
G1 X160.827 Y122.050 E34.90996
G1 X160.827 Y122.543 E34.92729
G1 X169.173 Y130.889 E35.34238
G1 X169.173 Y131.382 E35.35972
G1 X160.827 Y123.036 E35.77481
G1 X160.827 Y123.529 E35.79215
G1 X169.173 Y131.874 E36.20724
G1 X169.173 Y132.367 E36.22457
G1 X160.827 Y124.022 E36.63967
G1 X160.827 Y124.515 E36.65700
G1 X169.173 Y132.860 E37.07209
G1 X169.173 Y133.353 E37.08943
G1 X160.827 Y125.008 E37.50452
G1 X160.827 Y125.500 E37.52186
G1 X169.173 Y133.846 E37.93695
G1 X169.173 Y134.339 E37.95428
G1 X160.827 Y125.993 E38.36938
G1 X160.827 Y126.486 E38.38671
G1 X169.173 Y134.832 E38.80181
G1 X169.173 Y135.324 E38.81914
G1 X160.827 Y126.979 E39.23423
G1 X160.827 Y127.472 E39.25157
G1 X169.173 Y135.817 E39.66666
G1 X169.173 Y136.310 E39.68400
G1 X160.827 Y127.965 E40.09909
G1 X160.827 Y128.457 E40.11642
G1 X169.173 Y136.803 E40.53152
G1 X169.173 Y137.296 E40.54885
G1 X160.827 Y128.950 E40.96394
G1 X160.827 Y129.443 E40.98128
G1 X169.173 Y137.789 E41.39637
G1 X169.173 Y138.281 E41.41371
G1 X160.827 Y129.936 E41.82880
G1 X160.827 Y130.429 E41.84613
G1 X169.173 Y138.774 E42.26123
G1 X169.173 Y139.267 E42.27856
G1 X160.827 Y130.922 E42.69366
G1 X160.827 Y131.415 E42.71099
G1 X169.173 Y139.760 E43.12608
G1 X169.173 Y140.253 E43.14342
G1 X160.827 Y131.907 E43.55851
G1 X160.827 Y132.400 E43.57585
G1 X169.173 Y140.746 E43.99094
G1 X169.173 Y141.239 E44.00827
G1 X160.827 Y132.893 E44.42337
G1 X160.827 Y133.386 E44.44070
G1 X169.173 Y141.731 E44.85580
G1 X169.173 Y142.224 E44.87313
G1 X160.827 Y133.879 E45.28822
G1 X160.827 Y134.372 E45.30556
G1 X169.173 Y142.717 E45.72065
G1 X169.173 Y143.210 E45.73798
G1 X160.827 Y134.864 E46.15308
G1 X160.827 Y135.357 E46.17041
G1 X169.173 Y143.703 E46.58551
G1 X169.173 Y144.196 E46.60284
G1 X160.827 Y135.850 E47.01793
G1 X160.827 Y136.343 E47.03527
G1 X169.173 Y144.688 E47.45036
G1 X169.173 Y145.181 E47.46770
G1 X160.827 Y136.836 E47.88279
G1 X160.827 Y137.329 E47.90012
G1 X169.173 Y145.674 E48.31522
G1 X169.173 Y146.167 E48.33255
G1 X160.827 Y137.822 E48.74765
G1 X160.827 Y138.314 E48.76498
G1 X169.173 Y146.660 E49.18007
G1 X169.173 Y147.153 E49.19741
G1 X160.827 Y138.807 E49.61250
G1 X160.827 Y139.300 E49.62983
G1 X169.173 Y147.646 E50.04493
G1 X169.173 Y148.138 E50.06226
G1 X160.827 Y139.793 E50.47736
G1 X160.827 Y140.286 E50.49469
G1 X169.173 Y148.631 E50.90978
G1 X169.173 Y149.124 E50.92712
G1 X160.827 Y140.779 E51.34221
G1 X160.827 Y141.271 E51.35955
