; generated by SuperSlicer 2.5.59 on 2022-12-21 at 03:28:19 UTC


;
;

;
;
; 

; external perimeters extrusion width = 0.40mm
; perimeters extrusion width = 0.46mm
; infill extrusion width = 0.64mm
; solid infill extrusion width = 0.56mm
; top infill extrusion width = 0.40mm
; support material extrusion width = 0.46mm
; first layer extrusion width = 0.50mm

; external perimeters extrusion width = 0.40mm
; perimeters extrusion width = 0.46mm
; infill extrusion width = 0.64mm
; solid infill extrusion width = 0.56mm
; top infill extrusion width = 0.40mm
; support material extrusion width = 0.46mm
; first layer extrusion width = 0.50mm

; external perimeters extrusion width = 0.40mm
; perimeters extrusion width = 0.46mm
; infill extrusion width = 0.64mm
; solid infill extrusion width = 0.56mm
; top infill extrusion width = 0.40mm
; support material extrusion width = 0.46mm
; first layer extrusion width = 0.50mm

; external perimeters extrusion width = 0.40mm
; perimeters extrusion width = 0.46mm
; infill extrusion width = 0.64mm
; solid infill extrusion width = 0.56mm
; top infill extrusion width = 0.40mm
; support material extrusion width = 0.46mm
; first layer extrusion width = 0.50mm

; external perimeters extrusion width = 0.40mm
; perimeters extrusion width = 0.46mm
; infill extrusion width = 0.64mm
; solid infill extrusion width = 0.56mm
; top infill extrusion width = 0.40mm
; support material extrusion width = 0.46mm
; first layer extrusion width = 0.50mm

; external perimeters extrusion width = 0.40mm
; perimeters extrusion width = 0.46mm
; infill extrusion width = 0.64mm
; solid infill extrusion width = 0.56mm
; top infill extrusion width = 0.40mm
; support material extrusion width = 0.46mm
; first layer extrusion width = 0.50mm

; object:{"name":"2x1","id":"2x1.stl id:0 copy 0","object_center":[225.600000,156.742378,0.000000],"boundingbox_center":[225.600000,156.742378,7.300000],"boundingbox_size":[68.199997,23.200001,14.600000]}
; object:{"name":"drawer","id":"drawer.stl id:1 copy 0","object_center":[115.400000,173.280310,0.000000],"boundingbox_center":[115.400000,173.280310,9.400001],"boundingbox_size":[140.199997,130.000000,18.800001]}
; object:{"name":"1x2(2)","id":"1x2(2).stl id:2 copy 0","object_center":[173.625869,84.919692,0.000000],"boundingbox_center":[173.625869,84.919692,7.300000],"boundingbox_size":[34.099998,46.400002,14.600000]}
; object:{"name":"2x2","id":"2x2.stl id:3 copy 0","object_center":[225.600000,197.542378,0.000000],"boundingbox_center":[225.600000,197.542378,7.300000],"boundingbox_size":[68.199997,46.400002,14.600000]}
; object:{"name":"1x1","id":"1x1.stl id:4 copy 0","object_center":[133.525868,90.680310,0.000000],"boundingbox_center":[133.525868,90.680310,7.300000],"boundingbox_size":[34.099998,23.200001,14.600000]}
; object:{"name":"2x1","id":"2x1.stl id:5 copy 0","object_center":[225.600000,127.542378,0.000000],"boundingbox_center":[225.600000,127.542378,7.300000],"boundingbox_size":[68.199997,23.200001,14.600000]}
; plater:{"center":[152.500000,150.000001,0.000000],"boundingbox_center":[152.500000,150.000001,9.400001],"boundingbox_size":[214.399997,176.560619,18.800001]}

M73 P0 R255


; Pre-Processed for Cancel-Object support by preprocess_cancellation v0.2.0
; 6 known objects
EXCLUDE_OBJECT_DEFINE NAME=2x1_stl_id_0_copy_0 CENTER=227.333,156.688 POLYGON=[[191.7,145.342],[191.7,168.142],[259.5,168.142],[259.5,145.342]]
EXCLUDE_OBJECT_DEFINE NAME=2x1_stl_id_5_copy_0 CENTER=227.374,127.549 POLYGON=[[191.7,116.142],[191.7,138.942],[259.5,138.942],[259.5,116.142]]
EXCLUDE_OBJECT_DEFINE NAME=1x2_2_stl_id_2_copy_0 CENTER=173.827,85.461 POLYGON=[[156.776,61.92],[156.776,107.919],[190.475,107.919],[190.475,61.92]]
EXCLUDE_OBJECT_DEFINE NAME=1x1_stl_id_4_copy_0 CENTER=133.570,90.969 POLYGON=[[116.678,79.28],[116.678,102.08],[150.368,102.08],[150.368,79.28]]
EXCLUDE_OBJECT_DEFINE NAME=drawer_stl_id_1_copy_0 CENTER=116.387,138.472 POLYGON=[[45.5,102.649],[45.5,238.08],[185.3,238.08],[185.3,102.649]]
EXCLUDE_OBJECT_DEFINE NAME=2x2_stl_id_3_copy_0 CENTER=225.755,197.777 POLYGON=[[191.7,174.542],[191.7,220.542],[259.498,220.542],[259.498,174.542]]
;TYPE:Custom
START_PRINT T_BED=60 T_EXTRUDER=200
M107
G21 ; set units to millimeters
G90 ; use absolute coordinates
M83 ; use relative distances for extrusion
; Filament gcode
PRESSURE_ADVANCE_SELECT FILAMENT=PLA
;_TOOLCHANGE 0
M104 S200 ; set temperature
M109 S200 ; set temperature and wait for it to be reached
M190 S60 ; set bed temperature and wait for it to be reached
M107
;LAYER_CHANGE
;Z:0.2
;HEIGHT:0.2
G1 Z0.2 F9000
G92 E0
G1 E-0.8 F3000
M204 S1000
G1 X58.043 Y108.66 F9000
G1 E0.8 F1800
;TYPE:Skirt
;WIDTH:0.52
G1 X45.157 Y115.544 E0.55056
G1 X43.891 Y116.462 E0.05893
G1 X43.131 Y117.287 E0.04228
G1 X42.51 Y118.234 E0.04269
G1 X42.086 Y119.181 E0.03909
G1 X41.8 Y120.245 E0.0415
G1 X41.684 Y121.478 E0.04669
G1 X41.684 Y238.18 E4.39802
G1 X42.421 Y240.401 E0.08819
G1 X43.734 Y241.501 E0.06454
G1 X45.4 Y241.896 E0.06454
G1 X185.4 Y241.896 E5.27602
G1 X186.336 Y241.776 E0.03558
G1 X258.037 Y223.105 E2.79222
G1 X259.26 Y222.608 E0.04972
G1 X259.912 Y222.195 E0.02912
G1 X260.632 Y221.569 E0.03597
G1 X261.092 Y221.035 E0.02655
G1 X261.484 Y220.449 E0.02655
G1 X261.963 Y219.397 E0.04359
G1 X262.195 Y218.47 E0.03601
G1 X262.272 Y217.576 E0.03378
G1 X262.271 Y119.074 E3.71217
G1 X262.027 Y117.501 E0.05998
G1 X261.612 Y116.476 E0.04165
G1 X260.754 Y115.25 E0.05641
G1 X259.933 Y114.51 E0.04165
G1 X190.891 Y60.273 E3.30873
G1 X189.962 Y59.717 E0.04081
G1 X189.301 Y59.451 E0.02684
G1 X187.897 Y59.168 E0.054
G1 X159.705 Y59.149 E1.06242
G1 X158.65 Y59.261 E0.03999
G1 X157.496 Y59.617 E0.04551
G1 X117.024 Y77.155 E1.66227
G1 X58.043 Y108.66 E2.51998
M73 P0 R255
G1 X58.268 Y109.081 F9000
G1 F1800
G1 X45.382 Y115.965 E0.55056
G1 X44.222 Y116.806 E0.05399
G1 X43.499 Y117.591 E0.04024
G1 X42.934 Y118.452 E0.03878
G1 X42.532 Y119.353 E0.03721
G1 X42.271 Y120.32 E0.03774
G1 X42.162 Y121.478 E0.04384
G1 X42.161 Y238.18 E4.39802
G1 X42.681 Y239.939 E0.06912
G1 X43.852 Y241.025 E0.06019
G1 X45.4 Y241.419 E0.06019
G1 X185.4 Y241.419 E5.27602
G1 X186.216 Y241.314 E0.03101
G1 X257.917 Y222.643 E2.79222
G1 X259.021 Y222.195 E0.04491
G1 X259.622 Y221.816 E0.02676
G1 X260.298 Y221.228 E0.03377
G1 X260.719 Y220.738 E0.02435
G1 X261.077 Y220.2 E0.02436
G1 X261.508 Y219.253 E0.03921
G1 X261.725 Y218.383 E0.03381
G1 X261.795 Y217.577 E0.03049
G1 X261.794 Y119.074 E3.71217
G1 X261.575 Y117.652 E0.0542
G1 X261.197 Y116.711 E0.03821
G1 X260.391 Y115.56 E0.05296
G1 X259.636 Y114.883 E0.03821
G1 X190.596 Y60.649 E3.30862
G1 X189.742 Y60.141 E0.03747
G1 X189.166 Y59.908 E0.02339
G1 X187.847 Y59.643 E0.05071
G1 X159.705 Y59.626 E1.06054
G1 X158.753 Y59.727 E0.03608
G1 X157.686 Y60.055 E0.04209
G1 X117.249 Y77.576 E1.6608
G1 X58.268 Y109.081 E2.51998
G1 E-0.8 F3000
; printing object 2x1.stl id:0 copy 0
EXCLUDE_OBJECT_START NAME=2x1_stl_id_0_copy_0
G1 X193.834 Y148.143 F9000
G1 E0.8 F1800
;TYPE:Internal perimeter
;WIDTH:0.5
G1 X193.876 Y148.01 E0.00503
G1 X193.941 Y147.88 E0.00523
G1 X194.006 Y147.787 E0.00408
G1 X194.109 Y147.678 E0.00543
G1 X194.203 Y147.605 E0.00428
G1 X194.305 Y147.546 E0.00428
G1 X194.445 Y147.491 E0.00543
G1 X194.555 Y147.465 E0.00408
G1 X194.75 Y147.45 E0.00703
G1 X195.697 Y147.45 E0.03422
G1 X256.471 Y147.45 E2.19431
G1 X256.664 Y147.47 E0.00699
G1 X256.832 Y147.52 E0.00634
G1 X256.983 Y147.599 E0.00614
G1 X257.116 Y147.705 E0.00614
G1 X257.226 Y147.834 E0.00614
G1 X257.31 Y147.982 E0.00614
G1 X257.364 Y148.143 E0.00614
G1 X257.391 Y148.35 E0.00753
G1 X257.384 Y165.225 E0.6093
G1 X257.361 Y165.363 E0.00504
G1 X257.326 Y165.47 E0.00408
G1 X257.259 Y165.605 E0.00544
G1 X257.194 Y165.698 E0.00408
G1 X257.091 Y165.807 E0.00543
G1 X256.997 Y165.88 E0.00428
G1 X256.895 Y165.939 E0.00428
G1 X256.755 Y165.994 E0.00543
G1 X256.645 Y166.02 E0.00408
G1 X256.45 Y166.035 E0.00703
G1 X194.723 Y166.035 E2.22873
G1 X194.546 Y166.017 E0.00643
G1 X194.411 Y165.983 E0.00504
G1 X194.283 Y165.927 E0.00503
G1 X194.165 Y165.852 E0.00504
G1 X194.061 Y165.76 E0.00503
G1 X193.972 Y165.652 E0.00504
G1 X193.901 Y165.532 E0.00503
G1 X193.848 Y165.397 E0.00524
G1 X193.823 Y165.287 E0.00408
G1 X193.808 Y165.093 E0.00703
G1 X193.813 Y148.286 E0.60683
G1 X193.834 Y148.143 E0.00524
G1 X193.946 Y147.225 F9000
G1 F1800
G1 X194.106 Y147.133 E0.00666
G1 X194.309 Y147.053 E0.00789
G1 X194.486 Y147.012 E0.00653
G1 X194.732 Y146.993 E0.00891
G1 X195.697 Y146.993 E0.03487
G1 X256.495 Y146.993 E2.19517
G1 X256.753 Y147.02 E0.00937
G1 X257.004 Y147.095 E0.00944
G1 X257.233 Y147.214 E0.00932
G1 X257.435 Y147.374 E0.00931
G1 X257.602 Y147.57 E0.00931
G1 X257.729 Y147.795 E0.00931
G1 X257.811 Y148.04 E0.00932
G1 X257.848 Y148.32 E0.0102
G1 X257.841 Y165.263 E0.61175
G1 X257.806 Y165.472 E0.00764
G1 X257.751 Y165.644 E0.00653
G1 X257.653 Y165.839 E0.00789
G1 X257.549 Y165.988 E0.00653
G1 X257.399 Y166.146 E0.00789
G1 X257.254 Y166.26 E0.00666
G1 X257.094 Y166.352 E0.00666
G1 X256.891 Y166.432 E0.00789
G1 X256.714 Y166.473 E0.00653
G1 X256.468 Y166.492 E0.00891
G1 X194.701 Y166.492 E2.23017
G1 X194.466 Y166.469 E0.00852
G1 X194.261 Y166.416 E0.00763
G1 X194.068 Y166.332 E0.00763
G1 X193.889 Y166.218 E0.00763
G1 X193.731 Y166.078 E0.00763
G1 X193.597 Y165.915 E0.00763
G1 X193.489 Y165.733 E0.00763
G1 X193.411 Y165.533 E0.00776
G1 X193.37 Y165.357 E0.00653
G1 X193.35 Y165.111 E0.0089
G1 X193.356 Y148.252 E0.6087
G1 X193.387 Y148.039 E0.00776
G1 X193.451 Y147.838 E0.00763
G1 X193.547 Y147.645 E0.00776
G1 X193.651 Y147.497 E0.00653
G1 X193.801 Y147.339 E0.00789
G1 X193.946 Y147.225 E0.00666
G1 X192.941 Y147.936 F9000
;TYPE:External perimeter
G1 F1800
G1 X193.026 Y147.666 E0.01023
G1 X193.153 Y147.411 E0.01029
G1 X193.296 Y147.207 E0.00899
G1 X193.493 Y147 E0.01034
G1 X193.69 Y146.845 E0.00904
G1 X193.907 Y146.72 E0.00904
G1 X194.174 Y146.615 E0.01034
G1 X194.416 Y146.559 E0.00899
G1 X194.714 Y146.536 E0.01078
G1 X195.697 Y146.536 E0.03551
G1 X256.519 Y146.536 E2.19604
G1 X256.843 Y146.57 E0.01175
G1 X257.176 Y146.669 E0.01255
G1 X257.483 Y146.829 E0.01249
G1 X257.754 Y147.044 E0.01249
G1 X257.979 Y147.307 E0.01249
G1 X258.149 Y147.608 E0.01249
G1 X258.259 Y147.936 E0.01249
G1 X258.305 Y148.29 E0.01288
G1 X258.298 Y165.301 E0.61421
G1 X258.252 Y165.581 E0.01023
G1 X258.175 Y165.817 E0.00898
G1 X258.047 Y166.074 E0.01034
G1 X257.904 Y166.278 E0.00899
G1 X257.707 Y166.485 E0.01034
G1 X257.51 Y166.639 E0.00904
G1 X257.293 Y166.765 E0.00904
G1 X257.026 Y166.87 E0.01034
G1 X256.784 Y166.926 E0.00899
G1 X256.486 Y166.949 E0.01078
G1 X194.679 Y166.949 E2.23161
G1 X194.387 Y166.92 E0.01062
G1 X194.112 Y166.85 E0.01023
G1 X193.852 Y166.737 E0.01023
G1 X193.613 Y166.584 E0.01023
G1 X193.401 Y166.397 E0.01023
G1 X193.221 Y166.178 E0.01023
G1 X193.077 Y165.934 E0.01023
G1 X192.973 Y165.669 E0.01029
G1 X192.917 Y165.426 E0.00898
G1 X192.893 Y165.129 E0.01078
G1 X192.899 Y148.218 E0.61058
G1 X192.941 Y147.936 E0.01029
;WIPE_START
M204 S3000
G1 X193.326 Y147.829 F9000
;WIPE_END
G1 E-0.8 F3000
M204 S1000
G1 X256.543 Y147.539 F9000
G1 E0.8 F1800
;TYPE:Solid infill
;WIDTH:0.496305
G1 F2400
G1 X257.303 Y148.299 E0.0385
G1 X257.321 Y148.964 F9000
G1 F2400
G1 X255.897 Y147.539 E0.07222
G1 X255.25 Y147.539 F9000
G1 F2400
G1 X257.32 Y149.609 E0.10493
G1 X257.319 Y150.254 F9000
G1 F2400
G1 X254.603 Y147.538 E0.13765
G1 X253.957 Y147.538 F9000
G1 F2400
G1 X257.318 Y150.899 E0.17037
G1 X257.317 Y151.545 F9000
G1 F2400
G1 X253.31 Y147.538 E0.20308
G1 X252.663 Y147.538 F9000
G1 F2400
G1 X257.316 Y152.19 E0.2358
G1 X257.315 Y152.835 F9000
G1 F2400
G1 X252.017 Y147.537 E0.26852
G1 X251.37 Y147.537 F9000
G1 F2400
G1 X257.314 Y153.481 E0.30123
G1 X257.312 Y154.126 F9000
G1 F2400
G1 X250.724 Y147.537 E0.33395
G1 X250.077 Y147.537 F9000
G1 F2400
G1 X257.311 Y154.771 E0.36667
G1 X257.31 Y155.416 F9000
G1 F2400
G1 X249.43 Y147.537 E0.39938
G1 X248.784 Y147.536 F9000
G1 F2400
G1 X257.309 Y156.062 E0.4321
G1 X257.308 Y156.707 F9000
G1 F2400
G1 X248.137 Y147.536 E0.46481
G1 X247.49 Y147.536 F9000
G1 F2400
G1 X257.307 Y157.352 E0.49753
G1 X257.306 Y157.997 F9000
G1 F2400
G1 X246.844 Y147.536 E0.53025
G1 X246.197 Y147.535 F9000
G1 F2400
G1 X257.304 Y158.643 E0.56296
G1 X257.303 Y159.288 F9000
G1 F2400
G1 X245.551 Y147.535 E0.59568
G1 X244.904 Y147.535 F9000
G1 F2400
G1 X257.302 Y159.933 E0.6284
G1 X257.301 Y160.579 F9000
G1 F2400
G1 X244.257 Y147.535 E0.66111
G1 X243.611 Y147.535 F9000
G1 F2400
G1 X257.3 Y161.224 E0.69383
G1 X257.299 Y161.869 F9000
G1 F2400
G1 X242.964 Y147.534 E0.72654
G1 X242.317 Y147.534 F9000
G1 F2400
G1 X257.298 Y162.514 E0.75926
G1 X257.297 Y163.16 F9000
G1 F2400
G1 X241.671 Y147.534 E0.79198
G1 X241.024 Y147.534 F9000
G1 F2400
G1 X257.295 Y163.805 E0.82469
G1 X257.294 Y164.45 F9000
G1 F2400
G1 X240.378 Y147.534 E0.85741
G1 X239.731 Y147.533 F9000
G1 F2400
G1 X257.293 Y165.095 E0.89013
G1 X257.161 Y165.61 F9000
G1 F2400
G1 X239.084 Y147.533 E0.91622
G1 X238.438 Y147.533 F9000
G1 F2400
G1 X256.776 Y165.871 E0.92947
G1 X256.225 Y165.966 F9000
G1 F2400
G1 X237.791 Y147.533 E0.9343
G1 X237.144 Y147.532 F9000
G1 F2400
G1 X255.578 Y165.966 E0.93431
G1 X254.932 Y165.966 F9000
G1 F2400
G1 X236.498 Y147.532 E0.93432
G1 X235.851 Y147.532 F9000
G1 F2400
G1 X254.286 Y165.966 E0.93433
G1 X253.639 Y165.966 F9000
G1 F2400
G1 X235.205 Y147.532 E0.93434
G1 X234.558 Y147.532 F9000
G1 F2400
G1 X252.993 Y165.966 E0.93435
G1 X252.346 Y165.966 F9000
G1 F2400
G1 X233.911 Y147.531 E0.93436
M73 P1 R254
G1 X233.265 Y147.531 F9000
G1 F2400
G1 X251.7 Y165.966 E0.93437
G1 X251.053 Y165.966 F9000
G1 F2400
G1 X232.618 Y147.531 E0.93438
G1 X231.971 Y147.531 F9000
G1 F2400
G1 X250.407 Y165.966 E0.93439
G1 X249.761 Y165.966 F9000
G1 F2400
G1 X231.325 Y147.53 E0.9344
G1 X230.678 Y147.53 F9000
G1 F2400
G1 X249.114 Y165.966 E0.93442
G1 X248.468 Y165.966 F9000
G1 F2400
G1 X230.032 Y147.53 E0.93443
G1 X229.385 Y147.53 F9000
G1 F2400
G1 X247.821 Y165.966 E0.93444
G1 X247.175 Y165.966 F9000
G1 F2400
G1 X228.738 Y147.53 E0.93445
G1 X228.092 Y147.529 F9000
G1 F2400
G1 X246.529 Y165.966 E0.93446
G1 X245.882 Y165.966 F9000
G1 F2400
G1 X227.445 Y147.529 E0.93447
G1 X226.798 Y147.529 F9000
G1 F2400
G1 X245.236 Y165.966 E0.93448
G1 X244.589 Y165.966 F9000
G1 F2400
G1 X226.152 Y147.529 E0.93449
G1 X225.505 Y147.529 F9000
G1 F2400
G1 X243.943 Y165.966 E0.9345
G1 X243.297 Y165.966 F9000
G1 F2400
G1 X224.859 Y147.528 E0.93451
G1 X224.212 Y147.528 F9000
G1 F2400
G1 X242.65 Y165.966 E0.93452
G1 X242.004 Y165.966 F9000
G1 F2400
G1 X223.565 Y147.528 E0.93454
G1 X222.919 Y147.528 F9000
G1 F2400
G1 X241.357 Y165.966 E0.93455
G1 X240.711 Y165.966 F9000
G1 F2400
G1 X222.272 Y147.527 E0.93456
G1 X221.625 Y147.527 F9000
G1 F2400
G1 X240.064 Y165.966 E0.93457
G1 X239.418 Y165.966 F9000
G1 F2400
G1 X220.979 Y147.527 E0.93458
G1 X220.332 Y147.527 F9000
G1 F2400
G1 X238.772 Y165.966 E0.93459
G1 X238.125 Y165.966 F9000
G1 F2400
G1 X219.686 Y147.527 E0.9346
G1 X219.039 Y147.526 F9000
G1 F2400
G1 X237.479 Y165.966 E0.93461
G1 X236.832 Y165.966 F9000
G1 F2400
G1 X218.392 Y147.526 E0.93462
G1 X217.746 Y147.526 F9000
G1 F2400
G1 X236.186 Y165.966 E0.93463
G1 X235.54 Y165.966 F9000
G1 F2400
G1 X217.099 Y147.526 E0.93464
G1 X216.452 Y147.525 F9000
G1 F2400
G1 X234.893 Y165.966 E0.93465
G1 X234.247 Y165.966 F9000
G1 F2400
G1 X215.806 Y147.525 E0.93467
G1 X215.159 Y147.525 F9000
G1 F2400
G1 X233.6 Y165.966 E0.93468
G1 X232.954 Y165.966 F9000
G1 F2400
G1 X214.513 Y147.525 E0.93469
G1 X213.866 Y147.525 F9000
G1 F2400
G1 X232.308 Y165.966 E0.9347
G1 X231.661 Y165.966 F9000
G1 F2400
G1 X213.219 Y147.524 E0.93471
G1 X212.573 Y147.524 F9000
G1 F2400
G1 X231.015 Y165.966 E0.93472
G1 X230.368 Y165.966 F9000
G1 F2400
G1 X211.926 Y147.524 E0.93473
G1 X211.279 Y147.524 F9000
G1 F2400
G1 X229.722 Y165.966 E0.93474
G1 X229.076 Y165.966 F9000
G1 F2400
G1 X210.633 Y147.524 E0.93475
G1 X209.986 Y147.523 F9000
G1 F2400
G1 X228.429 Y165.966 E0.93476
G1 X227.783 Y165.966 F9000
G1 F2400
G1 X209.34 Y147.523 E0.93477
G1 X208.693 Y147.523 F9000
G1 F2400
G1 X227.136 Y165.966 E0.93479
