; generated by SuperSlicer 2.5.59 on 2022-12-19 at 01:02:09 UTC


;
;

;
;
; 

; external perimeters extrusion width = 0.40mm
; perimeters extrusion width = 0.46mm
; infill extrusion width = 0.64mm
; solid infill extrusion width = 0.56mm
; top infill extrusion width = 0.40mm
; first layer extrusion width = 0.50mm

; external perimeters extrusion width = 0.40mm
; perimeters extrusion width = 0.46mm
; infill extrusion width = 0.64mm
; solid infill extrusion width = 0.56mm
; top infill extrusion width = 0.40mm
; first layer extrusion width = 0.50mm

; external perimeters extrusion width = 0.40mm
; perimeters extrusion width = 0.46mm
; infill extrusion width = 0.64mm
; solid infill extrusion width = 0.56mm
; top infill extrusion width = 0.40mm
; first layer extrusion width = 0.50mm

; object:{"name":"2x1_with_seperation","id":"2x1_with_seperation.stl id:0 copy 0","object_center":[152.500001,120.800000,0.000000],"boundingbox_center":[152.500001,120.800000,7.300000],"boundingbox_size":[68.199997,23.200001,14.600000]}
; object:{"name":"2x1_with_seperation","id":"2x1_with_seperation.stl id:1 copy 0","object_center":[152.500001,150.000000,0.000000],"boundingbox_center":[152.500001,150.000000,7.300000],"boundingbox_size":[68.199997,23.200001,14.600000]}
; object:{"name":"2x1_with_seperation","id":"2x1_with_seperation.stl id:2 copy 0","object_center":[152.500000,179.200000,0.000000],"boundingbox_center":[152.500000,179.200000,7.300000],"boundingbox_size":[68.199997,23.200001,14.600000]}
; plater:{"center":[152.500000,150.000000,0.000000],"boundingbox_center":[152.500000,150.000000,7.300000],"boundingbox_size":[68.199998,81.600001,14.600000]}

M73 P0 R75


; Pre-Processed for Cancel-Object support by preprocess_cancellation v0.2.0
; 3 known objects
EXCLUDE_OBJECT_DEFINE NAME=2x1_with_seperation_stl_id_0_copy_0 CENTER=154.592,120.897 POLYGON=[[118.6,109.4],[118.6,132.2],[186.4,132.2],[186.4,109.4]]
EXCLUDE_OBJECT_DEFINE NAME=2x1_with_seperation_stl_id_1_copy_0 CENTER=154.598,149.950 POLYGON=[[118.6,138.6],[118.6,161.4],[186.4,161.4],[186.4,138.6]]
EXCLUDE_OBJECT_DEFINE NAME=2x1_with_seperation_stl_id_2_copy_0 CENTER=154.598,179.150 POLYGON=[[118.6,167.8],[118.6,190.6],[186.4,190.6],[186.4,167.8]]
;TYPE:Custom
START_PRINT T_BED=60 T_EXTRUDER=200
M107
G21 ; set units to millimeters
G90 ; use absolute coordinates
M83 ; use relative distances for extrusion
; Filament gcode
PRESSURE_ADVANCE_SELECT FILAMENT=PLA
;_TOOLCHANGE 0
M104 S200 ; set temperature
M109 S200 ; set temperature and wait for it to be reached
M190 S60 ; set bed temperature and wait for it to be reached
M107
;LAYER_CHANGE
;Z:0.2
;HEIGHT:0.2
G1 Z0.2 F9000
G92 E0
G1 E-0.8 F3000
M204 S1000
G1 X117.306 Y108.549 F9000
G1 E0.8 F1800
;TYPE:Skirt
;WIDTH:0.52
G1 X116.512 Y109.683 E0.05272
G1 X116.053 Y110.82 E0.04672
G1 X115.833 Y112.256 E0.05531
G1 X115.828 Y187.596 E2.86915
G1 X116.013 Y189.037 E0.05531
G1 X116.55 Y190.387 E0.05536
G1 X117.049 Y191.143 E0.03447
G1 X117.659 Y191.811 E0.03447
G1 X118.638 Y192.549 E0.0467
G1 X120 Y193.142 E0.05656
G1 X121.567 Y193.372 E0.06032
G1 X183.396 Y193.372 E2.3546
G1 X184.837 Y193.187 E0.05532
G1 X185.664 Y192.905 E0.03327
G1 X186.408 Y192.523 E0.03186
G1 X187.063 Y192.056 E0.03063
G1 X187.694 Y191.451 E0.03327
G1 X188.488 Y190.317 E0.05272
G1 X188.929 Y189.246 E0.04412
G1 X189.164 Y187.781 E0.0565
G1 X189.171 Y112.331 E2.87332
G1 X188.927 Y110.759 E0.06061
G1 X188.318 Y109.391 E0.05701
G1 X187.654 Y108.508 E0.04209
G1 X187.141 Y108.013 E0.02712
G1 X185.886 Y107.198 E0.05701
G1 X185.226 Y106.931 E0.02712
G1 X184.18 Y106.686 E0.04088
G1 X183.432 Y106.628 E0.02857
G1 X167.978 Y106.628 E0.58853
G1 X121.312 Y106.639 E1.77716
G1 X120.163 Y106.813 E0.04426
G1 X119.336 Y107.095 E0.03327
G1 X118.592 Y107.477 E0.03186
G1 X117.937 Y107.944 E0.03063
G1 X117.306 Y108.549 E0.03327
G1 X117.653 Y108.877 F9000
G1 F1800
G1 X116.939 Y109.896 E0.04735
G1 X116.508 Y110.964 E0.04387
G1 X116.31 Y112.256 E0.04979
G1 X116.305 Y187.596 E2.86914
G1 X116.478 Y188.929 E0.0512
G1 X116.961 Y190.145 E0.04983
G1 X117.417 Y190.839 E0.03162
G1 X117.975 Y191.454 E0.03162
G1 X118.895 Y192.147 E0.04385
G1 X120.12 Y192.68 E0.05087
G1 X121.567 Y192.895 E0.05573
G1 X183.396 Y192.895 E2.3546
G1 X184.729 Y192.722 E0.0512
G1 X185.489 Y192.461 E0.03058
G1 X186.169 Y192.109 E0.02917
G1 X186.769 Y191.68 E0.0281
G1 X187.347 Y191.123 E0.03058
G1 X188.061 Y190.104 E0.04735
G1 X188.475 Y189.099 E0.04143
G1 X188.687 Y187.781 E0.05083
G1 X188.694 Y112.331 E2.87332
G1 X188.475 Y110.91 E0.05477
G1 X187.903 Y109.626 E0.05353
G1 X187.291 Y108.818 E0.03861
G1 X186.844 Y108.386 E0.02364
G1 X185.666 Y107.621 E0.05352
G1 X185.09 Y107.388 E0.02364
G1 X184.13 Y107.161 E0.03756
G1 X183.432 Y107.105 E0.02667
G1 X167.978 Y107.105 E0.58853
G1 X121.35 Y107.115 E1.77573
G1 X120.271 Y107.278 E0.04156
G1 X119.511 Y107.539 E0.03058
G1 X118.831 Y107.891 E0.02917
G1 X118.231 Y108.32 E0.0281
G1 X117.653 Y108.877 E0.03058
G1 E-0.8 F3000
; printing object 2x1_with_seperation.stl id:0 copy 0
EXCLUDE_OBJECT_START NAME=2x1_with_seperation_stl_id_0_copy_0
G1 X120.906 Y111.845 F9000
G1 E0.8 F1800
;TYPE:Internal perimeter
;WIDTH:0.5
G1 X121.009 Y111.736 E0.00549
G1 X121.103 Y111.663 E0.00432
G1 X121.205 Y111.603 E0.00432
G1 X121.345 Y111.548 E0.00549
G1 X121.455 Y111.523 E0.00412
G1 X121.65 Y111.508 E0.00711
G1 X122.597 Y111.508 E0.03458
G1 X183.371 Y111.508 E2.21741
G1 X183.564 Y111.528 E0.00706
G1 X183.732 Y111.578 E0.0064
G1 X183.883 Y111.656 E0.0062
G1 X184.016 Y111.762 E0.0062
G1 X184.126 Y111.891 E0.0062
G1 X184.21 Y112.039 E0.0062
G1 X184.264 Y112.201 E0.0062
G1 X184.291 Y112.407 E0.00761
G1 X184.284 Y129.283 E0.61572
G1 X184.261 Y129.42 E0.0051
G1 X184.226 Y129.528 E0.00412
G1 X184.159 Y129.663 E0.00549
G1 X184.094 Y129.755 E0.00412
G1 X183.991 Y129.864 E0.00549
G1 X183.897 Y129.937 E0.00432
G1 X183.795 Y129.997 E0.00432
G1 X183.655 Y130.052 E0.00549
G1 X183.545 Y130.077 E0.00412
G1 X183.35 Y130.092 E0.00711
G1 X121.623 Y130.092 E2.25219
M73 P1 R75
G1 X121.446 Y130.075 E0.0065
G1 X121.311 Y130.04 E0.00509
G1 X121.183 Y129.985 E0.00509
G1 X121.065 Y129.91 E0.00509
G1 X120.961 Y129.817 E0.00509
G1 X120.872 Y129.71 E0.00509
G1 X120.801 Y129.59 E0.00509
G1 X120.748 Y129.455 E0.00529
G1 X120.723 Y129.345 E0.00412
G1 X120.708 Y129.151 E0.0071
G1 X120.713 Y112.344 E0.61322
G1 X120.734 Y112.2 E0.0053
G1 X120.776 Y112.067 E0.00509
G1 X120.841 Y111.937 E0.00529
G1 X120.906 Y111.845 E0.00412
G1 X120.551 Y111.555 F9000
G1 F1800
G1 X120.701 Y111.396 E0.00797
G1 X120.846 Y111.283 E0.00673
G1 X121.006 Y111.191 E0.00673
G1 X121.209 Y111.111 E0.00797
G1 X121.386 Y111.07 E0.0066
G1 X121.632 Y111.05 E0.009
G1 X122.597 Y111.05 E0.03523
G1 X183.395 Y111.051 E2.21828
G1 X183.653 Y111.078 E0.00947
G1 X183.904 Y111.152 E0.00954
G1 X184.133 Y111.271 E0.00941
G1 X184.335 Y111.432 E0.00941
G1 X184.502 Y111.628 E0.00941
G1 X184.629 Y111.853 E0.00941
G1 X184.711 Y112.097 E0.00941
G1 X184.748 Y112.377 E0.01031
G1 X184.741 Y129.321 E0.61819
G1 X184.706 Y129.529 E0.00772
G1 X184.651 Y129.701 E0.0066
G1 X184.553 Y129.897 E0.00797
G1 X184.449 Y130.045 E0.0066
G1 X184.299 Y130.204 E0.00797
G1 X184.154 Y130.317 E0.00673
G1 X183.994 Y130.409 E0.00673
G1 X183.791 Y130.489 E0.00797
G1 X183.614 Y130.53 E0.0066
G1 X183.368 Y130.55 E0.009
G1 X121.601 Y130.549 E2.25364
G1 X121.366 Y130.527 E0.00861
G1 X121.161 Y130.474 E0.00771
G1 X120.968 Y130.389 E0.00771
G1 X120.789 Y130.276 E0.00771
G1 X120.631 Y130.136 E0.00771
G1 X120.497 Y129.973 E0.00771
G1 X120.389 Y129.791 E0.00771
G1 X120.311 Y129.591 E0.00784
G1 X120.27 Y129.414 E0.0066
G1 X120.25 Y129.168 E0.009
G1 X120.256 Y112.31 E0.61511
G1 X120.287 Y112.097 E0.00785
G1 X120.351 Y111.895 E0.00771
G1 X120.447 Y111.703 E0.00784
G1 X120.551 Y111.555 E0.0066
G1 X120.196 Y111.265 F9000
;TYPE:External perimeter
G1 F1800
G1 X120.393 Y111.057 E0.01045
G1 X120.59 Y110.903 E0.00914
G1 X120.807 Y110.778 E0.00914
G1 X121.074 Y110.673 E0.01045
G1 X121.316 Y110.617 E0.00908
G1 X121.614 Y110.593 E0.0109
G1 X122.597 Y110.593 E0.03589
G1 X183.419 Y110.594 E2.21915
M73 P1 R75
G1 X183.743 Y110.628 E0.01187
G1 X184.076 Y110.726 E0.01268
G1 X184.383 Y110.886 E0.01263
G1 X184.654 Y111.102 E0.01262
G1 X184.879 Y111.365 E0.01262
G1 X185.049 Y111.666 E0.01262
G1 X185.159 Y111.994 E0.01263
G1 X185.205 Y112.348 E0.01301
G1 X185.198 Y129.359 E0.62067
G1 X185.152 Y129.638 E0.01034
G1 X185.075 Y129.875 E0.00908
G1 X184.947 Y130.131 E0.01045
G1 X184.804 Y130.335 E0.00908
G1 X184.607 Y130.543 E0.01045
G1 X184.41 Y130.697 E0.00914
G1 X184.193 Y130.822 E0.00914
G1 X183.926 Y130.927 E0.01045
G1 X183.684 Y130.983 E0.00908
G1 X183.386 Y131.007 E0.0109
G1 X121.579 Y131.006 E2.2551
G1 X121.287 Y130.978 E0.01073
G1 X121.012 Y130.907 E0.01034
G1 X120.752 Y130.794 E0.01034
G1 X120.513 Y130.642 E0.01034
G1 X120.301 Y130.454 E0.01034
G1 X120.121 Y130.236 E0.01034
G1 X119.977 Y129.992 E0.01034
G1 X119.873 Y129.726 E0.01039
G1 X119.817 Y129.484 E0.00908
G1 X119.793 Y129.186 E0.01089
G1 X119.799 Y112.276 E0.61701
G1 X119.841 Y111.994 E0.01039
G1 X119.926 Y111.724 E0.01034
G1 X120.053 Y111.469 E0.01039
G1 X120.196 Y111.265 E0.00908
;WIPE_START
M204 S3000
G1 X120.589 Y111.339 F9000
;WIPE_END
G1 E-0.8 F3000
M204 S1000
G1 X183.443 Y111.597 F9000
G1 E0.8 F1800
;TYPE:Solid infill
;WIDTH:0.496305
G1 F2400
G1 X184.203 Y112.356 E0.0389
G1 X184.221 Y113.021 F9000
G1 F2400
G1 X182.797 Y111.596 E0.07298
G1 X182.15 Y111.596 F9000
G1 F2400
G1 X184.22 Y113.667 E0.10604
G1 X184.219 Y114.312 F9000
G1 F2400
G1 X181.503 Y111.596 E0.1391
G1 X180.857 Y111.596 F9000
G1 F2400
G1 X184.218 Y114.957 E0.17216
G1 X184.217 Y115.602 F9000
G1 F2400
G1 X180.21 Y111.596 E0.20522
G1 X179.563 Y111.595 F9000
G1 F2400
G1 X184.216 Y116.248 E0.23828
G1 X184.215 Y116.893 F9000
G1 F2400
G1 X178.917 Y111.595 E0.27134
G1 X178.27 Y111.595 F9000
G1 F2400
G1 X184.214 Y117.538 E0.3044
G1 X184.212 Y118.183 F9000
G1 F2400
G1 X177.624 Y111.595 E0.33746
G1 X176.977 Y111.594 F9000
G1 F2400
G1 X184.211 Y118.829 E0.37052
G1 X184.21 Y119.474 F9000
G1 F2400
G1 X176.33 Y111.594 E0.40359
G1 X175.684 Y111.594 F9000
G1 F2400
G1 X184.209 Y120.119 E0.43665
G1 X184.208 Y120.765 F9000
G1 F2400
G1 X175.037 Y111.594 E0.46971
G1 X174.39 Y111.594 F9000
G1 F2400
G1 X184.207 Y121.41 E0.50277
G1 X184.206 Y122.055 F9000
G1 F2400
G1 X173.744 Y111.593 E0.53583
G1 X173.097 Y111.593 F9000
G1 F2400
G1 X184.204 Y122.7 E0.56889
G1 X184.203 Y123.346 F9000
G1 F2400
G1 X172.451 Y111.593 E0.60195
G1 X171.804 Y111.593 F9000
G1 F2400
G1 X184.202 Y123.991 E0.63501
G1 X184.201 Y124.636 F9000
G1 F2400
G1 X171.157 Y111.592 E0.66807
G1 X170.511 Y111.592 F9000
G1 F2400
G1 X184.2 Y125.281 E0.70113
G1 X184.199 Y125.927 F9000
G1 F2400
G1 X169.864 Y111.592 E0.73419
G1 X169.217 Y111.592 F9000
G1 F2400
G1 X184.198 Y126.572 E0.76725
G1 X184.197 Y127.217 F9000
G1 F2400
G1 X168.571 Y111.592 E0.80031
G1 X167.924 Y111.591 F9000
G1 F2400
G1 X184.195 Y127.863 E0.83337
G1 X184.194 Y128.508 F9000
G1 F2400
G1 X167.278 Y111.591 E0.86644
G1 X166.631 Y111.591 F9000
G1 F2400
G1 X184.193 Y129.153 E0.8995
G1 X184.061 Y129.668 F9000
G1 F2400
G1 X165.984 Y111.591 E0.92586
G1 X165.338 Y111.59 F9000
G1 F2400
G1 X183.676 Y129.929 E0.93925
G1 X183.125 Y130.024 F9000
G1 F2400
G1 X164.691 Y111.59 E0.94413
G1 X164.044 Y111.59 F9000
G1 F2400
G1 X182.478 Y130.024 E0.94414
G1 X181.832 Y130.024 F9000
G1 F2400
G1 X163.398 Y111.59 E0.94415
G1 X162.751 Y111.59 F9000
G1 F2400
G1 X181.186 Y130.024 E0.94416
G1 X180.539 Y130.024 F9000
G1 F2400
G1 X162.105 Y111.589 E0.94417
G1 X161.458 Y111.589 F9000
G1 F2400
G1 X179.893 Y130.024 E0.94419
G1 X179.246 Y130.024 F9000
G1 F2400
G1 X160.811 Y111.589 E0.9442
G1 X160.165 Y111.589 F9000
G1 F2400
G1 X178.6 Y130.024 E0.94421
G1 X177.953 Y130.024 F9000
G1 F2400
G1 X159.518 Y111.589 E0.94422
G1 X158.871 Y111.588 F9000
G1 F2400
G1 X177.307 Y130.024 E0.94423
G1 X176.661 Y130.024 F9000
G1 F2400
G1 X158.225 Y111.588 E0.94424
G1 X157.578 Y111.588 F9000
G1 F2400
G1 X176.014 Y130.024 E0.94425
G1 X175.368 Y130.024 F9000
G1 F2400
G1 X156.932 Y111.588 E0.94426
G1 X156.285 Y111.587 F9000
G1 F2400
G1 X174.721 Y130.024 E0.94427
G1 X174.075 Y130.024 F9000
G1 F2400
G1 X155.638 Y111.587 E0.94428
G1 X154.992 Y111.587 F9000
G1 F2400
G1 X173.429 Y130.024 E0.9443
G1 X172.782 Y130.024 F9000
G1 F2400
G1 X154.345 Y111.587 E0.94431
G1 X153.698 Y111.587 F9000
G1 F2400
G1 X172.136 Y130.024 E0.94432
G1 X171.489 Y130.024 F9000
G1 F2400
G1 X153.052 Y111.586 E0.94433
G1 X152.405 Y111.586 F9000
G1 F2400
G1 X170.843 Y130.024 E0.94434
G1 X170.197 Y130.024 F9000
G1 F2400
G1 X151.759 Y111.586 E0.94435
G1 X151.112 Y111.586 F9000
G1 F2400
G1 X169.55 Y130.024 E0.94436
G1 X168.904 Y130.024 F9000
G1 F2400
G1 X150.465 Y111.585 E0.94437
G1 X149.819 Y111.585 F9000
G1 F2400
G1 X168.257 Y130.024 E0.94438
G1 X167.611 Y130.024 F9000
G1 F2400
G1 X149.172 Y111.585 E0.94439
G1 X148.525 Y111.585 F9000
G1 F2400
G1 X166.964 Y130.024 E0.94441
G1 X166.318 Y130.024 F9000
G1 F2400
G1 X147.879 Y111.585 E0.94442
G1 X147.232 Y111.584 F9000
G1 F2400
G1 X165.672 Y130.024 E0.94443
M73 P2 R74
G1 X165.025 Y130.024 F9000
G1 F2400
G1 X146.586 Y111.584 E0.94444
G1 X145.939 Y111.584 F9000
G1 F2400
G1 X164.379 Y130.024 E0.94445
G1 X163.732 Y130.024 F9000
G1 F2400
G1 X145.292 Y111.584 E0.94446
G1 X144.646 Y111.584 F9000
G1 F2400
G1 X163.086 Y130.024 E0.94447
G1 X162.44 Y130.024 F9000
G1 F2400
G1 X143.999 Y111.583 E0.94448
G1 X143.352 Y111.583 F9000
G1 F2400
G1 X161.793 Y130.024 E0.94449
G1 X161.147 Y130.024 F9000
G1 F2400
G1 X142.706 Y111.583 E0.9445
G1 X142.059 Y111.583 F9000
G1 F2400
G1 X160.5 Y130.024 E0.94452
G1 X159.854 Y130.024 F9000
G1 F2400
G1 X141.413 Y111.582 E0.94453
G1 X140.766 Y111.582 F9000
G1 F2400
G1 X159.208 Y130.024 E0.94454
G1 X158.561 Y130.024 F9000
G1 F2400
G1 X140.119 Y111.582 E0.94455
G1 X139.473 Y111.582 F9000
G1 F2400
G1 X157.915 Y130.024 E0.94456
G1 X157.268 Y130.024 F9000
G1 F2400
G1 X138.826 Y111.582 E0.94457
G1 X138.179 Y111.581 F9000
G1 F2400
G1 X156.622 Y130.024 E0.94458
G1 X155.976 Y130.024 F9000
G1 F2400
G1 X137.533 Y111.581 E0.94459
G1 X136.886 Y111.581 F9000
G1 F2400
G1 X155.329 Y130.024 E0.9446
G1 X154.683 Y130.024 F9000
G1 F2400
G1 X136.24 Y111.581 E0.94461
G1 X135.593 Y111.58 F9000
G1 F2400
G1 X154.036 Y130.024 E0.94463
G1 X153.39 Y130.024 F9000
G1 F2400
G1 X134.946 Y111.58 E0.94464
G1 X134.3 Y111.58 F9000
G1 F2400
G1 X152.743 Y130.024 E0.94465
G1 X152.097 Y130.024 F9000
G1 F2400
G1 X133.653 Y111.58 E0.94466
G1 X133.006 Y111.58 F9000
G1 F2400
G1 X151.451 Y130.024 E0.94467
G1 X150.804 Y130.024 F9000
G1 F2400
G1 X132.36 Y111.579 E0.94468
G1 X131.713 Y111.579 F9000
G1 F2400
G1 X150.158 Y130.024 E0.94469
G1 X149.511 Y130.024 F9000
G1 F2400
G1 X131.067 Y111.579 E0.9447
G1 X130.42 Y111.579 F9000
G1 F2400
G1 X148.865 Y130.024 E0.94471
G1 X148.219 Y130.024 F9000
G1 F2400
G1 X129.773 Y111.579 E0.94472
G1 X129.127 Y111.578 F9000
G1 F2400
G1 X147.572 Y130.024 E0.94474
G1 X146.926 Y130.024 F9000
G1 F2400
G1 X128.48 Y111.578 E0.94475
G1 X127.833 Y111.578 F9000
G1 F2400
G1 X146.279 Y130.024 E0.94476
G1 X145.633 Y130.024 F9000
G1 F2400
G1 X127.187 Y111.578 E0.94477
G1 X126.54 Y111.577 F9000
G1 F2400
G1 X144.987 Y130.024 E0.94478
G1 X144.34 Y130.024 F9000
G1 F2400
G1 X125.894 Y111.577 E0.94479
G1 X125.247 Y111.577 F9000
G1 F2400
G1 X143.694 Y130.024 E0.9448
M73 P2 R74
G1 X143.047 Y130.024 F9000
G1 F2400
G1 X124.6 Y111.577 E0.94481
G1 X123.954 Y111.577 F9000
G1 F2400
G1 X142.401 Y130.024 E0.94482
G1 X141.754 Y130.024 F9000
G1 F2400
G1 X123.307 Y111.576 E0.94483
G1 X122.66 Y111.576 F9000
G1 F2400
G1 X141.108 Y130.024 E0.94484
G1 X140.462 Y130.024 F9000
G1 F2400
G1 X122.014 Y111.576 E0.94485
G1 X121.419 Y111.627 F9000
G1 F2400
G1 X139.815 Y130.024 E0.94222
G1 X139.169 Y130.024 F9000
G1 F2400
G1 X121.015 Y111.87 E0.92977
G1 X120.798 Y112.3 F9000
G1 F2400
G1 X138.522 Y130.024 E0.90778
G1 X137.876 Y130.024 F9000
G1 F2400
G1 X120.781 Y112.929 E0.87556
G1 X120.781 Y113.575 F9000
G1 F2400
G1 X137.23 Y130.024 E0.84246
G1 X136.583 Y130.024 F9000
G1 F2400
G1 X120.781 Y114.221 E0.80937
G1 X120.781 Y114.867 F9000
G1 F2400
G1 X135.937 Y130.024 E0.77627
G1 X135.29 Y130.024 F9000
