; generated by SuperSlicer 2.5.59 on 2022-12-16 at 04:44:11 UTC


;
;

;
;
; 

; external perimeters extrusion width = 0.40mm
; perimeters extrusion width = 0.46mm
; infill extrusion width = 0.64mm
; solid infill extrusion width = 0.56mm
; top infill extrusion width = 0.40mm
; first layer extrusion width = 0.50mm

; external perimeters extrusion width = 0.40mm
; perimeters extrusion width = 0.46mm
; infill extrusion width = 0.64mm
; solid infill extrusion width = 0.56mm
; top infill extrusion width = 0.40mm
; first layer extrusion width = 0.50mm

; external perimeters extrusion width = 0.40mm
; perimeters extrusion width = 0.46mm
; infill extrusion width = 0.64mm
; solid infill extrusion width = 0.56mm
; top infill extrusion width = 0.40mm
; first layer extrusion width = 0.50mm

; external perimeters extrusion width = 0.40mm
; perimeters extrusion width = 0.46mm
; infill extrusion width = 0.64mm
; solid infill extrusion width = 0.56mm
; top infill extrusion width = 0.40mm
; first layer extrusion width = 0.50mm

; external perimeters extrusion width = 0.40mm
; perimeters extrusion width = 0.46mm
; infill extrusion width = 0.64mm
; solid infill extrusion width = 0.56mm
; top infill extrusion width = 0.40mm
; first layer extrusion width = 0.50mm

; external perimeters extrusion width = 0.40mm
; perimeters extrusion width = 0.46mm
; infill extrusion width = 0.64mm
; solid infill extrusion width = 0.56mm
; top infill extrusion width = 0.40mm
; first layer extrusion width = 0.50mm

; object:{"name":"3x1","id":"3x1.stl id:0 copy 0","object_center":[112.674575,123.800001,0.000000],"boundingbox_center":[112.674575,123.800001,7.300000],"boundingbox_size":[102.300003,23.200001,14.600000]}
; object:{"name":"1x2(1)","id":"1x2(1).stl id:1 copy 0","object_center":[84.025426,164.600001,0.000000],"boundingbox_center":[84.025426,164.600001,7.300000],"boundingbox_size":[34.099998,46.400002,14.600000]}
; object:{"name":"2x2","id":"2x2.stl id:2 copy 0","object_center":[209.375426,112.200001,0.000000],"boundingbox_center":[209.375426,112.200001,7.300000],"boundingbox_size":[68.199997,46.400002,14.600000]}
; object:{"name":"4x1(1)","id":"4x1(1).stl id:3 copy 0","object_center":[175.275426,205.400001,0.000000],"boundingbox_center":[175.275426,205.400001,7.300000],"boundingbox_size":[136.399994,23.200001,14.600000]}
; object:{"name":"4x2","id":"4x2.stl id:4 copy 0","object_center":[175.275426,164.600001,0.000000],"boundingbox_center":[175.275426,164.600001,7.300000],"boundingbox_size":[136.399994,46.400002,14.600000]}
; object:{"name":"2x1","id":"2x1.stl id:5 copy 0","object_center":[121.674131,94.600001,0.000000],"boundingbox_center":[121.674131,94.600001,7.300000],"boundingbox_size":[68.199997,23.200001,14.600000]}
; plater:{"center":[152.499999,150.000001,0.000000],"boundingbox_center":[152.499999,150.000001,7.300000],"boundingbox_size":[181.950851,134.000001,14.600000]}

M73 P0 R210


; Pre-Processed for Cancel-Object support by preprocess_cancellation v0.2.0
; 6 known objects
EXCLUDE_OBJECT_DEFINE NAME=3x1_stl_id_0_copy_0 CENTER=114.961,123.822 POLYGON=[[61.725,112.4],[61.725,135.2],[163.625,135.2],[163.625,112.4]]
EXCLUDE_OBJECT_DEFINE NAME=2x1_stl_id_5_copy_0 CENTER=124.010,94.620 POLYGON=[[87.774,83.2],[87.774,106.0],[155.574,106.0],[155.574,83.2]]
EXCLUDE_OBJECT_DEFINE NAME=1x2_1_stl_id_1_copy_0 CENTER=84.287,164.705 POLYGON=[[67.176,141.6],[67.176,187.6],[100.875,187.6],[100.875,141.6]]
EXCLUDE_OBJECT_DEFINE NAME=4x2_stl_id_4_copy_0 CENTER=178.882,164.158 POLYGON=[[107.275,141.6],[107.275,187.6],[243.275,187.6],[243.275,141.6]]
EXCLUDE_OBJECT_DEFINE NAME=4x1_1_stl_id_3_copy_0 CENTER=179.539,204.985 POLYGON=[[107.275,194.0],[107.275,216.8],[243.275,216.8],[243.275,194.0]]
EXCLUDE_OBJECT_DEFINE NAME=2x2_stl_id_2_copy_0 CENTER=209.508,112.605 POLYGON=[[175.476,89.2],[175.476,135.2],[243.274,135.2],[243.274,89.2]]
;TYPE:Custom
START_PRINT T_BED=60 T_EXTRUDER=200
M107
G21 ; set units to millimeters
G90 ; use absolute coordinates
M83 ; use relative distances for extrusion
; Filament gcode
PRESSURE_ADVANCE_SELECT FILAMENT=PLA
;_TOOLCHANGE 0
M104 S200 ; set temperature
M109 S200 ; set temperature and wait for it to be reached
M190 S60 ; set bed temperature and wait for it to be reached
M107
;LAYER_CHANGE
;Z:0.2
;HEIGHT:0.2
G1 Z0.2 F9000
G92 E0
M73 P0 R210
G1 E-0.8 F3000
M204 S1000
G1 X86.403 Y82.433 F9000
G1 E0.8 F1800
;TYPE:Skirt
;WIDTH:0.52
G1 X60.052 Y112.018 E1.5088
G1 X59.581 Y112.79 E0.03445
G1 X59.216 Y113.693 E0.03709
G1 X58.961 Y115.219 E0.05889
G1 X58.969 Y132.551 E0.66008
G1 X64.443 Y185.27 E2.01846
G1 X64.665 Y186.311 E0.04054
G1 X64.915 Y186.97 E0.02683
G1 X65.645 Y188.172 E0.05355
G1 X66.114 Y188.698 E0.02683
G1 X66.845 Y189.311 E0.03635
G1 X107.032 Y218.569 E1.89306
G1 X107.91 Y219.059 E0.03828
G1 X108.514 Y219.291 E0.02467
G1 X109.495 Y219.514 E0.03828
G1 X110.243 Y219.572 E0.02859
G1 X240.272 Y219.572 E4.95183
G1 X241.365 Y219.464 E0.04184
G1 X242.268 Y219.212 E0.0357
G1 X243.178 Y218.783 E0.0383
G1 X243.975 Y218.225 E0.03707
G1 X244.827 Y217.343 E0.04667
G1 X245.357 Y216.527 E0.03707
G1 X245.631 Y215.94 E0.02466
G1 X245.915 Y215.009 E0.03707
G1 X246.036 Y214.019 E0.03799
G1 X246.046 Y92.131 E4.64179
G1 X245.963 Y91.253 E0.03361
G1 X245.677 Y90.185 E0.04209
G1 X245.388 Y89.534 E0.02713
G1 X244.785 Y88.607 E0.04209
G1 X243.708 Y87.568 E0.057
G1 X242.761 Y86.998 E0.04209
G1 X241.723 Y86.619 E0.0421
G1 X240.561 Y86.437 E0.04476
G1 X152.86 Y80.437 E3.3477
G1 X137.152 Y80.428 E0.59819
G1 X90.778 Y80.428 E1.76605
G1 X89.616 Y80.549 E0.04449
G1 X88.51 Y80.895 E0.04412
G1 X87.337 Y81.567 E0.05152
G1 X86.403 Y82.433 E0.04847
G1 X86.759 Y82.75 F9000
G1 F1800
G1 X60.431 Y112.309 E1.50746
G1 X60 Y113.018 E0.0316
G1 X59.667 Y113.849 E0.03408
G1 X59.438 Y115.219 E0.05291
G1 X59.444 Y132.506 E0.65833
G1 X64.918 Y185.221 E2.01832
G1 X65.118 Y186.16 E0.03656
G1 X65.346 Y186.765 E0.02461
G1 X66.013 Y187.869 E0.04913
G1 X66.442 Y188.352 E0.02461
G1 X67.129 Y188.928 E0.03413
G1 X107.313 Y218.183 E1.8929
G1 X108.646 Y218.833 E0.05648
G1 X109.545 Y219.039 E0.03512
G1 X110.243 Y219.095 E0.02668
G1 X240.272 Y219.095 E4.95183
G1 X241.262 Y218.998 E0.03789
G1 X242.089 Y218.769 E0.03269
G1 X242.925 Y218.379 E0.03514
G1 X243.659 Y217.867 E0.03406
G1 X244.459 Y217.04 E0.04382
G1 X244.944 Y216.288 E0.03407
G1 X245.446 Y214.922 E0.05544
G1 X245.559 Y214.018 E0.03467
G1 X245.569 Y92.131 E4.64178
G1 X245.49 Y91.315 E0.03124
G1 X245.225 Y90.336 E0.03861
G1 X244.972 Y89.769 E0.02364
G1 X244.422 Y88.917 E0.03861
G1 X243.411 Y87.941 E0.05352
G1 X242.541 Y87.421 E0.03861
G1 X241.587 Y87.076 E0.03862
G1 X240.529 Y86.913 E0.04078
G1 X152.828 Y80.913 E3.3477
G1 X137.152 Y80.905 E0.59695
G1 X90.778 Y80.905 E1.76605
G1 X89.723 Y81.014 E0.04038
G1 X88.685 Y81.339 E0.04143
G1 X87.63 Y81.943 E0.0463
G1 X86.759 Y82.75 E0.04522
G1 E-0.8 F3000
; printing object 3x1.stl id:0 copy 0
EXCLUDE_OBJECT_START NAME=3x1_stl_id_0_copy_0
G1 X86.759 Y114.508 F9000
G1 E0.8 F1800
;TYPE:Internal perimeter
;WIDTH:0.5
G1 X160.59 Y114.508 E2.69381
G1 X160.809 Y114.533 E0.00802
G1 X160.971 Y114.584 E0.0062
G1 X161.12 Y114.665 E0.0062
G1 X161.252 Y114.773 E0.0062
G1 X161.36 Y114.904 E0.0062
G1 X161.441 Y115.054 E0.0062
G1 X161.492 Y115.216 E0.0062
G1 X161.517 Y115.434 E0.00801
G1 X161.509 Y132.283 E0.61475
G1 X161.488 Y132.409 E0.00469
G1 X161.434 Y132.566 E0.00605
G1 X161.37 Y132.684 E0.00488
G1 X161.285 Y132.795 E0.00509
G1 X161.184 Y132.891 E0.00509
G1 X161.073 Y132.966 E0.00489
G1 X160.923 Y133.036 E0.00605
G1 X160.805 Y133.069 E0.00448
G1 X160.564 Y133.092 E0.00883
G1 X64.748 Y133.092 E3.49596
G1 X64.576 Y133.076 E0.0063
G1 X64.421 Y133.034 E0.00585
G1 X64.281 Y132.969 E0.00565
G1 X64.154 Y132.88 E0.00565
G1 X64.045 Y132.771 E0.00564
G1 X63.953 Y132.639 E0.00585
G1 X63.897 Y132.523 E0.00468
G1 X63.855 Y132.375 E0.00565
G1 X63.832 Y132.14 E0.00862
G1 X63.84 Y115.317 E0.61378
M73 P0 R209
G1 X63.861 Y115.191 E0.00469
G1 X63.915 Y115.034 E0.00605
G1 X63.979 Y114.916 E0.00488
G1 X64.064 Y114.805 E0.00509
G1 X64.165 Y114.709 E0.00509
G1 X64.276 Y114.634 E0.00489
G1 X64.426 Y114.564 E0.00605
G1 X64.544 Y114.531 E0.00448
G1 X64.785 Y114.508 E0.00883
G1 X65.224 Y114.508 E0.01602
G1 X86.759 Y114.508 E0.78573
G1 X86.759 Y114.051 F9000
G1 F1800
G1 X160.616 Y114.051 E2.69476
G1 X160.904 Y114.084 E0.01058
G1 X161.15 Y114.161 E0.00941
G1 X161.377 Y114.284 E0.00941
G1 X161.576 Y114.448 E0.00941
G1 X161.74 Y114.647 E0.00941
G1 X161.863 Y114.874 E0.00941
G1 X161.941 Y115.12 E0.00941
G1 X161.974 Y115.408 E0.01057
G1 X161.966 Y132.321 E0.61708
G1 X161.932 Y132.522 E0.00746
G1 X161.853 Y132.751 E0.00882
G1 X161.754 Y132.934 E0.00758
G1 X161.626 Y133.101 E0.00771
G1 X161.472 Y133.247 E0.00771
G1 X161.301 Y133.365 E0.00758
G1 X161.082 Y133.467 E0.00882
G1 X160.888 Y133.52 E0.00732
G1 X160.586 Y133.55 E0.01109
G1 X64.726 Y133.549 E3.49756
G1 X64.494 Y133.527 E0.00849
G1 X64.264 Y133.465 E0.00869
G1 X64.051 Y133.366 E0.00856
G1 X63.859 Y133.231 E0.00857
G1 X63.693 Y133.065 E0.00856
G1 X63.556 Y132.87 E0.00869
G1 X63.469 Y132.686 E0.00745
G1 X63.404 Y132.46 E0.00856
G1 X63.375 Y132.161 E0.01096
G1 X63.383 Y115.279 E0.61596
G1 X63.417 Y115.078 E0.00746
G1 X63.496 Y114.849 E0.00882
G1 X63.595 Y114.666 E0.00758
G1 X63.724 Y114.499 E0.00771
G1 X63.877 Y114.353 E0.00771
G1 X64.048 Y114.235 E0.00758
G1 X64.267 Y114.133 E0.00882
G1 X64.461 Y114.08 E0.00732
G1 X64.763 Y114.05 E0.01109
G1 X65.224 Y114.05 E0.01682
G1 X86.759 Y114.051 E0.78573
G1 X86.759 Y113.593 F9000
;TYPE:External perimeter
G1 F1800
G1 X160.642 Y113.594 E2.69571
G1 X161 Y113.634 E0.01313
G1 X161.33 Y113.738 E0.01262
G1 X161.634 Y113.904 E0.01262
G1 X161.901 Y114.124 E0.01263
G1 X162.121 Y114.391 E0.01262
G1 X162.286 Y114.695 E0.01262
G1 X162.39 Y115.025 E0.01262
G1 X162.431 Y115.382 E0.01313
G1 X162.423 Y132.359 E0.61941
G1 X162.377 Y132.635 E0.01023
G1 X162.273 Y132.936 E0.01159
G1 X162.139 Y133.183 E0.01028
G1 X161.966 Y133.408 E0.01034
G1 X161.761 Y133.603 E0.01034
G1 X161.529 Y133.763 E0.01028
G1 X161.241 Y133.897 E0.01159
G1 X160.972 Y133.972 E0.01017
G1 X160.608 Y134.007 E0.01335
G1 X64.704 Y134.006 E3.49916
G1 X64.413 Y133.978 E0.01067
G1 X64.107 Y133.896 E0.01154
G1 X63.822 Y133.763 E0.01148
G1 X63.564 Y133.583 E0.01148
G1 X63.342 Y133.36 E0.01148
G1 X63.16 Y133.101 E0.01154
G1 X63.04 Y132.848 E0.01022
G1 X62.953 Y132.546 E0.01148
G1 X62.918 Y132.183 E0.01329
G1 X62.926 Y115.241 E0.61815
G1 X62.972 Y114.965 E0.01023
G1 X63.076 Y114.664 E0.01159
G1 X63.21 Y114.417 E0.01028
G1 X63.383 Y114.192 E0.01034
G1 X63.588 Y113.997 E0.01034
G1 X63.821 Y113.837 E0.01028
G1 X64.109 Y113.703 E0.01159
G1 X64.377 Y113.628 E0.01017
G1 X64.741 Y113.593 E0.01335
G1 X65.224 Y113.593 E0.01762
G1 X86.759 Y113.593 E0.78573
;WIPE_START
M204 S3000
G1 X86.959 Y113.94 F9000
;WIPE_END
G1 E-0.8 F3000
M204 S1000
G1 X160.669 Y114.601 F9000
G1 E0.8 F1800
;TYPE:Solid infill
;WIDTH:0.496581
G1 F2400
G1 X161.421 Y115.354 E0.03857
G1 X161.447 Y116.026 F9000
G1 F2400
G1 X160.022 Y114.601 E0.07302
G1 X159.376 Y114.601 F9000
G1 F2400
G1 X161.446 Y116.671 E0.1061
G1 X161.445 Y117.317 F9000
G1 F2400
G1 X158.729 Y114.601 E0.13918
G1 X158.082 Y114.601 F9000
G1 F2400
G1 X161.444 Y117.962 E0.17226
G1 X161.443 Y118.607 F9000
G1 F2400
G1 X157.436 Y114.6 E0.20533
G1 X156.789 Y114.6 F9000
G1 F2400
G1 X161.442 Y119.253 E0.23841
G1 X161.44 Y119.898 F9000
G1 F2400
G1 X156.143 Y114.6 E0.27149
G1 X155.496 Y114.6 F9000
G1 F2400
G1 X161.439 Y120.543 E0.30457
G1 X161.438 Y121.188 F9000
G1 F2400
G1 X154.85 Y114.6 E0.33765
G1 X154.203 Y114.6 F9000
G1 F2400
G1 X161.437 Y121.834 E0.37073
G1 X161.436 Y122.479 F9000
G1 F2400
G1 X153.556 Y114.599 E0.4038
G1 X152.91 Y114.599 F9000
G1 F2400
G1 X161.435 Y123.124 E0.43688
G1 X161.434 Y123.77 F9000
G1 F2400
G1 X152.263 Y114.599 E0.46996
G1 X151.617 Y114.599 F9000
G1 F2400
G1 X161.433 Y124.415 E0.50304
G1 X161.432 Y125.06 F9000
G1 F2400
G1 X150.97 Y114.599 E0.53612
G1 X150.324 Y114.599 F9000
G1 F2400
G1 X161.431 Y125.706 E0.56919
G1 X161.429 Y126.351 F9000
G1 F2400
G1 X149.677 Y114.598 E0.60227
G1 X149.03 Y114.598 F9000
G1 F2400
G1 X161.428 Y126.996 E0.63535
G1 X161.427 Y127.641 F9000
G1 F2400
G1 X148.384 Y114.598 E0.66843
G1 X147.737 Y114.598 F9000
G1 F2400
G1 X161.426 Y128.287 E0.70151
G1 X161.425 Y128.932 F9000
G1 F2400
G1 X147.091 Y114.598 E0.73459
G1 X146.444 Y114.598 F9000
G1 F2400
G1 X161.424 Y129.577 E0.76766
G1 X161.423 Y130.223 F9000
G1 F2400
G1 X145.797 Y114.597 E0.80074
G1 X145.151 Y114.597 F9000
G1 F2400
G1 X161.422 Y130.868 E0.83382
G1 X161.421 Y131.513 F9000
G1 F2400
G1 X144.504 Y114.597 E0.8669
G1 X143.858 Y114.597 F9000
G1 F2400
G1 X161.42 Y132.159 E0.89998
G1 X161.258 Y132.644 F9000
G1 F2400
G1 X143.211 Y114.597 E0.92486
G1 X142.565 Y114.596 F9000
G1 F2400
G1 X160.925 Y132.957 E0.9409
G1 X160.346 Y133.024 F9000
G1 F2400
G1 X141.918 Y114.596 E0.94434
G1 X141.271 Y114.596 F9000
G1 F2400
G1 X159.699 Y133.024 E0.94435
G1 X159.053 Y133.024 F9000
G1 F2400
G1 X140.625 Y114.596 E0.94435
G1 X139.978 Y114.596 F9000
G1 F2400
G1 X158.406 Y133.024 E0.94435
G1 X157.759 Y133.023 F9000
G1 F2400
G1 X139.332 Y114.596 E0.94436
G1 X138.685 Y114.595 F9000
G1 F2400
G1 X157.113 Y133.023 E0.94436
G1 X156.466 Y133.023 F9000
G1 F2400
G1 X138.039 Y114.595 E0.94436
G1 X137.392 Y114.595 F9000
G1 F2400
G1 X155.82 Y133.023 E0.94436
G1 X155.173 Y133.023 F9000
G1 F2400
G1 X136.745 Y114.595 E0.94437
G1 X136.099 Y114.595 F9000
G1 F2400
G1 X154.527 Y133.023 E0.94437
G1 X153.88 Y133.023 F9000
G1 F2400
G1 X135.452 Y114.595 E0.94437
G1 X134.806 Y114.594 F9000
G1 F2400
G1 X153.234 Y133.023 E0.94438
G1 X152.587 Y133.023 F9000
G1 F2400
G1 X134.159 Y114.594 E0.94438
G1 X133.513 Y114.594 F9000
G1 F2400
G1 X151.941 Y133.022 E0.94438
G1 X151.294 Y133.022 F9000
G1 F2400
G1 X132.866 Y114.594 E0.94438
G1 X132.219 Y114.594 F9000
G1 F2400
G1 X150.648 Y133.022 E0.94439
G1 X150.001 Y133.022 F9000
G1 F2400
G1 X131.573 Y114.594 E0.94439
G1 X130.926 Y114.593 F9000
G1 F2400
G1 X149.355 Y133.022 E0.94439
G1 X148.708 Y133.022 F9000
G1 F2400
G1 X130.28 Y114.593 E0.9444
G1 X129.633 Y114.593 F9000
G1 F2400
G1 X148.062 Y133.022 E0.9444
G1 X147.415 Y133.022 F9000
G1 F2400
G1 X128.986 Y114.593 E0.9444
G1 X128.34 Y114.593 F9000
G1 F2400
G1 X146.769 Y133.021 E0.9444
G1 X146.122 Y133.021 F9000
G1 F2400
G1 X127.693 Y114.593 E0.94441
G1 X127.047 Y114.592 F9000
G1 F2400
G1 X145.476 Y133.021 E0.94441
G1 X144.829 Y133.021 F9000
G1 F2400
G1 X126.4 Y114.592 E0.94441
G1 X125.754 Y114.592 F9000
G1 F2400
G1 X144.183 Y133.021 E0.94442
G1 X143.536 Y133.021 F9000
G1 F2400
G1 X125.107 Y114.592 E0.94442
G1 X124.46 Y114.592 F9000
G1 F2400
G1 X142.89 Y133.021 E0.94442
G1 X142.243 Y133.021 F9000
G1 F2400
G1 X123.814 Y114.592 E0.94443
G1 X123.167 Y114.591 F9000
G1 F2400
G1 X141.596 Y133.021 E0.94443
G1 X140.95 Y133.02 F9000
G1 F2400
G1 X122.521 Y114.591 E0.94443
G1 X121.874 Y114.591 F9000
G1 F2400
G1 X140.303 Y133.02 E0.94443
G1 X139.657 Y133.02 F9000
G1 F2400
G1 X121.228 Y114.591 E0.94444
G1 X120.581 Y114.591 F9000
G1 F2400
G1 X139.01 Y133.02 E0.94444
G1 X138.364 Y133.02 F9000
G1 F2400
G1 X119.934 Y114.591 E0.94444
G1 X119.288 Y114.59 F9000
G1 F2400
G1 X137.717 Y133.02 E0.94445
G1 X137.071 Y133.02 F9000
G1 F2400
G1 X118.641 Y114.59 E0.94445
G1 X117.995 Y114.59 F9000
G1 F2400
G1 X136.424 Y133.02 E0.94445
G1 X135.778 Y133.02 F9000
G1 F2400
G1 X117.348 Y114.59 E0.94445
G1 X116.701 Y114.59 F9000
G1 F2400
G1 X135.131 Y133.019 E0.94446
G1 X134.485 Y133.019 F9000
G1 F2400
G1 X116.055 Y114.589 E0.94446
M73 P1 R208
G1 X115.408 Y114.589 F9000
G1 F2400
G1 X133.838 Y133.019 E0.94446
G1 X133.192 Y133.019 F9000
G1 F2400
G1 X114.762 Y114.589 E0.94447
M73 P1 R208
G1 X114.115 Y114.589 F9000
G1 F2400
G1 X132.545 Y133.019 E0.94447
G1 X131.899 Y133.019 F9000
G1 F2400
G1 X113.469 Y114.589 E0.94447
G1 X112.822 Y114.589 F9000
G1 F2400
G1 X131.252 Y133.019 E0.94447
G1 X130.606 Y133.019 F9000
G1 F2400
G1 X112.175 Y114.588 E0.94448
G1 X111.529 Y114.588 F9000
G1 F2400
G1 X129.959 Y133.019 E0.94448
G1 X129.313 Y133.018 F9000
G1 F2400
G1 X110.882 Y114.588 E0.94448
G1 X110.236 Y114.588 F9000
G1 F2400
G1 X128.666 Y133.018 E0.94449
