; generated by SuperSlicer 2.3.57 on 2022-02-15 at 01:22:31 UTC


;
;

;
;
; 

; external perimeters extrusion width = 0.20mm
; perimeters extrusion width = 0.23mm
; infill extrusion width = 0.36mm
; solid infill extrusion width = 0.28mm
; top infill extrusion width = 0.20mm
; support material extrusion width = 0.21mm
; first layer extrusion width = 0.24mm

; object:{"name":"6","id":"6.STL id:0 copy 0","object_center":[150.446204,137.703200,0.000000],"boundingbox_center":[150.446204,137.703200,0.750000],"boundingbox_size":[2.097130,4.686001,1.500000]}
; object:{"name":"7","id":"7.STL id:1 copy 0","object_center":[145.647243,161.020216,0.000000],"boundingbox_center":[145.647243,161.020216,0.750000],"boundingbox_size":[1.855602,2.676956,1.500000]}
; object:{"name":"8","id":"8.STL id:2 copy 0","object_center":[166.370812,160.476747,0.000000],"boundingbox_center":[166.370812,160.476747,2.122900],"boundingbox_size":[26.733662,7.906792,4.245801]}
; object:{"name":"1","id":"1.STL id:3 copy 0","object_center":[137.808171,153.448322,0.000000],"boundingbox_center":[137.808171,153.448322,2.085400],"boundingbox_size":[26.733662,10.493580,4.170801]}
; object:{"name":"2","id":"2.STL id:4 copy 0","object_center":[137.808171,144.264536,0.000000],"boundingbox_center":[137.808171,144.264536,2.272900],"boundingbox_size":[26.733662,6.418236,4.545801]}
; object:{"name":"3","id":"3.STL id:5 copy 0","object_center":[150.490588,161.411309,0.000000],"boundingbox_center":[150.490588,161.411309,0.750000],"boundingbox_size":[6.106613,3.461792,1.500000]}
; object:{"name":"4","id":"4.STL id:6 copy 0","object_center":[155.339007,163.036158,0.000000],"boundingbox_center":[155.339007,163.036158,0.750000],"boundingbox_size":[1.832668,3.189022,1.500000]}
; object:{"name":"5","id":"5.STL id:7 copy 0","object_center":[147.310374,138.166398,0.000000],"boundingbox_center":[147.310374,138.166398,0.750000],"boundingbox_size":[2.449356,3.766182,1.500000]}
; object:{"name":"9-75p","id":"9-75p.STL id:8 copy 0","object_center":[166.366830,146.376333,0.000000],"boundingbox_center":[166.366830,146.376333,1.319812],"boundingbox_size":[28.383659,18.309402,2.639624]}
; plater:{"center":[152.500000,149.995434,0.000000],"boundingbox_center":[152.500000,149.995434,2.272900],"boundingbox_size":[56.117320,29.270469,4.545801]}

;TYPE:Custom
START_PRINT T_BED=60 T_EXTRUDER=200
M107
G21 ; set units to millimeters
G90 ; use absolute coordinates
M83 ; use relative distances for extrusion
; Filament gcode
M104 S200 ; set temperature
M109 S200 ; set temperature and wait for it to be reached
M190 S60 ; set bed temperature and wait for it to be reached
M107
;LAYER_CHANGE
;Z:0.14
;HEIGHT:0.14
G1 Z0.14 F9000
G1 E-0.6 F3000
G1 X122.214 Y138.795 F9000
G1 E0.6 F1800
; External perimeter
;Skirt
SET_VELOCITY_LIMIT ACCEL=3000 ACCEL_TO_DECEL=3000 SQUARE_CORNER_VELOCITY=8

; Support material

;TYPE:Skirt
;WIDTH:0.24
G1 X121.865 Y139.199 E0.00653
G1 X121.587 Y139.651 E0.00648
G1 X121.385 Y140.141 E0.00648
G1 X121.263 Y140.662 E0.00653
G1 X121.228 Y141.069 E0.005
G1 X121.126 Y146.022 E0.06053
G1 X121.235 Y158.827 E0.15649
G1 X121.327 Y159.404 E0.00714
G1 X121.52 Y159.96 E0.00719
G1 X121.807 Y160.469 E0.00714
G1 X122.181 Y160.923 E0.00719
G1 X122.546 Y161.242 E0.00593
G1 X122.954 Y161.505 E0.00593
G1 X123.396 Y161.706 E0.00593
G1 X123.867 Y161.841 E0.00599
G1 X154.803 Y167.788 E0.38497
G1 X155.429 Y167.846 E0.00768
G1 X167.478 Y167.609 E0.14727
G1 X168.599 Y167.541 E0.01373
G1 X171.065 Y167.293 E0.03028
G1 X171.537 Y167.203 E0.00588
G1 X171.938 Y167.069 E0.00516
G1 X173.913 Y166.235 E0.02621
G1 X174.345 Y166.013 E0.00593
G1 X181.533 Y161.253 E0.10535
G1 X182.102 Y160.766 E0.00916
G1 X182.541 Y160.175 E0.009
G1 X182.837 Y159.506 E0.00894
G1 X183.687 Y156.166 E0.04212
G1 X183.773 Y155.489 E0.00834
G1 X183.769 Y137.153 E0.22407
G1 X183.676 Y136.522 E0.00779
G1 X183.463 Y135.921 E0.00779
G1 X183.139 Y135.371 E0.00779
G1 X182.716 Y134.894 E0.00779
G1 X182.285 Y134.555 E0.0067
G1 X181.805 Y134.292 E0.0067
G1 X181.287 Y134.112 E0.0067
G1 X180.747 Y134.019 E0.0067
G1 X151.377 Y132.145 E0.35964
G1 X149.435 Y132.147 E0.02374
G1 X148.846 Y132.216 E0.00725
G1 X123.805 Y137.923 E0.31387
G1 X123.364 Y138.056 E0.00562
G1 X122.948 Y138.248 E0.0056
G1 X122.562 Y138.496 E0.0056
G1 X122.237 Y138.775 E0.00524
G1 X122.372 Y138.934 F9000
G1 F1800
G1 X122.041 Y139.315 E0.00617
G1 X121.774 Y139.748 E0.00622
G1 X121.582 Y140.214 E0.00616
G1 X121.469 Y140.706 E0.00616
G1 X121.336 Y146.021 E0.06498
G1 X121.443 Y158.803 E0.15621
G1 X121.528 Y159.345 E0.00669
G1 X121.707 Y159.862 E0.00669
G1 X121.974 Y160.341 E0.00669
G1 X122.32 Y160.765 E0.00669
G1 X122.666 Y161.07 E0.00563
G1 X123.053 Y161.32 E0.00563
G1 X123.469 Y161.509 E0.00558
G1 X123.912 Y161.636 E0.00563
G1 X154.842 Y167.582 E0.3849
G1 X155.431 Y167.636 E0.00722
G1 X167.467 Y167.399 E0.14712
G1 X168.574 Y167.333 E0.01355
G1 X171.037 Y167.085 E0.03025
G1 X171.478 Y167.002 E0.00547
G1 X171.857 Y166.875 E0.00489
G1 X173.834 Y166.04 E0.02622
G1 X174.236 Y165.834 E0.00553
G1 X181.414 Y161.08 E0.10521
G1 X181.958 Y160.613 E0.00876
G1 X182.363 Y160.064 E0.00834
G1 X182.639 Y159.436 E0.00839
G1 X183.482 Y156.12 E0.04181
G1 X183.563 Y155.486 E0.00781
G1 X183.56 Y137.17 E0.22383
G1 X183.472 Y136.573 E0.00738
G1 X183.272 Y136.007 E0.00733
G1 X182.964 Y135.487 E0.00738
G1 X182.564 Y135.04 E0.00733
G1 X182.16 Y134.724 E0.00627
G1 X181.713 Y134.481 E0.00622
G1 X181.228 Y134.313 E0.00627
G1 X180.726 Y134.228 E0.00622
G1 X151.377 Y132.355 E0.35939
G1 X149.43 Y132.357 E0.02379
G1 X148.84 Y132.432 E0.00728
G1 X123.801 Y138.14 E0.31384
G1 X123.407 Y138.265 E0.00505
G1 X123.033 Y138.441 E0.00505
G1 X122.686 Y138.666 E0.00505
G1 X122.395 Y138.914 E0.00468
; INIT printing object 6.STL id:0 copy 0
G1 E-0.6 F3000
; printing object 6.STL id:0 copy 0
G1 X149.946 Y135.79 F9000
G1 E0.6 F1800
; External perimeter
;Perimeter
SET_VELOCITY_LIMIT ACCEL=2000 ACCEL_TO_DECEL=2000 SQUARE_CORNER_VELOCITY=8

; Overhang perimeter

;TYPE:Internal perimeter
G1 X150.971 Y135.79 E0.01253
G1 X150.588 Y137.754 E0.02445
G1 X150.428 Y137.758 E0.00196
G1 X149.953 Y135.819 E0.02439
G1 X149.678 Y135.58 F9000
; External perimeter
;ExternalPerimeter
SET_VELOCITY_LIMIT ACCEL=1000 ACCEL_TO_DECEL=1000 SQUARE_CORNER_VELOCITY=8

; Perimeter

;TYPE:External perimeter
G1 F1800
G1 X151.227 Y135.58 E0.01892
G1 X151.215 Y135.639 E0.00061
G1 X151.191 Y135.757 E0.00134
G1 X151.186 Y135.786 E0.00037
G1 X150.728 Y138.135 E0.02924
G1 X150.664 Y138.617 E0.00594
G1 X150.629 Y139.093 E0.00584
G1 X150.548 Y139.497 E0.00503
G1 X150.534 Y139.438 E0.00007
G1 X150.505 Y139.322 E0.0008
G1 X150.447 Y139.087 E0.00295
G1 X150.389 Y138.608 E0.0059
G1 X150.301 Y138.125 E0.006
G1 X149.686 Y135.609 E0.03165
;WIPE_START
G1 X149.859 Y135.666 F9000
;WIPE_END
G1 X150.51 Y135.822
; External perimeter
;SolidInfill
SET_VELOCITY_LIMIT ACCEL=2000 ACCEL_TO_DECEL=2000 SQUARE_CORNER_VELOCITY=8

; Bridge infill

;TYPE:Solid infill
;WIDTH:0.301244
G1 F2400
G1 X150.787 Y136.098 E0.00599
G1 X150.738 Y136.346 E0.00388
G1 X150.304 Y135.912 E0.00943
G1 X150.101 Y135.912 E0.00311
G1 X150.132 Y136.037 E0.00197
G1 X150.69 Y136.595 E0.01211
G1 X150.656 Y136.769 E0.00272
G1 X150.569 Y136.771 E0.00133
G1 X150.105 Y136.307 E0.01008
G1 X150.487 Y136.874 F9000
; External perimeter
;GapFill
SET_VELOCITY_LIMIT ACCEL=2000 ACCEL_TO_DECEL=2000 SQUARE_CORNER_VELOCITY=8

; Skirt

;TYPE:Gap fill
;WIDTH:0.3473
G1 F1800
G1 X150.49 Y137.015 E0.00261
;WIDTH:0.277668
G1 X150.495 Y137.214 E0.00286
;WIDTH:0.183836
G1 X150.5 Y137.413 E0.00178
;WIDTH:0.0978087
G1 X150.504 Y137.586 E0.00068
G1 X150.51 Y137.852 F9000
;WIDTH:0.347302
G1 F1800
G1 X150.514 Y137.993 E0.00261
;WIDTH:0.28935
G1 X150.516 Y138.104 E0.00167
;WIDTH:0.245707
G1 X150.52 Y138.285 E0.00227
;WIDTH:0.181437
G1 X150.524 Y138.465 E0.00159
;WIDTH:0.126205
G1 X150.527 Y138.604 E0.00077
;WIDTH:0.0954838
G1 X150.531 Y138.783 E0.00068
; INIT stop printing object 6.STL id:0 copy 0
; INIT printing object 5.STL id:7 copy 0
G1 E-0.6 F3000
; stop printing object 6.STL id:0 copy 0
; printing object 5.STL id:7 copy 0
G1 X147.933 Y136.713 F9000
G1 E0.6 F1800
; External perimeter
;Perimeter
SET_VELOCITY_LIMIT ACCEL=2000 ACCEL_TO_DECEL=2000 SQUARE_CORNER_VELOCITY=8

; Overhang perimeter

;TYPE:Internal perimeter
;WIDTH:0.24
G1 X147.34 Y138.478 E0.02275
G1 X147.194 Y138.475 E0.00178
G1 X146.665 Y136.713 E0.02248
G1 X147.903 Y136.713 E0.01514
G1 X148.227 Y136.503 F9000
; External perimeter
;ExternalPerimeter
SET_VELOCITY_LIMIT ACCEL=1000 ACCEL_TO_DECEL=1000 SQUARE_CORNER_VELOCITY=8

; Perimeter

;TYPE:External perimeter
G1 F1800
G1 X148.165 Y136.683 E0.00232
G1 X147.529 Y138.575 E0.0244
G1 X147.289 Y139.541 E0.01216
G1 X147.248 Y139.637 E0.00128
G1 X147.227 Y139.581 E0.00026
G1 X147.212 Y139.544 E0.00001
G1 X147.007 Y138.582 E0.01203
G1 X146.382 Y136.503 E0.02652
G1 X146.442 Y136.503 E0.00059
G1 X146.562 Y136.503 E0.00132
G1 X148.197 Y136.503 E0.01997
;WIPE_START
G1 X148.098 Y136.643 F9000
;WIPE_END
G1 X147.784 Y137.059
; External perimeter
;SolidInfill
SET_VELOCITY_LIMIT ACCEL=2000 ACCEL_TO_DECEL=2000 SQUARE_CORNER_VELOCITY=8

; Bridge infill

;TYPE:Solid infill
;WIDTH:0.281715
G1 F2400
G1 X147.56 Y136.835 E0.00455
G1 X147.263 Y136.835 E0.00426
G1 X147.638 Y137.21 E0.00761
G1 X147.563 Y137.432 E0.00336
G1 X146.966 Y136.835 E0.01212
G1 X146.828 Y136.835 E0.00197
G1 X146.897 Y137.063 E0.00342
G1 X147.488 Y137.655 E0.012
G1 X147.446 Y137.782 E0.00193
G1 X147.317 Y137.78 E0.00184
G1 X146.89 Y137.353 E0.00867
G1 X147.277 Y137.88 F9000
; External perimeter
;GapFill
SET_VELOCITY_LIMIT ACCEL=2000 ACCEL_TO_DECEL=2000 SQUARE_CORNER_VELOCITY=8

; Skirt

;TYPE:Gap fill
;WIDTH:0.310523
G1 F1800
G1 X147.275 Y137.999 E0.00193
;WIDTH:0.219784
G1 X147.272 Y138.171 E0.00191
;WIDTH:0.107432
G1 X147.27 Y138.334 E0.00073
G1 X147.266 Y138.572 F9000
;WIDTH:0.323978
G1 F1800
G1 X147.264 Y138.702 E0.00223
;WIDTH:0.25513
G1 X147.261 Y138.891 E0.00247
;WIDTH:0.160807
G1 X147.258 Y139.08 E0.00144
;WIDTH:0.0866624
G1 X147.256 Y139.199 E0.00039
; INIT stop printing object 5.STL id:7 copy 0
; INIT printing object 2.STL id:4 copy 0
G1 E-0.6 F3000
; stop printing object 5.STL id:7 copy 0
; printing object 2.STL id:4 copy 0
G1 X150.745 Y146.99 F9000
G1 E0.6 F1800
; External perimeter
;Perimeter
SET_VELOCITY_LIMIT ACCEL=2000 ACCEL_TO_DECEL=2000 SQUARE_CORNER_VELOCITY=8

; Overhang perimeter

;TYPE:Internal perimeter
;WIDTH:0.24
G1 X150.593 Y146.92 E0.00204
G1 X150.171 Y146.858 E0.00522
G1 X149.676 Y146.702 E0.00634
G1 X149.42 Y146.653 E0.00318
G1 X149.213 Y146.647 E0.00254
G1 X149.025 Y146.673 E0.00231
G1 X148.744 Y146.751 E0.00357
G1 X148.707 Y146.751 E0.00045
G1 X148.677 Y146.738 E0.0004
G1 X148.388 Y146.561 E0.00414
G1 X148.208 Y146.487 E0.00239
G1 X148.002 Y146.438 E0.00258
G1 X147.276 Y146.393 E0.00889
G1 X147.023 Y146.33 E0.00319
G1 X146.549 Y146.153 E0.00618
G1 X145.985 Y145.856 E0.00779
G1 X145.634 Y145.751 E0.00447
G1 X145.1 Y145.606 E0.00676
G1 X144.661 Y145.513 E0.00548
G1 X144.206 Y145.487 E0.00557
G1 X143.592 Y145.536 E0.00753
G1 X142.719 Y145.666 E0.01079
G1 X141.881 Y145.643 E0.01024
G1 X141.059 Y145.568 E0.01008
G1 X140.822 Y145.575 E0.00291
G1 X140.625 Y145.612 E0.00244
G1 X140.269 Y145.752 E0.00467
G1 X140.204 Y145.758 E0.0008
G1 X139.444 Y145.596 E0.0095
G1 X138.964 Y145.54 E0.00591
G1 X138.581 Y145.552 E0.00469
G1 X138.248 Y145.611 E0.00413
G1 X137.934 Y145.717 E0.00404
G1 X137.498 Y145.945 E0.00602
G1 X137.46 Y145.954 E0.00048
G1 X137.312 Y145.936 E0.00181
G1 X137.085 Y145.86 E0.00293
G1 X136.581 Y145.645 E0.0067
G1 X136.124 Y145.52 E0.00579
G1 X135.524 Y145.444 E0.00739
G1 X134.933 Y145.429 E0.00723
G1 X134.629 Y145.455 E0.00373
G1 X134.026 Y145.642 E0.00771
G1 X133.487 Y145.777 E0.00679
G1 X133.171 Y145.844 E0.00395
G1 X133.032 Y145.851 E0.0017
G1 X132.888 Y145.835 E0.00176
G1 X132.751 Y145.795 E0.00174
G1 X132.169 Y145.552 E0.0077
G1 X131.903 Y145.498 E0.00332
G1 X130.205 Y145.484 E0.02076
G1 X129.564 Y145.592 E0.00794
G1 X129.293 Y145.558 E0.00334
G1 X128.433 Y145.54 E0.01052
G1 X128.175 Y145.55 E0.00315
G1 X127.864 Y145.622 E0.0039
G1 X127.088 Y145.905 E0.01009
G1 X126.847 Y145.945 E0.00299
G1 X126.334 Y145.97 E0.00628
G1 X125.745 Y145.947 E0.00721
G1 X125.18 Y145.884 E0.00694
G1 X124.803 Y145.817 E0.00469
G1 X124.837 Y145.561 E0.00315
G1 X124.866 Y145.042 E0.00635
G1 X124.871 Y141.485 E0.04346
G1 X150.745 Y141.485 E0.3162
G1 X150.745 Y146.96 E0.06691
G1 E-0.6 F3000
G1 X124.572 Y146.171 F9000
G1 E0.6 F1800
; External perimeter
;ExternalPerimeter
SET_VELOCITY_LIMIT ACCEL=1000 ACCEL_TO_DECEL=1000 SQUARE_CORNER_VELOCITY=8

; Perimeter

;TYPE:External perimeter
G1 X124.562 Y146.031 E0.00171
G1 X124.628 Y145.541 E0.00604
G1 X124.656 Y145.036 E0.00618
G1 X124.661 Y141.275 E0.04596
G1 X124.721 Y141.275 E0.00066
G1 X124.841 Y141.275 E0.00139
G1 X150.955 Y141.275 E0.31912
G1 X150.955 Y141.335 E0.00065
G1 X150.955 Y141.455 E0.00139
G1 X150.955 Y147.254 E0.07086
G1 X150.895 Y147.254 E0.00065
G1 X150.775 Y147.254 E0.00139
G1 X150.726 Y147.254 E0.00059
G1 X150.66 Y147.182 E0.00119
G1 X150.533 Y147.123 E0.00171
G1 X150.124 Y147.063 E0.00505
G1 X149.624 Y146.906 E0.0064
G1 X149.397 Y146.863 E0.00282
G1 X149.224 Y146.857 E0.00212
G1 X149.068 Y146.879 E0.00192
G1 X148.772 Y146.961 E0.00375
G1 X148.663 Y146.961 E0.00133
G1 X148.58 Y146.925 E0.00111
G1 X148.293 Y146.749 E0.00411
G1 X148.143 Y146.687 E0.00198
G1 X147.971 Y146.647 E0.00216
G1 X147.243 Y146.602 E0.00891
G1 X146.96 Y146.53 E0.00357
G1 X146.463 Y146.345 E0.00649
G1 X145.905 Y146.051 E0.00771
G1 X145.576 Y145.953 E0.00419
G1 X145.05 Y145.811 E0.00666
G1 X144.633 Y145.721 E0.00521
G1 X144.209 Y145.698 E0.0052
G1 X143.616 Y145.745 E0.00727
G1 X142.731 Y145.877 E0.01093
G1 X141.869 Y145.853 E0.01054
G1 X141.053 Y145.779 E0.01001
G1 X140.844 Y145.784 E0.00255
G1 X140.684 Y145.815 E0.00199
G1 X140.318 Y145.959 E0.00481
G1 X140.191 Y145.97 E0.00155
G1 X139.41 Y145.804 E0.00976
G1 X138.955 Y145.751 E0.0056
G1 X138.602 Y145.762 E0.00431
G1 X138.3 Y145.815 E0.00376
G1 X138.017 Y145.91 E0.00364
G1 X137.571 Y146.144 E0.00615
G1 X137.47 Y146.166 E0.00126
G1 X137.266 Y146.142 E0.00252
G1 X137.011 Y146.056 E0.00329
G1 X136.512 Y145.844 E0.00663
G1 X136.083 Y145.726 E0.00543
G1 X135.508 Y145.654 E0.00708
G1 X134.939 Y145.639 E0.00696
G1 X134.669 Y145.662 E0.00331
G1 X134.083 Y145.844 E0.00751
G1 X133.534 Y145.981 E0.00691
G1 X133.198 Y146.052 E0.00419
G1 X133.025 Y146.062 E0.00212
G1 X132.847 Y146.041 E0.00219
G1 X132.682 Y145.994 E0.0021
G1 X132.107 Y145.754 E0.0076
G1 X131.881 Y145.708 E0.00282
G1 X130.222 Y145.695 E0.02028
G1 X129.569 Y145.804 E0.00809
G1 X129.278 Y145.768 E0.00358
G1 X128.435 Y145.75 E0.01031
G1 X128.203 Y145.759 E0.00283
G1 X127.924 Y145.824 E0.0035
G1 X127.142 Y146.109 E0.01017
G1 X126.87 Y146.154 E0.00337
G1 X126.335 Y146.181 E0.00654
G1 X125.729 Y146.157 E0.00741
G1 X125.15 Y146.092 E0.00712
G1 X124.819 Y146.033 E0.00411
G1 X124.721 Y146.115 E0.00156
G1 X124.597 Y146.156 E0.0016
;WIPE_START
G1 X124.621 Y146.039 F9000
;WIPE_END
G1 X150.714 Y141.941
; External perimeter
;SolidInfill
SET_VELOCITY_LIMIT ACCEL=2000 ACCEL_TO_DECEL=2000 SQUARE_CORNER_VELOCITY=8

; Bridge infill

;TYPE:Solid infill
;WIDTH:0.242697
G1 F2400
G1 X150.379 Y141.607 E0.00584
G1 X150.082 Y141.607 E0.00367
G1 X150.623 Y142.148 E0.00945
G1 X150.623 Y142.445 E0.00367
G1 X149.786 Y141.607 E0.01464
G1 X149.489 Y141.607 E0.00367
G1 X150.623 Y142.742 E0.01983
G1 X150.623 Y143.039 E0.00367
G1 X149.192 Y141.607 E0.02502
G1 X148.895 Y141.607 E0.00367
G1 X150.623 Y143.336 E0.03021
G1 X150.623 Y143.633 E0.00367
G1 X148.598 Y141.607 E0.0354
G1 X148.301 Y141.607 E0.00367
G1 X150.623 Y143.929 E0.04059
G1 X150.623 Y144.226 E0.00367
G1 X148.004 Y141.607 E0.04578
G1 X147.707 Y141.607 E0.00367
G1 X150.623 Y144.523 E0.05097
G1 X150.623 Y144.82 E0.00367
G1 X147.41 Y141.607 E0.05615
G1 X147.113 Y141.607 E0.00367
G1 X150.623 Y145.117 E0.06134
G1 X150.623 Y145.414 E0.00367
G1 X146.816 Y141.607 E0.06653
G1 X146.519 Y141.607 E0.00367
G1 X150.623 Y145.711 E0.07172
G1 X150.623 Y146.008 E0.00367
G1 X146.223 Y141.607 E0.07691
