; generated by SuperSlicer 2.3.57 on 2022-02-10 at 19:08:09 UTC


;
;

;
;
; 

; external perimeters extrusion width = 0.20mm
; perimeters extrusion width = 0.23mm
; infill extrusion width = 0.36mm
; solid infill extrusion width = 0.28mm
; top infill extrusion width = 0.20mm
; support material extrusion width = 0.21mm
; first layer extrusion width = 0.24mm

; object:{"name":"8","id":"8.STL id:0 copy 0","object_center":[170.822441,155.522598,0.000000],"boundingbox_center":[170.822441,155.522598,2.830534],"boundingbox_size":[35.644882,10.542389,5.661068]}
; object:{"name":"1","id":"1.STL id:1 copy 0","object_center":[134.177559,154.093652,0.000000],"boundingbox_center":[134.177559,154.093652,2.780534],"boundingbox_size":[35.644882,13.991440,5.561068]}
; object:{"name":"2","id":"2.STL id:2 copy 0","object_center":[134.177559,142.692114,0.000000],"boundingbox_center":[134.177559,142.692114,3.030534],"boundingbox_size":[35.644882,8.557648,6.061068]}
; plater:{"center":[152.500000,149.751331,0.000000],"boundingbox_center":[152.500000,149.751331,3.030534],"boundingbox_size":[72.289764,22.676082,6.061068]}

;TYPE:Custom
START_PRINT T_BED=60 T_EXTRUDER=200
M107
G21 ; set units to millimeters
G90 ; use absolute coordinates
M83 ; use relative distances for extrusion
; Filament gcode
M109 S200 ; set temperature and wait for it to be reached
M190 S60 ; set bed temperature and wait for it to be reached
;LAYER_CHANGE
;Z:0.14
;HEIGHT:0.14
G1 Z0.14 F9000
G1 E-0.6 F3000
G1 X114.505 Y135.833 F9000
G1 E0.6 F1800
; External perimeter
;Skirt
SET_VELOCITY_LIMIT ACCEL=3000 ACCEL_TO_DECEL=3000 SQUARE_CORNER_VELOCITY=8

; Support material

;TYPE:Skirt
;WIDTH:0.24
G1 X113.949 Y136.343 E0.00921
G1 X113.522 Y136.97 E0.00927
G1 X113.249 Y137.672 E0.00921
G1 X113.141 Y138.423 E0.00927
G1 X113.04 Y145.217 E0.08303
G1 X113.141 Y161.075 E0.1938
G1 X113.192 Y161.572 E0.0061
G1 X113.316 Y162.055 E0.0061
G1 X113.511 Y162.514 E0.0061
G1 X113.773 Y162.938 E0.0061
G1 X114.297 Y163.505 E0.00943
G1 X114.933 Y163.934 E0.00938
G1 X115.656 Y164.206 E0.00943
G1 X116.421 Y164.304 E0.00943
G1 X151.941 Y164.28 E0.43407
G1 X172.218 Y163.973 E0.24782
G1 X173.646 Y163.887 E0.01748
G1 X176.938 Y163.555 E0.04043
G1 X177.371 Y163.477 E0.00538
G1 X177.795 Y163.342 E0.00544
G1 X180.478 Y162.211 E0.03558
G1 X180.923 Y161.976 E0.00615
G1 X190.498 Y155.575 E0.14075
G1 X190.815 Y155.316 E0.005
G1 X191.1 Y155.016 E0.00505
G1 X191.346 Y154.684 E0.00505
G1 X191.548 Y154.323 E0.00505
G1 X191.771 Y153.716 E0.0079
G1 X191.871 Y153.082 E0.00785
G1 X191.862 Y152.168 E0.01117
G1 X191.719 Y151.469 E0.00872
G1 X191.449 Y150.851 E0.00823
G1 X191.063 Y150.305 E0.00818
G1 X190.572 Y149.844 E0.00823
G1 X190.002 Y149.494 E0.00818
G1 X153.066 Y135.41 E0.48307
G1 X152.495 Y135.252 E0.00725
G1 X151.904 Y135.198 E0.00725
G1 X116.398 Y135.199 E0.4339
G1 X115.893 Y135.246 E0.00621
G1 X115.4 Y135.371 E0.00621
G1 X114.933 Y135.569 E0.00621
G1 X114.53 Y135.817 E0.00578
G1 X114.639 Y135.995 F9000
G1 F1800
G1 X114.112 Y136.475 E0.00871
G1 X113.71 Y137.063 E0.00871
G1 X113.451 Y137.727 E0.00871
G1 X113.351 Y138.432 E0.00871
G1 X113.25 Y145.217 E0.08292
G1 X113.351 Y161.063 E0.19365
G1 X113.397 Y161.526 E0.00569
G1 X113.511 Y161.977 E0.00569
G1 X113.694 Y162.41 E0.00574
G1 X113.937 Y162.806 E0.00569
G1 X114.427 Y163.341 E0.00886
G1 X115.028 Y163.747 E0.00886
G1 X115.707 Y164.003 E0.00886
G1 X116.427 Y164.094 E0.00886
G1 X151.938 Y164.07 E0.43397
G1 X172.213 Y163.763 E0.24779
G1 X173.626 Y163.678 E0.0173
G1 X176.915 Y163.346 E0.0404
G1 X177.322 Y163.273 E0.00505
G1 X177.72 Y163.146 E0.0051
G1 X180.393 Y162.019 E0.03545
G1 X180.812 Y161.797 E0.00579
G1 X190.374 Y155.405 E0.14055
G1 X190.677 Y155.157 E0.00478
G1 X190.943 Y154.876 E0.00473
G1 X191.175 Y154.561 E0.00478
G1 X191.365 Y154.219 E0.00478
G1 X191.571 Y153.651 E0.00738
G1 X191.662 Y153.058 E0.00733
G1 X191.653 Y152.185 E0.01067
G1 X191.516 Y151.525 E0.00823
G1 X191.263 Y150.949 E0.0077
G1 X190.898 Y150.435 E0.0077
G1 X190.437 Y150.005 E0.0077
G1 X189.899 Y149.677 E0.0077
G1 X152.991 Y135.606 E0.48271
G1 X152.459 Y135.459 E0.00675
G1 X151.904 Y135.408 E0.0068
G1 X116.408 Y135.409 E0.43378
G1 X115.936 Y135.452 E0.00579
G1 X115.476 Y135.567 E0.00579
G1 X115.039 Y135.75 E0.00579
G1 X114.664 Y135.979 E0.00537
; INIT printing object 8.STL id:0 copy 0
G1 E-0.6 F3000
; printing object 8.STL id:0 copy 0
G1 X176.248 Y157.232 F9000
G1 E0.6 F1800
; External perimeter
;Perimeter
SET_VELOCITY_LIMIT ACCEL=2000 ACCEL_TO_DECEL=2000 SQUARE_CORNER_VELOCITY=8

; Overhang perimeter

;TYPE:Internal perimeter
G1 X173.494 Y158.93 E0.03954
G1 X173.49 Y158.944 E0.00018
G1 X172.481 Y159.848 E0.01656
G1 X172.102 Y160.217 E0.00646
G1 X168.463 Y157.234 E0.05751
G1 X165.428 Y160.233 E0.05214
G1 X153.49 Y151.706 E0.17929
G1 X153.535 Y151.568 E0.00178
G1 X153.555 Y151.568 E0.00025
G1 X153.559 Y151.176 E0.00478
G1 X154.274 Y151.317 E0.00891
G1 X155.009 Y151.393 E0.00903
G1 X155.843 Y151.395 E0.0102
G1 X156.404 Y151.355 E0.00687
G1 X156.848 Y151.269 E0.00553
G1 X157.899 Y150.884 E0.01368
G1 X158.122 Y150.837 E0.00279
G1 X159.146 Y150.834 E0.01252
G1 X159.827 Y150.905 E0.00837
G1 X160.029 Y150.891 E0.00247
G1 X160.356 Y150.811 E0.00412
G1 X160.731 Y150.757 E0.00463
G1 X162.329 Y150.754 E0.01953
G1 X162.786 Y150.764 E0.00558
G1 X162.995 Y150.802 E0.0026
G1 X163.698 Y151.095 E0.00931
G1 X164.02 Y151.196 E0.00412
G1 X164.352 Y151.243 E0.00409
G1 X164.7 Y151.236 E0.00426
G1 X165.156 Y151.152 E0.00567
G1 X166.016 Y150.938 E0.01083
G1 X166.596 Y150.743 E0.00747
G1 X166.806 Y150.697 E0.00264
G1 X167.236 Y150.682 E0.00526
G1 X167.963 Y150.721 E0.00889
G1 X168.57 Y150.828 E0.00754
G1 X169.055 Y150.995 E0.00626
G1 X169.603 Y151.23 E0.00728
G1 X169.995 Y151.349 E0.00502
G1 X170.271 Y151.389 E0.00341
G1 X170.614 Y151.358 E0.00421
G1 X170.825 Y151.285 E0.00273
G1 X171.446 Y150.962 E0.00855
G1 X171.679 Y150.889 E0.00299
G1 X171.989 Y150.839 E0.00383
G1 X172.361 Y150.833 E0.00454
G1 X172.908 Y150.902 E0.00674
G1 X173.809 Y151.109 E0.0113
G1 X174.054 Y151.127 E0.003
G1 X174.408 Y151.072 E0.00438
G1 X174.871 Y150.887 E0.0061
G1 X174.962 Y150.871 E0.00112
G1 X175.149 Y150.869 E0.00229
G1 X175.794 Y150.945 E0.00793
G1 X177.252 Y151.001 E0.01783
G1 X177.709 Y150.971 E0.0056
G1 X178.46 Y150.838 E0.00932
G1 X179.279 Y150.764 E0.01005
G1 X179.764 Y150.779 E0.00594
G1 X180.259 Y150.876 E0.00616
G1 X181.365 Y151.188 E0.01405
G1 X182.114 Y151.581 E0.01033
G1 X182.944 Y151.879 E0.01078
G1 X183.374 Y151.971 E0.00537
G1 X184.218 Y152.012 E0.01033
G1 X184.349 Y152.037 E0.00164
G1 X184.447 Y152.072 E0.00126
G1 X184.839 Y152.308 E0.00559
G1 X185.108 Y152.426 E0.0036
G1 X185.378 Y152.458 E0.00332
G1 X185.568 Y152.435 E0.00234
G1 X185.937 Y152.331 E0.00469
G1 X186.055 Y152.309 E0.00148
G1 X186.15 Y152.307 E0.00116
G1 X186.314 Y152.329 E0.00201
G1 X187.149 Y152.577 E0.01065
G1 X187.53 Y152.614 E0.00468
G1 X187.564 Y152.752 E0.00174
G1 X186.919 Y153.165 E0.00935
G1 X183.263 Y155.742 E0.05466
G1 X179.178 Y158.744 E0.06196
G1 X177.273 Y156.953 E0.03196
G1 X176.789 Y157.108 E0.00621
G1 X176.603 Y158.074 E0.01203
G1 X176.442 Y158.077 E0.00198
G1 X176.255 Y157.261 E0.01023
G1 X173.207 Y159.48 F9000
; External perimeter
;ExternalPerimeter
SET_VELOCITY_LIMIT ACCEL=1000 ACCEL_TO_DECEL=1000 SQUARE_CORNER_VELOCITY=8

; Perimeter

;TYPE:External perimeter
G1 F1800
G1 X172.624 Y160.001 E0.00956
G1 X172.114 Y160.499 E0.0087
G1 X172.068 Y160.461 E0.00067
G1 X171.975 Y160.384 E0.00141
G1 X168.476 Y157.516 E0.05529
G1 X168.433 Y157.558 E0.00067
G1 X168.348 Y157.643 E0.00141
G1 X165.45 Y160.507 E0.04979
G1 X165.401 Y160.472 E0.00068
G1 X165.304 Y160.402 E0.00141
G1 X153.325 Y151.847 E0.17989
G1 X153.22 Y151.847 E0.00129
G1 X153.22 Y151.787 E0.00065
G1 X153.22 Y151.667 E0.00139
G1 X153.22 Y151.358 E0.00377
G1 X153.28 Y151.358 E0.00065
G1 X153.347 Y151.358 E0.00074
G1 X153.348 Y151.298 E0.00066
G1 X153.349 Y151.178 E0.00139
G1 X153.35 Y151.086 E0.00112
G1 X153.378 Y151.016 E0.00091
G1 X153.42 Y150.967 E0.0008
G1 X153.447 Y150.958 E0.00034
G1 X153.613 Y150.973 E0.00204
G1 X154.305 Y151.11 E0.00862
G1 X155.02 Y151.183 E0.00878
G1 X155.836 Y151.185 E0.00997
G1 X156.376 Y151.147 E0.00662
G1 X156.792 Y151.066 E0.00517
G1 X157.841 Y150.682 E0.01365
G1 X158.1 Y150.627 E0.00323
G1 X159.157 Y150.624 E0.01292
G1 X159.831 Y150.694 E0.00828
G1 X159.996 Y150.683 E0.00203
G1 X160.316 Y150.604 E0.00403
G1 X160.716 Y150.547 E0.00493
G1 X162.331 Y150.544 E0.01974
G1 X162.807 Y150.555 E0.00582
G1 X163.055 Y150.6 E0.00308
G1 X163.77 Y150.898 E0.00947
G1 X164.067 Y150.99 E0.0038
G1 X164.365 Y151.033 E0.00368
G1 X164.679 Y151.027 E0.00384
G1 X165.112 Y150.946 E0.00538
G1 X165.958 Y150.736 E0.01065
G1 X166.54 Y150.541 E0.0075
G1 X166.78 Y150.488 E0.00301
G1 X167.238 Y150.472 E0.0056
G1 X167.987 Y150.512 E0.00916
G1 X168.623 Y150.624 E0.00789
G1 X169.131 Y150.799 E0.00656
G1 X169.675 Y151.033 E0.00724
G1 X170.041 Y151.144 E0.00468
G1 X170.277 Y151.177 E0.00292
G1 X170.57 Y151.152 E0.00359
G1 X170.742 Y151.092 E0.00222
G1 X171.366 Y150.767 E0.00859
G1 X171.631 Y150.685 E0.0034
G1 X171.97 Y150.63 E0.0042
G1 X172.372 Y150.623 E0.00491
G1 X172.945 Y150.695 E0.00705
G1 X173.841 Y150.9 E0.01124
G1 X174.045 Y150.916 E0.00251
G1 X174.352 Y150.868 E0.0038
G1 X174.814 Y150.683 E0.00608
G1 X174.943 Y150.661 E0.0016
G1 X175.16 Y150.659 E0.00266
G1 X175.81 Y150.735 E0.00799
G1 X177.249 Y150.791 E0.0176
G1 X177.683 Y150.762 E0.00532
G1 X178.432 Y150.63 E0.00928
G1 X179.272 Y150.554 E0.01031
G1 X179.788 Y150.569 E0.0063
G1 X180.308 Y150.672 E0.00647
G1 X181.443 Y150.992 E0.01442
G1 X182.198 Y151.388 E0.01042
G1 X183.002 Y151.677 E0.01043
G1 X183.401 Y151.762 E0.00499
G1 X184.243 Y151.803 E0.0103
G1 X184.405 Y151.834 E0.00202
G1 X184.537 Y151.881 E0.00172
G1 X184.935 Y152.121 E0.00568
G1 X185.164 Y152.221 E0.00305
G1 X185.378 Y152.247 E0.00263
G1 X185.526 Y152.229 E0.00183
G1 X185.889 Y152.127 E0.0046
G1 X186.034 Y152.099 E0.0018
G1 X186.163 Y152.097 E0.00158
G1 X186.358 Y152.123 E0.00241
G1 X187.19 Y152.37 E0.0106
G1 X187.628 Y152.413 E0.00538
G1 X187.676 Y152.434 E0.00065
G1 X187.789 Y152.579 E0.00224
G1 X188.262 Y152.576 E0.00577
G1 X188.442 Y152.591 E0.00221
G1 X188.442 Y152.651 E0.00067
G1 X188.442 Y152.771 E0.0014
G1 X188.442 Y152.774 E0.00004
G1 X188.382 Y152.779 E0.00067
G1 X188.293 Y152.786 E0.00102
G1 X187.9 Y152.786 E0.00481
G1 X187.036 Y153.339 E0.01253
G1 X183.386 Y155.912 E0.05458
G1 X179.162 Y159.017 E0.06407
G1 X179.118 Y158.976 E0.00068
G1 X179.031 Y158.894 E0.00142
G1 X177.219 Y157.191 E0.03039
G1 X176.972 Y157.27 E0.00317
G1 X176.961 Y157.329 E0.00071
G1 X176.938 Y157.447 E0.00145
G1 X176.758 Y158.381 E0.01163
G1 X176.688 Y158.884 E0.0062
G1 X176.654 Y159.382 E0.00611
G1 X176.565 Y159.828 E0.00555
G1 X176.55 Y159.77 E0.00007
G1 X176.521 Y159.653 E0.0008
G1 X176.491 Y159.532 E0.00153
G1 X176.367 Y158.691 E0.01039
G1 X176.109 Y157.564 E0.01413
G1 X176.058 Y157.596 E0.00057
G1 X175.956 Y157.659 E0.00131
G1 X173.675 Y159.065 E0.03275
G1 X173.548 Y159.524 E0.00582
G1 X173.484 Y159.909 E0.00477
G1 X173.36 Y160.275 E0.00472
G1 X173.339 Y160.223 E0.00007
G1 X173.212 Y159.509 E0.00886
;WIPE_START
G1 X173.103 Y159.309 F9000
;WIPE_END
G1 X173.568 Y159.027
; External perimeter
;GapFill
SET_VELOCITY_LIMIT ACCEL=2000 ACCEL_TO_DECEL=2000 SQUARE_CORNER_VELOCITY=8

; Skirt

;TYPE:Gap fill
;WIDTH:0.122833
G1 F1800
G1 X173.555 Y159.047 E0.00012
G1 X173.463 Y159.196 E0.00089
;WIDTH:0.222645
G1 X173.389 Y159.315 E0.00157
G1 X173.381 Y159.491 E0.00198
;WIDTH:0.148294
G1 X173.382 Y159.686 E0.00134
;WIDTH:0.0864713
G1 X173.383 Y159.808 E0.0004
G1 E-0.6 F3000
G1 X176.552 Y159.141 F9000
G1 E0.6 F1800
;WIDTH:0.077584
G1 X176.549 Y159.056 E0.00024
;WIDTH:0.113682
G1 X176.542 Y158.87 E0.0009
;WIDTH:0.132264
G1 X176.541 Y158.815 E0.00033
;WIDTH:0.171242
G1 X176.541 Y158.662 E0.00126
;WIDTH:0.21427
G1 X176.534 Y158.501 E0.00173
;WIDTH:0.282429
G1 X176.527 Y158.346 E0.00227
;WIDTH:0.343875
G1 X176.524 Y158.171 E0.0032
G1 X176.519 Y157.901 F9000
;WIDTH:0.0871631
G1 F1800
G1 X176.517 Y157.772 E0.00043
;WIDTH:0.150048
G1 X176.514 Y157.614 E0.0011
;WIDTH:0.221822
G1 X176.512 Y157.456 E0.00177
;WIDTH:0.293595
G1 X176.509 Y157.297 E0.00243
;WIDTH:0.350979
G1 X176.506 Y157.154 E0.00269
G1 X187.29 Y152.89 F9000
; External perimeter
;SolidInfill
SET_VELOCITY_LIMIT ACCEL=2000 ACCEL_TO_DECEL=2000 SQUARE_CORNER_VELOCITY=8

; Bridge infill

;TYPE:Solid infill
;WIDTH:0.242332
G1 F2400
G1 X187.086 Y152.685 E0.00357
G1 X186.664 Y152.56 E0.00543
G1 X187.044 Y152.94 E0.00663
G1 X186.863 Y153.056 E0.00265
G1 X186.253 Y152.447 E0.01064
G1 X186.066 Y152.432 E0.00232
G1 X185.967 Y152.457 E0.00126
G1 X186.688 Y153.178 E0.01258
G1 X186.514 Y153.301 E0.00263
G1 X185.731 Y152.518 E0.01366
G1 X185.591 Y152.555 E0.0018
G1 X185.484 Y152.568 E0.00132
G1 X186.34 Y153.424 E0.01494
G1 X186.166 Y153.547 E0.00263
G1 X185.176 Y152.557 E0.01727
G1 X185.076 Y152.545 E0.00124
G1 X184.783 Y152.416 E0.00395
G1 X184.672 Y152.35 E0.00159
G1 X185.992 Y153.67 E0.02303
G1 X185.818 Y153.792 E0.00263
G1 X184.156 Y152.131 E0.029
G1 X183.844 Y152.115 E0.00386
G1 X185.643 Y153.915 E0.03141
G1 X185.469 Y154.038 E0.00263
G1 X183.532 Y152.1 E0.03381
G1 X183.358 Y152.092 E0.00214
G1 X183.191 Y152.056 E0.00211
G1 X185.295 Y154.161 E0.03673
G1 X185.121 Y154.283 E0.00263
G1 X182.791 Y151.953 E0.04066
G1 X182.328 Y151.787 E0.00607
G1 X184.947 Y154.406 E0.0457
G1 X184.773 Y154.529 E0.00263
G1 X181.795 Y151.551 E0.05196
G1 X181.32 Y151.302 E0.00661
G1 X181.221 Y151.274 E0.00127
G1 X184.598 Y154.652 E0.05894
G1 X184.424 Y154.774 E0.00263
G1 X180.807 Y151.158 E0.06312
G1 X180.394 Y151.041 E0.0053
G1 X184.25 Y154.897 E0.06729
G1 X184.076 Y155.02 E0.00263
G1 X180.007 Y150.951 E0.07101
G1 X179.75 Y150.9 E0.00323
G1 X179.656 Y150.897 E0.00116
G1 X183.902 Y155.143 E0.07409
G1 X183.728 Y155.265 E0.00263
G1 X179.35 Y150.888 E0.07639
G1 X179.282 Y150.886 E0.00084
G1 X179.07 Y150.905 E0.00263
G1 X183.554 Y155.388 E0.07823
G1 X183.379 Y155.511 E0.00263
G1 X178.798 Y150.93 E0.07994
G1 X178.526 Y150.955 E0.00337
G1 X183.205 Y155.634 E0.08165
G1 X183.034 Y155.759 E0.00262
G1 X178.27 Y150.996 E0.08313
G1 X178.018 Y151.04 E0.00316
G1 X182.863 Y155.885 E0.08455
G1 X182.692 Y156.011 E0.00262
G1 X177.765 Y151.085 E0.08597
G1 X177.723 Y151.092 E0.00053
G1 X177.491 Y151.107 E0.00287
G1 X182.52 Y156.137 E0.08777
G1 X182.349 Y156.262 E0.00262
G1 X177.208 Y151.121 E0.08972
G1 X176.899 Y151.109 E0.00381
G1 X182.178 Y156.388 E0.09212
G1 X182.007 Y156.514 E0.00262
G1 X176.59 Y151.097 E0.09453
G1 X176.281 Y151.085 E0.00381
G1 X181.836 Y156.64 E0.09693
G1 X181.665 Y156.766 E0.00262
G1 X175.973 Y151.073 E0.09933
G1 X175.784 Y151.066 E0.00232
G1 X175.653 Y151.051 E0.00163
G1 X181.494 Y156.891 E0.10192
G1 X181.323 Y157.017 E0.00262
G1 X175.317 Y151.012 E0.1048
G1 X175.143 Y150.991 E0.00217
G1 X175.001 Y150.992 E0.00175
G1 X181.151 Y157.143 E0.10733
G1 X180.98 Y157.269 E0.00262
G1 X174.77 Y151.058 E0.10838
G1 X174.558 Y151.143 E0.00282
G1 X180.809 Y157.395 E0.10909
G1 X180.638 Y157.52 E0.00262
G1 X174.326 Y151.208 E0.11016
G1 X174.069 Y151.248 E0.00321
G1 X180.467 Y157.646 E0.11165
G1 X180.296 Y157.772 E0.00262
G1 X173.742 Y151.218 E0.11437
G1 X173.357 Y151.13 E0.00487
G1 X180.125 Y157.898 E0.1181
G1 X179.954 Y158.024 E0.00262
G1 X172.972 Y151.042 E0.12184
G1 X172.887 Y151.022 E0.00108
G1 X172.622 Y150.989 E0.00329
G1 X179.782 Y158.149 E0.12496
G1 X179.611 Y158.275 E0.00262
G1 X172.292 Y150.956 E0.12773
G1 X172 Y150.961 E0.0036
G1 X179.44 Y158.401 E0.12983
G1 X179.269 Y158.527 E0.00262
G1 X171.744 Y151.002 E0.13131
G1 X171.707 Y151.008 E0.00046
G1 X171.514 Y151.069 E0.0025
G1 X177.271 Y156.826 E0.10047
G1 X177.046 Y156.898 E0.00291
G1 X171.316 Y151.167 E0.1
G1 X171.12 Y151.269 E0.00272
G1 X176.821 Y156.97 E0.09949
G1 X176.684 Y157.014 E0.00178
G1 X176.677 Y157.05 E0.00045
G1 X176.606 Y157.051 E0.00087
G1 X170.925 Y151.37 E0.09913
G1 X170.873 Y151.397 E0.00071
G1 X170.711 Y151.454 E0.00212
G1 X176.314 Y157.056 E0.09777
G1 X176.301 Y157.056 E0.00016
G1 X176.125 Y157.165 E0.00254
G1 X170.455 Y151.495 E0.09894
G1 X170.268 Y151.511 E0.00232
