; generated by SuperSlicer 2.3.57 on 2022-02-15 at 21:53:42 UTC


;
;

;
;
; 

; external perimeters extrusion width = 0.20mm
; perimeters extrusion width = 0.23mm
; infill extrusion width = 0.36mm
; solid infill extrusion width = 0.28mm
; top infill extrusion width = 0.20mm
; support material extrusion width = 0.21mm
; first layer extrusion width = 0.24mm

; object:{"name":"9-75p","id":"9-75p.STL id:0 copy 0","object_center":[152.500000,146.501572,0.000000],"boundingbox_center":[152.500000,146.501572,1.407800],"boundingbox_size":[30.275903,19.530029,2.815599]}
; object:{"name":"3","id":"3.STL id:1 copy 0","object_center":[155.785211,159.103304,0.000000],"boundingbox_center":[155.785211,159.103304,0.800000],"boundingbox_size":[6.513721,3.692578,1.600000]}
; object:{"name":"4","id":"4.STL id:2 copy 0","object_center":[160.695659,158.952639,0.000000],"boundingbox_center":[160.695659,158.952639,0.800000],"boundingbox_size":[1.954846,3.401624,1.600000]}
; object:{"name":"5","id":"5.STL id:3 copy 0","object_center":[146.981272,159.269834,0.000000],"boundingbox_center":[146.981272,159.269834,0.800000],"boundingbox_size":[2.612646,4.017261,1.600000]}
; object:{"name":"6","id":"6.STL id:4 copy 0","object_center":[150.497244,159.757925,0.000000],"boundingbox_center":[150.497244,159.757925,0.800000],"boundingbox_size":[2.236938,4.998401,1.600000]}
; object:{"name":"7","id":"7.STL id:5 copy 0","object_center":[153.061145,161.833935,0.000000],"boundingbox_center":[153.061145,161.833935,0.800000],"boundingbox_size":[1.979309,2.855420,1.600000]}
; plater:{"center":[152.500000,149.999101,0.000000],"boundingbox_center":[152.500000,149.999101,1.407800],"boundingbox_size":[30.275903,26.525088,2.815599]}

;TYPE:Custom
START_PRINT T_BED=60 T_EXTRUDER=210
M107
G21 ; set units to millimeters
G90 ; use absolute coordinates
M83 ; use relative distances for extrusion
; Filament gcode
M104 S210 ; set temperature
M109 S210 ; set temperature and wait for it to be reached
M190 S60 ; set bed temperature and wait for it to be reached
;LAYER_CHANGE
;Z:0.14
;HEIGHT:0.14
G1 Z0.14 F9000
G1 E-0.6 F3000
G1 X134.93 Y134.697 F9000
G1 E0.6 F1800
; External perimeter
;Skirt
SET_VELOCITY_LIMIT ACCEL=3000 ACCEL_TO_DECEL=3000 SQUARE_CORNER_VELOCITY=8

; Support material

;TYPE:Skirt
;WIDTH:0.24
G1 X134.516 Y135.317 E0.00911
G1 X134.252 Y136.009 E0.00905
G1 X134.148 Y136.747 E0.00911
G1 X134.149 Y156.268 E0.23856
G1 X134.203 Y156.773 E0.00621
G1 X134.334 Y157.264 E0.00621
G1 X134.54 Y157.732 E0.00626
G1 X134.814 Y158.16 E0.00621
G1 X135.278 Y158.66 E0.00834
G1 X135.835 Y159.055 E0.00834
G1 X145.532 Y164.203 E0.13416
G1 X152.109 Y166.347 E0.08454
G1 X152.56 Y166.451 E0.00566
G1 X153.017 Y166.491 E0.0056
G1 X153.559 Y166.456 E0.00664
G1 X154.084 Y166.335 E0.00659
G1 X162.184 Y163.561 E0.10462
G1 X162.589 Y163.336 E0.00566
G1 X169.532 Y158.795 E0.10139
G1 X170.056 Y158.303 E0.00878
G1 X170.459 Y157.714 E0.00872
G1 X170.728 Y157.048 E0.00878
G1 X170.847 Y156.34 E0.00878
G1 X170.843 Y136.578 E0.2415
G1 X170.738 Y135.971 E0.00752
G1 X170.521 Y135.391 E0.00757
G1 X170.202 Y134.864 E0.00752
G1 X169.792 Y134.406 E0.00752
G1 X169.3 Y134.029 E0.00757
G1 X168.751 Y133.751 E0.00752
G1 X168.159 Y133.58 E0.00752
G1 X167.542 Y133.522 E0.00757
G1 X137.392 Y133.522 E0.36846
G1 X136.878 Y133.574 E0.00632
G1 X136.378 Y133.704 E0.00632
G1 X135.904 Y133.911 E0.00632
G1 X135.468 Y134.188 E0.00632
G1 X134.952 Y134.677 E0.00868
G1 X135.095 Y134.827 F9000
G1 F1800
G1 X134.705 Y135.408 E0.00855
G1 X134.455 Y136.061 E0.00855
G1 X134.358 Y136.754 E0.00855
G1 X134.358 Y156.258 E0.23835
G1 X134.408 Y156.729 E0.00579
G1 X134.53 Y157.187 E0.00579
G1 X134.719 Y157.622 E0.00579
G1 X134.973 Y158.022 E0.00579
G1 X135.412 Y158.498 E0.00791
G1 X135.94 Y158.873 E0.00791
G1 X145.616 Y164.011 E0.13388
G1 X152.167 Y166.145 E0.0842
G1 X152.586 Y166.242 E0.00526
G1 X153.019 Y166.281 E0.00532
G1 X153.531 Y166.248 E0.00627
G1 X154.027 Y166.132 E0.00622
G1 X162.098 Y163.369 E0.10425
G1 X162.474 Y163.16 E0.00526
G1 X169.395 Y158.635 E0.10106
G1 X169.888 Y158.176 E0.00823
G1 X170.272 Y157.617 E0.00828
G1 X170.526 Y156.989 E0.00828
G1 X170.638 Y156.32 E0.00828
G1 X170.634 Y136.604 E0.24094
G1 X170.538 Y136.034 E0.00707
G1 X170.335 Y135.488 E0.00712
G1 X170.037 Y134.993 E0.00707
G1 X169.651 Y134.562 E0.00707
G1 X169.189 Y134.207 E0.00712
G1 X168.673 Y133.947 E0.00707
G1 X168.118 Y133.786 E0.00707
G1 X167.542 Y133.732 E0.00707
G1 X137.404 Y133.732 E0.36831
G1 X136.923 Y133.779 E0.0059
G1 X136.456 Y133.899 E0.0059
G1 X136.013 Y134.091 E0.0059
G1 X135.605 Y134.348 E0.0059
G1 X135.117 Y134.807 E0.00818
; INIT printing object 9-75p.STL id:0 copy 0
G1 E-0.6 F3000
; printing object 9-75p.STL id:0 copy 0
G1 X138.002 Y137.376 F9000
G1 E0.6 F1800
; External perimeter
;Perimeter
SET_VELOCITY_LIMIT ACCEL=2000 ACCEL_TO_DECEL=2000 SQUARE_CORNER_VELOCITY=8

; Overhang perimeter

;TYPE:Internal perimeter
G1 X166.998 Y137.376 E0.35435
G1 X166.998 Y155.607 E0.22279
G1 X138.002 Y155.626 E0.35435
G1 X138.002 Y137.406 E0.22266
G1 X137.792 Y155.836 F9000
G1 F1800
G1 X137.792 Y137.167 E0.22816
G1 X167.208 Y137.167 E0.35948
G1 X167.208 Y155.817 E0.22792
G1 X137.822 Y155.836 E0.35911
G1 X137.582 Y156.046 F9000
; External perimeter
;ExternalPerimeter
SET_VELOCITY_LIMIT ACCEL=1000 ACCEL_TO_DECEL=1000 SQUARE_CORNER_VELOCITY=8

; Perimeter

;TYPE:External perimeter
G1 F1800
G1 X137.582 Y136.957 E0.23329
G1 X137.642 Y136.957 E0.00065
G1 X137.762 Y136.957 E0.00139
G1 X167.418 Y136.957 E0.36241
G1 X167.418 Y137.017 E0.00065
G1 X167.418 Y137.137 E0.00139
G1 X167.418 Y156.027 E0.23085
G1 X167.358 Y156.027 E0.00066
G1 X167.238 Y156.027 E0.00139
G1 X137.612 Y156.046 E0.36204
;WIPE_START
G1 X137.682 Y155.873 F9000
;WIPE_END
G1 X166.967 Y137.832
; External perimeter
;SolidInfill
SET_VELOCITY_LIMIT ACCEL=2000 ACCEL_TO_DECEL=2000 SQUARE_CORNER_VELOCITY=8

; Bridge infill

;TYPE:Solid infill
;WIDTH:0.240833
G1 F2400
G1 X166.632 Y137.498 E0.0058
G1 X166.335 Y137.498 E0.00364
G1 X166.876 Y138.039 E0.00938
G1 X166.876 Y138.336 E0.00364
G1 X166.039 Y137.498 E0.01453
G1 X165.742 Y137.498 E0.00364
G1 X166.876 Y138.633 E0.01968
G1 X166.876 Y138.93 E0.00364
G1 X165.445 Y137.498 E0.02483
G1 X165.148 Y137.498 E0.00364
G1 X166.876 Y139.227 E0.02998
G1 X166.876 Y139.524 E0.00364
G1 X164.851 Y137.498 E0.03513
G1 X164.554 Y137.498 E0.00364
G1 X166.876 Y139.821 E0.04028
G1 X166.876 Y140.117 E0.00364
G1 X164.257 Y137.498 E0.04542
G1 X163.96 Y137.498 E0.00364
G1 X166.876 Y140.414 E0.05057
G1 X166.876 Y140.711 E0.00364
G1 X163.663 Y137.498 E0.05572
G1 X163.366 Y137.498 E0.00364
G1 X166.876 Y141.008 E0.06087
G1 X166.876 Y141.305 E0.00364
G1 X163.069 Y137.498 E0.06602
G1 X162.772 Y137.498 E0.00364
G1 X166.876 Y141.602 E0.07117
G1 X166.876 Y141.899 E0.00364
G1 X162.475 Y137.498 E0.07632
G1 X162.179 Y137.498 E0.00364
G1 X166.876 Y142.196 E0.08147
G1 X166.876 Y142.493 E0.00364
G1 X161.882 Y137.498 E0.08662
G1 X161.585 Y137.498 E0.00364
G1 X166.876 Y142.79 E0.09177
G1 X166.876 Y143.087 E0.00364
G1 X161.288 Y137.498 E0.09692
G1 X160.991 Y137.498 E0.00364
G1 X166.876 Y143.384 E0.10207
G1 X166.876 Y143.681 E0.00364
G1 X160.694 Y137.498 E0.10722
G1 X160.397 Y137.498 E0.00364
G1 X166.876 Y143.977 E0.11237
G1 X166.876 Y144.274 E0.00364
G1 X160.1 Y137.498 E0.11752
G1 X159.803 Y137.498 E0.00364
G1 X166.876 Y144.571 E0.12266
G1 X166.876 Y144.868 E0.00364
G1 X159.506 Y137.498 E0.12781
G1 X159.209 Y137.498 E0.00364
G1 X166.876 Y145.165 E0.13296
G1 X166.876 Y145.462 E0.00364
G1 X158.912 Y137.498 E0.13811
G1 X158.616 Y137.498 E0.00364
G1 X166.876 Y145.759 E0.14326
G1 X166.876 Y146.056 E0.00364
G1 X158.319 Y137.498 E0.14841
G1 X158.022 Y137.498 E0.00364
G1 X166.876 Y146.353 E0.15356
G1 X166.876 Y146.65 E0.00364
G1 X157.725 Y137.498 E0.15871
G1 X157.428 Y137.498 E0.00364
G1 X166.876 Y146.947 E0.16386
G1 X166.876 Y147.244 E0.00364
G1 X157.131 Y137.498 E0.16901
G1 X156.834 Y137.498 E0.00364
G1 X166.876 Y147.541 E0.17416
G1 X166.876 Y147.837 E0.00364
G1 X156.537 Y137.498 E0.17931
G1 X156.24 Y137.498 E0.00364
G1 X166.876 Y148.134 E0.18446
G1 X166.876 Y148.431 E0.00364
G1 X155.943 Y137.498 E0.18961
G1 X155.646 Y137.498 E0.00364
G1 X166.876 Y148.728 E0.19476
G1 X166.876 Y149.025 E0.00364
G1 X155.349 Y137.498 E0.1999
G1 X155.052 Y137.498 E0.00364
G1 X166.876 Y149.322 E0.20505
G1 X166.876 Y149.619 E0.00364
G1 X154.756 Y137.498 E0.2102
G1 X154.459 Y137.498 E0.00364
G1 X166.876 Y149.916 E0.21535
G1 X166.876 Y150.213 E0.00364
G1 X154.162 Y137.498 E0.2205
G1 X153.865 Y137.498 E0.00364
G1 X166.876 Y150.51 E0.22565
G1 X166.876 Y150.807 E0.00364
G1 X153.568 Y137.498 E0.2308
G1 X153.271 Y137.498 E0.00364
G1 X166.876 Y151.104 E0.23595
G1 X166.876 Y151.4 E0.00364
G1 X152.974 Y137.498 E0.2411
G1 X152.677 Y137.498 E0.00364
G1 X166.876 Y151.697 E0.24625
G1 X166.876 Y151.994 E0.00364
G1 X152.38 Y137.498 E0.2514
G1 X152.083 Y137.498 E0.00364
G1 X166.876 Y152.291 E0.25655
G1 X166.876 Y152.588 E0.00364
G1 X151.786 Y137.498 E0.2617
G1 X151.489 Y137.498 E0.00364
G1 X166.876 Y152.885 E0.26685
G1 X166.876 Y153.182 E0.00364
G1 X151.192 Y137.498 E0.272
G1 X150.896 Y137.498 E0.00364
G1 X166.876 Y153.479 E0.27714
G1 X166.876 Y153.776 E0.00364
G1 X150.599 Y137.498 E0.28229
G1 X150.302 Y137.498 E0.00364
G1 X166.876 Y154.073 E0.28744
G1 X166.876 Y154.37 E0.00364
G1 X150.005 Y137.498 E0.29259
G1 X149.708 Y137.498 E0.00364
G1 X166.876 Y154.667 E0.29774
G1 X166.876 Y154.964 E0.00364
G1 X149.411 Y137.498 E0.30289
G1 X149.114 Y137.498 E0.00364
G1 X166.876 Y155.26 E0.30804
G1 X166.876 Y155.485 E0.00276
G1 X166.804 Y155.485 E0.00088
G1 X148.817 Y137.498 E0.31194
G1 X148.52 Y137.498 E0.00364
G1 X166.507 Y155.485 E0.31194
G1 X166.211 Y155.486 E0.00364
G1 X148.223 Y137.498 E0.31195
G1 X147.926 Y137.498 E0.00364
G1 X165.914 Y155.486 E0.31195
G1 X165.617 Y155.486 E0.00364
G1 X147.629 Y137.498 E0.31195
G1 X147.333 Y137.498 E0.00364
G1 X165.321 Y155.486 E0.31196
G1 X165.024 Y155.486 E0.00364
G1 X147.036 Y137.498 E0.31196
G1 X146.739 Y137.498 E0.00364
G1 X164.727 Y155.487 E0.31196
G1 X164.43 Y155.487 E0.00364
G1 X146.442 Y137.498 E0.31197
G1 X146.145 Y137.498 E0.00364
G1 X164.134 Y155.487 E0.31197
G1 X163.837 Y155.487 E0.00364
G1 X145.848 Y137.498 E0.31197
G1 X145.551 Y137.498 E0.00364
G1 X163.54 Y155.487 E0.31198
G1 X163.243 Y155.488 E0.00364
G1 X145.254 Y137.498 E0.31198
G1 X144.957 Y137.498 E0.00364
G1 X162.947 Y155.488 E0.31198
G1 X162.65 Y155.488 E0.00364
G1 X144.66 Y137.498 E0.31199
G1 X144.363 Y137.498 E0.00364
G1 X162.353 Y155.488 E0.31199
G1 X162.057 Y155.488 E0.00364
G1 X144.066 Y137.498 E0.31199
G1 X143.769 Y137.498 E0.00364
G1 X161.76 Y155.489 E0.312
G1 X161.463 Y155.489 E0.00364
G1 X143.473 Y137.498 E0.312
G1 X143.176 Y137.498 E0.00364
G1 X161.166 Y155.489 E0.312
G1 X160.87 Y155.489 E0.00364
G1 X142.879 Y137.498 E0.31201
G1 X142.582 Y137.498 E0.00364
G1 X160.573 Y155.489 E0.31201
G1 X160.276 Y155.49 E0.00364
G1 X142.285 Y137.498 E0.31201
G1 X141.988 Y137.498 E0.00364
G1 X159.98 Y155.49 E0.31202
G1 X159.683 Y155.49 E0.00364
G1 X141.691 Y137.498 E0.31202
G1 X141.394 Y137.498 E0.00364
G1 X159.386 Y155.49 E0.31202
G1 X159.089 Y155.49 E0.00364
G1 X141.097 Y137.498 E0.31203
G1 X140.8 Y137.498 E0.00364
G1 X158.793 Y155.491 E0.31203
G1 X158.496 Y155.491 E0.00364
G1 X140.503 Y137.498 E0.31204
G1 X140.206 Y137.498 E0.00364
G1 X158.199 Y155.491 E0.31204
G1 X157.902 Y155.491 E0.00364
G1 X139.909 Y137.498 E0.31204
G1 X139.613 Y137.498 E0.00364
G1 X157.606 Y155.491 E0.31205
G1 X157.309 Y155.492 E0.00364
G1 X139.316 Y137.498 E0.31205
G1 X139.019 Y137.498 E0.00364
G1 X157.012 Y155.492 E0.31205
G1 X156.716 Y155.492 E0.00364
G1 X138.722 Y137.498 E0.31206
G1 X138.425 Y137.498 E0.00364
G1 X156.419 Y155.492 E0.31206
G1 X156.122 Y155.492 E0.00364
G1 X138.124 Y137.498 E0.3121
G1 X138.124 Y137.791 E0.00359
G1 X155.825 Y155.493 E0.30699
G1 X155.529 Y155.493 E0.00364
G1 X138.124 Y138.088 E0.30184
G1 X138.124 Y138.385 E0.00364
G1 X155.232 Y155.493 E0.2967
G1 X154.935 Y155.493 E0.00364
G1 X138.124 Y138.682 E0.29155
G1 X138.124 Y138.979 E0.00364
G1 X154.639 Y155.493 E0.28641
G1 X154.342 Y155.494 E0.00364
G1 X138.124 Y139.276 E0.28126
G1 X138.124 Y139.572 E0.00364
G1 X154.045 Y155.494 E0.27612
G1 X153.748 Y155.494 E0.00364
G1 X138.124 Y139.869 E0.27097
G1 X138.124 Y140.166 E0.00364
G1 X153.452 Y155.494 E0.26582
G1 X153.155 Y155.494 E0.00364
G1 X138.124 Y140.463 E0.26068
G1 X138.124 Y140.76 E0.00364
G1 X152.858 Y155.495 E0.25553
G1 X152.561 Y155.495 E0.00364
G1 X138.124 Y141.057 E0.25039
G1 X138.124 Y141.354 E0.00364
G1 X152.265 Y155.495 E0.24524
G1 X151.968 Y155.495 E0.00364
G1 X138.124 Y141.651 E0.24009
G1 X138.124 Y141.948 E0.00364
G1 X151.671 Y155.495 E0.23495
G1 X151.375 Y155.496 E0.00364
G1 X138.124 Y142.245 E0.2298
G1 X138.124 Y142.542 E0.00364
G1 X151.078 Y155.496 E0.22466
G1 X150.781 Y155.496 E0.00364
G1 X138.124 Y142.839 E0.21951
G1 X138.124 Y143.135 E0.00364
G1 X150.484 Y155.496 E0.21436
G1 X150.188 Y155.496 E0.00364
G1 X138.124 Y143.432 E0.20922
G1 X138.124 Y143.729 E0.00364
G1 X149.891 Y155.497 E0.20407
G1 X149.594 Y155.497 E0.00364
G1 X138.124 Y144.026 E0.19893
G1 X138.124 Y144.323 E0.00364
G1 X149.298 Y155.497 E0.19378
G1 X149.001 Y155.497 E0.00364
G1 X138.124 Y144.62 E0.18863
G1 X138.124 Y144.917 E0.00364
G1 X148.704 Y155.497 E0.18349
G1 X148.407 Y155.498 E0.00364
G1 X138.124 Y145.214 E0.17834
G1 X138.124 Y145.511 E0.00364
G1 X148.111 Y155.498 E0.1732
G1 X147.814 Y155.498 E0.00364
G1 X138.124 Y145.808 E0.16805
G1 X138.124 Y146.105 E0.00364
G1 X147.517 Y155.498 E0.16291
G1 X147.22 Y155.498 E0.00364
G1 X138.124 Y146.402 E0.15776
G1 X138.124 Y146.699 E0.00364
G1 X146.924 Y155.499 E0.15261
G1 X146.627 Y155.499 E0.00364
G1 X138.124 Y146.995 E0.14747
G1 X138.124 Y147.292 E0.00364
G1 X146.33 Y155.499 E0.14232
G1 X146.034 Y155.499 E0.00364
G1 X138.124 Y147.589 E0.13718
G1 X138.124 Y147.886 E0.00364
G1 X145.737 Y155.499 E0.13203
G1 X145.44 Y155.5 E0.00364
G1 X138.124 Y148.183 E0.12688
G1 X138.124 Y148.48 E0.00364
G1 X145.143 Y155.5 E0.12174
G1 X144.847 Y155.5 E0.00364
G1 X138.124 Y148.777 E0.11659
G1 X138.124 Y149.074 E0.00364
G1 X144.55 Y155.5 E0.11145
G1 X144.253 Y155.5 E0.00364
G1 X138.124 Y149.371 E0.1063
G1 X138.124 Y149.668 E0.00364
G1 X143.956 Y155.501 E0.10115
G1 X143.66 Y155.501 E0.00364
G1 X138.124 Y149.965 E0.09601
G1 X138.124 Y150.262 E0.00364
G1 X143.363 Y155.501 E0.09086
G1 X143.066 Y155.501 E0.00364
G1 X138.124 Y150.559 E0.08572
G1 X138.124 Y150.855 E0.00364
G1 X142.77 Y155.501 E0.08057
G1 X142.473 Y155.502 E0.00364
G1 X138.124 Y151.152 E0.07542
G1 X138.124 Y151.449 E0.00364
G1 X142.176 Y155.502 E0.07028
G1 X141.879 Y155.502 E0.00364
G1 X138.124 Y151.746 E0.06513
G1 X138.124 Y152.043 E0.00364
G1 X141.583 Y155.502 E0.05999
G1 X141.286 Y155.502 E0.00364
G1 X138.124 Y152.34 E0.05484
G1 X138.124 Y152.637 E0.00364
G1 X140.989 Y155.503 E0.0497
G1 X140.693 Y155.503 E0.00364
G1 X138.124 Y152.934 E0.04455
G1 X138.124 Y153.231 E0.00364
G1 X140.396 Y155.503 E0.0394
G1 X140.099 Y155.503 E0.00364
G1 X138.124 Y153.528 E0.03426
G1 X138.124 Y153.825 E0.00364
G1 X139.802 Y155.503 E0.02911
G1 X139.506 Y155.503 E0.00364
G1 X138.124 Y154.122 E0.02397
G1 X138.124 Y154.418 E0.00364
G1 X139.209 Y155.504 E0.01882
G1 X138.912 Y155.504 E0.00364
G1 X138.124 Y154.715 E0.01367
G1 X138.124 Y155.012 E0.00364
G1 X138.615 Y155.504 E0.00853
G1 X138.319 Y155.504 E0.00364
G1 X138.033 Y155.219 E0.00495
; INIT stop printing object 9-75p.STL id:0 copy 0
; INIT printing object 3.STL id:1 copy 0
G1 E-0.6 F3000
; stop printing object 9-75p.STL id:0 copy 0
; printing object 3.STL id:1 copy 0
G1 X156.555 Y159.608 F9000
G1 E0.6 F1800
; External perimeter
;Perimeter
SET_VELOCITY_LIMIT ACCEL=2000 ACCEL_TO_DECEL=2000 SQUARE_CORNER_VELOCITY=8

; Overhang perimeter

;TYPE:Internal perimeter
;WIDTH:0.24
G1 X157.177 Y158.646 E0.014
G1 X157.346 Y158.758 E0.00248
G1 X157.747 Y158.993 E0.00567
G1 X157.588 Y159.125 E0.00253
G1 X156.565 Y160.118 E0.01742
G1 X155.356 Y159.256 E0.01815
G1 X155.568 Y158.529 E0.00926
G1 X156.535 Y159.585 E0.0175
G1 X156.526 Y159.265 F9000
G1 F1800
G1 X157.117 Y158.353 E0.01328
G1 X157.458 Y158.58 E0.00501
G1 X157.841 Y158.805 E0.00543
