; generated by SuperSlicer 2.3.57 on 2022-01-01 at 20:23:47 UTC


;
;

;
;
; 

; external perimeters extrusion width = 0.40mm
; perimeters extrusion width = 0.40mm
; infill extrusion width = 0.40mm
; solid infill extrusion width = 0.40mm
; top infill extrusion width = 0.40mm
; support material extrusion width = 0.40mm
; first layer extrusion width = 0.48mm


;TYPE:Custom
START_PRINT T_BED=70 T_EXTRUDER=235
M107
G21 ; set units to millimeters
G90 ; use absolute coordinates
M83 ; use relative distances for extrusion
M109 S235 ; set temperature and wait for it to be reached
M190 S70 ; set bed temperature and wait for it to be reached
;LAYER_CHANGE
;Z:0.24
;HEIGHT:0.24
G1 Z0.24 F6000
G1 E-1.5 F3000
G1 X96.611 Y114.418 F6000
G1 E1.5 F1800
;TYPE:Skirt
;WIDTH:0.48
G1 F1200
G1 X95.889 Y115.035 E0.0406
G1 X95.085 Y116.064 E0.05583
G1 X94.539 Y117.25 E0.05583
G1 X93.738 Y120.938 E0.16137
G1 X93.638 Y121.947 E0.04335
G1 X93.64 Y173.172 E2.19015
G1 X93.774 Y174.236 E0.04585
G1 X94.108 Y175.255 E0.04585
G1 X94.628 Y176.193 E0.04585
G1 X95.316 Y177.016 E0.04585
G1 X96.142 Y177.69 E0.0456
G1 X97.08 Y178.196 E0.0456
G1 X98.098 Y178.517 E0.0456
G1 X99.163 Y178.642 E0.04585
G1 X174.284 Y178.643 E3.21186
G1 X175.392 Y178.532 E0.0476
G1 X176.462 Y178.204 E0.04785
G1 X177.441 Y177.674 E0.0476
G1 X178.297 Y176.963 E0.0476
G1 X178.965 Y176.146 E0.0451
G1 X179.466 Y175.224 E0.04485
G1 X179.788 Y174.226 E0.04485
G1 X179.92 Y173.18 E0.0451
G1 X180.318 Y123.029 E2.14426
G1 X180.316 Y118.882 E0.17733
G1 X180.21 Y117.903 E0.0421
G1 X178.211 Y110.664 E0.32106
G1 X177.85 Y109.94 E0.0346
G1 X177.389 Y109.275 E0.0346
G1 X176.834 Y108.679 E0.03485
G1 X176.203 Y108.172 E0.0346
G1 X174.94 Y107.517 E0.06081
G1 X173.56 Y107.199 E0.06056
G1 X164.432 Y106.986 E0.39039
G1 X99.247 Y113.396 E2.80043
G1 X98.317 Y113.585 E0.0406
G1 X97.431 Y113.928 E0.0406
G1 X96.662 Y114.387 E0.03828
G1 X96.88 Y114.753 F6000
G1 F1200
G1 X96.203 Y115.326 E0.03791
G1 X95.45 Y116.288 E0.05222
G1 X94.942 Y117.398 E0.05222
G1 X94.16 Y121.013 E0.15812
G1 X94.066 Y121.949 E0.04023
G1 X94.068 Y173.146 E2.18894
G1 X94.19 Y174.13 E0.04239
G1 X94.495 Y175.073 E0.04239
G1 X94.974 Y175.941 E0.04239
G1 X95.605 Y176.699 E0.04215
G1 X96.376 Y177.331 E0.04263
G1 X97.248 Y177.802 E0.04239
G1 X98.194 Y178.1 E0.04239
G1 X99.178 Y178.213 E0.04239
G1 X174.28 Y178.214 E3.211
G1 X175.303 Y178.113 E0.04396
G1 X176.284 Y177.814 E0.04383
G1 X177.187 Y177.329 E0.04383
G1 X177.978 Y176.677 E0.04383
G1 X178.597 Y175.924 E0.04167
G1 X179.068 Y175.065 E0.04191
G1 X179.37 Y174.132 E0.04191
G1 X179.492 Y173.16 E0.04191
G1 X179.889 Y123.028 E2.14346
G1 X179.888 Y118.897 E0.17664
G1 X179.793 Y118. E0.03854
G1 X177.826 Y110.854 E0.31689
G1 X177.492 Y110.177 E0.03229
G1 X177.061 Y109.55 E0.03253
G1 X176.546 Y108.997 E0.03229
G1 X175.953 Y108.521 E0.03253
G1 X174.778 Y107.914 E0.05653
G1 X173.494 Y107.623 E0.05629
G1 X164.43 Y107.415 E0.38767
G1 X99.306 Y113.82 E2.79784
G1 X98.444 Y113.994 E0.03758
G1 X97.629 Y114.308 E0.03734
G1 X96.931 Y114.722 E0.03468
G1 E-1.5 F3000
G1 X172.994 Y118.379 F6000
G1 E1.5 F1800
;TYPE:Support material
G1 F1200
G1 X172.994 Y112.813 E0.23794
G1 X172.137 Y112.813 E0.03664
G1 X172.137 Y118.194 E0.23006
G1 X171.28 Y118.194 E0.03664
G1 X171.28 Y112.813 E0.23006
G1 X170.423 Y112.813 E0.03664
G1 X170.423 Y118.249 E0.23239
G1 X170.005 Y118.666 E0.02524
G1 X170.005 Y121.194 E0.10809
G1 X169.566 Y121.194 E0.01879
G1 X169.566 Y112.813 E0.35833
G1 X168.709 Y112.813 E0.03664
G1 X168.709 Y121.194 E0.35833
G1 X168.079 Y121.194 E0.02694
G1 X168.079 Y118.666 E0.10809
G1 X167.852 Y118.439 E0.01373
G1 X167.852 Y112.813 E0.24053
G1 X166.995 Y112.813 E0.03664
G1 X166.995 Y118.194 E0.23006
G1 X166.138 Y118.194 E0.03664
G1 X166.138 Y112.813 E0.23006
G1 X165.281 Y112.813 E0.03664
G1 X165.281 Y118.194 E0.23006
G1 X164.424 Y118.194 E0.03664
G1 X164.424 Y112.629 E0.23794
G1 E-1.5 F3000
G1 X164.508 Y122.668 F6000
G1 E1.5 F1800
;TYPE:Internal perimeter
G1 F1200
G1 X164.508 Y119.668 E0.12827
G1 X166.605 Y119.668 E0.08962
G1 X166.605 Y122.668 E0.12827
G1 X171.479 Y122.668 E0.20843
G1 X171.479 Y119.668 E0.12827
G1 X174.006 Y119.668 E0.10805
G1 X174.006 Y122.332 E0.11386
G1 X173.612 Y122.332 E0.01689
G1 X173.612 Y172.332 E2.13777
G1 X99.948 Y172.332 E3.1495
G1 X99.948 Y122.668 E2.12336
G1 X100.572 Y122.668 E0.02668
G1 X100.572 Y119.668 E0.12827
G1 X107.988 Y119.668 E0.31703
G1 X107.988 Y122.668 E0.12827
G1 X164.448 Y122.668 E2.41402
G1 X164.08 Y122.24 F6000
;TYPE:External perimeter
G1 F1200
G1 X164.08 Y119.24 E0.12827
G1 X167.033 Y119.24 E0.12626
G1 X167.033 Y122.24 E0.12827
G1 X171.051 Y122.24 E0.17179
G1 X171.051 Y119.24 E0.12827
G1 X174.435 Y119.24 E0.14469
G1 X174.435 Y122.76 E0.1505
G1 X174.04 Y122.76 E0.01689
G1 X174.04 Y172.76 E2.13777
G1 X99.52 Y172.76 E3.18614
G1 X99.52 Y122.24 E2.16001
G1 X100.144 Y122.24 E0.02668
G1 X100.144 Y119.24 E0.12827
G1 X108.416 Y119.24 E0.35367
G1 X108.416 Y122.24 E0.12827
G1 X164.02 Y122.24 E2.37737
G1 X164.48 Y122.24 F6000
G1 E-1.5 F3000
G1 X165.719 Y119.818 F6000
G1 E1.5 F1800
;TYPE:Solid infill
;WIDTH:0.480537
G1 X166.27 Y120.37 E0.0334
G1 X166.27 Y120.976 E0.02594
G1 X165.297 Y120.003 E0.05893
G1 X164.843 Y120.003 E0.01944
G1 X164.843 Y120.155 E0.0065
G1 X166.27 Y121.582 E0.08642
G1 X166.27 Y122.188 E0.02594
G1 X164.658 Y120.576 E0.09757
G1 E-1.5 F3000
G1 X173.857 Y120.685 F6000
G1 E1.5 F1800
G1 X173.175 Y120.003 E0.04128
G1 X172.569 Y120.003 E0.02594
G1 X173.672 Y121.106 E0.06681
G1 X173.672 Y121.712 E0.02594
G1 X171.963 Y120.003 E0.10349
G1 X171.814 Y120.003 E0.00638
G1 X171.814 Y120.46 E0.01956
G1 X173.351 Y121.997 E0.09308
G1 X173.277 Y121.997 E0.00317
G1 X173.277 Y122.529 E0.02277
G1 X171.814 Y121.066 E0.0886
G1 X171.814 Y121.672 E0.02594
G1 X173.277 Y123.135 E0.0886
G1 X173.277 Y123.741 E0.02594
G1 X171.814 Y122.278 E0.0886
G1 X171.814 Y122.884 E0.02594
G1 X173.277 Y124.347 E0.0886
G1 X173.277 Y124.953 E0.02594
G1 X171.327 Y123.003 E0.11807
G1 X170.721 Y123.003 E0.02594
G1 X173.277 Y125.559 E0.15476
G1 X173.277 Y126.165 E0.02594
G1 X170.115 Y123.003 E0.19144
G1 X169.509 Y123.003 E0.02594
G1 X173.277 Y126.771 E0.22812
G1 X173.277 Y127.377 E0.02594
G1 X168.903 Y123.003 E0.2648
G1 X168.297 Y123.003 E0.02594
G1 X173.277 Y127.983 E0.30148
G1 X173.277 Y128.589 E0.02594
G1 X167.691 Y123.003 E0.33817
G1 X167.085 Y123.003 E0.02594
G1 X173.277 Y129.195 E0.37485
G1 X173.277 Y129.801 E0.02594
G1 X164.843 Y121.367 E0.51057
G1 X164.843 Y121.973 E0.02594
G1 X173.277 Y130.407 E0.51057
G1 X173.277 Y131.013 E0.02594
G1 X164.843 Y122.579 E0.51057
G1 X164.843 Y123.003 E0.01816
G1 X164.661 Y123.003 E0.00778
G1 X173.277 Y131.619 E0.52158
G1 X173.277 Y132.225 E0.02594
G1 X164.055 Y123.003 E0.55826
G1 X163.449 Y123.003 E0.02594
G1 X173.277 Y132.831 E0.59494
G1 X173.277 Y133.437 E0.02594
G1 X162.843 Y123.003 E0.63162
G1 X162.237 Y123.003 E0.02594
G1 X173.277 Y134.043 E0.6683
G1 X173.277 Y134.649 E0.02594
G1 X161.631 Y123.003 E0.70498
G1 X161.025 Y123.003 E0.02594
G1 X173.277 Y135.255 E0.74167
G1 X173.277 Y135.861 E0.02594
G1 X160.419 Y123.003 E0.77835
G1 X159.813 Y123.003 E0.02594
G1 X173.277 Y136.467 E0.81503
G1 X173.277 Y137.073 E0.02594
G1 X159.207 Y123.003 E0.85171
G1 X158.601 Y123.003 E0.02594
G1 X173.277 Y137.679 E0.88839
G1 X173.277 Y138.285 E0.02594
G1 X157.995 Y123.003 E0.92508
G1 X157.389 Y123.003 E0.02594
G1 X173.277 Y138.891 E0.96176
G1 X173.277 Y139.497 E0.02594
G1 X156.783 Y123.003 E0.99844
G1 X156.177 Y123.003 E0.02594
G1 X173.277 Y140.103 E1.03512
G1 X173.277 Y140.709 E0.02594
G1 X155.571 Y123.003 E1.0718
G1 X154.965 Y123.003 E0.02594
G1 X173.277 Y141.315 E1.10849
G1 X173.277 Y141.921 E0.02594
G1 X154.359 Y123.003 E1.14517
G1 X153.753 Y123.003 E0.02594
G1 X173.277 Y142.527 E1.18185
G1 X173.277 Y143.133 E0.02594
G1 X153.147 Y123.003 E1.21853
G1 X152.541 Y123.003 E0.02594
G1 X173.277 Y143.739 E1.25521
G1 X173.277 Y144.345 E0.02594
G1 X151.935 Y123.003 E1.2919
G1 X151.329 Y123.003 E0.02594
G1 X173.277 Y144.951 E1.32858
G1 X173.277 Y145.557 E0.02594
G1 X150.723 Y123.003 E1.36526
G1 X150.117 Y123.003 E0.02594
G1 X173.277 Y146.163 E1.40194
G1 X173.277 Y146.769 E0.02594
G1 X149.511 Y123.003 E1.43862
G1 X148.905 Y123.003 E0.02594
G1 X173.277 Y147.375 E1.47531
G1 X173.277 Y147.981 E0.02594
G1 X148.299 Y123.003 E1.51199
G1 X147.693 Y123.003 E0.02594
G1 X173.277 Y148.587 E1.54867
G1 X173.277 Y149.193 E0.02594
G1 X147.087 Y123.003 E1.58535
G1 X146.481 Y123.003 E0.02594
G1 X173.277 Y149.799 E1.62203
G1 X173.277 Y150.405 E0.02594
G1 X145.875 Y123.003 E1.65872
G1 X145.269 Y123.003 E0.02594
G1 X173.277 Y151.011 E1.6954
G1 X173.277 Y151.617 E0.02594
G1 X144.663 Y123.003 E1.73208
G1 X144.057 Y123.003 E0.02594
G1 X173.277 Y152.223 E1.76876
G1 X173.277 Y152.829 E0.02594
G1 X143.451 Y123.003 E1.80544
G1 X142.846 Y123.003 E0.02594
G1 X173.277 Y153.434 E1.84213
G1 X173.277 Y154.04 E0.02594
G1 X142.24 Y123.003 E1.87881
G1 X141.634 Y123.003 E0.02594
G1 X173.277 Y154.646 E1.91549
G1 X173.277 Y155.252 E0.02594
G1 X141.028 Y123.003 E1.95217
G1 X140.422 Y123.003 E0.02594
G1 X173.277 Y155.858 E1.98885
G1 X173.277 Y156.464 E0.02594
G1 X139.816 Y123.003 E2.02554
G1 X139.21 Y123.003 E0.02594
G1 X173.277 Y157.07 E2.06222
G1 X173.277 Y157.676 E0.02594
G1 X138.604 Y123.003 E2.0989
G1 X137.998 Y123.003 E0.02594
G1 X173.277 Y158.282 E2.13558
G1 X173.277 Y158.888 E0.02594
G1 X137.392 Y123.003 E2.17226
G1 X136.786 Y123.003 E0.02594
G1 X173.277 Y159.494 E2.20895
G1 X173.277 Y160.1 E0.02594
G1 X136.18 Y123.003 E2.24563
G1 X135.574 Y123.003 E0.02594
G1 X173.277 Y160.706 E2.28231
G1 X173.277 Y161.312 E0.02594
G1 X134.968 Y123.003 E2.31899
G1 X134.362 Y123.003 E0.02594
G1 X173.277 Y161.918 E2.35567
G1 X173.277 Y162.524 E0.02594
G1 X133.756 Y123.003 E2.39236
G1 X133.15 Y123.003 E0.02594
G1 X173.277 Y163.13 E2.42904
G1 X173.277 Y163.736 E0.02594
G1 X132.544 Y123.003 E2.46572
G1 X131.938 Y123.003 E0.02594
G1 X173.277 Y164.342 E2.5024
G1 X173.277 Y164.948 E0.02594
G1 X131.332 Y123.003 E2.53908
G1 X130.726 Y123.003 E0.02594
G1 X173.277 Y165.554 E2.57576
G1 X173.277 Y166.16 E0.02594
G1 X130.12 Y123.003 E2.61245
G1 X129.514 Y123.003 E0.02594
G1 X173.277 Y166.766 E2.64913
G1 X173.277 Y167.372 E0.02594
G1 X128.908 Y123.003 E2.68581
G1 X128.302 Y123.003 E0.02594
G1 X173.277 Y167.978 E2.72249
G1 X173.277 Y168.584 E0.02594
G1 X127.696 Y123.003 E2.75917
G1 X127.09 Y123.003 E0.02594
G1 X173.277 Y169.19 E2.79586
G1 X173.277 Y169.796 E0.02594
G1 X126.484 Y123.003 E2.83254
G1 X125.878 Y123.003 E0.02594
G1 X173.277 Y170.402 E2.86922
G1 X173.277 Y171.008 E0.02594
G1 X125.272 Y123.003 E2.9059
G1 X124.666 Y123.003 E0.02594
G1 X173.277 Y171.614 E2.94258
G1 X173.277 Y171.997 E0.01641
G1 X173.055 Y171.997 E0.00953
G1 X124.06 Y123.003 E2.96579
G1 X123.454 Y123.003 E0.02594
G1 X172.449 Y171.997 E2.96579
G1 X171.843 Y171.997 E0.02594
G1 X122.848 Y123.003 E2.96579
G1 X122.242 Y123.003 E0.02594
G1 X171.237 Y171.997 E2.96579
G1 X170.631 Y171.997 E0.02594
G1 X121.636 Y123.003 E2.96579
G1 X121.03 Y123.003 E0.02594
G1 X170.025 Y171.997 E2.96579
G1 X169.419 Y171.997 E0.02594
G1 X120.424 Y123.003 E2.96579
G1 X119.818 Y123.003 E0.02594
G1 X168.813 Y171.997 E2.96579
G1 X168.207 Y171.997 E0.02594
G1 X119.212 Y123.003 E2.96579
G1 X118.606 Y123.003 E0.02594
G1 X167.601 Y171.997 E2.96579
G1 X166.995 Y171.997 E0.02594
G1 X118. Y123.003 E2.96579
G1 X117.394 Y123.003 E0.02594
G1 X166.389 Y171.997 E2.96579
G1 X165.783 Y171.997 E0.02594
G1 X116.788 Y123.003 E2.96579
G1 X116.182 Y123.003 E0.02594
G1 X165.177 Y171.997 E2.96579
G1 X164.571 Y171.997 E0.02594
G1 X115.576 Y123.003 E2.96579
G1 X114.97 Y123.003 E0.02594
G1 X163.965 Y171.997 E2.96579
G1 X163.359 Y171.997 E0.02594
G1 X114.364 Y123.003 E2.96579
G1 X113.758 Y123.003 E0.02594
G1 X162.753 Y171.997 E2.96579
G1 X162.147 Y171.997 E0.02594
G1 X113.152 Y123.003 E2.96579
G1 X112.546 Y123.003 E0.02594
G1 X161.541 Y171.997 E2.96579
G1 X160.935 Y171.997 E0.02594
G1 X111.94 Y123.003 E2.96579
G1 X111.334 Y123.003 E0.02594
G1 X160.329 Y171.997 E2.96579
G1 X159.723 Y171.997 E0.02594
G1 X110.728 Y123.003 E2.96579
G1 X110.122 Y123.003 E0.02594
G1 X159.117 Y171.997 E2.96579
G1 X158.511 Y171.997 E0.02594
G1 X109.516 Y123.003 E2.96579
G1 X108.91 Y123.003 E0.02594
G1 X157.905 Y171.997 E2.96579
G1 X157.299 Y171.997 E0.02594
G1 X108.12 Y122.818 E2.97694
G1 E-1.5 F3000
G1 X107.838 Y120.718 F6000
G1 E1.5 F1800
G1 X107.122 Y120.003 E0.04329
G1 X106.516 Y120.003 E0.02594
G1 X107.653 Y121.14 E0.06882
G1 X107.653 Y121.746 E0.02594
G1 X105.91 Y120.003 E0.1055
G1 X105.304 Y120.003 E0.02594
G1 X107.838 Y122.536 E0.15334
G1 E-1.5 F3000
G1 X104.514 Y119.818 F6000
G1 E1.5 F1800
G1 X156.693 Y171.997 E3.15854
G1 X156.087 Y171.997 E0.02594
G1 X104.092 Y120.003 E3.14739
G1 X103.487 Y120.003 E0.02594
G1 X155.481 Y171.997 E3.14739
G1 X154.875 Y171.997 E0.02594
G1 X102.881 Y120.003 E3.14739
G1 X102.275 Y120.003 E0.02594
G1 X154.269 Y171.997 E3.14739
G1 X153.663 Y171.997 E0.02594
G1 X101.669 Y120.003 E3.14739
G1 X101.063 Y120.003 E0.02594
G1 X153.057 Y171.997 E3.14739
G1 X152.451 Y171.997 E0.02594
G1 X100.907 Y120.453 E3.12014
G1 X100.907 Y121.059 E0.02594
G1 X151.845 Y171.997 E3.08346
G1 X151.239 Y171.997 E0.02594
G1 X100.907 Y121.665 E3.04678
G1 X100.907 Y122.271 E0.02594
G1 X150.633 Y171.997 E3.01009
G1 X150.027 Y171.997 E0.02594
G1 X100.907 Y122.877 E2.97341
G1 X100.907 Y123.003 E0.00539
G1 X100.427 Y123.003 E0.02055
G1 X149.421 Y171.997 E2.96579
G1 X148.815 Y171.997 E0.02594
G1 X100.283 Y123.465 E2.93782
G1 X100.283 Y124.071 E0.02594
G1 X148.209 Y171.997 E2.90114
G1 X147.603 Y171.997 E0.02594
G1 X100.283 Y124.677 E2.86446
G1 X100.283 Y125.283 E0.02594
G1 X146.997 Y171.997 E2.82777
G1 X146.391 Y171.997 E0.02594
G1 X100.283 Y125.889 E2.79109
G1 X100.283 Y126.495 E0.02594
G1 X145.785 Y171.997 E2.75441
G1 X145.179 Y171.997 E0.02594
G1 X100.283 Y127.101 E2.71773
G1 X100.283 Y127.707 E0.02594
G1 X144.573 Y171.997 E2.68105
G1 X143.967 Y171.997 E0.02594
G1 X100.283 Y128.313 E2.64436
G1 X100.283 Y128.919 E0.02594
G1 X143.361 Y171.997 E2.60768
G1 X142.755 Y171.997 E0.02594
G1 X100.283 Y129.525 E2.571
G1 X100.283 Y130.131 E0.02594
G1 X142.149 Y171.997 E2.53432
G1 X141.543 Y171.997 E0.02594
G1 X100.283 Y130.737 E2.49764
G1 X100.283 Y131.342 E0.02594
G1 X140.938 Y171.997 E2.46095
G1 X140.332 Y171.997 E0.02594
G1 X100.283 Y131.948 E2.42427
G1 X100.283 Y132.554 E0.02594
G1 X139.726 Y171.997 E2.38759
G1 X139.12 Y171.997 E0.02594
G1 X100.283 Y133.16 E2.35091
G1 X100.283 Y133.766 E0.02594
G1 X138.514 Y171.997 E2.31423
G1 X137.908 Y171.997 E0.02594
G1 X100.283 Y134.372 E2.27754
G1 X100.283 Y134.978 E0.02594
G1 X137.302 Y171.997 E2.24086
G1 X136.696 Y171.997 E0.02594
G1 X100.283 Y135.584 E2.20418
G1 X100.283 Y136.19 E0.02594
G1 X136.09 Y171.997 E2.1675
G1 X135.484 Y171.997 E0.02594
G1 X100.283 Y136.796 E2.13082
G1 X100.283 Y137.402 E0.02594
G1 X134.878 Y171.997 E2.09414
G1 X134.272 Y171.997 E0.02594
G1 X100.283 Y138.008 E2.05745
G1 X100.283 Y138.614 E0.02594
G1 X133.666 Y171.997 E2.02077
G1 X133.06 Y171.997 E0.02594
G1 X100.283 Y139.22 E1.98409
G1 X100.283 Y139.826 E0.02594
G1 X132.454 Y171.997 E1.94741
G1 X131.848 Y171.997 E0.02594
G1 X100.283 Y140.432 E1.91073
G1 X100.283 Y141.038 E0.02594
G1 X131.242 Y171.997 E1.87404
G1 X130.636 Y171.997 E0.02594
G1 X100.283 Y141.644 E1.83736
G1 X100.283 Y142.25 E0.02594
G1 X130.03 Y171.997 E1.80068
G1 X129.424 Y171.997 E0.02594
G1 X100.283 Y142.856 E1.764
G1 X100.283 Y143.462 E0.02594
G1 X128.818 Y171.997 E1.72732
G1 X128.212 Y171.997 E0.02594
G1 X100.283 Y144.068 E1.69063
G1 X100.283 Y144.674 E0.02594
G1 X127.606 Y171.997 E1.65395
G1 X127. Y171.997 E0.02594
G1 X100.283 Y145.28 E1.61727
G1 X100.283 Y145.886 E0.02594
G1 X126.394 Y171.997 E1.58059
G1 X125.788 Y171.997 E0.02594
G1 X100.283 Y146.492 E1.54391
G1 X100.283 Y147.098 E0.02594
G1 X125.182 Y171.997 E1.50722
G1 X124.576 Y171.997 E0.02594
G1 X100.283 Y147.704 E1.47054
G1 X100.283 Y148.31 E0.02594
G1 X123.97 Y171.997 E1.43386
G1 X123.364 Y171.997 E0.02594
G1 X100.283 Y148.916 E1.39718
G1 X100.283 Y149.522 E0.02594
G1 X122.758 Y171.997 E1.3605
G1 X122.152 Y171.997 E0.02594
G1 X100.283 Y150.128 E1.32381
G1 X100.283 Y150.734 E0.02594
