; generated by SuperSlicer 2.3.57 on 2022-02-27 at 04:11:49 UTC


;
;

;
;
; 

; external perimeters extrusion width = 0.40mm
; perimeters extrusion width = 0.45mm
; infill extrusion width = 0.72mm
; solid infill extrusion width = 0.56mm
; top infill extrusion width = 0.40mm
; support material extrusion width = 0.42mm
; first layer extrusion width = 0.48mm

; external perimeters extrusion width = 0.40mm
; perimeters extrusion width = 0.45mm
; infill extrusion width = 0.72mm
; solid infill extrusion width = 0.56mm
; top infill extrusion width = 0.40mm
; support material extrusion width = 0.42mm
; first layer extrusion width = 0.48mm

; object:{"name":"outer_part","id":"outer_part.stl id:0 copy 0","object_center":[169.443405,150.000000,0.000000],"boundingbox_center":[169.443405,150.000000,8.558196],"boundingbox_size":[29.323771,40.000000,17.116392]}
; object:{"name":"inner_part","id":"inner_part.stl id:1 copy 0","object_center":[134.838189,150.000000,0.000000],"boundingbox_center":[134.838189,150.000000,7.655583],"boundingbox_size":[27.886663,40.000000,15.311167]}
; plater:{"center":[152.500074,150.000000,0.000000],"boundingbox_center":[152.500074,150.000000,8.558196],"boundingbox_size":[63.210433,40.000000,17.116392]}

;TYPE:Custom
START_PRINT T_BED=60 T_EXTRUDER=200
M107
G21 ; set units to millimeters
G90 ; use absolute coordinates
M83 ; use relative distances for extrusion
; Filament gcode
M109 S200 ; set temperature and wait for it to be reached
M190 S60 ; set bed temperature and wait for it to be reached
;LAYER_CHANGE
;Z:0.24
;HEIGHT:0.24
G1 Z0.24 F9000
G1 E-0.8 F3000
G1 X121.841 Y128.711 F9000
G1 E0.8 F1800
; External perimeter
;Skirt
SET_VELOCITY_LIMIT ACCEL=300 ACCEL_TO_DECEL=3000 SQUARE_CORNER_VELOCITY=5

; Support material

;TYPE:Skirt
;WIDTH:0.48
G1 X120.992 Y129.953 E0.06435
G1 X120.43 Y131.43 E0.06756
G1 X120.24 Y132.927 E0.0645
G1 X120.239 Y167.07 E1.45983
G1 X120.386 Y168.374 E0.05608
G1 X120.693 Y169.393 E0.04549
G1 X121.188 Y170.393 E0.04771
G1 X121.815 Y171.259 E0.0457
G1 X122.855 Y172.233 E0.06095
G1 X123.933 Y172.889 E0.05393
G1 X125.276 Y173.367 E0.06095
G1 X126.736 Y173.542 E0.0629
G1 X181.438 Y173.532 E2.33879
G1 X182.546 Y173.38 E0.04781
G1 X183.362 Y173.14 E0.03638
G1 X184.297 Y172.711 E0.044
G1 X185.262 Y172.05 E0.04999
G1 X185.902 Y171.449 E0.03755
G1 X186.416 Y170.813 E0.03494
G1 X187.048 Y169.736 E0.05339
G1 X187.472 Y168.506 E0.05563
G1 X187.648 Y167.058 E0.06235
G1 X187.635 Y132.606 E1.47301
G1 X187.462 Y131.454 E0.04981
G1 X187.127 Y130.442 E0.0456
G1 X186.613 Y129.47 E0.047
G1 X186.001 Y128.661 E0.04338
G1 X185.117 Y127.832 E0.05182
G1 X184.09 Y127.179 E0.05203
G1 X182.789 Y126.678 E0.05957
G1 X181.543 Y126.473 E0.05402
G1 X146.009 Y126.466 E1.51926
G1 X126.049 Y126.501 E0.85339
G1 X124.597 Y126.835 E0.06373
G1 X123.796 Y127.178 E0.03725
G1 X123.022 Y127.646 E0.03867
G1 X121.886 Y128.67 E0.06539
G1 X122.171 Y128.986 F9000
G1 F1800
G1 X121.371 Y130.154 E0.0605
G1 X120.845 Y131.538 E0.06333
G1 X120.668 Y132.94 E0.06041
G1 X120.668 Y167.058 E1.45872
G1 X120.807 Y168.293 E0.05315
G1 X121.095 Y169.245 E0.04252
G1 X121.559 Y170.179 E0.0446
G1 X122.153 Y170.994 E0.0431
G1 X123.12 Y171.896 E0.05656
G1 X124.117 Y172.502 E0.04988
G1 X125.376 Y172.95 E0.05712
G1 X126.748 Y173.114 E0.05909
G1 X181.42 Y173.103 E2.33752
G1 X182.459 Y172.961 E0.04486
G1 X183.211 Y172.739 E0.03351
G1 X184.085 Y172.338 E0.04109
G1 X184.997 Y171.712 E0.04731
G1 X185.595 Y171.151 E0.03505
G1 X186.08 Y170.546 E0.03315
G1 X186.664 Y169.545 E0.04957
G1 X187.054 Y168.41 E0.05128
G1 X187.219 Y167.046 E0.05878
G1 X187.207 Y132.628 E1.47156
G1 X187.045 Y131.551 E0.04657
G1 X186.727 Y130.597 E0.04298
G1 X186.245 Y129.689 E0.04393
G1 X185.663 Y128.925 E0.0411
G1 X184.801 Y128.13 E0.05015
G1 X183.678 Y127.455 E0.05601
G1 X182.615 Y127.075 E0.04826
G1 X181.509 Y126.9 E0.04788
G1 X146.009 Y126.895 E1.5178
G1 X126.134 Y126.922 E0.84975
G1 X124.758 Y127.232 E0.06031
G1 X123.998 Y127.556 E0.03535
G1 X123.271 Y127.995 E0.0363
G1 X122.215 Y128.946 E0.06076
; INIT printing object outer_part.stl id:0 copy 0
G1 E-0.8 F3000
; printing object outer_part.stl id:0 copy 0
G1 X167.12 Y148.679 F9000
G1 E0.8 F1800
; External perimeter
;Perimeter
SET_VELOCITY_LIMIT ACCEL=2000 ACCEL_TO_DECEL=2000 SQUARE_CORNER_VELOCITY=5

; Overhang perimeter

;TYPE:Internal perimeter
G1 X166.935 Y149.111 E0.02008
G1 X166.842 Y149.468 E0.01577
G1 X166.796 Y149.822 E0.01523
G1 X166.796 Y150.178 E0.01526
G1 X166.842 Y150.532 E0.01524
G1 X166.931 Y150.876 E0.01519
G1 X167.062 Y151.204 E0.01512
G1 X167.245 Y151.539 E0.01632
G1 X167.647 Y152.051 E0.02783
G1 X168.026 Y152.387 E0.02163
G1 X168.342 Y152.608 E0.01649
G1 X168.943 Y152.917 E0.02889
G1 X169.613 Y153.13 E0.03007
G1 X170.291 Y153.234 E0.02934
G1 X170.686 Y153.249 E0.0169
G1 X171.37 Y153.197 E0.02933
G1 X172.057 Y153.037 E0.03013
G1 X172.704 Y152.771 E0.02992
G1 X173.294 Y152.4 E0.0298
G1 X173.791 Y151.935 E0.02909
G1 X174.097 Y151.52 E0.02206
G1 X174.271 Y151.199 E0.01563
G1 X174.408 Y150.854 E0.01585
G1 X174.518 Y150.365 E0.02144
G1 X174.541 Y150.007 E0.01532
G1 X174.518 Y149.637 E0.01587
G1 X174.404 Y149.128 E0.02228
G1 X174.184 Y148.623 E0.02355
G1 X173.809 Y148.086 E0.02802
G1 X173.413 Y147.697 E0.02373
G1 X172.861 Y147.315 E0.0287
G1 X172.374 Y147.079 E0.02315
G1 X171.717 Y146.87 E0.02948
G1 X171.019 Y146.763 E0.03018
G1 X170.312 Y146.763 E0.03025
G1 X169.635 Y146.867 E0.02929
G1 X169.264 Y146.968 E0.01641
G1 X168.787 Y147.153 E0.0219
G1 X168.213 Y147.476 E0.02816
G1 X167.905 Y147.71 E0.01653
G1 X167.549 Y148.058 E0.02129
G1 X167.323 Y148.347 E0.01568
G1 X167.151 Y148.628 E0.0141
G1 X167.517 Y148.852 F9000
G1 F1800
G1 X167.501 Y148.876 E0.00124
G1 X167.341 Y149.25 E0.01739
G1 X167.263 Y149.55 E0.01325
G1 X167.224 Y149.849 E0.01289
G1 X167.224 Y150.151 E0.01289
G1 X167.263 Y150.45 E0.01289
G1 X167.339 Y150.741 E0.01289
G1 X167.451 Y151.022 E0.01289
G1 X167.604 Y151.303 E0.01369
G1 X167.96 Y151.756 E0.02465
G1 X168.291 Y152.05 E0.01892
G1 X168.563 Y152.24 E0.01419
G1 X169.107 Y152.519 E0.02612
G1 X169.711 Y152.712 E0.0271
G1 X170.332 Y152.806 E0.02686
G1 X170.678 Y152.82 E0.01482
G1 X171.305 Y152.772 E0.02689
G1 X171.926 Y152.628 E0.02725
G1 X172.507 Y152.389 E0.02686
G1 X173.031 Y152.059 E0.02647
G1 X173.469 Y151.649 E0.02567
G1 X173.735 Y151.29 E0.0191
G1 X173.882 Y151.017 E0.01325
G1 X173.997 Y150.727 E0.01332
G1 X174.092 Y150.304 E0.01856
G1 X174.111 Y150.007 E0.01274
G1 X174.092 Y149.697 E0.01325
G1 X173.995 Y149.262 E0.01908
G1 X173.808 Y148.833 E0.01997
G1 X173.48 Y148.364 E0.02449
G1 X173.139 Y148.028 E0.02047
G1 X172.644 Y147.686 E0.02572
G1 X172.215 Y147.478 E0.02041
G1 X171.619 Y147.288 E0.02673
G1 X170.987 Y147.192 E0.02735
G1 X170.344 Y147.192 E0.02746
G1 X169.724 Y147.286 E0.02682
G1 X169.399 Y147.376 E0.01443
G1 X168.97 Y147.541 E0.01965
G1 X168.449 Y147.835 E0.02556
G1 X168.186 Y148.035 E0.01414
G1 X167.869 Y148.345 E0.01896
G1 X167.675 Y148.592 E0.0134
G1 X167.548 Y148.8 E0.01045
G1 X167.914 Y149.024 F9000
; External perimeter
;ExternalPerimeter
SET_VELOCITY_LIMIT ACCEL=1000 ACCEL_TO_DECEL=1000 SQUARE_CORNER_VELOCITY=5

; Perimeter

;TYPE:External perimeter
G1 F1800
G1 X167.883 Y149.073 E0.00249
G1 X167.748 Y149.39 E0.01471
G1 X167.685 Y149.632 E0.01072
G1 X167.653 Y149.877 E0.01054
G1 X167.653 Y150.123 E0.01053
G1 X167.684 Y150.368 E0.01055
G1 X167.747 Y150.607 E0.01059
G1 X167.84 Y150.839 E0.01067
G1 X167.963 Y151.066 E0.01105
G1 X168.274 Y151.461 E0.02147
G1 X168.557 Y151.713 E0.01622
G1 X168.785 Y151.872 E0.01188
G1 X169.271 Y152.122 E0.02336
G1 X169.809 Y152.293 E0.02414
G1 X170.372 Y152.379 E0.02437
G1 X170.67 Y152.39 E0.01274
G1 X171.24 Y152.347 E0.02444
G1 X171.795 Y152.218 E0.02437
G1 X172.31 Y152.007 E0.0238
G1 X172.768 Y151.718 E0.02314
G1 X173.148 Y151.363 E0.02225
G1 X173.372 Y151.059 E0.01614
G1 X173.493 Y150.835 E0.01087
G1 X173.586 Y150.601 E0.0108
G1 X173.667 Y150.243 E0.01568
G1 X173.682 Y150.006 E0.01015
G1 X173.667 Y149.758 E0.01064
G1 X173.585 Y149.395 E0.01587
G1 X173.433 Y149.044 E0.0164
G1 X173.152 Y148.642 E0.02095
G1 X172.865 Y148.36 E0.01721
G1 X172.427 Y148.057 E0.02274
G1 X172.055 Y147.877 E0.01768
G1 X171.521 Y147.707 E0.02397
G1 X170.954 Y147.62 E0.02452
G1 X170.377 Y147.62 E0.02468
G1 X169.814 Y147.706 E0.02436
G1 X169.533 Y147.783 E0.01245
G1 X169.153 Y147.93 E0.0174
G1 X168.685 Y148.194 E0.02296
G1 X168.467 Y148.36 E0.01176
G1 X168.188 Y148.632 E0.01662
G1 X168.028 Y148.837 E0.01112
G1 X167.945 Y148.973 E0.00681
;WIPE_START
G1 X167.855 Y149.022 F9000
;WIPE_END
G1 X170.675 Y138.736
; External perimeter
;Perimeter
SET_VELOCITY_LIMIT ACCEL=2000 ACCEL_TO_DECEL=2000 SQUARE_CORNER_VELOCITY=5

; Overhang perimeter

;TYPE:Internal perimeter
G1 F1800
G1 X171.254 Y138.878 E0.02552
G1 X171.654 Y138.9 E0.01713
G1 X172.222 Y138.832 E0.02445
G1 X172.782 Y138.626 E0.02552
G1 X173.126 Y138.421 E0.01713
G1 X173.559 Y138.047 E0.02445
G1 X173.909 Y137.563 E0.02552
G1 X174.08 Y137.201 E0.01713
G1 X174.23 Y136.649 E0.02445
G1 X174.249 Y136.052 E0.02552
G1 X174.189 Y135.656 E0.01713
G1 X174.005 Y135.115 E0.02445
G1 X173.688 Y134.609 E0.02552
G1 X173.416 Y134.314 E0.01713
G1 X172.961 Y133.968 E0.02445
G1 X172.416 Y133.725 E0.02552
G1 X172.026 Y133.633 E0.01713
G1 X171.483 Y133.601 E0.02324
G1 X171.088 Y133.65 E0.01702
G1 X170.541 Y133.818 E0.02445
G1 X170.026 Y134.12 E0.02552
G1 X169.724 Y134.383 E0.01713
G1 X169.364 Y134.827 E0.02445
G1 X169.106 Y135.365 E0.02552
G1 X169.002 Y135.752 E0.01713
G1 X168.952 Y136.322 E0.02445
G1 X169.038 Y136.912 E0.02552
G1 X169.168 Y137.291 E0.01713
G1 X169.445 Y137.792 E0.02445
G1 X169.846 Y138.234 E0.02552
G1 X170.165 Y138.475 E0.01713
G1 X170.621 Y138.709 E0.02189
G1 X170.816 Y138.327 F9000
G1 F1800
G1 X171.318 Y138.453 E0.02209
G1 X171.64 Y138.47 E0.01382
G1 X172.121 Y138.412 E0.02071
G1 X172.597 Y138.238 E0.02167
G1 X172.875 Y138.072 E0.01382
G1 X173.241 Y137.755 E0.02071
G1 X173.538 Y137.344 E0.02167
G1 X173.676 Y137.052 E0.01382
G1 X173.803 Y136.584 E0.02071
G1 X173.82 Y136.078 E0.02167
G1 X173.771 Y135.758 E0.01382
G1 X173.615 Y135.3 E0.02071
G1 X173.346 Y134.87 E0.02167
G1 X173.127 Y134.633 E0.01382
G1 X172.741 Y134.339 E0.02071
G1 X172.278 Y134.133 E0.02167
G1 X171.964 Y134.059 E0.01382
G1 X171.497 Y134.031 E0.01997
G1 X171.178 Y134.071 E0.01375
G1 X170.715 Y134.213 E0.02071
G1 X170.278 Y134.469 E0.02167
G1 X170.034 Y134.681 E0.01382
G1 X169.729 Y135.058 E0.02071
G1 X169.509 Y135.515 E0.02167
G1 X169.425 Y135.827 E0.01382
G1 X169.383 Y136.31 E0.02071
G1 X169.456 Y136.811 E0.02167
G1 X169.561 Y137.117 E0.01382
G1 X169.795 Y137.541 E0.02071
G1 X170.136 Y137.916 E0.02167
G1 X170.394 Y138.111 E0.01382
G1 X170.763 Y138.3 E0.01772
G1 X170.958 Y137.918 F9000
; External perimeter
;ExternalPerimeter
SET_VELOCITY_LIMIT ACCEL=1000 ACCEL_TO_DECEL=1000 SQUARE_CORNER_VELOCITY=5

; Perimeter

;TYPE:External perimeter
G1 F1800
G1 X170.976 Y137.927 E0.00086
G1 X171.381 Y138.027 E0.01783
G1 X171.626 Y138.04 E0.01051
G1 X172.02 Y137.993 E0.01697
G1 X172.412 Y137.849 E0.01783
G1 X172.623 Y137.723 E0.01051
G1 X172.923 Y137.464 E0.01697
G1 X173.168 Y137.126 E0.01783
G1 X173.272 Y136.903 E0.01051
G1 X173.376 Y136.52 E0.01697
G1 X173.39 Y136.104 E0.01783
G1 X173.353 Y135.861 E0.01051
G1 X173.225 Y135.485 E0.01697
G1 X173.004 Y135.131 E0.01783
G1 X172.837 Y134.951 E0.01051
G1 X172.521 Y134.71 E0.01697
G1 X172.14 Y134.541 E0.01783
G1 X171.901 Y134.484 E0.01051
G1 X171.511 Y134.462 E0.0167
G1 X171.268 Y134.492 E0.01048
G1 X170.888 Y134.608 E0.01697
G1 X170.529 Y134.819 E0.01783
G1 X170.343 Y134.98 E0.01051
G1 X170.093 Y135.289 E0.01697
G1 X169.913 Y135.664 E0.01783
G1 X169.849 Y135.902 E0.01051
G1 X169.814 Y136.297 E0.01697
G1 X169.874 Y136.71 E0.01783
G1 X169.954 Y136.942 E0.01051
G1 X170.146 Y137.29 E0.01697
G1 X170.427 Y137.598 E0.01783
G1 X170.623 Y137.747 E0.01051
G1 X170.905 Y137.891 E0.01355
;WIPE_START
G1 X170.959 Y137.938 F9000
;WIPE_END
G1 E-0.8 F3000
G1 X171.483 Y161.101 F9000
G1 E0.8 F1800
; External perimeter
;Perimeter
SET_VELOCITY_LIMIT ACCEL=2000 ACCEL_TO_DECEL=2000 SQUARE_CORNER_VELOCITY=5

; Overhang perimeter

;TYPE:Internal perimeter
G1 X171.088 Y161.15 E0.01702
G1 X170.541 Y161.318 E0.02445
G1 X170.026 Y161.62 E0.02552
G1 X169.724 Y161.883 E0.01713
G1 X169.364 Y162.327 E0.02445
G1 X169.106 Y162.865 E0.02552
G1 X169.002 Y163.252 E0.01713
G1 X168.952 Y163.822 E0.02445
G1 X169.038 Y164.412 E0.02552
G1 X169.168 Y164.791 E0.01713
G1 X169.445 Y165.292 E0.02445
G1 X169.846 Y165.734 E0.02552
G1 X170.165 Y165.975 E0.01713
G1 X170.675 Y166.236 E0.02445
G1 X171.254 Y166.378 E0.02552
G1 X171.654 Y166.4 E0.01713
G1 X172.222 Y166.332 E0.02445
G1 X172.782 Y166.126 E0.02552
G1 X173.126 Y165.921 E0.01713
G1 X173.559 Y165.547 E0.02445
G1 X173.909 Y165.063 E0.02552
G1 X174.08 Y164.701 E0.01713
G1 X174.23 Y164.149 E0.02445
G1 X174.249 Y163.552 E0.02552
G1 X174.189 Y163.156 E0.01713
G1 X174.005 Y162.615 E0.02445
G1 X173.688 Y162.109 E0.02552
G1 X173.416 Y161.814 E0.01713
G1 X172.961 Y161.468 E0.02445
G1 X172.416 Y161.225 E0.02552
G1 X172.026 Y161.133 E0.01713
G1 X171.543 Y161.105 E0.02067
G1 X171.518 Y161.533 F9000
G1 F1800
G1 X171.497 Y161.532 E0.0009
G1 X171.178 Y161.571 E0.01375
G1 X170.715 Y161.713 E0.02071
G1 X170.278 Y161.969 E0.02167
G1 X170.034 Y162.181 E0.01382
G1 X169.729 Y162.558 E0.02071
G1 X169.509 Y163.015 E0.02167
G1 X169.425 Y163.327 E0.01382
G1 X169.383 Y163.81 E0.02071
G1 X169.456 Y164.311 E0.02167
G1 X169.561 Y164.617 E0.01382
G1 X169.795 Y165.041 E0.02071
G1 X170.136 Y165.416 E0.02167
G1 X170.394 Y165.611 E0.01382
G1 X170.825 Y165.832 E0.02071
G1 X171.318 Y165.953 E0.02167
G1 X171.64 Y165.97 E0.01382
G1 X172.121 Y165.912 E0.02071
G1 X172.597 Y165.738 E0.02167
G1 X172.875 Y165.572 E0.01382
G1 X173.241 Y165.255 E0.02071
G1 X173.538 Y164.844 E0.02167
G1 X173.676 Y164.552 E0.01382
G1 X173.803 Y164.084 E0.02071
G1 X173.82 Y163.578 E0.02167
G1 X173.771 Y163.258 E0.01382
G1 X173.615 Y162.8 E0.02071
G1 X173.346 Y162.37 E0.02167
G1 X173.127 Y162.133 E0.01382
G1 X172.741 Y161.839 E0.02071
G1 X172.278 Y161.633 E0.02167
G1 X171.964 Y161.559 E0.01382
G1 X171.578 Y161.536 E0.0165
G1 X171.553 Y161.964 F9000
; External perimeter
;ExternalPerimeter
SET_VELOCITY_LIMIT ACCEL=1000 ACCEL_TO_DECEL=1000 SQUARE_CORNER_VELOCITY=5

; Perimeter

;TYPE:External perimeter
G1 F1800
G1 X171.511 Y161.962 E0.00181
G1 X171.268 Y161.992 E0.01048
G1 X170.888 Y162.108 E0.01697
G1 X170.529 Y162.319 E0.01783
G1 X170.343 Y162.48 E0.01051
G1 X170.093 Y162.789 E0.01697
G1 X169.913 Y163.164 E0.01783
G1 X169.849 Y163.402 E0.01051
G1 X169.814 Y163.797 E0.01697
G1 X169.874 Y164.21 E0.01783
G1 X169.954 Y164.442 E0.01051
G1 X170.146 Y164.79 E0.01697
G1 X170.427 Y165.098 E0.01783
G1 X170.623 Y165.247 E0.01051
G1 X170.976 Y165.427 E0.01697
G1 X171.381 Y165.527 E0.01783
G1 X171.626 Y165.54 E0.01051
G1 X172.02 Y165.493 E0.01697
G1 X172.412 Y165.349 E0.01783
G1 X172.623 Y165.223 E0.01051
G1 X172.923 Y164.964 E0.01697
G1 X173.168 Y164.626 E0.01783
G1 X173.272 Y164.403 E0.01051
G1 X173.376 Y164.02 E0.01697
G1 X173.39 Y163.604 E0.01783
G1 X173.353 Y163.361 E0.01051
G1 X173.225 Y162.985 E0.01697
G1 X173.004 Y162.631 E0.01783
G1 X172.837 Y162.451 E0.01051
G1 X172.521 Y162.21 E0.01697
G1 X172.14 Y162.041 E0.01783
G1 X171.901 Y161.984 E0.01051
G1 X171.613 Y161.967 E0.01233
;WIPE_START
G1 X171.534 Y161.926 F9000
;WIPE_END
G1 E-0.8 F3000
G1 X182.091 Y168.509 F9000
G1 E0.8 F1800
; External perimeter
;Perimeter
SET_VELOCITY_LIMIT ACCEL=2000 ACCEL_TO_DECEL=2000 SQUARE_CORNER_VELOCITY=5

; Overhang perimeter

;TYPE:Internal perimeter
G1 X181.982 Y168.573 E0.0054
G1 X181.669 Y168.711 E0.01465
G1 X181.569 Y168.74 E0.00442
G1 X181.254 Y168.793 E0.01369
G1 X162.13 Y168.803 E0.81765
G1 X161.979 Y168.797 E0.00644
G1 X161.664 Y168.744 E0.01368
G1 X161.361 Y168.64 E0.01368
G1 X161.248 Y168.585 E0.0054
G1 X161.139 Y168.52 E0.0054
G1 X160.887 Y168.324 E0.01368
G1 X160.685 Y168.105 E0.0127
G1 X160.511 Y167.837 E0.01368
G1 X160.465 Y167.744 E0.00442
G1 X160.361 Y167.442 E0.01368
G1 X160.309 Y167.126 E0.01368
G1 X160.302 Y166.975 E0.00645
G1 X160.302 Y133.025 E1.45157
G1 X160.309 Y132.874 E0.00645
