; generated by SuperSlicer 2.3.57 on 2022-01-16 at 00:56:55 UTC


;
;

;
;
; 

; external perimeters extrusion width = 0.40mm
; perimeters extrusion width = 0.40mm
; infill extrusion width = 0.40mm
; solid infill extrusion width = 0.40mm
; top infill extrusion width = 0.40mm
; first layer extrusion width = 0.48mm


;TYPE:Custom
START_PRINT T_BED=60 T_EXTRUDER=200
M107
G21 ; set units to millimeters
G90 ; use absolute coordinates
M83 ; use relative distances for extrusion
; Filament gcode
M109 S200 ; set temperature and wait for it to be reached
M190 S60 ; set bed temperature and wait for it to be reached
;LAYER_CHANGE
;Z:0.24
;HEIGHT:0.24
G1 Z0.24 F9000
G1 E-0.6 F3000
M204 S1000
G1 X128.006 Y123.457 F9000
G1 E0.6 F1800
;TYPE:Skirt
;WIDTH:0.48
G1 F900
G1 X121.425 Y130.385 E0.40856
G1 X116.194 Y138.285 E0.4051
G1 X115.737 Y139.144 E0.0416
G1 X112.031 Y147.879 E0.40567
G1 X109.901 Y157.122 E0.40556
G1 X109.769 Y158.07 E0.04093
G1 X109.362 Y167.11 E0.3869
G1 X109.404 Y168.071 E0.0411
G1 X110.695 Y177.47 E0.40567
G1 X113.777 Y186.982 E0.4275
G1 X118.516 Y195.804 E0.42815
G1 X124.737 Y203.614 E0.42692
G1 X132.264 Y210.198 E0.42754
G1 X140.846 Y215.329 E0.42754
G1 X150.196 Y218.839 E0.42698
G1 X159.522 Y220.555 E0.40542
G1 X160.273 Y220.638 E0.03234
G1 X170.036 Y220.616 E0.41739
G1 X179.362 Y218.941 E0.40516
G1 X180.288 Y218.682 E0.0411
G1 X188.748 Y215.504 E0.38639
G1 X189.612 Y215.083 E0.0411
G1 X197.739 Y210.195 E0.40546
G1 X204.902 Y203.961 E0.406
G1 X205.567 Y203.267 E0.0411
G1 X211.463 Y195.836 E0.4056
G1 X216.201 Y187.034 E0.4274
G1 X219.298 Y177.502 E0.42849
G1 X220.638 Y167.589 E0.4277
G1 X220.185 Y157.589 E0.42796
G1 X218.095 Y148.333 E0.40572
G1 X217.8 Y147.424 E0.04085
G1 X214.244 Y139.099 E0.38708
G1 X213.785 Y138.254 E0.0411
G1 X208.543 Y130.346 E0.40565
G1 X202.01 Y123.473 E0.4054
G1 X201.282 Y122.832 E0.04151
G1 X193.595 Y117.266 E0.40574
G1 X184.596 Y112.922 E0.42725
G1 X174.949 Y110.254 E0.42796
G1 X165.004 Y109.357 E0.42694
G1 X155.052 Y110.254 E0.42722
G1 X145.406 Y112.922 E0.42791
G1 X136.406 Y117.265 E0.42727
G1 X128.725 Y122.827 E0.40547
G1 X128.051 Y123.417 E0.03828
G1 X128.192 Y123.578 F9000
M204 S500
G1 X128.332 Y123.738
G1 F900
G1 X128.315 Y123.753 E0.00098
G1 X121.763 Y130.649 E0.40672
G1 X116.555 Y138.517 E0.40339
G1 X116.131 Y139.312 E0.03854
G1 X112.586 Y147.612 E0.38588
G1 X112.315 Y148.46 E0.03806
G1 X110.236 Y157.676 E0.40392
G1 X109.791 Y167.125 E0.40445
G1 X109.828 Y168.014 E0.03806
G1 X111.114 Y177.38 E0.40418
G1 X114.173 Y186.818 E0.42421
G1 X118.876 Y195.571 E0.42483
G1 X125.046 Y203.317 E0.4234
G1 X132.514 Y209.85 E0.42424
G1 X141.03 Y214.942 E0.42423
G1 X150.308 Y218.425 E0.42369
G1 X160.294 Y220.21 E0.43374
G1 X169.988 Y220.19 E0.41447
G1 X179.281 Y218.52 E0.40368
G1 X180.138 Y218.281 E0.03806
G1 X188.592 Y215.105 E0.38612
G1 X189.392 Y214.715 E0.03806
G1 X197.486 Y209.85 E0.40374
G1 X204.617 Y203.642 E0.40425
G1 X205.233 Y202.999 E0.03806
G1 X211.108 Y195.595 E0.40411
G1 X215.809 Y186.861 E0.42411
G1 X218.88 Y177.409 E0.42492
G1 X220.209 Y167.572 E0.4244
G1 X219.76 Y157.65 E0.42465
G1 X217.677 Y148.428 E0.40423
G1 X217.405 Y147.592 E0.03758
G1 X213.852 Y139.272 E0.3868
G1 X213.427 Y138.49 E0.03806
G1 X208.209 Y130.614 E0.40393
G1 X201.701 Y123.769 E0.40384
G1 X201.024 Y123.174 E0.03853
G1 X193.371 Y117.631 E0.404
G1 X184.441 Y113.322 E0.42395
G1 X174.869 Y110.675 E0.42464
G1 X165.005 Y109.786 E0.42341
G1 X155.13 Y110.675 E0.42392
G1 X145.559 Y113.322 E0.42458
G1 X136.629 Y117.631 E0.42397
G1 X128.976 Y123.174 E0.40398
G1 X128.377 Y123.698 E0.03404
G1 E-0.6 F3000
M204 S1000
G1 X130.445 Y125.787 F9000
M204 S500
G1 X132.512 Y127.876
G1 E0.6 F1800
;TYPE:Internal perimeter
G1 F900
G1 X139.673 Y122.668 E0.37861
G1 X147.65 Y118.823 E0.37859
G1 X156.183 Y116.465 E0.3785
G1 X165 Y115.671 E0.3785
G1 X173.817 Y116.465 E0.3785
G1 X182.35 Y118.823 E0.3785
G1 X190.327 Y122.668 E0.37859
G1 X197.488 Y127.876 E0.37861
G1 X203.606 Y134.281 E0.3787
G1 X208.483 Y141.678 E0.3788
G1 X211.963 Y149.826 E0.37883
G1 X213.932 Y158.466 E0.37887
G1 X214.329 Y167.319 E0.37889
G1 X213.142 Y176.1 E0.37885
G1 X210.406 Y184.528 E0.37888
G1 X206.211 Y192.331 E0.37878
G1 X200.691 Y199.26 E0.37877
G1 X194.024 Y205.09 E0.37864
G1 X186.425 Y209.635 E0.37861
G1 X178.136 Y212.749 E0.37855
G1 X169.426 Y214.332 E0.37852
G1 X160.574 Y214.332 E0.37845
G1 X151.864 Y212.749 E0.37852
G1 X143.575 Y209.635 E0.37855
G1 X135.976 Y205.09 E0.37861
G1 X129.309 Y199.26 E0.37864
G1 X123.789 Y192.331 E0.37877
G1 X119.594 Y184.528 E0.37878
G1 X116.858 Y176.1 E0.37888
G1 X115.671 Y167.319 E0.37885
G1 X116.068 Y158.466 E0.37889
G1 X118.037 Y149.826 E0.37887
G1 X121.517 Y141.678 E0.37883
G1 X126.394 Y134.281 E0.3788
G1 X132.47 Y127.92 E0.37613
M204 S1000
G1 X132.315 Y127.772 F9000
M204 S500
G1 X132.161 Y127.624
;TYPE:External perimeter
G1 F900
G1 X132.229 Y127.552 E0.00421
G1 X139.453 Y122.299 E0.38191
G1 X147.499 Y118.421 E0.38189
G1 X156.106 Y116.042 E0.3818
G1 X165 Y115.241 E0.3818
G1 X173.894 Y116.042 E0.3818
G1 X182.501 Y118.421 E0.3818
G1 X190.547 Y122.299 E0.38189
G1 X197.771 Y127.552 E0.38191
G1 X203.943 Y134.013 E0.382
G1 X208.862 Y141.474 E0.38209
G1 X212.372 Y149.693 E0.38212
G1 X214.358 Y158.408 E0.38217
G1 X214.759 Y167.338 E0.38219
G1 X213.561 Y176.195 E0.38214
G1 X210.801 Y184.697 E0.38217
G1 X206.57 Y192.568 E0.38208
G1 X201.002 Y199.558 E0.38206
G1 X194.277 Y205.438 E0.38194
G1 X186.611 Y210.023 E0.38191
G1 X178.251 Y213.164 E0.38185
G1 X169.464 Y214.76 E0.38182
G1 X160.536 Y214.76 E0.38175
G1 X151.749 Y213.164 E0.38182
G1 X143.389 Y210.023 E0.38185
G1 X135.723 Y205.438 E0.38191
G1 X128.998 Y199.558 E0.38194
G1 X123.43 Y192.568 E0.38206
G1 X119.199 Y184.697 E0.38208
G1 X116.439 Y176.195 E0.38217
G1 X115.241 Y167.338 E0.38214
G1 X115.642 Y158.408 E0.38219
G1 X117.628 Y149.693 E0.38217
G1 X121.138 Y141.474 E0.38212
G1 X126.057 Y134.013 E0.38209
G1 X132.119 Y127.667 E0.37522
;WIPE_START
G1 X132.256 Y127.647 F9000
;WIPE_END
G1 E-0.6 F3000
M204 S1000
G1 X167.728 Y130.86 F9000
M204 S500
G1 X203.2 Y134.074
G1 E0.6 F1800
;TYPE:Solid infill
;WIDTH:0.480238
G1 X197.224 Y128.098 E0.36151
G1 X195.003 Y126.482 E0.11751
G1 X203.987 Y135.466 E0.5435
G1 X205.16 Y137.245 E0.09114
G1 X192.781 Y124.866 E0.74885
G1 X190.56 Y123.251 E0.11751
G1 X206.333 Y139.024 E0.9542
G1 X207.506 Y140.803 E0.09114
G1 X189.198 Y122.495 E1.10753
G1 X188.028 Y121.931 E0.05555
G1 X208.376 Y142.28 E1.23098
G1 X208.828 Y143.337 E0.0492
G1 X186.858 Y121.367 E1.32908
G1 X185.688 Y120.803 E0.05555
G1 X209.28 Y144.395 E1.42717
G1 X209.731 Y145.453 E0.0492
G1 X184.518 Y120.24 E1.52527
G1 X183.349 Y119.676 E0.05555
G1 X210.183 Y146.51 E1.62336
G1 X210.635 Y147.568 E0.0492
G1 X182.194 Y119.127 E1.72054
G1 X181.356 Y118.896 E0.03716
G1 X211.086 Y148.625 E1.79853
G1 X211.538 Y149.683 E0.0492
G1 X180.519 Y118.664 E1.87651
G1 X179.682 Y118.433 E0.03716
G1 X211.781 Y150.532 E1.94184
G1 X211.96 Y151.317 E0.03444
G1 X178.844 Y118.201 E2.00332
G1 X178.007 Y117.97 E0.03716
G1 X212.138 Y152.101 E2.0648
G1 X212.317 Y152.886 E0.03444
G1 X177.17 Y117.739 E2.12628
G1 X176.332 Y117.507 E0.03716
G1 X212.496 Y153.671 E2.18776
G1 X212.675 Y154.456 E0.03444
G1 X175.495 Y117.276 E2.24924
G1 X174.657 Y117.044 E0.03716
G1 X212.854 Y155.241 E2.31072
G1 X213.033 Y156.026 E0.03444
G1 X173.82 Y116.813 E2.3722
G1 X173.757 Y116.796 E0.0028
G1 X173.141 Y116.74 E0.02645
G1 X213.212 Y156.811 E2.42409
G1 X213.391 Y157.596 E0.03444
G1 X172.475 Y116.68 E2.4752
G1 X171.809 Y116.62 E0.0286
G1 X213.57 Y158.38 E2.52631
G1 X213.599 Y158.511 E0.00573
G1 X213.623 Y159.04 E0.02265
G1 X171.143 Y116.56 E2.56983
G1 X170.477 Y116.5 E0.0286
G1 X213.652 Y159.674 E2.61185
G1 X213.68 Y160.309 E0.02717
G1 X169.811 Y116.44 E2.65386
G1 X169.145 Y116.38 E0.0286
G1 X213.709 Y160.943 E2.69587
G1 X213.737 Y161.578 E0.02717
G1 X168.479 Y116.32 E2.73788
G1 X167.813 Y116.26 E0.0286
G1 X213.766 Y162.212 E2.77989
G1 X213.794 Y162.847 E0.02717
G1 X167.147 Y116.2 E2.82191
G1 X166.481 Y116.14 E0.0286
G1 X213.823 Y163.481 E2.86392
G1 X213.851 Y164.116 E0.02717
G1 X165.815 Y116.08 E2.90593
G1 X165.15 Y116.02 E0.0286
G1 X213.88 Y164.75 E2.94794
G1 X213.908 Y165.385 E0.02717
G1 X164.569 Y116.046 E2.98479
G1 X164.013 Y116.096 E0.02388
G1 X213.937 Y166.019 E3.02014
G1 X213.965 Y166.654 E0.02717
G1 X163.457 Y116.146 E3.0555
G1 X162.901 Y116.196 E0.02388
G1 X213.994 Y167.288 E3.09085
G1 X213.924 Y167.824 E0.02313
G1 X162.345 Y116.246 E3.12026
G1 X161.789 Y116.296 E0.02388
G1 X213.852 Y168.358 E3.14953
G1 X213.779 Y168.892 E0.02304
G1 X161.233 Y116.346 E3.17879
G1 X160.678 Y116.396 E0.02388
G1 X213.707 Y169.426 E3.20805
G1 X213.635 Y169.96 E0.02304
G1 X160.122 Y116.446 E3.23731
G1 X159.566 Y116.496 E0.02388
G1 X213.563 Y170.493 E3.26657
G1 X213.491 Y171.027 E0.02304
G1 X159.01 Y116.546 E3.29583
G1 X158.454 Y116.596 E0.02388
G1 X213.418 Y171.561 E3.3251
G1 X213.346 Y172.095 E0.02304
G1 X157.898 Y116.646 E3.35436
G1 X157.342 Y116.697 E0.02388
G1 X213.274 Y172.628 E3.38362
G1 X213.202 Y173.162 E0.02304
G1 X156.786 Y116.747 E3.41288
G1 X156.232 Y116.799 E0.0238
G1 X213.13 Y173.696 E3.44203
G1 X213.057 Y174.23 E0.02304
G1 X155.757 Y116.93 E3.46638
G1 X155.283 Y117.061 E0.02107
G1 X212.985 Y174.764 E3.49074
G1 X212.913 Y175.297 E0.02304
G1 X154.808 Y117.192 E3.51509
G1 X154.333 Y117.323 E0.02107
G1 X212.841 Y175.831 E3.53945
G1 X212.814 Y176.025 E0.00838
G1 X212.72 Y176.316 E0.01309
G1 X153.858 Y117.455 E3.56086
G1 X153.383 Y117.586 E0.02107
G1 X212.571 Y176.774 E3.5806
G1 X212.423 Y177.231 E0.02057
G1 X152.909 Y117.717 E3.60034
G1 X152.434 Y117.848 E0.02107
G1 X212.274 Y177.689 E3.62008
G1 X212.126 Y178.146 E0.02057
G1 X151.959 Y117.979 E3.63982
G1 X151.484 Y118.111 E0.02107
G1 X211.977 Y178.604 E3.65956
G1 X211.829 Y179.061 E0.02057
G1 X151.009 Y118.242 E3.6793
G1 X150.535 Y118.373 E0.02107
G1 X211.68 Y179.519 E3.69904
G1 X211.532 Y179.976 E0.02057
G1 X150.06 Y118.504 E3.71878
G1 X149.585 Y118.635 E0.02107
G1 X211.383 Y180.434 E3.73851
G1 X211.235 Y180.891 E0.02057
G1 X149.11 Y118.767 E3.75825
G1 X148.636 Y118.898 E0.02107
G1 X211.086 Y181.349 E3.77799
G1 X210.938 Y181.806 E0.02057
G1 X148.161 Y119.029 E3.79773
G1 X147.768 Y119.137 E0.01743
G1 X147.697 Y119.172 E0.00336
G1 X210.789 Y182.264 E3.81678
G1 X210.641 Y182.721 E0.02057
G1 X147.288 Y119.369 E3.83253
G1 X146.88 Y119.566 E0.01942
G1 X210.492 Y183.179 E3.84829
G1 X210.344 Y183.636 E0.02057
G1 X146.471 Y119.763 E3.86404
G1 X146.062 Y119.96 E0.01942
G1 X210.196 Y184.094 E3.87979
G1 X210.097 Y184.397 E0.01363
G1 X210.026 Y184.53 E0.00646
G1 X145.653 Y120.157 E3.89425
G1 X145.244 Y120.354 E0.01942
G1 X209.814 Y184.924 E3.90617
G1 X209.602 Y185.318 E0.01914
G1 X144.835 Y120.551 E3.91809
G1 X144.426 Y120.748 E0.01942
G1 X209.39 Y185.712 E3.93001
G1 X209.178 Y186.106 E0.01914
G1 X144.017 Y120.945 E3.94193
G1 X143.608 Y121.142 E0.01942
G1 X208.966 Y186.5 E3.95384
G1 X208.754 Y186.894 E0.01914
G1 X143.2 Y121.339 E3.96576
G1 X142.791 Y121.537 E0.01942
G1 X208.542 Y187.288 E3.97768
G1 X208.331 Y187.683 E0.01914
G1 X142.382 Y121.734 E3.9896
G1 X141.973 Y121.931 E0.01942
G1 X208.119 Y188.077 E4.00152
G1 X207.907 Y188.471 E0.01914
G1 X141.564 Y122.128 E4.01344
G1 X141.155 Y122.325 E0.01942
G1 X207.695 Y188.865 E4.02536
G1 X207.483 Y189.259 E0.01914
G1 X140.746 Y122.522 E4.03727
G1 X140.337 Y122.719 E0.01942
G1 X207.271 Y189.653 E4.04919
G1 X207.059 Y190.047 E0.01914
G1 X139.928 Y122.916 E4.06111
G1 X139.846 Y122.956 E0.00393
G1 X139.566 Y123.16 E0.01481
G1 X206.847 Y190.441 E4.07023
G1 X206.636 Y190.835 E0.01914
G1 X139.215 Y123.415 E4.07863
G1 X138.864 Y123.67 E0.01856
G1 X206.424 Y191.229 E4.08704
G1 X206.212 Y191.624 E0.01914
G1 X138.513 Y123.925 E4.09545
G1 X138.162 Y124.18 E0.01856
G1 X206 Y192.018 E4.10385
G1 X205.931 Y192.147 E0.00627
G1 X205.75 Y192.374 E0.01241
G1 X137.812 Y124.435 E4.10995
G1 X137.461 Y124.69 E0.01856
G1 X205.481 Y192.711 E4.11492
G1 X205.212 Y193.048 E0.01845
G1 X137.11 Y124.946 E4.11989
G1 X136.759 Y125.201 E0.01856
G1 X204.944 Y193.385 E4.12486
G1 X204.675 Y193.723 E0.01845
G1 X136.408 Y125.456 E4.12983
G1 X136.057 Y125.711 E0.01856
G1 X204.406 Y194.06 E4.13479
G1 X204.138 Y194.397 E0.01845
G1 X135.707 Y125.966 E4.13976
G1 X135.356 Y126.221 E0.01856
G1 X203.869 Y194.735 E4.14473
G1 X203.6 Y195.072 E0.01845
G1 X135.005 Y126.476 E4.1497
G1 X134.654 Y126.732 E0.01856
G1 X203.332 Y195.409 E4.15467
G1 X203.063 Y195.746 E0.01845
G1 X134.303 Y126.987 E4.15964
G1 X133.952 Y127.242 E0.01856
G1 X202.794 Y196.084 E4.16461
G1 X202.525 Y196.421 E0.01845
G1 X133.602 Y127.497 E4.16958
G1 X133.251 Y127.752 E0.01856
G1 X202.257 Y196.758 E4.17455
G1 X201.988 Y197.096 E0.01845
G1 X132.9 Y128.007 E4.17952
G1 X132.733 Y128.129 E0.00884
G1 X132.578 Y128.291 E0.0096
G1 X201.719 Y197.433 E4.18275
G1 X201.451 Y197.77 E0.01845
G1 X132.282 Y128.601 E4.1844
G1 X131.986 Y128.911 E0.01833
G1 X201.182 Y198.107 E4.18606
G1 X200.913 Y198.445 E0.01845
G1 X131.69 Y129.221 E4.18771
G1 X131.394 Y129.531 E0.01833
G1 X200.645 Y198.782 E4.18936
G1 X200.448 Y199.029 E0.01349
G1 X200.361 Y199.105 E0.00493
G1 X131.097 Y129.841 E4.19013
G1 X130.801 Y130.151 E0.01833
G1 X200.038 Y199.387 E4.18848
G1 X199.715 Y199.67 E0.01837
G1 X130.505 Y130.461 E4.18684
G1 X130.209 Y130.771 E0.01833
G1 X199.391 Y199.953 E4.18519
G1 X199.068 Y200.235 E0.01837
G1 X129.913 Y131.081 E4.18354
G1 X129.617 Y131.391 E0.01833
G1 X198.745 Y200.518 E4.1819
G1 X198.421 Y200.801 E0.01837
G1 X129.321 Y131.7 E4.18025
G1 X129.025 Y132.01 E0.01833
G1 X198.098 Y201.083 E4.1786
G1 X197.775 Y201.366 E0.01837
G1 X128.729 Y132.32 E4.17695
G1 X128.433 Y132.63 E0.01833
G1 X197.452 Y201.649 E4.17531
G1 X197.128 Y201.932 E0.01837
G1 X128.137 Y132.94 E4.17366
G1 X127.841 Y133.25 E0.01833
G1 X196.805 Y202.214 E4.17201
G1 X196.482 Y202.497 E0.01837
G1 X127.545 Y133.56 E4.17036
G1 X127.249 Y133.87 E0.01833
G1 X196.159 Y202.78 E4.16872
G1 X195.835 Y203.062 E0.01837
G1 X126.953 Y134.18 E4.16707
G1 X126.657 Y134.49 E0.01833
G1 X195.512 Y203.345 E4.16542
G1 X195.189 Y203.628 E0.01837
G1 X126.416 Y134.855 E4.16043
G1 X126.175 Y135.22 E0.01871
G1 X194.865 Y203.911 E4.15544
G1 X194.542 Y204.193 E0.01837
G1 X125.934 Y135.585 E4.15045
G1 X125.694 Y135.951 E0.01871
G1 X194.219 Y204.476 E4.14546
G1 X193.896 Y204.759 E0.01837
G1 X125.453 Y136.316 E4.14047
G1 X125.212 Y136.681 E0.01871
G1 X193.528 Y204.997 E4.13282
G1 X193.149 Y205.224 E0.0189
G1 X124.971 Y137.046 E4.12445
G1 X124.73 Y137.411 E0.01871
G1 X192.77 Y205.451 E4.11607
G1 X192.391 Y205.678 E0.0189
G1 X124.49 Y137.777 E4.1077
G1 X124.249 Y138.142 E0.01871
G1 X192.012 Y205.905 E4.09933
G1 X191.632 Y206.131 E0.0189
G1 X124.008 Y138.507 E4.09095
G1 X123.767 Y138.872 E0.01871
G1 X191.253 Y206.358 E4.08258
G1 X190.874 Y206.585 E0.0189
G1 X123.527 Y139.237 E4.07421
G1 X123.286 Y139.603 E0.01871
G1 X190.495 Y206.812 E4.06583
G1 X190.116 Y207.038 E0.0189
G1 X123.045 Y139.968 E4.05746
G1 X122.804 Y140.333 E0.01871
G1 X189.736 Y207.265 E4.04909
G1 X189.357 Y207.492 E0.0189
G1 X122.563 Y140.698 E4.04072
G1 X122.323 Y141.063 E0.01871
G1 X188.978 Y207.719 E4.03234
G1 X188.599 Y207.946 E0.0189
G1 X122.082 Y141.429 E4.02397
G1 X121.841 Y141.794 E0.01871
G1 X188.22 Y208.172 E4.0156
G1 X187.84 Y208.399 E0.0189
G1 X121.653 Y142.211 E4.00405
G1 X121.471 Y142.636 E0.01975
G1 X187.461 Y208.626 E3.99208
G1 X187.082 Y208.853 E0.0189
G1 X121.29 Y143.061 E3.98011
G1 X121.109 Y143.485 E0.01975
G1 X186.703 Y209.08 E3.96814
G1 X186.324 Y209.306 E0.0189
G1 X120.927 Y143.91 E3.95617
G1 X120.746 Y144.335 E0.01975
G1 X185.89 Y209.479 E3.94093
G1 X185.45 Y209.645 E0.02013
G1 X120.565 Y144.759 E3.92525
G1 X120.383 Y145.184 E0.01975
G1 X185.009 Y209.81 E3.90958
G1 X184.569 Y209.976 E0.02013
G1 X120.202 Y145.609 E3.8939
G1 X120.021 Y146.033 E0.01975
G1 X184.128 Y210.141 E3.87822
G1 X183.688 Y210.306 E0.02013
G1 X119.839 Y146.458 E3.86254
G1 X119.658 Y146.883 E0.01975
G1 X183.247 Y210.472 E3.84687
G1 X182.807 Y210.637 E0.02013
G1 X119.477 Y147.307 E3.83119
G1 X119.295 Y147.732 E0.01975
G1 X182.366 Y210.803 E3.81551
G1 X181.926 Y210.968 E0.02013
G1 X119.114 Y148.156 E3.79983
G1 X118.933 Y148.581 E0.01975
