; generated by SuperSlicer 2.3.57 on 2022-01-20 at 03:59:37 UTC


;
;

;
;
; 

; external perimeters extrusion width = 0.40mm
; perimeters extrusion width = 0.40mm
; infill extrusion width = 0.40mm
; solid infill extrusion width = 0.40mm
; top infill extrusion width = 0.40mm
; support material extrusion width = 0.40mm
; first layer extrusion width = 0.48mm


;TYPE:Custom
START_PRINT T_BED=60 T_EXTRUDER=200
M107
G21 ; set units to millimeters
G90 ; use absolute coordinates
M83 ; use relative distances for extrusion
; Filament gcode
M104 S200 ; set temperature
M109 S200 ; set temperature and wait for it to be reached
M190 S60 ; set bed temperature and wait for it to be reached
;LAYER_CHANGE
;Z:0.24
;HEIGHT:0.24
G1 Z0.24 F9000
G1 E-0.6 F3000
M204 S1000
G1 X98.735 Y132.965 F9000
G1 E0.6 F1800
;TYPE:Skirt
;WIDTH:0.48
G1 F900
G1 X97.542 Y133.941 E0.06588
G1 X96.732 Y134.745 E0.04878
G1 X95.803 Y135.865 E0.06223
G1 X95.16 Y136.811 E0.04892
G1 X94.42 Y138.166 E0.06599
G1 X94.007 Y139.138 E0.04516
G1 X93.54 Y140.596 E0.06548
G1 X93.318 Y141.623 E0.04492
G1 X93.134 Y143.156 E0.06598
G1 X93.126 Y144.699 E0.06598
G1 X93.223 Y145.774 E0.04617
G1 X93.503 Y147.262 E0.06473
G1 X93.813 Y148.333 E0.04768
G1 X97.795 Y158.893 E0.4825
G1 X98.484 Y159.918 E0.05284
G1 X99.38 Y160.769 E0.05284
G1 X100.44 Y161.405 E0.05284
G1 X101.613 Y161.794 E0.05284
G1 X102.361 Y161.903 E0.03234
G1 X202.624 Y169.516 E4.29913
G1 X203.813 Y169.479 E0.05084
G1 X205.066 Y169.157 E0.05533
G1 X206.213 Y168.558 E0.05533
G1 X207.19 Y167.717 E0.05508
G1 X207.953 Y166.672 E0.05533
G1 X208.277 Y166.002 E0.03184
G1 X212.629 Y155.091 E0.50223
G1 X212.88 Y154.212 E0.0391
G1 X212.986 Y153.309 E0.03885
G1 X212.973 Y141.187 E0.51829
G1 X212.851 Y140.381 E0.03485
G1 X211.549 Y134.896 E0.24104
G1 X211.126 Y133.909 E0.04592
G1 X210.605 Y133.075 E0.04205
G1 X209.895 Y132.258 E0.04627
G1 X209.138 Y131.619 E0.04236
G1 X208.21 Y131.06 E0.04631
G1 X207.295 Y130.685 E0.04228
G1 X206.237 Y130.437 E0.04648
G1 X205.256 Y130.362 E0.04206
G1 X106.743 Y130.362 E4.21197
G1 X104.981 Y130.478 E0.0755
G1 X103.51 Y130.754 E0.06398
G1 X102.488 Y131.045 E0.04542
G1 X101.063 Y131.605 E0.06549
G1 X100.039 Y132.129 E0.04918
G1 X98.785 Y132.933 E0.06367
G1 X98.917 Y133.101 F9000
M204 S500
G1 X99.048 Y133.269
G1 F900
G1 X98.202 Y133.93 E0.04588
G1 X97.117 Y134.96 E0.06397
G1 X96.151 Y136.116 E0.06445
G1 X95.528 Y137.03 E0.0473
G1 X94.808 Y138.348 E0.06421
G1 X94.41 Y139.283 E0.04344
G1 X93.957 Y140.697 E0.06348
G1 X93.743 Y141.685 E0.04321
G1 X93.562 Y143.176 E0.06421
G1 X93.554 Y144.677 E0.0642
G1 X93.644 Y145.695 E0.04369
G1 X93.919 Y147.16 E0.06372
G1 X94.217 Y148.19 E0.04586
G1 X98.157 Y158.66 E0.4783
G1 X98.795 Y159.622 E0.04934
G1 X99.629 Y160.42 E0.04934
G1 X100.618 Y161.015 E0.04934
G1 X101.713 Y161.378 E0.04934
G1 X202.656 Y169.088 E4.32841
G1 X203.736 Y169.057 E0.04623
G1 X204.909 Y168.758 E0.05174
G1 X205.977 Y168.2 E0.0515
G1 X206.888 Y167.413 E0.0515
G1 X207.594 Y166.437 E0.0515
G1 X212.225 Y154.947 E0.52963
G1 X212.458 Y154.141 E0.0359
G1 X212.558 Y153.313 E0.03566
G1 X212.547 Y141.229 E0.51663
G1 X212.433 Y140.477 E0.03253
G1 X211.162 Y135.089 E0.23668
G1 X210.81 Y134.232 E0.03963
G1 X210.279 Y133.355 E0.04383
G1 X209.68 Y132.649 E0.03956
G1 X208.905 Y131.979 E0.04381
G1 X208.122 Y131.495 E0.03937
G1 X207.174 Y131.096 E0.04398
G1 X206.279 Y130.878 E0.03938
G1 X205.256 Y130.791 E0.0439
G1 X106.744 Y130.791 E4.21191
G1 X105.06 Y130.899 E0.07215
G1 X103.612 Y131.17 E0.063
G1 X102.634 Y131.448 E0.04345
G1 X101.242 Y131.995 E0.06397
G1 X100.261 Y132.495 E0.04706
G1 X99.098 Y133.235 E0.05897
G1 E-0.6 F3000
M204 S1000
G1 X106.945 Y144.848 F9000
M204 S500
G1 X114.792 Y156.461
G1 E0.6 F1800
;TYPE:Support material
G1 F900
G1 X114.792 Y153.864 E0.11102
G1 X113.935 Y153.759 E0.03692
G1 X113.935 Y156.277 E0.10764
G1 X113.078 Y156.277 E0.03664
G1 X113.078 Y153.654 E0.11214
G1 X112.221 Y153.549 E0.03692
G1 X112.221 Y156.277 E0.11664
G1 X111.364 Y156.277 E0.03664
G1 X111.364 Y153.444 E0.12114
G1 X110.507 Y153.338 E0.03692
G1 X110.507 Y156.277 E0.12564
G1 X109.65 Y156.277 E0.03664
G1 X109.65 Y153.233 E0.13014
G1 X108.793 Y153.128 E0.03692
G1 X108.793 Y156.277 E0.13463
G1 X107.936 Y156.277 E0.03664
G1 X107.936 Y153.023 E0.13913
G1 X107.842 Y153.011 E0.00407
G1 X107.829 Y152.744 E0.01143
G1 X107.316 Y152.793 E0.02205
G1 X107.29 Y152.794 E0.00108
G1 X107.08 Y152.801 E0.00902
G1 X107.08 Y156.277 E0.14862
G1 X106.223 Y156.277 E0.03664
G1 X106.223 Y152.795 E0.14888
G1 X106.184 Y152.793 E0.00163
G1 X105.659 Y152.743 E0.02257
G1 X105.634 Y152.74 E0.00108
G1 X105.366 Y152.697 E0.01161
G1 X105.366 Y156.277 E0.15304
G1 X104.509 Y156.277 E0.03664
G1 X104.509 Y152.52 E0.16064
G1 X104.041 Y152.384 E0.02082
G1 X104.017 Y152.376 E0.00108
G1 X103.652 Y152.244 E0.0166
G1 X103.652 Y156.277 E0.17241
G1 X102.795 Y156.277 E0.03664
G1 X102.795 Y151.661 E0.19734
G1 E-0.6 F3000
M204 S1000
G1 X153.357 Y151.873 F9000
M204 S500
G1 X203.919 Y152.084
G1 E0.6 F1800
G1 F900
G1 X203.919 Y144.811 E0.31096
G1 X203.062 Y144.811 E0.03664
G1 X203.062 Y151.899 E0.30308
G1 X202.206 Y151.899 E0.03664
G1 X202.206 Y144.811 E0.30308
G1 X201.349 Y144.811 E0.03664
G1 X201.349 Y151.967 E0.30598
G1 X200.944 Y152.371 E0.02444
G1 X200.944 Y152.92 E0.02344
G1 X200.492 Y152.92 E0.01936
G1 X200.492 Y144.811 E0.3467
G1 X199.635 Y144.811 E0.03664
G1 X199.635 Y152.92 E0.3467
G1 X198.778 Y152.92 E0.03664
G1 X198.778 Y144.811 E0.3467
G1 X197.921 Y144.811 E0.03664
G1 X197.921 Y152.92 E0.3467
G1 X197.064 Y152.92 E0.03664
G1 X197.064 Y144.811 E0.3467
G1 X196.207 Y144.811 E0.03664
G1 X196.207 Y152.92 E0.3467
G1 X195.35 Y152.92 E0.03664
G1 X195.35 Y144.811 E0.3467
G1 X194.493 Y144.811 E0.03664
G1 X194.493 Y152.92 E0.3467
G1 X193.636 Y152.92 E0.03664
G1 X193.636 Y144.811 E0.3467
G1 X192.779 Y144.811 E0.03664
G1 X192.779 Y152.92 E0.3467
G1 X191.922 Y152.92 E0.03664
G1 X191.922 Y144.811 E0.3467
G1 X191.065 Y144.811 E0.03664
G1 X191.065 Y152.92 E0.3467
G1 X190.208 Y152.92 E0.03664
G1 X190.208 Y144.811 E0.3467
G1 X189.351 Y144.811 E0.03664
G1 X189.351 Y152.92 E0.3467
G1 X188.494 Y152.92 E0.03664
G1 X188.494 Y144.811 E0.3467
G1 X187.637 Y144.811 E0.03664
G1 X187.637 Y152.92 E0.3467
G1 X186.78 Y152.92 E0.03664
G1 X186.78 Y144.811 E0.3467
G1 X185.923 Y144.811 E0.03664
G1 X185.923 Y152.915 E0.34648
G1 X185.066 Y152.809 E0.03692
G1 X185.066 Y144.811 E0.34198
G1 X184.209 Y144.811 E0.03664
G1 X184.209 Y152.704 E0.33748
G1 X183.352 Y152.599 E0.03692
G1 X183.352 Y144.811 E0.33298
G1 X182.495 Y144.811 E0.03664
G1 X182.495 Y152.494 E0.32848
G1 X181.638 Y152.388 E0.03692
G1 X181.638 Y144.811 E0.32399
G1 X180.781 Y144.811 E0.03664
G1 X180.781 Y152.283 E0.31949
G1 X179.924 Y152.178 E0.03692
G1 X179.924 Y144.811 E0.31499
G1 X179.067 Y144.811 E0.03664
G1 X179.067 Y152.073 E0.31049
G1 X178.21 Y151.968 E0.03692
G1 X178.21 Y144.811 E0.30599
G1 X177.353 Y144.811 E0.03664
G1 X177.353 Y151.862 E0.30149
G1 X176.496 Y151.757 E0.03692
G1 X176.496 Y144.811 E0.29699
G1 X175.639 Y144.811 E0.03664
G1 X175.639 Y151.652 E0.29249
G1 X174.782 Y151.547 E0.03692
G1 X174.782 Y144.811 E0.28799
G1 X173.925 Y144.811 E0.03664
G1 X173.925 Y151.441 E0.28349
G1 X173.068 Y151.336 E0.03692
G1 X173.068 Y144.811 E0.279
G1 X172.211 Y144.811 E0.03664
G1 X172.211 Y151.231 E0.2745
G1 X171.354 Y151.126 E0.03692
G1 X171.354 Y144.811 E0.27
G1 X170.497 Y144.811 E0.03664
G1 X170.497 Y151.021 E0.2655
G1 X169.64 Y150.915 E0.03692
G1 X169.64 Y144.811 E0.261
G1 X168.783 Y144.811 E0.03664
G1 X168.783 Y150.81 E0.2565
G1 X167.926 Y150.705 E0.03692
G1 X167.926 Y144.811 E0.252
G1 X167.069 Y144.811 E0.03664
G1 X167.069 Y150.6 E0.2475
G1 X166.212 Y150.494 E0.03692
G1 X166.212 Y144.811 E0.243
G1 X165.355 Y144.811 E0.03664
G1 X165.355 Y150.389 E0.23851
G1 X164.498 Y150.284 E0.03692
G1 X164.498 Y144.811 E0.23401
G1 X163.641 Y144.811 E0.03664
G1 X163.641 Y150.179 E0.22951
G1 X162.784 Y150.074 E0.03692
G1 X162.784 Y144.811 E0.22501
G1 X161.927 Y144.811 E0.03664
G1 X161.927 Y149.968 E0.22051
G1 X161.07 Y149.863 E0.03692
G1 X161.07 Y144.811 E0.21601
G1 X160.213 Y144.811 E0.03664
G1 X160.213 Y149.758 E0.21151
G1 X159.356 Y149.653 E0.03692
G1 X159.356 Y144.811 E0.20701
G1 X158.499 Y144.811 E0.03664
G1 X158.499 Y149.547 E0.20251
G1 X157.642 Y149.442 E0.03692
G1 X157.642 Y144.811 E0.19801
G1 X156.785 Y144.811 E0.03664
G1 X156.785 Y149.337 E0.19352
G1 X155.928 Y149.232 E0.03692
G1 X155.928 Y144.811 E0.18902
G1 X155.071 Y144.811 E0.03664
G1 X155.071 Y149.126 E0.18452
G1 X154.214 Y149.021 E0.03692
G1 X154.214 Y144.811 E0.18002
G1 X153.357 Y144.811 E0.03664
G1 X153.357 Y148.916 E0.17552
G1 X152.5 Y148.811 E0.03692
G1 X152.5 Y144.811 E0.17102
G1 X151.643 Y144.811 E0.03664
G1 X151.643 Y148.706 E0.16652
G1 X150.786 Y148.6 E0.03692
G1 X150.786 Y144.811 E0.16202
G1 X149.929 Y144.811 E0.03664
G1 X149.929 Y148.495 E0.15752
G1 X149.072 Y148.39 E0.03692
G1 X149.072 Y144.811 E0.15303
G1 X148.215 Y144.811 E0.03664
G1 X148.215 Y148.285 E0.14853
G1 X147.358 Y148.179 E0.03692
G1 X147.358 Y144.811 E0.14403
G1 X146.501 Y144.811 E0.03664
G1 X146.501 Y148.074 E0.13953
G1 X145.644 Y147.969 E0.03692
G1 X145.644 Y144.811 E0.13503
G1 X144.787 Y144.811 E0.03664
G1 X144.787 Y147.864 E0.13053
G1 X143.93 Y147.759 E0.03692
G1 X143.93 Y144.811 E0.12603
G1 X143.073 Y144.811 E0.03664
G1 X143.073 Y147.653 E0.12153
G1 X142.216 Y147.548 E0.03692
G1 X142.216 Y144.811 E0.11703
G1 X141.359 Y144.811 E0.03664
G1 X141.359 Y147.443 E0.11253
G1 X140.502 Y147.338 E0.03692
G1 X140.502 Y144.811 E0.10804
G1 X139.645 Y144.811 E0.03664
G1 X139.645 Y147.232 E0.10354
G1 X138.788 Y147.127 E0.03692
G1 X138.788 Y144.811 E0.09904
G1 X137.931 Y144.811 E0.03664
G1 X137.931 Y147.022 E0.09454
G1 X137.074 Y146.917 E0.03692
G1 X137.074 Y144.811 E0.09004
G1 X136.217 Y144.811 E0.03664
G1 X136.217 Y146.812 E0.08554
G1 X135.36 Y146.706 E0.03692
G1 X135.36 Y144.811 E0.08104
G1 X134.503 Y144.811 E0.03664
G1 X134.503 Y146.601 E0.07654
G1 X133.646 Y146.496 E0.03692
G1 X133.646 Y144.811 E0.07204
G1 X132.789 Y144.811 E0.03664
G1 X132.789 Y146.391 E0.06755
G1 X131.932 Y146.285 E0.03692
G1 X131.932 Y144.811 E0.06305
G1 X131.075 Y144.811 E0.03664
G1 X131.075 Y146.18 E0.05855
G1 X130.218 Y146.075 E0.03692
G1 X130.218 Y144.811 E0.05405
G1 X129.361 Y144.811 E0.03664
G1 X129.361 Y145.97 E0.04955
G1 X128.504 Y145.865 E0.03692
G1 X128.504 Y144.811 E0.04505
G1 X127.647 Y144.811 E0.03664
G1 X127.647 Y145.759 E0.04055
G1 X126.79 Y145.654 E0.03692
G1 X126.79 Y144.811 E0.03605
G1 X125.933 Y144.811 E0.03664
G1 X125.933 Y145.549 E0.03155
G1 X125.076 Y145.444 E0.03692
G1 X125.076 Y144.811 E0.02705
G1 X124.219 Y144.811 E0.03664
G1 X124.219 Y145.338 E0.02256
G1 X123.362 Y145.233 E0.03692
G1 X123.362 Y144.811 E0.01806
G1 X122.505 Y144.811 E0.03664
G1 X122.505 Y145.128 E0.01356
G1 X121.648 Y145.023 E0.03692
G1 X121.648 Y144.811 E0.00906
G1 X120.791 Y144.811 E0.03664
G1 X120.791 Y144.917 E0.00456
G1 X119.934 Y144.812 E0.03692
G1 X119.934 Y144.627 E0.00794
G1 E-0.6 F3000
M204 S1000
G1 X163.641 Y148.865 F9000
M204 S500
G1 X207.347 Y153.104
G1 E0.6 F1800
G1 F900
G1 X207.347 Y141.627 E0.49072
G1 E-0.6 F3000
M204 S1000
G1 X205.072 Y149.265 F9000
M204 S500
G1 X202.797 Y156.903
G1 E0.6 F1800
;TYPE:Internal perimeter
G1 F900
G1 X202.089 Y162.666 E0.24824
G1 X112.558 Y151.673 E3.8567
G1 X113.32 Y151.001 E0.04343
G1 X113.746 Y150.575 E0.02578
G1 X114.145 Y150.123 E0.02578
G1 X114.515 Y149.646 E0.02578
G1 X114.853 Y149.148 E0.02578
G1 X115.16 Y148.629 E0.02578
G1 X115.434 Y148.092 E0.02578
G1 X115.674 Y147.538 E0.02578
G1 X115.878 Y146.971 E0.02578
G1 X116.085 Y146.257 E0.0318
G1 X202.737 Y156.896 E3.73266
G1 E-0.6 F3000
M204 S1000
G1 X202.6 Y160.02 F9000
M204 S500
G1 X202.463 Y163.144
G1 E0.6 F1800
G1 F900
G1 X111.353 Y151.957 E3.92466
G1 X112.139 Y151.423 E0.04062
G1 X112.594 Y151.07 E0.02463
G1 X113.027 Y150.689 E0.02463
G1 X113.434 Y150.282 E0.02463
G1 X113.815 Y149.85 E0.02463
G1 X114.168 Y149.394 E0.02463
G1 X114.492 Y148.918 E0.02463
G1 X114.785 Y148.422 E0.02463
G1 X115.046 Y147.909 E0.02463
G1 X115.275 Y147.38 E0.02463
G1 X115.47 Y146.838 E0.02463
G1 X115.631 Y146.285 E0.02463
G1 X115.743 Y145.783 E0.02201
G1 X202.928 Y156.488 E3.75562
G1 X202.979 Y156.497 E0.00223
G1 X203.045 Y156.519 E0.00296
G1 X203.076 Y156.536 E0.00148
G1 X203.131 Y156.577 E0.00294
G1 X203.176 Y156.629 E0.00295
G1 X203.209 Y156.69 E0.00296
G1 X203.23 Y156.756 E0.00296
G1 X203.236 Y156.825 E0.00296
G1 X203.232 Y156.872 E0.002
G1 X202.47 Y163.084 E0.26762
M204 S1000
G1 X202.653 Y163.353 F9000
M204 S500
G1 X202.836 Y163.621
;TYPE:External perimeter
G1 F900
G1 X109.787 Y152.196 E4.0082
G1 X109.967 Y152.132 E0.00819
G1 X110.471 Y151.913 E0.02348
G1 X110.961 Y151.664 E0.02348
G1 X111.433 Y151.385 E0.02348
G1 X111.887 Y151.076 E0.02348
G1 X112.321 Y150.74 E0.02348
G1 X112.733 Y150.376 E0.02348
G1 X113.121 Y149.988 E0.02348
G1 X113.484 Y149.576 E0.02348
G1 X113.821 Y149.142 E0.02348
G1 X114.13 Y148.688 E0.02348
G1 X114.409 Y148.216 E0.02348
G1 X114.658 Y147.727 E0.02348
G1 X114.876 Y147.223 E0.02348
G1 X115.062 Y146.706 E0.02348
G1 X115.216 Y146.179 E0.02348
G1 X115.335 Y145.643 E0.02348
G1 X115.388 Y145.308 E0.01451
G1 X202.991 Y156.064 E3.77363
G1 X203.076 Y156.079 E0.00368
G1 X203.152 Y156.101 E0.0034
G1 X203.226 Y156.131 E0.0034
G1 X203.296 Y156.168 E0.0034
G1 X203.362 Y156.212 E0.0034
G1 X203.423 Y156.263 E0.0034
G1 X203.478 Y156.321 E0.0034
G1 X203.527 Y156.383 E0.0034
G1 X203.57 Y156.451 E0.0034
G1 X203.604 Y156.522 E0.0034
G1 X203.632 Y156.597 E0.0034
G1 X203.651 Y156.674 E0.0034
G1 X203.662 Y156.753 E0.0034
G1 X203.665 Y156.832 E0.0034
G1 X203.659 Y156.913 E0.00344
G1 X202.843 Y163.562 E0.28642
;WIPE_START
G1 X202.516 Y163.381 F9000
;WIPE_END
G1 E-0.6 F3000
M204 S1000
G1 X202.079 Y160.147 F9000
M204 S500
G1 X201.642 Y156.913
G1 E0.6 F1800
;TYPE:Solid infill
;WIDTH:0.482735
G1 X202.37 Y157.64 E0.04425
G1 X202.303 Y158.18 E0.02338
G1 X201.163 Y157.04 E0.06936
G1 X200.472 Y156.955 E0.02993
G1 X202.237 Y158.72 E0.10734
G1 X202.171 Y159.26 E0.02338
G1 X199.781 Y156.87 E0.14532
G1 X199.09 Y156.785 E0.02993
G1 X202.105 Y159.799 E0.1833
G1 X202.038 Y160.339 E0.02338
G1 X198.4 Y156.7 E0.22128
G1 X197.709 Y156.615 E0.02993
G1 X201.972 Y160.879 E0.25926
G1 X201.906 Y161.419 E0.02338
G1 X197.018 Y156.531 E0.29724
G1 X196.327 Y156.446 E0.02993
G1 X201.84 Y161.958 E0.33522
G1 X201.798 Y162.294 E0.01454
G1 X201.537 Y162.262 E0.01132
G1 X195.636 Y156.361 E0.35883
G1 X194.946 Y156.276 E0.02993
G1 X200.846 Y162.177 E0.35883
G1 X200.155 Y162.092 E0.02993
G1 X194.255 Y156.191 E0.35883
G1 X193.564 Y156.106 E0.02993
G1 X199.465 Y162.007 E0.35883
G1 X198.774 Y161.922 E0.02993
G1 X192.873 Y156.022 E0.35883
G1 X192.182 Y155.937 E0.02993
G1 X198.083 Y161.838 E0.35883
G1 X197.392 Y161.753 E0.02993
G1 X191.491 Y155.852 E0.35883
G1 X190.801 Y155.767 E0.02993
G1 X196.701 Y161.668 E0.35883
G1 X196.011 Y161.583 E0.02993
G1 X190.11 Y155.682 E0.35883
G1 X189.419 Y155.598 E0.02993
G1 X195.32 Y161.498 E0.35883
G1 X194.629 Y161.414 E0.02993
G1 X188.728 Y155.513 E0.35883
G1 X188.037 Y155.428 E0.02993
G1 X193.938 Y161.329 E0.35883
G1 X193.247 Y161.244 E0.02993
G1 X187.347 Y155.343 E0.35883
G1 X186.656 Y155.258 E0.02993
G1 X192.557 Y161.159 E0.35883
G1 X191.866 Y161.074 E0.02993
G1 X185.965 Y155.173 E0.35883
G1 X185.274 Y155.089 E0.02993
G1 X191.175 Y160.989 E0.35883
G1 X190.484 Y160.905 E0.02993
G1 X184.583 Y155.004 E0.35883
G1 X183.893 Y154.919 E0.02993
G1 X189.793 Y160.82 E0.35883
G1 X189.103 Y160.735 E0.02993
G1 X183.202 Y154.834 E0.35883
G1 X182.511 Y154.749 E0.02993
G1 X188.412 Y160.65 E0.35883
G1 X187.721 Y160.565 E0.02993
G1 X181.82 Y154.665 E0.35883
G1 X181.129 Y154.58 E0.02993
G1 X187.03 Y160.481 E0.35883
G1 X186.339 Y160.396 E0.02993
G1 X180.439 Y154.495 E0.35883
G1 X179.748 Y154.41 E0.02993
G1 X185.649 Y160.311 E0.35883
G1 X184.958 Y160.226 E0.02993
G1 X179.057 Y154.325 E0.35883
G1 X178.366 Y154.24 E0.02993
G1 X184.267 Y160.141 E0.35882
G1 X183.576 Y160.056 E0.02993
G1 X177.675 Y154.156 E0.35883
G1 X176.985 Y154.071 E0.02993
G1 X182.885 Y159.972 E0.35882
G1 X182.195 Y159.887 E0.02993
G1 X176.294 Y153.986 E0.35882
G1 X175.603 Y153.901 E0.02993
