; generated by SuperSlicer 2.4 on 2022-05-22 at 06:50:30 UTC


;
;

;
;
; 

; external perimeters extrusion width = 0.40mm
; perimeters extrusion width = 0.45mm
; infill extrusion width = 0.72mm
; solid infill extrusion width = 0.56mm
; top infill extrusion width = 0.40mm
; first layer extrusion width = 0.48mm

; object:{"name":"barge-box","id":"barge-box.stl id:0 copy 0","object_center":[152.500000,149.999999,0.000000],"boundingbox_center":[152.500000,149.999999,11.327400],"boundingbox_size":[262.669816,59.531781,22.654800]}
; plater:{"center":[152.500000,149.999999,0.000000],"boundingbox_center":[152.500000,149.999999,11.327400],"boundingbox_size":[262.669816,59.531781,22.654800]}

M73 P0 R194
;TYPE:Custom
START_PRINT T_BED=60 T_EXTRUDER=200
M107
G21 ; set units to millimeters
G90 ; use absolute coordinates
M83 ; use relative distances for extrusion
; Filament gcode
M104 S200 ; set temperature
M109 S200 ; set temperature and wait for it to be reached
M190 S60 ; set bed temperature and wait for it to be reached
M107
;LAYER_CHANGE
;Z:0.24
;HEIGHT:0.24
G1 Z0.24 F9000
G92 E0
G1 E-0.8 F3000
M204 S1000
G1 X29.508 Y116.95 F9000
G1 E0.8 F1800
;TYPE:Skirt
;WIDTH:0.52
G1 X29.088 Y117.056 E0.0202
G1 X23.915 Y119.844 E0.27474
G1 X22.281 Y121.617 E0.11272
G1 X19.49 Y127.994 E0.32537
G1 X19.189 Y129.215 E0.05882
G1 X17.575 Y151.978 E1.06674
G1 X17.566 Y162.108 E0.47357
G1 X17.632 Y162.805 E0.03273
G1 X19.246 Y171.219 E0.40046
G1 X19.49 Y172.005 E0.03849
G1 X22.281 Y178.381 E0.32537
G1 X23.914 Y180.154 E0.11269
G1 X29.088 Y182.944 E0.27477
G1 X30.844 Y183.387 E0.08465
G1 X275.793 Y183.387 E11.45058
G1 X277.549 Y182.944 E0.08466
G1 X282.722 Y180.154 E0.27474
G1 X283.972 Y179.055 E0.07782
G1 X284.621 Y177.474 E0.07988
G1 X285.436 Y172.25 E0.24715
G1 X287.455 Y150.321 E1.02944
G1 X287.44 Y149.338 E0.04597
G1 X285.155 Y124.574 E1.16252
G1 X284.53 Y122.108 E0.11894
G1 X283.998 Y120.98 E0.05829
G1 X282.722 Y119.844 E0.07988
G1 X277.548 Y117.056 E0.27472
G1 X275.793 Y116.613 E0.08463
G1 X30.844 Y116.613 E11.45058
G1 X29.508 Y116.95 E0.06441
G1 X29.618 Y117.389 F9000
G1 F1800
G1 X29.31 Y117.466 E0.01487
G1 X24.136 Y120.255 E0.27474
G1 X22.708 Y121.804 E0.09851
G1 X19.917 Y128.181 E0.32537
G1 X19.654 Y129.248 E0.0514
G1 X18.04 Y152.011 E1.06674
G1 X18.032 Y162.108 E0.47202
G1 X18.09 Y162.718 E0.0286
G1 X19.704 Y171.131 E0.40046
G1 X19.917 Y171.818 E0.03364
G1 X22.708 Y178.194 E0.32537
G1 X24.135 Y179.744 E0.09849
G1 X29.309 Y182.533 E0.27477
G1 X30.844 Y182.921 E0.07398
G1 X275.793 Y182.921 E11.45058
M73 P0 R193
G1 X277.328 Y182.533 E0.07399
G1 X282.501 Y179.744 E0.27474
G1 X283.53 Y178.868 E0.06319
G1 X284.16 Y177.401 E0.0746
G1 X284.972 Y172.207 E0.24576
G1 X286.989 Y150.321 E1.02743
G1 X286.975 Y149.381 E0.04396
G1 X284.691 Y124.617 E1.16252
G1 X284.081 Y122.233 E0.11504
G1 X283.675 Y121.335 E0.04607
G1 X282.5 Y120.255 E0.0746
G1 X277.327 Y117.466 E0.27472
G1 X275.793 Y117.079 E0.07396
G1 X30.844 Y117.079 E11.45058
G1 X29.618 Y117.389 E0.05908
G1 E-0.8 F3000
; printing object barge-box.stl id:0 copy 0
G1 X25.912 Y160.583 F9000
G1 E0.8 F1800
;TYPE:Internal perimeter
;WIDTH:0.48
G1 X22.791 Y160.583 E0.13344
G1 X22.791 Y153.765 E0.2915
G1 X27.204 Y153.765 E0.1887
G1 X27.19 Y151.206 E0.10941
G1 X27.155 Y150.655 E0.02361
G1 X27.056 Y150.004 E0.02817
G1 X27.157 Y149.306 E0.03015
G1 X27.187 Y148.697 E0.02606
G1 X27.157 Y148.088 E0.02606
G1 X27.067 Y147.464 E0.02697
G1 X27.157 Y146.757 E0.03048
G1 X27.157 Y146.081 E0.0289
G1 X27.067 Y145.374 E0.03048
G1 X27.157 Y144.749 E0.02697
G1 X27.187 Y144.141 E0.02606
G1 X27.157 Y143.532 E0.02606
G1 X27.057 Y142.838 E0.02997
G1 X27.157 Y142.144 E0.02997
G1 X27.187 Y141.535 E0.02606
G1 X27.157 Y140.926 E0.02606
G1 X27.067 Y140.302 E0.02697
G1 X27.157 Y139.595 E0.03048
G1 X27.157 Y138.919 E0.0289
G1 X27.067 Y138.212 E0.03048
G1 X27.157 Y137.588 E0.02697
G1 X27.187 Y136.979 E0.02606
G1 X27.157 Y136.37 E0.02606
G1 X27.056 Y135.672 E0.03017
G1 X27.157 Y135.012 E0.02855
G1 X27.157 Y134.378 E0.02711
G1 X27.067 Y133.785 E0.02562
G1 X27.157 Y133.076 E0.03059
G1 X27.157 Y132.4 E0.0289
G1 X27.067 Y131.69 E0.03059
G1 X27.157 Y131.098 E0.02562
G1 X27.157 Y130.464 E0.02711
G1 X27.056 Y129.804 E0.02854
G1 X27.157 Y129.103 E0.03026
G1 X27.187 Y128.493 E0.0261
G1 X27.157 Y127.884 E0.0261
G1 X27.067 Y127.257 E0.02705
G1 X27.157 Y126.55 E0.03047
G1 X27.157 Y125.875 E0.0289
G1 X27.067 Y125.167 E0.03048
G1 X27.162 Y124.505 E0.02862
G1 X27.631 Y124.588 E0.02036
G1 X28.182 Y124.616 E0.02356
G1 X28.732 Y124.588 E0.02356
G1 X29.246 Y124.497 E0.02232
G1 X29.859 Y124.589 E0.0265
G1 X30.495 Y124.589 E0.02719
G1 X31.169 Y124.488 E0.02914
G1 X31.796 Y124.587 E0.02713
G1 X32.414 Y124.589 E0.02644
G1 X32.984 Y124.497 E0.02469
G1 X33.551 Y124.589 E0.02456
G1 X34.173 Y124.589 E0.02658
G1 X34.74 Y124.497 E0.02456
G1 X35.31 Y124.589 E0.02469
G1 X35.928 Y124.587 E0.02644
G1 X36.558 Y124.487 E0.02729
G1 X37.189 Y124.587 E0.02728
G1 X37.807 Y124.589 E0.02643
G1 X38.377 Y124.497 E0.02468
G1 X38.943 Y124.589 E0.02456
G1 X39.565 Y124.589 E0.02658
G1 X40.132 Y124.497 E0.02456
G1 X40.702 Y124.589 E0.02469
G1 X41.32 Y124.587 E0.02644
G1 X41.951 Y124.487 E0.02729
G1 X42.581 Y124.587 E0.02729
G1 X43.2 Y124.589 E0.02644
G1 X43.77 Y124.497 E0.02469
G1 X44.337 Y124.589 E0.02456
G1 X44.958 Y124.589 E0.02658
G1 X45.525 Y124.497 E0.02456
G1 X46.095 Y124.589 E0.02469
G1 X46.714 Y124.587 E0.02644
G1 X47.344 Y124.487 E0.02729
G1 X47.974 Y124.587 E0.02729
G1 X48.593 Y124.589 E0.02644
G1 X49.163 Y124.497 E0.02469
G1 X49.73 Y124.589 E0.02456
G1 X50.351 Y124.589 E0.02658
G1 X50.918 Y124.497 E0.02456
G1 X51.488 Y124.589 E0.02469
G1 X52.107 Y124.587 E0.02644
G1 X52.743 Y124.486 E0.02754
G1 X53.321 Y124.586 E0.02508
G1 X53.869 Y124.616 E0.02347
G1 X54.422 Y124.588 E0.02368
G1 X54.943 Y124.496 E0.02261
G1 X55.462 Y124.588 E0.02255
G1 X56.013 Y124.616 E0.02356
G1 X56.563 Y124.588 E0.02356
G1 X57.082 Y124.496 E0.02255
G1 X57.603 Y124.588 E0.02261
G1 X58.156 Y124.616 E0.02368
G1 X58.704 Y124.586 E0.02347
G1 X59.288 Y124.485 E0.02533
G1 X59.872 Y124.586 E0.02533
G1 X60.42 Y124.616 E0.02347
G1 X60.973 Y124.588 E0.02368
G1 X61.494 Y124.496 E0.02261
G1 X62.013 Y124.588 E0.02255
G1 X62.564 Y124.616 E0.02356
G1 X63.114 Y124.588 E0.02356
G1 X63.633 Y124.496 E0.02255
G1 X64.154 Y124.588 E0.02261
G1 X64.707 Y124.616 E0.02368
G1 X65.255 Y124.586 E0.02347
G1 X65.839 Y124.485 E0.02533
G1 X66.423 Y124.586 E0.02533
G1 X66.971 Y124.616 E0.02347
G1 X67.524 Y124.588 E0.02368
G1 X68.045 Y124.496 E0.02261
G1 X68.564 Y124.588 E0.02255
G1 X69.115 Y124.616 E0.02356
G1 X69.665 Y124.588 E0.02356
G1 X70.184 Y124.496 E0.02255
G1 X70.705 Y124.588 E0.02261
G1 X71.258 Y124.616 E0.02368
G1 X71.806 Y124.586 E0.02347
G1 X72.39 Y124.485 E0.02533
G1 X72.974 Y124.586 E0.02533
G1 X73.522 Y124.616 E0.02347
G1 X74.075 Y124.588 E0.02368
G1 X74.596 Y124.496 E0.02261
G1 X75.115 Y124.588 E0.02255
G1 X75.666 Y124.616 E0.02356
G1 X76.216 Y124.588 E0.02356
G1 X76.735 Y124.496 E0.02255
G1 X77.256 Y124.588 E0.02261
G1 X77.809 Y124.616 E0.02368
G1 X78.357 Y124.586 E0.02347
G1 X78.941 Y124.485 E0.02533
G1 X79.525 Y124.586 E0.02533
G1 X80.073 Y124.616 E0.02347
G1 X80.626 Y124.588 E0.02368
G1 X81.147 Y124.496 E0.02261
G1 X81.666 Y124.588 E0.02255
G1 X82.217 Y124.616 E0.02356
G1 X82.767 Y124.588 E0.02356
G1 X83.286 Y124.496 E0.02255
G1 X83.807 Y124.588 E0.02261
G1 X84.36 Y124.616 E0.02368
G1 X84.908 Y124.586 E0.02347
G1 X85.492 Y124.485 E0.02533
G1 X86.076 Y124.586 E0.02533
G1 X86.624 Y124.616 E0.02347
G1 X87.177 Y124.588 E0.02368
G1 X87.698 Y124.496 E0.02261
G1 X88.217 Y124.588 E0.02255
G1 X88.768 Y124.616 E0.02357
G1 X89.318 Y124.588 E0.02356
G1 X89.837 Y124.496 E0.02255
G1 X90.358 Y124.588 E0.02261
G1 X90.911 Y124.616 E0.02368
G1 X91.46 Y124.586 E0.02347
G1 X92.043 Y124.485 E0.02533
G1 X92.627 Y124.586 E0.02533
G1 X93.175 Y124.616 E0.02347
G1 X93.728 Y124.588 E0.02368
G1 X94.249 Y124.496 E0.02261
G1 X94.768 Y124.588 E0.02255
G1 X95.319 Y124.616 E0.02356
G1 X95.869 Y124.588 E0.02356
G1 X96.388 Y124.496 E0.02255
G1 X96.909 Y124.588 E0.02261
G1 X97.462 Y124.616 E0.02368
G1 X98.011 Y124.586 E0.02347
G1 X98.594 Y124.485 E0.02533
G1 X99.178 Y124.586 E0.02533
G1 X99.726 Y124.616 E0.02347
G1 X100.279 Y124.588 E0.02368
G1 X100.8 Y124.496 E0.02261
G1 X101.319 Y124.588 E0.02255
G1 X101.87 Y124.616 E0.02356
G1 X102.42 Y124.588 E0.02356
G1 X102.939 Y124.496 E0.02255
G1 X103.46 Y124.588 E0.02261
G1 X104.013 Y124.616 E0.02368
G1 X104.562 Y124.586 E0.02347
G1 X105.145 Y124.485 E0.02533
G1 X105.729 Y124.586 E0.02533
G1 X106.277 Y124.616 E0.02347
G1 X106.83 Y124.588 E0.02368
G1 X107.351 Y124.496 E0.02261
G1 X107.87 Y124.588 E0.02255
G1 X108.421 Y124.616 E0.02356
G1 X108.971 Y124.588 E0.02356
G1 X109.49 Y124.496 E0.02255
G1 X110.011 Y124.588 E0.02261
G1 X110.564 Y124.616 E0.02368
G1 X111.113 Y124.586 E0.02347
G1 X111.696 Y124.485 E0.02533
G1 X112.28 Y124.586 E0.02533
G1 X112.828 Y124.616 E0.02347
G1 X113.381 Y124.588 E0.02368
G1 X113.902 Y124.496 E0.02261
G1 X114.421 Y124.588 E0.02255
G1 X114.972 Y124.616 E0.02356
G1 X115.522 Y124.588 E0.02356
G1 X116.041 Y124.496 E0.02255
G1 X116.562 Y124.588 E0.02261
G1 X117.115 Y124.616 E0.02368
G1 X117.664 Y124.586 E0.02347
G1 X118.247 Y124.485 E0.02533
G1 X118.831 Y124.586 E0.02533
G1 X119.379 Y124.616 E0.02347
G1 X119.932 Y124.588 E0.02368
G1 X120.453 Y124.496 E0.02261
G1 X120.972 Y124.588 E0.02255
G1 X121.523 Y124.616 E0.02356
G1 X122.073 Y124.588 E0.02356
G1 X122.592 Y124.496 E0.02255
G1 X123.113 Y124.588 E0.02261
G1 X123.666 Y124.616 E0.02368
G1 X124.215 Y124.586 E0.02347
G1 X124.798 Y124.485 E0.02533
G1 X125.382 Y124.586 E0.02533
G1 X125.93 Y124.616 E0.02347
G1 X126.483 Y124.588 E0.02368
G1 X127.004 Y124.496 E0.02261
G1 X127.523 Y124.588 E0.02255
G1 X128.074 Y124.616 E0.02356
G1 X128.624 Y124.588 E0.02356
G1 X129.143 Y124.496 E0.02255
G1 X129.664 Y124.588 E0.02261
G1 X130.217 Y124.616 E0.02368
G1 X130.766 Y124.586 E0.02347
G1 X131.349 Y124.485 E0.02533
G1 X131.933 Y124.586 E0.02533
G1 X132.481 Y124.616 E0.02347
G1 X133.034 Y124.588 E0.02368
G1 X133.555 Y124.496 E0.02261
G1 X134.074 Y124.588 E0.02255
G1 X134.625 Y124.616 E0.02356
G1 X135.175 Y124.588 E0.02356
G1 X135.694 Y124.496 E0.02255
G1 X136.215 Y124.588 E0.02261
G1 X136.768 Y124.616 E0.02368
G1 X137.317 Y124.586 E0.02347
G1 X137.9 Y124.485 E0.02533
G1 X138.484 Y124.586 E0.02533
G1 X139.032 Y124.616 E0.02347
G1 X139.585 Y124.588 E0.02368
G1 X140.106 Y124.496 E0.02261
G1 X140.625 Y124.588 E0.02255
G1 X141.176 Y124.616 E0.02356
G1 X141.726 Y124.588 E0.02356
G1 X142.245 Y124.496 E0.02255
G1 X142.766 Y124.588 E0.02261
G1 X143.319 Y124.616 E0.02368
G1 X143.868 Y124.586 E0.02347
G1 X144.451 Y124.485 E0.02533
G1 X145.035 Y124.586 E0.02533
G1 X145.583 Y124.616 E0.02347
G1 X146.136 Y124.588 E0.02368
G1 X146.657 Y124.496 E0.02261
G1 X147.176 Y124.588 E0.02255
G1 X147.727 Y124.616 E0.02356
G1 X148.277 Y124.588 E0.02356
G1 X148.796 Y124.496 E0.02255
G1 X149.317 Y124.588 E0.02261
G1 X149.87 Y124.616 E0.02368
G1 X150.419 Y124.586 E0.02347
G1 X151.002 Y124.485 E0.02533
G1 X151.586 Y124.586 E0.02533
G1 X152.134 Y124.616 E0.02347
G1 X152.687 Y124.588 E0.02368
G1 X153.208 Y124.496 E0.02261
G1 X153.727 Y124.588 E0.02255
G1 X154.278 Y124.616 E0.02356
G1 X154.828 Y124.588 E0.02356
G1 X155.348 Y124.496 E0.02255
G1 X155.868 Y124.588 E0.02261
G1 X156.421 Y124.616 E0.02368
G1 X156.97 Y124.586 E0.02347
G1 X157.553 Y124.485 E0.02533
G1 X158.137 Y124.586 E0.02533
G1 X158.685 Y124.616 E0.02347
G1 X159.238 Y124.588 E0.02368
G1 X159.759 Y124.496 E0.02261
G1 X160.278 Y124.588 E0.02255
G1 X160.829 Y124.616 E0.02356
G1 X161.379 Y124.588 E0.02356
G1 X161.899 Y124.496 E0.02255
G1 X162.419 Y124.588 E0.02261
G1 X162.972 Y124.616 E0.02368
G1 X163.521 Y124.586 E0.02347
G1 X164.104 Y124.485 E0.02533
G1 X164.688 Y124.586 E0.02533
G1 X165.236 Y124.616 E0.02347
G1 X165.789 Y124.588 E0.02368
G1 X166.31 Y124.496 E0.02261
G1 X166.829 Y124.588 E0.02255
G1 X167.38 Y124.616 E0.02356
G1 X167.93 Y124.588 E0.02356
G1 X168.45 Y124.496 E0.02255
G1 X168.97 Y124.588 E0.02261
G1 X169.523 Y124.616 E0.02368
G1 X170.072 Y124.586 E0.02347
G1 X170.655 Y124.485 E0.02533
G1 X171.239 Y124.586 E0.02533
G1 X171.787 Y124.616 E0.02347
G1 X172.34 Y124.588 E0.02368
G1 X172.861 Y124.496 E0.02261
G1 X173.38 Y124.588 E0.02255
G1 X173.931 Y124.616 E0.02356
G1 X174.481 Y124.588 E0.02356
G1 X175.001 Y124.496 E0.02255
G1 X175.521 Y124.588 E0.02261
G1 X176.075 Y124.616 E0.02368
G1 X176.623 Y124.586 E0.02347
G1 X177.206 Y124.485 E0.02533
G1 X177.79 Y124.586 E0.02533
G1 X178.338 Y124.616 E0.02347
G1 X178.891 Y124.588 E0.02368
G1 X179.412 Y124.496 E0.02261
G1 X179.931 Y124.588 E0.02255
G1 X180.482 Y124.616 E0.02356
G1 X181.032 Y124.588 E0.02356
G1 X181.552 Y124.496 E0.02255
G1 X182.072 Y124.588 E0.02261
G1 X182.626 Y124.616 E0.02368
G1 X183.174 Y124.586 E0.02347
G1 X183.757 Y124.485 E0.02533
G1 X184.341 Y124.586 E0.02533
G1 X184.889 Y124.616 E0.02347
G1 X185.442 Y124.588 E0.02368
G1 X185.963 Y124.496 E0.02261
G1 X186.482 Y124.588 E0.02255
G1 X187.033 Y124.616 E0.02356
G1 X187.583 Y124.588 E0.02356
G1 X188.103 Y124.496 E0.02255
G1 X188.623 Y124.588 E0.02261
G1 X189.177 Y124.616 E0.02368
G1 X189.725 Y124.586 E0.02347
G1 X190.308 Y124.485 E0.02533
G1 X190.892 Y124.586 E0.02533
G1 X191.44 Y124.616 E0.02347
G1 X191.993 Y124.588 E0.02368
G1 X192.514 Y124.496 E0.02261
G1 X193.033 Y124.588 E0.02255
G1 X193.584 Y124.616 E0.02356
G1 X194.134 Y124.588 E0.02356
G1 X194.654 Y124.496 E0.02255
G1 X195.174 Y124.588 E0.02261
G1 X195.728 Y124.616 E0.02368
G1 X196.276 Y124.586 E0.02347
G1 X196.859 Y124.485 E0.02533
G1 X197.443 Y124.586 E0.02533
G1 X197.991 Y124.616 E0.02347
G1 X198.544 Y124.588 E0.02368
G1 X199.065 Y124.496 E0.02261
G1 X199.584 Y124.588 E0.02255
G1 X200.135 Y124.616 E0.02356
G1 X200.685 Y124.588 E0.02356
G1 X201.205 Y124.496 E0.02255
G1 X201.725 Y124.588 E0.02261
G1 X202.279 Y124.616 E0.02368
G1 X202.827 Y124.586 E0.02347
G1 X203.41 Y124.485 E0.02533
G1 X203.994 Y124.586 E0.02533
G1 X204.542 Y124.616 E0.02347
G1 X205.095 Y124.588 E0.02368
G1 X205.616 Y124.496 E0.02261
G1 X206.135 Y124.588 E0.02255
G1 X206.686 Y124.616 E0.02356
G1 X207.236 Y124.588 E0.02356
G1 X207.756 Y124.496 E0.02255
G1 X208.276 Y124.588 E0.02261
G1 X208.83 Y124.616 E0.02368
G1 X209.378 Y124.586 E0.02347
G1 X209.961 Y124.485 E0.02533
G1 X210.545 Y124.586 E0.02533
G1 X211.093 Y124.616 E0.02347
G1 X211.646 Y124.588 E0.02368
G1 X212.167 Y124.496 E0.02261
G1 X212.686 Y124.588 E0.02255
G1 X213.237 Y124.616 E0.02356
G1 X213.787 Y124.588 E0.02356
G1 X214.307 Y124.496 E0.02255
G1 X214.827 Y124.588 E0.02261
G1 X215.381 Y124.616 E0.02368
G1 X215.929 Y124.586 E0.02347
G1 X216.512 Y124.485 E0.02533
G1 X217.096 Y124.586 E0.02533
G1 X217.644 Y124.616 E0.02347
G1 X218.197 Y124.588 E0.02368
G1 X218.718 Y124.496 E0.02261
G1 X219.237 Y124.588 E0.02255
G1 X219.788 Y124.616 E0.02356
G1 X220.338 Y124.588 E0.02356
G1 X220.858 Y124.496 E0.02255
G1 X221.378 Y124.588 E0.02261
G1 X221.932 Y124.616 E0.02368
G1 X222.48 Y124.586 E0.02347
G1 X223.063 Y124.485 E0.02533
G1 X223.647 Y124.586 E0.02533
G1 X224.195 Y124.616 E0.02347
G1 X224.748 Y124.588 E0.02368
G1 X225.269 Y124.496 E0.02261
G1 X225.788 Y124.588 E0.02255
G1 X226.339 Y124.616 E0.02356
G1 X226.889 Y124.588 E0.02356
G1 X227.409 Y124.496 E0.02255
G1 X227.929 Y124.588 E0.02261
G1 X228.483 Y124.616 E0.02368
G1 X229.031 Y124.586 E0.02347
G1 X229.614 Y124.485 E0.02533
G1 X230.198 Y124.586 E0.02533
G1 X230.746 Y124.616 E0.02347
G1 X231.299 Y124.588 E0.02368
G1 X231.82 Y124.496 E0.02261
G1 X232.339 Y124.588 E0.02255
G1 X232.89 Y124.616 E0.02356
G1 X233.44 Y124.588 E0.02356
G1 X233.96 Y124.496 E0.02255
G1 X234.48 Y124.588 E0.02261
G1 X235.034 Y124.616 E0.02368
G1 X235.582 Y124.586 E0.02347
G1 X236.165 Y124.485 E0.02533
G1 X236.749 Y124.586 E0.02533
G1 X237.297 Y124.616 E0.02347
G1 X237.85 Y124.588 E0.02368
G1 X238.371 Y124.496 E0.02261
G1 X238.891 Y124.588 E0.02255
G1 X239.441 Y124.616 E0.02356
G1 X239.991 Y124.588 E0.02356
G1 X240.511 Y124.496 E0.02255
G1 X241.031 Y124.588 E0.02261
G1 X241.585 Y124.616 E0.02368
G1 X242.133 Y124.586 E0.02347
G1 X242.716 Y124.485 E0.02533
G1 X243.3 Y124.586 E0.02533
