; generated by SuperSlicer 2.3.57 on 2022-03-19 at 21:33:32 UTC


;
;

;
;
; 

; external perimeters extrusion width = 0.40mm
; perimeters extrusion width = 0.45mm
; infill extrusion width = 0.72mm
; solid infill extrusion width = 0.56mm
; top infill extrusion width = 0.40mm
; support material extrusion width = 0.42mm
; first layer extrusion width = 0.48mm

; external perimeters extrusion width = 0.40mm
; perimeters extrusion width = 0.45mm
; infill extrusion width = 0.72mm
; solid infill extrusion width = 0.56mm
; top infill extrusion width = 0.56mm
; support material extrusion width = 0.42mm
; first layer extrusion width = 0.48mm

; object:{"name":"Dude Chilling Park","id":"Dude Chilling Park.STL id:0 copy 0","object_center":[165.000000,165.000000,0.000000],"boundingbox_center":[165.000000,165.000000,8.819999],"boundingbox_size":[109.952072,60.043610,17.639997]}
; plater:{"center":[165.000000,165.000000,0.000000],"boundingbox_center":[165.000000,165.000000,8.819999],"boundingbox_size":[109.952072,60.043610,17.639997]}

;TYPE:Custom
START_PRINT T_BED=60 T_EXTRUDER=200
M107
G21 ; set units to millimeters
G90 ; use absolute coordinates
M83 ; use relative distances for extrusion
; Filament gcode
M109 S200 ; set temperature and wait for it to be reached
M190 S60 ; set bed temperature and wait for it to be reached
;LAYER_CHANGE
;Z:0.24
;HEIGHT:0.24
G1 Z0.24 F9000
G1 E-0.8 F3000
G1 X102.716 Y132.172 F9000
G1 E0.8 F1800
; External perimeter
;Skirt
SET_VELOCITY_LIMIT ACCEL=300 ACCEL_TO_DECEL=3000 SQUARE_CORNER_VELOCITY=5

; Support material

;TYPE:Skirt
;WIDTH:0.48
G1 X102.016 Y132.926 E0.044
G1 X101.554 Y133.851 E0.0442
G1 X101.37 Y134.864 E0.044
G1 X101.368 Y181.698 E2.00243
G1 X101.442 Y182.405 E0.03039
G1 X101.652 Y183.085 E0.03039
G1 X102.032 Y183.772 E0.0336
G1 X102.548 Y184.359 E0.0334
G1 X103.181 Y184.825 E0.0336
G1 X103.899 Y185.144 E0.0336
G1 X148.655 Y198.35 E1.99514
G1 X149.828 Y198.528 E0.05073
G1 X180.231 Y198.52 E1.29988
G1 X180.855 Y198.465 E0.02678
G1 X226.397 Y185.035 E2.03006
G1 X227.277 Y184.51 E0.0438
G1 X227.976 Y183.761 E0.0438
G1 X228.44 Y182.843 E0.044
G1 X228.629 Y181.836 E0.0438
G1 X228.631 Y134.904 E2.00659
G1 X228.545 Y134.208 E0.02999
G1 X228.327 Y133.541 E0.02999
G1 X227.985 Y132.928 E0.02999
G1 X227.532 Y132.392 E0.02999
G1 X226.985 Y131.953 E0.02999
G1 X226.364 Y131.627 E0.02999
G1 X225.692 Y131.426 E0.02999
G1 X224.994 Y131.358 E0.02999
G1 X105.004 Y131.358 E5.13025
G1 X104.292 Y131.43 E0.03059
G1 X103.603 Y131.641 E0.03079
G1 X102.767 Y132.141 E0.04164
G1 X102.991 Y132.5 F9000
G1 F1800
G1 X102.369 Y133.169 E0.03907
G1 X101.959 Y133.99 E0.03926
G1 X101.798 Y134.89 E0.03907
G1 X101.796 Y181.692 E2.00104
G1 X101.86 Y182.312 E0.02666
G1 X102.042 Y182.908 E0.02666
G1 X102.379 Y183.52 E0.02986
G1 X102.839 Y184.045 E0.02986
G1 X103.399 Y184.456 E0.02967
G1 X104.038 Y184.739 E0.02986
G1 X148.775 Y197.938 E1.9943
G1 X149.841 Y198.099 E0.04606
G1 X180.78 Y198.043 E1.32281
G1 X226.223 Y184.643 E2.02567
G1 X227.005 Y184.179 E0.03888
G1 X227.626 Y183.514 E0.03888
G1 X228.035 Y182.702 E0.03888
G1 X228.201 Y181.804 E0.03907
G1 X228.203 Y134.926 E2.00429
G1 X228.128 Y134.307 E0.02666
G1 X227.937 Y133.718 E0.02647
G1 X227.636 Y133.177 E0.02647
G1 X227.237 Y132.703 E0.02647
G1 X226.751 Y132.312 E0.02666
G1 X226.203 Y132.024 E0.02647
G1 X225.61 Y131.847 E0.02647
G1 X224.994 Y131.786 E0.02647
G1 X105.002 Y131.786 E5.1303
G1 X104.377 Y131.849 E0.02685
G1 X103.777 Y132.033 E0.02685
G1 X103.043 Y132.469 E0.0365
; INIT printing object Dude Chilling Park.STL id:0 copy 0
G1 E-0.8 F3000
; printing object Dude Chilling Park.STL id:0 copy 0
G1 X109.296 Y181.675 F9000
G1 E0.8 F1800
; External perimeter
;SupportMaterial
SET_VELOCITY_LIMIT ACCEL=3000 ACCEL_TO_DECEL=3000 SQUARE_CORNER_VELOCITY=5

; Support material interface

;TYPE:Support material
G1 X109.296 Y135.001 E1.9956
G1 X108.439 Y135.001 E0.03664
G1 X108.439 Y181.491 E1.98772
G1 X107.582 Y181.491 E0.03664
G1 X107.582 Y135.001 E1.98772
G1 X106.725 Y135.001 E0.03664
G1 X106.725 Y181.491 E1.98772
G1 X105.868 Y181.491 E0.03664
G1 X105.868 Y135.001 E1.98772
G1 X105.011 Y135.001 E0.03664
G1 X105.011 Y181.675 E1.9956
G1 E-0.8 F3000
G1 X224.989 Y181.675 F9000
G1 E0.8 F1800
G1 X224.989 Y135.001 E1.9956
G1 X224.132 Y135.001 E0.03664
G1 X224.132 Y181.491 E1.98772
G1 X223.275 Y181.491 E0.03664
G1 X223.275 Y135.001 E1.98772
G1 X222.418 Y135.001 E0.03664
G1 X222.418 Y181.491 E1.98772
G1 X221.561 Y181.491 E0.03664
G1 X221.561 Y135.001 E1.98772
G1 X220.704 Y135.001 E0.03664
G1 X220.704 Y181.675 E1.9956
G1 E-0.8 F3000
G1 X149.893 Y194.217 F9000
G1 E0.8 F1800
; External perimeter
;Perimeter
SET_VELOCITY_LIMIT ACCEL=2000 ACCEL_TO_DECEL=2000 SQUARE_CORNER_VELOCITY=5

; Overhang perimeter

;TYPE:Internal perimeter
G1 X149.884 Y186.702 E0.3213
G1 X149.809 Y186.337 E0.01594
G1 X149.591 Y186.045 E0.01558
G1 X149.312 Y185.865 E0.01419
G1 X149.053 Y185.807 E0.01135
G1 X141.901 Y185.251 E0.30669
G1 X134.242 Y184.429 E0.32938
G1 X126.611 Y183.373 E0.32936
G1 X119.016 Y182.085 E0.32936
G1 X111.49 Y180.572 E0.32822
G1 X111.342 Y180.526 E0.0066
G1 X111.229 Y180.469 E0.00545
G1 X111.126 Y180.393 E0.00545
G1 X111.038 Y180.301 E0.00545
G1 X110.967 Y180.195 E0.00545
G1 X110.914 Y180.079 E0.00545
G1 X110.882 Y179.955 E0.00545
G1 X110.869 Y179.796 E0.00685
G1 X110.869 Y136.608 E1.84649
G1 X110.88 Y136.46 E0.00635
G1 X110.908 Y136.346 E0.00505
G1 X110.953 Y136.236 E0.00505
G1 X111.015 Y136.136 E0.00505
G1 X111.092 Y136.046 E0.00505
G1 X111.181 Y135.969 E0.00505
G1 X111.282 Y135.907 E0.00505
G1 X111.391 Y135.862 E0.00505
G1 X111.506 Y135.835 E0.00505
G1 X111.654 Y135.823 E0.00635
G1 X218.346 Y135.823 E4.56165
G1 X218.494 Y135.835 E0.00635
G1 X218.609 Y135.862 E0.00505
G1 X218.718 Y135.907 E0.00505
G1 X218.819 Y135.969 E0.00505
G1 X218.908 Y136.046 E0.00505
G1 X218.985 Y136.136 E0.00505
G1 X219.047 Y136.236 E0.00505
G1 X219.092 Y136.346 E0.00505
G1 X219.12 Y136.46 E0.00505
G1 X219.131 Y136.608 E0.00635
G1 X219.131 Y179.796 E1.84649
G1 X219.118 Y179.955 E0.00685
G1 X219.086 Y180.079 E0.00545
G1 X219.033 Y180.195 E0.00545
G1 X218.962 Y180.301 E0.00545
G1 X218.874 Y180.393 E0.00545
G1 X218.771 Y180.469 E0.00545
G1 X218.658 Y180.526 E0.00545
G1 X218.51 Y180.572 E0.0066
G1 X210.984 Y182.085 E0.32822
G1 X203.389 Y183.373 E0.32936
G1 X195.758 Y184.429 E0.32936
G1 X188.099 Y185.251 E0.32938
G1 X180.949 Y185.806 E0.3066
G1 X180.69 Y185.864 E0.01135
G1 X180.415 Y186.041 E0.014
G1 X180.208 Y186.306 E0.01434
G1 X180.116 Y186.691 E0.01694
G1 X180.107 Y194.208 E0.32141
G1 X149.953 Y194.217 E1.28923
G1 X149.54 Y194.469 F9000
; External perimeter
;ExternalPerimeter
SET_VELOCITY_LIMIT ACCEL=1000 ACCEL_TO_DECEL=1000 SQUARE_CORNER_VELOCITY=5

; Perimeter

;TYPE:External perimeter
G1 F1800
G1 X149.476 Y194.343 E0.00603
G1 X149.465 Y194.297 E0.00203
G1 X149.456 Y186.746 E0.32285
G1 X149.408 Y186.517 E0.01001
G1 X149.294 Y186.363 E0.00818
G1 X149.144 Y186.267 E0.00764
G1 X148.989 Y186.231 E0.0068
G1 X141.862 Y185.678 E0.30563
G1 X134.189 Y184.854 E0.32993
G1 X126.546 Y183.797 E0.32992
G1 X118.938 Y182.507 E0.32992
G1 X111.384 Y180.988 E0.32941
G1 X111.182 Y180.925 E0.00907
G1 X111.003 Y180.835 E0.00857
G1 X110.842 Y180.715 E0.00857
G1 X110.703 Y180.571 E0.00857
G1 X110.591 Y180.405 E0.00857
G1 X110.509 Y180.222 E0.00857
G1 X110.458 Y180.028 E0.00857
G1 X110.44 Y179.814 E0.00919
G1 X110.44 Y136.592 E1.84799
G1 X110.456 Y136.393 E0.00851
G1 X110.499 Y136.213 E0.00794
G1 X110.57 Y136.041 E0.00794
G1 X110.667 Y135.883 E0.00794
G1 X110.788 Y135.742 E0.00793
G1 X110.929 Y135.621 E0.00794
G1 X111.087 Y135.524 E0.00794
G1 X111.258 Y135.453 E0.00794
G1 X111.439 Y135.41 E0.00794
G1 X111.637 Y135.394 E0.00851
G1 X218.363 Y135.394 E4.56309
G1 X218.561 Y135.41 E0.00851
G1 X218.742 Y135.453 E0.00794
G1 X218.913 Y135.524 E0.00793
G1 X219.071 Y135.621 E0.00794
G1 X219.212 Y135.742 E0.00794
G1 X219.333 Y135.883 E0.00794
G1 X219.43 Y136.041 E0.00794
G1 X219.501 Y136.213 E0.00794
G1 X219.544 Y136.393 E0.00794
G1 X219.56 Y136.592 E0.00851
G1 X219.56 Y179.814 E1.84799
G1 X219.542 Y180.028 E0.00919
G1 X219.491 Y180.222 E0.00857
G1 X219.409 Y180.405 E0.00857
G1 X219.297 Y180.571 E0.00857
G1 X219.158 Y180.715 E0.00857
G1 X218.997 Y180.835 E0.00857
G1 X218.818 Y180.925 E0.00857
G1 X218.616 Y180.988 E0.00907
G1 X211.062 Y182.507 E0.32941
G1 X203.454 Y183.797 E0.32992
G1 X195.811 Y184.854 E0.32992
G1 X188.138 Y185.678 E0.32993
G1 X181.012 Y186.231 E0.30559
G1 X180.857 Y186.265 E0.00678
G1 X180.708 Y186.362 E0.0076
G1 X180.603 Y186.496 E0.00727
G1 X180.544 Y186.742 E0.01081
G1 X180.535 Y194.287 E0.32261
G1 X180.494 Y194.413 E0.00563
G1 X180.417 Y194.519 E0.00562
G1 X180.311 Y194.596 E0.00562
G1 X180.186 Y194.637 E0.00562
G1 X149.903 Y194.645 E1.29477
G1 X149.75 Y194.621 E0.00661
G1 X149.633 Y194.562 E0.00561
G1 X149.582 Y194.511 E0.00306
;WIPE_START
G1 X149.604 Y194.343 F9000
;WIPE_END
G1 X218.385 Y135.899
; External perimeter
;SolidInfill
SET_VELOCITY_LIMIT ACCEL=2000 ACCEL_TO_DECEL=2000 SQUARE_CORNER_VELOCITY=5

; Bridge infill

;TYPE:Solid infill
;WIDTH:0.477989
G1 F2400
G1 X218.794 Y136.308 E0.02466
G1 X218.852 Y136.422 E0.00544
G1 X218.883 Y136.627 E0.00881
G1 X218.883 Y137.003 E0.01601
G1 X217.963 Y136.083 E0.05539
G1 X217.357 Y136.083 E0.0258
G1 X218.883 Y137.609 E0.09188
G1 X218.883 Y138.215 E0.0258
G1 X216.751 Y136.083 E0.12837
G1 X216.145 Y136.083 E0.0258
G1 X218.883 Y138.821 E0.16487
G1 X218.883 Y139.427 E0.0258
G1 X215.539 Y136.083 E0.20136
G1 X214.933 Y136.083 E0.0258
G1 X218.883 Y140.033 E0.23785
G1 X218.883 Y140.639 E0.0258
G1 X214.327 Y136.083 E0.27434
G1 X213.721 Y136.082 E0.0258
G1 X218.883 Y141.245 E0.31083
G1 X218.883 Y141.851 E0.0258
G1 X213.115 Y136.082 E0.34732
G1 X212.508 Y136.082 E0.0258
G1 X218.883 Y142.457 E0.38381
G1 X218.883 Y143.063 E0.0258
G1 X211.902 Y136.082 E0.42031
G1 X211.296 Y136.082 E0.0258
G1 X218.883 Y143.669 E0.4568
G1 X218.883 Y144.275 E0.0258
G1 X210.69 Y136.082 E0.49329
G1 X210.084 Y136.082 E0.0258
G1 X218.883 Y144.881 E0.52978
G1 X218.883 Y145.487 E0.0258
G1 X209.478 Y136.082 E0.56627
G1 X208.872 Y136.082 E0.0258
G1 X218.883 Y146.093 E0.60276
G1 X218.883 Y146.699 E0.0258
G1 X208.266 Y136.082 E0.63926
G1 X207.66 Y136.082 E0.0258
G1 X218.883 Y147.305 E0.67575
G1 X218.883 Y147.911 E0.0258
G1 X207.054 Y136.082 E0.71224
G1 X206.448 Y136.082 E0.0258
G1 X218.883 Y148.517 E0.74873
G1 X218.883 Y149.123 E0.0258
G1 X205.842 Y136.082 E0.78522
G1 X205.236 Y136.082 E0.0258
G1 X218.883 Y149.729 E0.82171
G1 X218.883 Y150.335 E0.0258
G1 X204.63 Y136.082 E0.8582
G1 X204.024 Y136.081 E0.0258
G1 X218.883 Y150.941 E0.8947
G1 X218.883 Y151.547 E0.0258
G1 X203.418 Y136.081 E0.93119
G1 X202.812 Y136.081 E0.0258
G1 X218.883 Y152.152 E0.96768
G1 X218.883 Y152.758 E0.0258
G1 X202.206 Y136.081 E1.00417
G1 X201.6 Y136.081 E0.0258
G1 X218.883 Y153.364 E1.04066
G1 X218.883 Y153.97 E0.0258
G1 X200.994 Y136.081 E1.07715
G1 X200.387 Y136.081 E0.0258
G1 X218.883 Y154.576 E1.11364
G1 X218.883 Y155.182 E0.0258
G1 X199.781 Y136.081 E1.15014
G1 X199.175 Y136.081 E0.0258
G1 X218.883 Y155.788 E1.18663
G1 X218.883 Y156.394 E0.0258
G1 X198.569 Y136.081 E1.22312
G1 X197.963 Y136.081 E0.0258
G1 X218.883 Y157 E1.25961
G1 X218.883 Y157.606 E0.0258
G1 X197.357 Y136.081 E1.2961
G1 X196.751 Y136.081 E0.0258
G1 X218.883 Y158.212 E1.33259
G1 X218.883 Y158.818 E0.0258
G1 X196.145 Y136.081 E1.36908
G1 X195.539 Y136.081 E0.0258
G1 X218.883 Y159.424 E1.40558
G1 X218.883 Y160.03 E0.0258
G1 X194.933 Y136.08 E1.44207
G1 X194.327 Y136.08 E0.0258
G1 X218.883 Y160.636 E1.47856
G1 X218.883 Y161.242 E0.0258
G1 X193.721 Y136.08 E1.51505
G1 X193.115 Y136.08 E0.0258
G1 X218.883 Y161.848 E1.55154
G1 X218.883 Y162.454 E0.0258
G1 X192.509 Y136.08 E1.58803
G1 X191.903 Y136.08 E0.0258
G1 X218.883 Y163.06 E1.62452
G1 X218.883 Y163.666 E0.0258
G1 X191.297 Y136.08 E1.66102
G1 X190.691 Y136.08 E0.0258
G1 X218.883 Y164.272 E1.69751
G1 X218.883 Y164.878 E0.0258
G1 X190.085 Y136.08 E1.734
G1 X189.479 Y136.08 E0.0258
G1 X218.883 Y165.484 E1.77049
G1 X218.883 Y166.09 E0.0258
G1 X188.873 Y136.08 E1.80698
G1 X188.266 Y136.08 E0.0258
G1 X218.883 Y166.696 E1.84347
G1 X218.883 Y167.302 E0.0258
G1 X187.66 Y136.08 E1.87996
G1 X187.054 Y136.08 E0.0258
G1 X218.883 Y167.908 E1.91646
G1 X218.883 Y168.514 E0.0258
G1 X186.448 Y136.08 E1.95295
G1 X185.842 Y136.079 E0.0258
G1 X218.883 Y169.12 E1.98944
G1 X218.883 Y169.726 E0.0258
G1 X185.236 Y136.079 E2.02593
G1 X184.63 Y136.079 E0.0258
G1 X218.883 Y170.332 E2.06242
G1 X218.883 Y170.938 E0.0258
G1 X184.024 Y136.079 E2.09891
G1 X183.418 Y136.079 E0.0258
G1 X218.883 Y171.544 E2.1354
G1 X218.883 Y172.15 E0.0258
G1 X182.812 Y136.079 E2.1719
G1 X182.206 Y136.079 E0.0258
G1 X218.883 Y172.756 E2.20839
G1 X218.883 Y173.362 E0.0258
G1 X181.6 Y136.079 E2.24488
G1 X180.994 Y136.079 E0.0258
G1 X218.883 Y173.968 E2.28137
G1 X218.883 Y174.574 E0.0258
G1 X180.388 Y136.079 E2.31786
G1 X179.782 Y136.079 E0.0258
G1 X218.883 Y175.18 E2.35435
G1 X218.883 Y175.786 E0.0258
G1 X179.176 Y136.079 E2.39084
G1 X178.57 Y136.079 E0.0258
G1 X218.883 Y176.392 E2.42734
G1 X218.883 Y176.998 E0.0258
G1 X177.964 Y136.079 E2.46383
G1 X177.358 Y136.079 E0.0258
G1 X218.883 Y177.604 E2.50032
G1 X218.883 Y178.21 E0.0258
G1 X176.752 Y136.078 E2.53681
G1 X176.146 Y136.078 E0.0258
G1 X218.883 Y178.816 E2.5733
G1 X218.883 Y179.422 E0.0258
G1 X175.539 Y136.078 E2.60979
G1 X174.933 Y136.078 E0.0258
G1 X218.843 Y179.988 E2.64388
G1 X218.813 Y180.072 E0.00381
G1 X218.707 Y180.204 E0.00719
G1 X218.549 Y180.3 E0.00788
G1 X174.327 Y136.078 E2.66267
G1 X173.721 Y136.078 E0.0258
G1 X218.053 Y180.41 E2.66932
G1 X217.549 Y180.512 E0.02191
G1 X173.115 Y136.078 E2.67543
G1 X172.509 Y136.078 E0.0258
G1 X217.044 Y180.613 E2.68154
G1 X216.54 Y180.715 E0.02191
G1 X171.903 Y136.078 E2.68766
G1 X171.297 Y136.078 E0.0258
G1 X216.035 Y180.816 E2.69377
G1 X215.531 Y180.917 E0.02191
G1 X170.691 Y136.078 E2.69989
G1 X170.085 Y136.078 E0.0258
G1 X215.026 Y181.019 E2.706
G1 X214.522 Y181.12 E0.02191
G1 X169.479 Y136.078 E2.71211
G1 X168.873 Y136.078 E0.0258
G1 X214.017 Y181.222 E2.71823
G1 X213.513 Y181.323 E0.02191
G1 X168.267 Y136.078 E2.72434
G1 X167.661 Y136.077 E0.0258
G1 X213.008 Y181.425 E2.73046
G1 X212.504 Y181.526 E0.02191
G1 X167.055 Y136.077 E2.73657
G1 X166.449 Y136.077 E0.0258
G1 X211.999 Y181.628 E2.74268
G1 X211.495 Y181.729 E0.02191
G1 X165.843 Y136.077 E2.7488
G1 X165.237 Y136.077 E0.0258
G1 X210.99 Y181.831 E2.75491
G1 X210.939 Y181.841 E0.00223
G1 X210.473 Y181.92 E0.0201
G1 X164.631 Y136.077 E2.76029
G1 X164.025 Y136.077 E0.0258
G1 X209.955 Y182.008 E2.76558
G1 X209.437 Y182.096 E0.02237
G1 X163.418 Y136.077 E2.77088
G1 X162.812 Y136.077 E0.0258
G1 X208.919 Y182.184 E2.77617
G1 X208.401 Y182.271 E0.02237
G1 X162.206 Y136.077 E2.78147
G1 X161.6 Y136.077 E0.0258
G1 X207.883 Y182.359 E2.78676
G1 X207.365 Y182.447 E0.02237
G1 X160.994 Y136.077 E2.79205
G1 X160.388 Y136.077 E0.0258
G1 X206.847 Y182.535 E2.79735
G1 X206.328 Y182.623 E0.02237
G1 X159.782 Y136.077 E2.80264
G1 X159.176 Y136.077 E0.0258
G1 X205.81 Y182.711 E2.80794
G1 X205.292 Y182.799 E0.02237
G1 X158.57 Y136.076 E2.81323
G1 X157.964 Y136.076 E0.0258
G1 X204.774 Y182.886 E2.81852
G1 X204.256 Y182.974 E0.02237
G1 X157.358 Y136.076 E2.82382
G1 X156.752 Y136.076 E0.0258
G1 X203.738 Y183.062 E2.82911
G1 X203.351 Y183.128 E0.01669
G1 X203.216 Y183.146 E0.00582
G1 X156.146 Y136.076 E2.83419
G1 X155.54 Y136.076 E0.0258
G1 X202.684 Y183.22 E2.83862
G1 X202.151 Y183.294 E0.02288
G1 X154.934 Y136.076 E2.84306
G1 X154.328 Y136.076 E0.0258
G1 X201.619 Y183.367 E2.8475
G1 X201.087 Y183.441 E0.02288
G1 X153.722 Y136.076 E2.85194
G1 X153.116 Y136.076 E0.0258
G1 X200.554 Y183.515 E2.85637
G1 X200.022 Y183.588 E0.02288
G1 X152.51 Y136.076 E2.86081
G1 X151.904 Y136.076 E0.0258
G1 X199.49 Y183.662 E2.86525
G1 X198.957 Y183.735 E0.02288
G1 X151.297 Y136.076 E2.86969
G1 X150.691 Y136.076 E0.0258
G1 X198.425 Y183.809 E2.87412
G1 X197.893 Y183.883 E0.02288
G1 X150.085 Y136.076 E2.87856
G1 X149.479 Y136.075 E0.0258
G1 X197.36 Y183.956 E2.883
G1 X196.828 Y184.03 E0.02288
G1 X148.873 Y136.075 E2.88744
G1 X148.267 Y136.075 E0.0258
