; generated by SuperSlicer 2.3.57 on 2022-01-15 at 21:47:06 UTC


;
;

;
;
; 

; external perimeters extrusion width = 0.40mm
; perimeters extrusion width = 0.40mm
; infill extrusion width = 0.40mm
; solid infill extrusion width = 0.40mm
; top infill extrusion width = 0.40mm
; first layer extrusion width = 0.48mm


;TYPE:Custom
START_PRINT T_BED=60 T_EXTRUDER=200
M107
G21 ; set units to millimeters
G90 ; use absolute coordinates
M83 ; use relative distances for extrusion
; Filament gcode
M109 S200 ; set temperature and wait for it to be reached
M190 S60 ; set bed temperature and wait for it to be reached
;LAYER_CHANGE
;Z:0.24
;HEIGHT:0.24
G1 Z0.24 F9000
G1 E-0.6 F3000
M204 S1000
G1 X112.878 Y110.945 F9000
G1 E0.6 F1800
;TYPE:Skirt
;WIDTH:0.48
G1 F900
G1 X110.613 Y113.385 E0.14234
G1 X108.599 Y115.83 E0.13543
G1 X106.531 Y118.664 E0.14999
G1 X104.748 Y121.455 E0.14159
G1 X103.199 Y124.228 E0.13582
G1 X101.613 Y127.523 E0.15638
G1 X100.415 Y130.453 E0.13532
G1 X99.341 Y133.598 E0.14209
G1 X98.457 Y136.801 E0.14209
G1 X97.793 Y139.908 E0.13582
G1 X97.25 Y143.513 E0.15587
G1 X96.968 Y146.677 E0.13582
G1 X96.868 Y149.999 E0.14209
G1 X96.968 Y153.32 E0.14209
G1 X97.25 Y156.484 E0.13582
G1 X97.794 Y160.095 E0.15613
G1 X98.456 Y163.196 E0.13557
G1 X99.34 Y166.4 E0.14209
G1 X100.414 Y169.545 E0.14209
G1 X101.613 Y172.477 E0.13543
G1 X103.198 Y175.77 E0.15626
G1 X104.747 Y178.543 E0.13582
G1 X106.533 Y181.339 E0.14184
G1 X108.599 Y184.17 E0.14986
G1 X110.611 Y186.613 E0.13531
G1 X112.876 Y189.053 E0.14234
G1 X115.274 Y191.346 E0.14184
G1 X117.695 Y193.402 E0.13582
G1 X120.617 Y195.592 E0.15613
G1 X123.265 Y197.337 E0.13557
G1 X126.143 Y198.998 E0.14209
G1 X129.115 Y200.485 E0.14209
G1 X132.029 Y201.734 E0.13557
G1 X135.467 Y202.966 E0.15613
G1 X138.517 Y203.854 E0.13582
G1 X141.757 Y204.594 E0.14209
G1 X145.035 Y205.138 E0.14209
G1 X148.188 Y205.472 E0.13557
G1 X151.765 Y205.637 E0.15312
G1 X155.006 Y205.587 E0.13858
G1 X158.174 Y205.352 E0.13582
G1 X161.787 Y204.862 E0.15588
G1 X164.897 Y204.247 E0.13557
G1 X168.114 Y203.41 E0.14209
G1 X171.274 Y202.384 E0.14209
G1 X174.227 Y201.228 E0.13557
G1 X177.54 Y199.693 E0.15613
G1 X180.336 Y198.186 E0.13582
G1 X183.159 Y196.442 E0.14184
G1 X185.881 Y194.526 E0.14234
G1 X188.359 Y192.553 E0.13543
G1 X190.971 Y190.211 E0.14999
G1 X193.295 Y187.852 E0.14159
G1 X195.387 Y185.462 E0.13582
G1 X197.621 Y182.573 E0.15613
G1 X199.405 Y179.952 E0.13557
G1 X201.109 Y177.099 E0.14209
G1 X202.64 Y174.149 E0.14209
G1 X203.935 Y171.248 E0.13582
G1 X205.216 Y167.835 E0.15588
G1 X206.15 Y164.799 E0.13582
G1 X206.938 Y161.57 E0.14209
G1 X207.531 Y158.3 E0.14209
G1 X207.913 Y155.147 E0.13582
G1 X208.132 Y151.496 E0.15638
G1 X208.129 Y148.331 E0.13532
G1 X207.93 Y145.014 E0.14209
G1 X207.534 Y141.714 E0.14209
G1 X206.969 Y138.588 E0.13582
G1 X206.105 Y135.046 E0.15588
G1 X205.166 Y132.011 E0.13582
G1 X203.998 Y128.9 E0.14209
G1 X202.647 Y125.864 E0.14209
G1 X201.186 Y123.043 E0.13582
G1 X199.313 Y119.909 E0.15613
G1 X197.524 Y117.29 E0.13557
G1 X195.491 Y114.661 E0.14209
G1 X193.305 Y112.159 E0.14209
G1 X191.082 Y109.898 E0.13557
G1 X188.369 Y107.454 E0.15613
G1 X185.883 Y105.476 E0.13582
G1 X183.166 Y103.563 E0.14209
G1 X180.339 Y101.816 E0.14209
G1 X177.543 Y100.308 E0.13582
G1 X174.235 Y98.775 E0.15588
G1 X171.277 Y97.617 E0.13582
G1 X168.116 Y96.59 E0.14209
G1 X164.9 Y95.754 E0.14209
G1 X161.789 Y95.138 E0.13557
G1 X158.171 Y94.648 E0.15613
G1 X155.003 Y94.413 E0.13582
G1 X151.768 Y94.363 E0.13833
G1 X148.191 Y94.527 E0.15312
G1 X145.038 Y94.861 E0.13557
G1 X141.753 Y95.407 E0.14234
G1 X138.519 Y96.145 E0.14184
G1 X135.469 Y97.033 E0.13582
G1 X132.032 Y98.265 E0.15613
G1 X129.117 Y99.514 E0.13557
G1 X126.145 Y101.001 E0.14209
G1 X123.267 Y102.662 E0.14209
G1 X120.614 Y104.41 E0.13582
G1 X117.697 Y106.596 E0.15588
G1 X115.276 Y108.652 E0.13582
G1 X112.921 Y110.903 E0.13927
G1 X113.069 Y111.058 F9000
M204 S500
G1 X113.217 Y111.213
G1 F900
G1 X113.179 Y111.249 E0.00224
G1 X110.936 Y113.667 E0.141
G1 X108.93 Y116.102 E0.1349
G1 X106.886 Y118.904 E0.14831
G1 X105.116 Y121.674 E0.14052
G1 X103.574 Y124.435 E0.13521
G1 X102.009 Y127.686 E0.15425
G1 X100.816 Y130.603 E0.13473
G1 X99.751 Y133.723 E0.141
G1 X98.873 Y136.902 E0.141
G1 X98.213 Y139.995 E0.13521
G1 X97.676 Y143.557 E0.15401
G1 X97.396 Y146.702 E0.13497
G1 X97.297 Y149.998 E0.141
G1 X97.395 Y153.294 E0.141
G1 X97.676 Y156.444 E0.13521
G1 X98.213 Y160.006 E0.15401
G1 X98.872 Y163.094 E0.13497
G1 X99.749 Y166.273 E0.141
G1 X100.815 Y169.394 E0.141
G1 X102.009 Y172.314 E0.1349
G1 X103.572 Y175.562 E0.15409
G1 X105.114 Y178.323 E0.13521
G1 X106.887 Y181.097 E0.14076
G1 X108.93 Y183.898 E0.14823
G1 X110.933 Y186.33 E0.13473
G1 X113.18 Y188.752 E0.14124
G1 X115.56 Y191.027 E0.14076
G1 X117.971 Y193.074 E0.13521
G1 X120.853 Y195.235 E0.15401
G1 X123.489 Y196.972 E0.13497
G1 X126.345 Y198.62 E0.141
G1 X129.295 Y200.096 E0.141
G1 X132.202 Y201.341 E0.13521
G1 X135.587 Y202.555 E0.15377
G1 X138.624 Y203.439 E0.13521
G1 X141.839 Y204.173 E0.141
G1 X145.092 Y204.714 E0.141
G1 X148.237 Y205.047 E0.13521
G1 X151.762 Y205.209 E0.15088
G1 X154.986 Y205.159 E0.13787
G1 X158.14 Y204.925 E0.13521
G1 X161.704 Y204.442 E0.15377
G1 X164.801 Y203.829 E0.13497
G1 X167.993 Y202.999 E0.141
G1 X171.129 Y201.98 E0.141
G1 X174.074 Y200.827 E0.13521
G1 X177.343 Y199.313 E0.15401
G1 X180.122 Y197.815 E0.13497
G1 X182.922 Y196.085 E0.14076
G1 X185.624 Y194.183 E0.14124
G1 X188.092 Y192.218 E0.1349
G1 X190.674 Y189.902 E0.14831
G1 X192.981 Y187.561 E0.14052
G1 X195.064 Y185.181 E0.13521
G1 X197.267 Y182.331 E0.15401
G1 X199.043 Y179.722 E0.13497
G1 X200.735 Y176.89 E0.141
G1 X202.254 Y173.963 E0.141
G1 X203.543 Y171.075 E0.13521
G1 X204.808 Y167.703 E0.15401
G1 X205.737 Y164.685 E0.13497
G1 X206.518 Y161.482 E0.141
G1 X207.108 Y158.237 E0.141
G1 X207.488 Y155.097 E0.13521
G1 X207.703 Y151.496 E0.15426
G1 X207.701 Y148.345 E0.13473
G1 X207.503 Y145.053 E0.141
G1 X207.11 Y141.778 E0.141
G1 X206.548 Y138.666 E0.13521
G1 X205.694 Y135.167 E0.15401
G1 X204.761 Y132.151 E0.13497
G1 X203.602 Y129.063 E0.141
G1 X202.261 Y126.05 E0.141
G1 X200.806 Y123.242 E0.13521
G1 X198.959 Y120.15 E0.15401
G1 X197.178 Y117.543 E0.13497
G1 X195.161 Y114.934 E0.141
G1 X192.991 Y112.45 E0.141
G1 X190.779 Y110.201 E0.1349
G1 X188.101 Y107.789 E0.15409
G1 X185.627 Y105.819 E0.13521
G1 X182.93 Y103.921 E0.141
G1 X180.125 Y102.187 E0.141
G1 X177.341 Y100.686 E0.13521
G1 X174.078 Y99.174 E0.15377
G1 X171.133 Y98.021 E0.13521
G1 X167.997 Y97.002 E0.141
G1 X164.805 Y96.172 E0.141
G1 X161.71 Y95.56 E0.1349
G1 X158.139 Y95.075 E0.15409
G1 X154.985 Y94.841 E0.13521
G1 X151.766 Y94.791 E0.13763
G1 X148.235 Y94.954 E0.15112
G1 X145.096 Y95.286 E0.13497
G1 X141.837 Y95.827 E0.14124
G1 X138.627 Y96.56 E0.14076
G1 X135.591 Y97.444 E0.13521
G1 X132.2 Y98.659 E0.15401
G1 X129.298 Y99.902 E0.13497
G1 X126.349 Y101.378 E0.141
G1 X123.492 Y103.026 E0.141
G1 X120.852 Y104.766 E0.13521
G1 X117.974 Y106.924 E0.15377
G1 X115.563 Y108.97 E0.13521
G1 X113.261 Y111.172 E0.13619
G1 E-0.6 F3000
M204 S1000
G1 X131.672 Y129.983 F9000
M204 S500
G1 X150.084 Y148.793
G1 E0.6 F1800
;TYPE:Internal perimeter
G1 F900
G1 X151.93 Y148.793 E0.07892
G1 X152.468 Y148.723 E0.02319
G1 X152.468 Y151.207 E0.1062
G1 X150.084 Y151.207 E0.10191
G1 X150.511 Y150.65 E0.03001
G1 X150.641 Y150.336 E0.0145
G1 X150.685 Y150 E0.0145
G1 X150.641 Y149.664 E0.0145
G1 X150.511 Y149.35 E0.0145
G1 X150.121 Y148.841 E0.02745
M204 S1000
G1 X150.521 Y149.032 F9000
M204 S500
G1 X150.922 Y149.222
G1 F900
G1 X152.039 Y149.222 E0.04777
G1 X152.039 Y150.778 E0.06653
G1 X150.922 Y150.778 E0.04777
G1 X151.059 Y150.448 E0.01527
G1 X151.118 Y150 E0.01933
G1 X151.059 Y149.552 E0.01933
G1 X150.945 Y149.277 E0.0127
G1 E-0.6 F3000
M204 S1000
G1 X151.948 Y147.715 F9000
M204 S500
G1 X152.95 Y146.153
G1 E0.6 F1800
G1 F900
G1 X152.752 Y146.001 E0.01068
G1 X152.334 Y145.828 E0.01933
G1 X151.958 Y145.778 E0.01622
G1 X143.689 Y145.778 E0.35354
G1 X143.151 Y145.849 E0.0232
G1 X142.583 Y146.084 E0.0263
G1 X142.095 Y146.459 E0.0263
G1 X141.72 Y146.947 E0.0263
G1 X141.485 Y147.515 E0.0263
G1 X141.414 Y148.053 E0.0232
G1 X141.414 Y151.947 E0.16648
G1 X141.485 Y152.485 E0.0232
G1 X141.72 Y153.053 E0.0263
G1 X142.095 Y153.541 E0.0263
G1 X142.583 Y153.916 E0.0263
G1 X143.151 Y154.151 E0.0263
G1 X143.689 Y154.222 E0.0232
G1 X161.583 Y154.222 E0.76506
G1 X162.056 Y154.16 E0.02041
G1 X162.564 Y153.949 E0.02351
G1 X163.001 Y153.614 E0.02351
G1 X163.335 Y153.178 E0.02351
G1 X163.546 Y152.67 E0.02351
G1 X163.608 Y152.197 E0.02041
G1 X163.608 Y150.303 E0.08097
G1 X163.546 Y149.83 E0.02041
G1 X163.335 Y149.322 E0.02351
G1 X162.964 Y148.837 E0.02612
G1 X163.111 Y148.724 E0.00792
G1 X163.386 Y148.366 E0.01933
G1 X163.559 Y147.948 E0.01933
G1 X163.618 Y147.5 E0.01933
G1 X163.559 Y147.052 E0.01933
G1 X163.386 Y146.634 E0.01933
G1 X163.111 Y146.276 E0.01933
G1 X162.752 Y146.001 E0.01933
G1 X162.334 Y145.828 E0.01933
G1 X161.958 Y145.778 E0.01622
G1 X154.064 Y145.778 E0.3375
G1 X153.591 Y145.84 E0.02041
G1 X153.083 Y146.051 E0.02351
G1 X152.998 Y146.116 E0.00459
M204 S1000
G1 X152.974 Y146.404 F9000
M204 S500
G1 X152.95 Y146.693
G1 F900
G1 X152.536 Y146.375 E0.02232
G1 X152.222 Y146.245 E0.0145
G1 X151.93 Y146.207 E0.01261
G1 X143.717 Y146.207 E0.35113
G1 X143.263 Y146.266 E0.01959
G1 X142.799 Y146.459 E0.02148
G1 X142.401 Y146.764 E0.02148
G1 X142.095 Y147.163 E0.02148
G1 X141.902 Y147.627 E0.02148
G1 X141.843 Y148.081 E0.01959
G1 X141.843 Y151.919 E0.16408
G1 X141.902 Y152.373 E0.01959
G1 X142.095 Y152.837 E0.02148
G1 X142.401 Y153.236 E0.02148
G1 X142.799 Y153.541 E0.02148
G1 X143.263 Y153.734 E0.02148
G1 X143.717 Y153.793 E0.01959
G1 X161.555 Y153.793 E0.76266
G1 X161.945 Y153.742 E0.0168
G1 X162.348 Y153.575 E0.01869
G1 X162.695 Y153.309 E0.01869
G1 X162.961 Y152.962 E0.01869
G1 X163.128 Y152.558 E0.01869
G1 X163.18 Y152.169 E0.0168
G1 X163.18 Y150.331 E0.07857
G1 X163.128 Y149.942 E0.0168
G1 X162.961 Y149.538 E0.01869
G1 X162.695 Y149.191 E0.01869
G1 X162.16 Y148.781 E0.02882
G1 X162.536 Y148.625 E0.01738
G1 X162.805 Y148.419 E0.0145
G1 X163.011 Y148.15 E0.0145
G1 X163.141 Y147.836 E0.0145
G1 X163.185 Y147.5 E0.0145
G1 X163.141 Y147.164 E0.0145
G1 X163.011 Y146.85 E0.0145
G1 X162.805 Y146.581 E0.0145
G1 X162.536 Y146.375 E0.0145
G1 X162.222 Y146.245 E0.0145
G1 X161.93 Y146.207 E0.01261
G1 X154.092 Y146.207 E0.3351
G1 X153.703 Y146.258 E0.0168
G1 X153.299 Y146.425 E0.01869
G1 X152.998 Y146.656 E0.01624
G1 E-0.6 F3000
M204 S1000
G1 X152.947 Y149.146 F9000
M204 S500
G1 X152.896 Y151.635
G1 E0.6 F1800
;TYPE:External perimeter
G1 F900
G1 X147.751 Y151.635 E0.21998
G1 X147.751 Y150.865 E0.03292
G1 X149.402 Y150.865 E0.07058
G1 X149.611 Y150.838 E0.009
G1 X149.82 Y150.751 E0.00968
G1 X149.999 Y150.613 E0.00968
G1 X150.137 Y150.434 E0.00968
G1 X150.224 Y150.224 E0.00968
G1 X150.253 Y150 E0.00968
G1 X150.224 Y149.776 E0.00968
G1 X150.137 Y149.566 E0.00968
G1 X149.999 Y149.387 E0.00968
G1 X149.82 Y149.249 E0.00968
G1 X149.611 Y149.162 E0.00968
G1 X149.402 Y149.135 E0.009
G1 X147.751 Y149.135 E0.07058
G1 X147.751 Y148.365 E0.03292
G1 X151.902 Y148.365 E0.17747
G1 X152.111 Y148.338 E0.009
G1 X152.32 Y148.251 E0.00968
G1 X152.499 Y148.113 E0.00968
G1 X152.637 Y147.934 E0.00968
G1 X152.724 Y147.724 E0.00968
G1 X152.753 Y147.5 E0.00968
G1 X152.724 Y147.276 E0.00968
G1 X152.637 Y147.066 E0.00968
G1 X152.499 Y146.887 E0.00968
G1 X152.32 Y146.749 E0.00968
G1 X152.111 Y146.662 E0.00968
G1 X151.902 Y146.635 E0.009
G1 X143.745 Y146.635 E0.34873
G1 X143.375 Y146.684 E0.01598
G1 X143.015 Y146.833 E0.01665
G1 X142.706 Y147.07 E0.01665
G1 X142.469 Y147.379 E0.01665
G1 X142.32 Y147.739 E0.01665
G1 X142.271 Y148.109 E0.01598
G1 X142.271 Y151.891 E0.16168
G1 X142.32 Y152.261 E0.01598
G1 X142.469 Y152.621 E0.01665
G1 X142.706 Y152.93 E0.01665
G1 X143.015 Y153.167 E0.01665
G1 X143.375 Y153.316 E0.01665
G1 X143.745 Y153.365 E0.01598
G1 X161.527 Y153.365 E0.76025
G1 X161.833 Y153.325 E0.01318
G1 X162.132 Y153.201 E0.01386
G1 X162.389 Y153.003 E0.01386
G1 X162.587 Y152.746 E0.01386
G1 X162.711 Y152.446 E0.01386
G1 X162.751 Y152.141 E0.01318
G1 X162.751 Y150.359 E0.07617
G1 X162.711 Y150.054 E0.01318
G1 X162.587 Y149.754 E0.01386
G1 X162.389 Y149.497 E0.01386
G1 X162.132 Y149.299 E0.01386
G1 X161.833 Y149.175 E0.01386
G1 X161.527 Y149.135 E0.01318
G1 X158.152 Y149.135 E0.1443
G1 X158.037 Y149.12 E0.00495
G1 X157.945 Y149.082 E0.00427
G1 X157.865 Y149.021 E0.00427
G1 X157.805 Y148.941 E0.00427
G1 X157.766 Y148.849 E0.00427
G1 X157.753 Y148.75 E0.00427
G1 X157.766 Y148.651 E0.00427
G1 X157.805 Y148.559 E0.00427
G1 X157.865 Y148.479 E0.00427
G1 X157.945 Y148.418 E0.00427
G1 X158.037 Y148.38 E0.00427
G1 X158.152 Y148.365 E0.00495
G1 X161.902 Y148.365 E0.16033
G1 X162.111 Y148.338 E0.009
G1 X162.32 Y148.251 E0.00968
G1 X162.499 Y148.113 E0.00968
G1 X162.637 Y147.934 E0.00968
G1 X162.724 Y147.724 E0.00968
G1 X162.753 Y147.5 E0.00968
G1 X162.724 Y147.276 E0.00968
G1 X162.637 Y147.066 E0.00968
G1 X162.499 Y146.887 E0.00968
G1 X162.32 Y146.749 E0.00968
G1 X162.111 Y146.662 E0.00968
G1 X161.902 Y146.635 E0.009
G1 X154.12 Y146.635 E0.3327
G1 X153.815 Y146.675 E0.01318
G1 X153.515 Y146.799 E0.01386
G1 X153.258 Y146.997 E0.01386
G1 X153.061 Y147.254 E0.01386
G1 X152.936 Y147.554 E0.01386
G1 X152.896 Y147.859 E0.01318
G1 X152.896 Y151.575 E0.15887
;WIPE_START
G1 X152.55 Y151.435 F9000
;WIPE_END
G1 E-0.6 F3000
M204 S1000
G1 X152.905 Y175.155 F9000
M204 S500
G1 X153.26 Y198.875
G1 E0.6 F1800
;TYPE:Internal perimeter
G1 F900
G1 X151.78 Y198.897 E0.06328
G1 X148.857 Y198.766 E0.1251
G1 X145.947 Y198.46 E0.1251
G1 X143.06 Y197.981 E0.1251
G1 X140.208 Y197.33 E0.1251
G1 X137.399 Y196.509 E0.1251
G1 X134.645 Y195.522 E0.1251
G1 X131.955 Y194.372 E0.1251
G1 X129.338 Y193.063 E0.1251
G1 X126.804 Y191.6 E0.1251
G1 X124.362 Y189.989 E0.1251
G1 X122.021 Y188.234 E0.1251
G1 X119.789 Y186.342 E0.1251
G1 X117.674 Y184.32 E0.1251
G1 X115.684 Y182.175 E0.1251
G1 X113.826 Y179.915 E0.1251
G1 X112.106 Y177.548 E0.1251
G1 X110.531 Y175.082 E0.1251
G1 X109.106 Y172.527 E0.1251
G1 X107.837 Y169.89 E0.1251
G1 X106.727 Y167.183 E0.1251
G1 X105.781 Y164.414 E0.1251
G1 X105.003 Y161.594 E0.1251
G1 X104.395 Y158.732 E0.1251
G1 X103.958 Y155.839 E0.1251
G1 X103.696 Y152.925 E0.1251
G1 X103.609 Y150 E0.1251
G1 X103.696 Y147.075 E0.1251
G1 X103.958 Y144.161 E0.1251
G1 X104.395 Y141.268 E0.1251
G1 X105.003 Y138.406 E0.1251
G1 X105.781 Y135.586 E0.1251
G1 X106.727 Y132.817 E0.1251
G1 X107.837 Y130.11 E0.1251
G1 X109.106 Y127.473 E0.1251
G1 X110.531 Y124.918 E0.1251
G1 X112.106 Y122.452 E0.1251
G1 X113.826 Y120.085 E0.1251
G1 X115.684 Y117.825 E0.1251
G1 X117.674 Y115.68 E0.1251
G1 X119.789 Y113.658 E0.1251
G1 X122.021 Y111.766 E0.1251
G1 X124.362 Y110.011 E0.1251
G1 X126.804 Y108.4 E0.1251
G1 X129.338 Y106.937 E0.1251
G1 X131.955 Y105.628 E0.1251
G1 X134.645 Y104.478 E0.1251
G1 X137.399 Y103.491 E0.1251
G1 X140.208 Y102.67 E0.1251
G1 X143.06 Y102.019 E0.1251
G1 X145.947 Y101.54 E0.1251
G1 X148.857 Y101.234 E0.1251
G1 X151.78 Y101.103 E0.1251
G1 X154.705 Y101.147 E0.1251
G1 X157.623 Y101.365 E0.1251
G1 X160.522 Y101.758 E0.1251
G1 X163.393 Y102.324 E0.1251
G1 X166.225 Y103.06 E0.1251
G1 X169.007 Y103.964 E0.1251
G1 X171.731 Y105.033 E0.1251
G1 X174.386 Y106.263 E0.1251
G1 X176.962 Y107.649 E0.1251
G1 X179.451 Y109.187 E0.1251
G1 X181.844 Y110.871 E0.1251
G1 X184.132 Y112.696 E0.1251
G1 X186.306 Y114.654 E0.1251
G1 X188.359 Y116.738 E0.1251
G1 X190.284 Y118.941 E0.1251
G1 X192.074 Y121.256 E0.1251
G1 X193.722 Y123.673 E0.1251
G1 X195.223 Y126.185 E0.1251
G1 X196.571 Y128.782 E0.1251
G1 X197.761 Y131.455 E0.1251
G1 X198.789 Y134.194 E0.1251
G1 X199.651 Y136.99 E0.1251
G1 X200.345 Y139.833 E0.1251
G1 X200.868 Y142.711 E0.1251
G1 X201.217 Y145.616 E0.1251
G1 X201.392 Y148.537 E0.1251
G1 X201.392 Y151.463 E0.1251
G1 X201.217 Y154.384 E0.1251
G1 X200.868 Y157.289 E0.1251
G1 X200.345 Y160.167 E0.1251
G1 X199.651 Y163.01 E0.1251
G1 X198.789 Y165.806 E0.1251
G1 X197.761 Y168.545 E0.1251
G1 X196.571 Y171.218 E0.1251
G1 X195.223 Y173.815 E0.1251
