; generated by SuperSlicer 2.3.57 on 2022-02-09 at 18:00:26 UTC


;
;

;
;
; 

; external perimeters extrusion width = 0.40mm
; perimeters extrusion width = 0.45mm
; infill extrusion width = 0.72mm
; solid infill extrusion width = 0.56mm
; top infill extrusion width = 0.40mm
; first layer extrusion width = 0.48mm

; object:{"name":"Base","id":"Base.stl id:0 copy 0","object_center":[165.000000,165.000000,0.000000],"boundingbox_center":[165.000000,165.000000,7.500000],"boundingbox_size":[146.399994,150.000000,15.000000]}
; plater:{"center":[165.000000,165.000000,0.000000],"boundingbox_center":[165.000000,165.000000,7.500000],"boundingbox_size":[146.399994,150.000000,15.000000]}

;TYPE:Custom
START_PRINT T_BED=60 T_EXTRUDER=200
M107
G21 ; set units to millimeters
G90 ; use absolute coordinates
M83 ; use relative distances for extrusion
; Filament gcode
M104 S200 ; set temperature
M109 S200 ; set temperature and wait for it to be reached
M190 S60 ; set bed temperature and wait for it to be reached
;LAYER_CHANGE
;Z:0.24
;HEIGHT:0.24
G1 Z0.24 F9000
G1 E-0.6 F3000
G1 X89.262 Y87.587 F9000
G1 E0.6 F1800
; External perimeter
;Skirt
SET_VELOCITY_LIMIT ACCEL=3000 ACCEL_TO_DECEL=3000 SQUARE_CORNER_VELOCITY=8

; Support material

;TYPE:Skirt
;WIDTH:0.48
G1 X88.837 Y88.128 E0.02939
G1 X88.521 Y88.738 E0.02939
G1 X88.326 Y89.397 E0.02939
G1 X88.257 Y90.076 E0.02919
G1 X88.257 Y239.902 E6.40588
G1 X88.333 Y240.638 E0.0316
G1 X88.553 Y241.338 E0.0314
G1 X88.91 Y241.98 E0.0314
G1 X89.387 Y242.538 E0.0314
G1 X89.928 Y242.963 E0.02939
G1 X90.538 Y243.279 E0.02939
G1 X91.197 Y243.474 E0.02939
G1 X91.876 Y243.543 E0.02919
G1 X238.102 Y243.543 E6.25196
G1 X238.838 Y243.467 E0.0316
G1 X239.538 Y243.247 E0.0314
G1 X240.18 Y242.89 E0.0314
G1 X240.738 Y242.413 E0.0314
G1 X241.163 Y241.872 E0.02939
G1 X241.479 Y241.262 E0.02939
G1 X241.674 Y240.603 E0.02939
G1 X241.743 Y239.924 E0.02919
G1 X241.742 Y90.036 E6.4085
G1 X241.661 Y89.335 E0.03019
G1 X241.447 Y88.662 E0.03019
G1 X241.109 Y88.047 E0.02999
G1 X240.657 Y87.505 E0.03019
G1 X240.108 Y87.061 E0.03019
G1 X239.484 Y86.73 E0.03019
G1 X238.807 Y86.527 E0.03019
G1 X238.105 Y86.457 E0.03019
G1 X91.874 Y86.457 E6.25216
G1 X91.149 Y86.536 E0.0312
G1 X90.453 Y86.757 E0.0312
G1 X89.816 Y87.112 E0.0312
G1 X89.308 Y87.548 E0.02863
G1 X89.585 Y87.872 F9000
G1 F1800
G1 X89.2 Y88.357 E0.02649
G1 X88.92 Y88.894 E0.02591
G1 X88.747 Y89.475 E0.02591
G1 X88.686 Y90.082 E0.02609
G1 X88.686 Y239.9 E6.40553
G1 X88.751 Y240.542 E0.02758
G1 X88.944 Y241.162 E0.02779
G1 X89.258 Y241.731 E0.02779
G1 X89.681 Y242.225 E0.02779
G1 X90.157 Y242.6 E0.02591
G1 X90.694 Y242.88 E0.02591
G1 X91.275 Y243.053 E0.02591
G1 X91.882 Y243.114 E0.02609
G1 X238.1 Y243.114 E6.25161
G1 X238.742 Y243.049 E0.02758
G1 X239.362 Y242.856 E0.02779
G1 X239.931 Y242.542 E0.02779
G1 X240.425 Y242.119 E0.02779
G1 X240.8 Y241.643 E0.02591
G1 X241.08 Y241.106 E0.02591
G1 X241.253 Y240.525 E0.02591
G1 X241.314 Y239.918 E0.02609
G1 X241.314 Y90.052 E6.40759
G1 X241.244 Y89.432 E0.02666
G1 X241.056 Y88.838 E0.02666
G1 X240.757 Y88.291 E0.02666
G1 X240.357 Y87.812 E0.02666
G1 X239.873 Y87.419 E0.02666
G1 X239.322 Y87.127 E0.02666
G1 X238.725 Y86.947 E0.02666
G1 X238.104 Y86.886 E0.02666
G1 X91.878 Y86.886 E6.25197
G1 X91.241 Y86.954 E0.02741
G1 X90.625 Y87.149 E0.0276
G1 X90.061 Y87.464 E0.0276
G1 X89.631 Y87.833 E0.02425
; INIT printing object Base.stl id:0 copy 0
G1 E-0.6 F3000
; printing object Base.stl id:0 copy 0
G1 X160.06 Y159.764 F9000
G1 E0.6 F1800
; External perimeter
;Perimeter
SET_VELOCITY_LIMIT ACCEL=2000 ACCEL_TO_DECEL=2000 SQUARE_CORNER_VELOCITY=8

; Overhang perimeter

;TYPE:Internal perimeter
G1 X159.485 Y160.373 E0.03579
G1 X158.985 Y161.044 E0.03579
G1 X158.567 Y161.769 E0.03579
G1 X158.235 Y162.538 E0.03579
G1 X157.995 Y163.34 E0.03579
G1 X157.85 Y164.164 E0.03579
G1 X157.801 Y165 E0.03579
G1 X157.825 Y165.418 E0.0179
G1 X157.85 Y165.836 E0.0179
G1 X157.995 Y166.66 E0.03579
G1 X158.235 Y167.462 E0.03579
G1 X158.567 Y168.231 E0.03579
G1 X158.985 Y168.956 E0.03579
G1 X159.485 Y169.627 E0.03579
G1 X160.06 Y170.236 E0.03579
G1 X160.701 Y170.774 E0.03579
G1 X161.4 Y171.235 E0.03579
G1 X162.149 Y171.61 E0.03579
G1 X162.935 Y171.897 E0.03579
G1 X163.75 Y172.09 E0.03579
G1 X164.581 Y172.187 E0.03579
G1 X165.419 Y172.187 E0.03579
G1 X166.25 Y172.09 E0.03579
G1 X167.065 Y171.897 E0.03579
G1 X167.851 Y171.61 E0.03579
G1 X168.6 Y171.235 E0.03579
G1 X169.299 Y170.774 E0.03579
G1 X169.94 Y170.236 E0.03579
G1 X170.515 Y169.627 E0.03579
G1 X171.015 Y168.956 E0.03579
G1 X171.433 Y168.231 E0.03579
G1 X171.765 Y167.462 E0.03579
G1 X172.005 Y166.66 E0.03579
G1 X172.15 Y165.836 E0.03579
G1 X172.199 Y165 E0.03579
G1 X172.175 Y164.582 E0.0179
G1 X172.15 Y164.164 E0.0179
G1 X172.005 Y163.34 E0.03579
G1 X171.765 Y162.538 E0.03579
G1 X171.433 Y161.769 E0.03579
G1 X171.015 Y161.044 E0.03579
G1 X170.515 Y160.373 E0.03579
G1 X169.94 Y159.764 E0.03579
G1 X169.299 Y159.226 E0.03579
G1 X168.6 Y158.765 E0.03579
G1 X167.851 Y158.39 E0.03579
G1 X167.065 Y158.103 E0.03579
G1 X166.25 Y157.91 E0.03579
G1 X165.419 Y157.813 E0.03579
G1 X164.581 Y157.813 E0.03579
G1 X163.75 Y157.91 E0.03579
G1 X162.935 Y158.103 E0.03579
G1 X162.149 Y158.39 E0.03579
G1 X161.4 Y158.765 E0.03579
G1 X160.701 Y159.226 E0.03579
G1 X160.106 Y159.725 E0.03323
G1 X160.381 Y160.053 F9000
G1 F1800
G1 X160.354 Y160.076 E0.0015
G1 X159.814 Y160.648 E0.03366
G1 X159.344 Y161.28 E0.03366
G1 X158.95 Y161.962 E0.03366
G1 X158.638 Y162.685 E0.03366
G1 X158.413 Y163.439 E0.03366
G1 X158.276 Y164.214 E0.03366
G1 X158.23 Y165 E0.03366
G1 X158.253 Y165.393 E0.01683
G1 X158.276 Y165.786 E0.01683
G1 X158.413 Y166.561 E0.03366
G1 X158.638 Y167.315 E0.03366
G1 X158.95 Y168.038 E0.03366
G1 X159.344 Y168.72 E0.03366
G1 X159.814 Y169.352 E0.03366
G1 X160.354 Y169.924 E0.03366
G1 X160.957 Y170.43 E0.03366
G1 X161.615 Y170.863 E0.03366
G1 X162.319 Y171.216 E0.03366
G1 X163.058 Y171.485 E0.03366
G1 X163.824 Y171.667 E0.03366
G1 X164.606 Y171.758 E0.03366
G1 X165.394 Y171.758 E0.03366
G1 X166.176 Y171.667 E0.03366
G1 X166.942 Y171.485 E0.03366
G1 X167.681 Y171.216 E0.03366
G1 X168.385 Y170.863 E0.03366
G1 X169.043 Y170.43 E0.03366
G1 X169.646 Y169.924 E0.03366
G1 X170.186 Y169.352 E0.03366
G1 X170.656 Y168.72 E0.03366
G1 X171.05 Y168.038 E0.03366
G1 X171.362 Y167.315 E0.03366
G1 X171.587 Y166.561 E0.03366
G1 X171.724 Y165.786 E0.03366
G1 X171.77 Y165 E0.03366
G1 X171.747 Y164.607 E0.01683
G1 X171.724 Y164.214 E0.01683
G1 X171.587 Y163.439 E0.03366
G1 X171.362 Y162.685 E0.03366
G1 X171.05 Y161.962 E0.03366
G1 X170.656 Y161.28 E0.03366
G1 X170.186 Y160.648 E0.03366
G1 X169.646 Y160.076 E0.03366
G1 X169.043 Y159.57 E0.03366
G1 X168.385 Y159.137 E0.03366
G1 X167.681 Y158.784 E0.03366
G1 X166.942 Y158.515 E0.03366
G1 X166.176 Y158.333 E0.03366
G1 X165.394 Y158.242 E0.03366
G1 X164.606 Y158.242 E0.03366
G1 X163.824 Y158.333 E0.03366
G1 X163.058 Y158.515 E0.03366
G1 X162.319 Y158.784 E0.03366
G1 X161.615 Y159.137 E0.03366
G1 X160.957 Y159.57 E0.03366
G1 X160.427 Y160.015 E0.0296
G1 X160.703 Y160.343 F9000
; External perimeter
;ExternalPerimeter
SET_VELOCITY_LIMIT ACCEL=1000 ACCEL_TO_DECEL=1000 SQUARE_CORNER_VELOCITY=8

; Perimeter

;TYPE:External perimeter
G1 F1800
G1 X160.649 Y160.388 E0.003
G1 X160.143 Y160.924 E0.03153
G1 X159.703 Y161.516 E0.03153
G1 X159.334 Y162.154 E0.03153
G1 X159.042 Y162.831 E0.03153
G1 X158.83 Y163.538 E0.03153
G1 X158.702 Y164.264 E0.03153
G1 X158.659 Y165 E0.03153
G1 X158.681 Y165.368 E0.01576
G1 X158.702 Y165.736 E0.01576
G1 X158.83 Y166.462 E0.03153
G1 X159.042 Y167.169 E0.03153
G1 X159.334 Y167.846 E0.03153
G1 X159.703 Y168.484 E0.03153
G1 X160.143 Y169.076 E0.03153
G1 X160.649 Y169.612 E0.03153
G1 X161.214 Y170.086 E0.03153
G1 X161.83 Y170.491 E0.03153
G1 X162.489 Y170.822 E0.03153
G1 X163.182 Y171.074 E0.03153
G1 X163.899 Y171.244 E0.03153
G1 X164.631 Y171.33 E0.03153
G1 X165.369 Y171.33 E0.03153
G1 X166.101 Y171.244 E0.03153
G1 X166.818 Y171.074 E0.03153
G1 X167.511 Y170.822 E0.03153
G1 X168.17 Y170.491 E0.03153
G1 X168.786 Y170.086 E0.03153
G1 X169.351 Y169.612 E0.03153
G1 X169.857 Y169.076 E0.03153
G1 X170.297 Y168.484 E0.03153
G1 X170.666 Y167.846 E0.03153
G1 X170.958 Y167.169 E0.03153
G1 X171.17 Y166.462 E0.03153
G1 X171.298 Y165.736 E0.03153
G1 X171.341 Y165 E0.03153
G1 X171.319 Y164.632 E0.01576
G1 X171.298 Y164.264 E0.01576
G1 X171.17 Y163.538 E0.03153
G1 X170.958 Y162.831 E0.03153
G1 X170.666 Y162.154 E0.03153
G1 X170.297 Y161.516 E0.03153
G1 X169.857 Y160.924 E0.03153
G1 X169.351 Y160.388 E0.03153
G1 X168.786 Y159.914 E0.03153
G1 X168.17 Y159.509 E0.03153
G1 X167.511 Y159.178 E0.03153
G1 X166.818 Y158.926 E0.03153
G1 X166.101 Y158.756 E0.03153
G1 X165.369 Y158.67 E0.03153
G1 X164.631 Y158.67 E0.03153
G1 X163.899 Y158.756 E0.03153
G1 X163.182 Y158.926 E0.03153
G1 X162.489 Y159.178 E0.03153
G1 X161.83 Y159.509 E0.03153
G1 X161.214 Y159.914 E0.03153
G1 X160.748 Y160.304 E0.02596
;WIPE_START
G1 X160.637 Y160.319 F9000
;WIPE_END
G1 E-0.6 F3000
G1 X220.06 Y219.764 F9000
G1 E0.6 F1800
; External perimeter
;Perimeter
SET_VELOCITY_LIMIT ACCEL=2000 ACCEL_TO_DECEL=2000 SQUARE_CORNER_VELOCITY=8

; Overhang perimeter

;TYPE:Internal perimeter
G1 X219.485 Y220.373 E0.03579
G1 X218.985 Y221.044 E0.03579
G1 X218.567 Y221.769 E0.03579
G1 X218.235 Y222.538 E0.03579
G1 X217.995 Y223.34 E0.03579
G1 X217.85 Y224.164 E0.03579
G1 X217.801 Y225 E0.03579
G1 X217.85 Y225.836 E0.03579
G1 X217.995 Y226.66 E0.03579
G1 X218.235 Y227.462 E0.03579
G1 X218.567 Y228.231 E0.03579
G1 X218.985 Y228.956 E0.03579
G1 X219.485 Y229.627 E0.03579
G1 X220.06 Y230.236 E0.03579
G1 X220.701 Y230.775 E0.03579
G1 X221.4 Y231.235 E0.03579
G1 X222.149 Y231.61 E0.03579
G1 X222.935 Y231.897 E0.03579
G1 X223.75 Y232.09 E0.03579
G1 X224.581 Y232.187 E0.03579
G1 X225.419 Y232.187 E0.03579
G1 X226.25 Y232.09 E0.03579
G1 X227.065 Y231.897 E0.03579
G1 X227.851 Y231.61 E0.03579
G1 X228.6 Y231.235 E0.03579
G1 X229.299 Y230.775 E0.03579
G1 X229.94 Y230.236 E0.03579
G1 X230.515 Y229.627 E0.03579
G1 X231.015 Y228.956 E0.03579
G1 X231.433 Y228.231 E0.03579
G1 X231.599 Y227.847 E0.0179
G1 X231.765 Y227.462 E0.0179
G1 X232.005 Y226.66 E0.03579
G1 X232.15 Y225.836 E0.03579
G1 X232.199 Y225 E0.03579
G1 X232.15 Y224.164 E0.03579
G1 X232.005 Y223.34 E0.03579
G1 X231.765 Y222.538 E0.03579
G1 X231.599 Y222.153 E0.0179
G1 X231.433 Y221.769 E0.0179
G1 X231.015 Y221.044 E0.03579
G1 X230.515 Y220.373 E0.03579
G1 X229.94 Y219.764 E0.03579
G1 X229.299 Y219.225 E0.03579
G1 X228.6 Y218.765 E0.03579
G1 X227.851 Y218.39 E0.03579
G1 X227.065 Y218.103 E0.03579
G1 X226.25 Y217.91 E0.03579
G1 X225.419 Y217.813 E0.03579
G1 X224.581 Y217.813 E0.03579
G1 X223.75 Y217.91 E0.03579
G1 X222.935 Y218.103 E0.03579
G1 X222.149 Y218.39 E0.03579
G1 X221.4 Y218.765 E0.03579
G1 X220.701 Y219.225 E0.03579
G1 X220.106 Y219.725 E0.03323
G1 X220.381 Y220.053 F9000
G1 F1800
G1 X220.354 Y220.076 E0.0015
G1 X219.814 Y220.648 E0.03366
G1 X219.344 Y221.28 E0.03366
G1 X218.95 Y221.962 E0.03366
G1 X218.638 Y222.685 E0.03366
G1 X218.413 Y223.439 E0.03366
G1 X218.276 Y224.214 E0.03366
G1 X218.23 Y225 E0.03366
G1 X218.276 Y225.786 E0.03366
G1 X218.413 Y226.561 E0.03366
G1 X218.638 Y227.315 E0.03366
G1 X218.95 Y228.038 E0.03366
G1 X219.344 Y228.72 E0.03366
G1 X219.814 Y229.352 E0.03366
G1 X220.354 Y229.924 E0.03366
G1 X220.957 Y230.43 E0.03366
G1 X221.615 Y230.863 E0.03366
G1 X222.319 Y231.216 E0.03366
G1 X223.058 Y231.485 E0.03366
G1 X223.824 Y231.667 E0.03366
G1 X224.606 Y231.758 E0.03366
G1 X225.394 Y231.758 E0.03366
G1 X226.176 Y231.667 E0.03366
G1 X226.942 Y231.485 E0.03366
G1 X227.681 Y231.216 E0.03366
G1 X228.385 Y230.863 E0.03366
G1 X229.043 Y230.43 E0.03366
G1 X229.646 Y229.924 E0.03366
G1 X230.186 Y229.352 E0.03366
G1 X230.656 Y228.72 E0.03366
G1 X231.05 Y228.038 E0.03366
G1 X231.206 Y227.677 E0.01683
G1 X231.362 Y227.315 E0.01683
G1 X231.587 Y226.561 E0.03366
G1 X231.724 Y225.786 E0.03366
G1 X231.77 Y225 E0.03366
G1 X231.724 Y224.214 E0.03366
G1 X231.587 Y223.439 E0.03366
G1 X231.362 Y222.685 E0.03366
G1 X231.206 Y222.323 E0.01683
G1 X231.05 Y221.962 E0.01683
G1 X230.656 Y221.28 E0.03366
G1 X230.186 Y220.648 E0.03366
G1 X229.646 Y220.076 E0.03366
G1 X229.043 Y219.57 E0.03366
G1 X228.385 Y219.137 E0.03366
G1 X227.681 Y218.784 E0.03366
G1 X226.942 Y218.515 E0.03366
G1 X226.176 Y218.333 E0.03366
G1 X225.394 Y218.242 E0.03366
G1 X224.606 Y218.242 E0.03366
G1 X223.824 Y218.333 E0.03366
G1 X223.058 Y218.515 E0.03366
G1 X222.319 Y218.784 E0.03366
G1 X221.615 Y219.137 E0.03366
G1 X220.957 Y219.57 E0.03366
G1 X220.427 Y220.015 E0.0296
G1 X220.703 Y220.343 F9000
; External perimeter
;ExternalPerimeter
SET_VELOCITY_LIMIT ACCEL=1000 ACCEL_TO_DECEL=1000 SQUARE_CORNER_VELOCITY=8

; Perimeter

;TYPE:External perimeter
G1 F1800
G1 X220.649 Y220.388 E0.003
G1 X220.143 Y220.924 E0.03153
G1 X219.703 Y221.516 E0.03153
G1 X219.334 Y222.154 E0.03153
G1 X219.042 Y222.831 E0.03153
G1 X218.83 Y223.538 E0.03153
G1 X218.702 Y224.264 E0.03153
G1 X218.659 Y225 E0.03153
G1 X218.702 Y225.736 E0.03153
G1 X218.83 Y226.462 E0.03153
G1 X219.042 Y227.169 E0.03153
G1 X219.334 Y227.846 E0.03153
G1 X219.703 Y228.484 E0.03153
G1 X220.143 Y229.076 E0.03153
G1 X220.649 Y229.612 E0.03153
G1 X221.214 Y230.086 E0.03153
G1 X221.83 Y230.491 E0.03153
G1 X222.489 Y230.822 E0.03153
G1 X223.182 Y231.074 E0.03153
G1 X223.899 Y231.244 E0.03153
G1 X224.631 Y231.33 E0.03153
G1 X225.369 Y231.33 E0.03153
G1 X226.101 Y231.244 E0.03153
G1 X226.818 Y231.074 E0.03153
G1 X227.511 Y230.822 E0.03153
G1 X228.17 Y230.491 E0.03153
G1 X228.786 Y230.086 E0.03153
G1 X229.351 Y229.612 E0.03153
G1 X229.857 Y229.076 E0.03153
G1 X230.297 Y228.484 E0.03152
G1 X230.666 Y227.846 E0.03153
G1 X230.812 Y227.507 E0.01576
G1 X230.958 Y227.169 E0.01576
G1 X231.17 Y226.462 E0.03153
G1 X231.298 Y225.736 E0.03153
G1 X231.341 Y225 E0.03153
G1 X231.298 Y224.264 E0.03153
G1 X231.17 Y223.538 E0.03153
G1 X230.958 Y222.831 E0.03153
G1 X230.812 Y222.493 E0.01576
G1 X230.666 Y222.154 E0.01576
G1 X230.297 Y221.516 E0.03153
G1 X229.857 Y220.924 E0.03153
G1 X229.351 Y220.388 E0.03153
G1 X228.786 Y219.914 E0.03153
G1 X228.17 Y219.509 E0.03153
G1 X227.511 Y219.178 E0.03153
G1 X226.818 Y218.926 E0.03153
G1 X226.101 Y218.756 E0.03153
G1 X225.369 Y218.67 E0.03153
G1 X224.631 Y218.67 E0.03153
G1 X223.899 Y218.756 E0.03153
G1 X223.182 Y218.926 E0.03153
G1 X222.489 Y219.178 E0.03153
G1 X221.83 Y219.509 E0.03153
G1 X221.214 Y219.914 E0.03153
G1 X220.748 Y220.304 E0.02596
;WIPE_START
G1 X220.637 Y220.319 F9000
;WIPE_END
G1 X112.199 Y225
; External perimeter
;Perimeter
SET_VELOCITY_LIMIT ACCEL=2000 ACCEL_TO_DECEL=2000 SQUARE_CORNER_VELOCITY=8

; Overhang perimeter

;TYPE:Internal perimeter
G1 F1800
G1 X112.15 Y224.164 E0.03579
G1 X112.005 Y223.34 E0.03579
G1 X111.765 Y222.538 E0.03579
G1 X111.433 Y221.769 E0.03579
G1 X111.015 Y221.044 E0.03579
G1 X110.515 Y220.373 E0.03579
G1 X109.94 Y219.764 E0.03579
G1 X109.299 Y219.225 E0.03579
G1 X108.6 Y218.765 E0.03579
G1 X107.851 Y218.39 E0.03579
G1 X107.065 Y218.103 E0.03579
G1 X106.25 Y217.91 E0.03579
G1 X105.419 Y217.813 E0.03579
G1 X104.581 Y217.813 E0.03579
G1 X103.75 Y217.91 E0.03579
G1 X102.935 Y218.103 E0.03579
G1 X102.149 Y218.39 E0.03579
G1 X101.4 Y218.765 E0.03579
G1 X100.701 Y219.225 E0.03579
G1 X100.06 Y219.764 E0.03579
G1 X99.485 Y220.373 E0.03579
G1 X98.985 Y221.044 E0.03579
G1 X98.567 Y221.769 E0.03579
G1 X98.401 Y222.153 E0.0179
G1 X98.235 Y222.538 E0.0179
G1 X97.995 Y223.34 E0.03579
G1 X97.85 Y224.164 E0.03579
G1 X97.801 Y225 E0.03579
G1 X97.85 Y225.836 E0.03579
G1 X97.995 Y226.66 E0.03579
G1 X98.235 Y227.462 E0.03579
G1 X98.401 Y227.847 E0.0179
G1 X98.567 Y228.231 E0.0179
G1 X98.985 Y228.956 E0.03579
G1 X99.485 Y229.627 E0.03579
G1 X100.06 Y230.236 E0.03579
G1 X100.701 Y230.775 E0.03579
G1 X101.4 Y231.235 E0.03579
G1 X102.149 Y231.61 E0.03579
G1 X102.935 Y231.897 E0.03579
G1 X103.75 Y232.09 E0.03579
G1 X104.581 Y232.187 E0.03579
G1 X105.419 Y232.187 E0.03579
G1 X106.25 Y232.09 E0.03579
G1 X107.065 Y231.897 E0.03579
G1 X107.851 Y231.61 E0.03579
G1 X108.6 Y231.235 E0.03579
G1 X109.299 Y230.775 E0.03579
