; generated by SuperSlicer 2.3.55 on 2021-05-16 at 23:45:04 UTC

; 

; external perimeters extrusion width = 0.40mm
; perimeters extrusion width = 0.40mm
; infill extrusion width = 0.40mm
; solid infill extrusion width = 0.40mm
; top infill extrusion width = 0.40mm
; first layer extrusion width = 0.40mm


M140 S70 ; set bed temperature
;TYPE:Custom
START_PRINT T_BED=70 T_EXTRUDER=245
M107
G21 ; set units to millimeters
G90 ; use absolute coordinates
M82 ; use absolute distances for extrusion
G92 E0
; Filament gcode
M109 S245 ; set temperature and wait for it to be reached
M190 S70 ; set bed temperature and wait for it to be reached
;LAYER_CHANGE
;Z:0.24
;HEIGHT:0.24
G1 Z0.240000 F9000.000
G1 E-1.00000 F2100.000
G1 X14.429 Y13.048 F9000.000
G1 E0.00000 F2100.000
;TYPE:Skirt
;WIDTH:0.4
G1 F900.000
G1 X15.753 Y12.121 E0.05622
G1 X17.158 Y11.583 E0.10853
G1 X18.667 Y11.381 E0.16149
G1 X192.781 Y10.572 E6.21600
G1 X211.729 Y10.572 E6.87491
G1 X212.864 Y10.659 E6.91447
G1 X213.981 Y10.919 E6.95436
G1 X215.035 Y11.340 E6.99382
G1 X216.048 Y11.939 E7.03473
G1 X291.156 Y66.952 E10.27210
G1 X292.183 Y67.779 E10.31796
G1 X293.015 Y68.711 E10.36140
G1 X293.721 Y69.845 E10.40786
G1 X294.197 Y71.026 E10.45214
G1 X294.442 Y72.095 E10.49028
G1 X294.529 Y73.177 E10.52800
G1 X296.344 Y260.972 E17.05854
G1 X296.335 Y280.507 E17.73783
G1 X296.219 Y281.437 E17.77039
G1 X295.984 Y282.302 E17.80157
G1 X295.617 Y283.158 E17.83396
G1 X295.122 Y283.966 E17.86692
G1 X294.425 Y284.786 E17.90432
G1 X293.598 Y285.483 E17.94195
G1 X292.677 Y286.029 E17.97917
G1 X291.642 Y286.428 E18.01773
G1 X276.732 Y289.575 E18.54762
G1 X275.776 Y289.685 E18.58109
G1 X75.349 Y292.850 E25.55140
G1 X13.616 Y292.850 E27.69807
G1 X12.784 Y292.773 E27.72711
G1 X11.973 Y292.573 E27.75616
G1 X11.202 Y292.252 E27.78520
G1 X10.488 Y291.818 E27.81425
G1 X9.769 Y291.204 E27.84711
G1 X9.169 Y290.482 E27.87978
G1 X6.857 Y286.595 E28.03703
G1 X6.314 Y285.387 E28.08309
G1 X6.027 Y284.107 E28.12871
G1 X4.062 Y239.473 E29.68227
G1 X11.678 Y28.280 E37.03085
G1 X12.347 Y16.885 E37.42777
G1 X12.720 Y15.466 E37.47880
G1 X13.452 Y14.128 E37.53183
G1 X14.388 Y13.092 E37.58038
G1 X14.645 Y13.328 F9000.000
G1 F900.000
G1 X15.936 Y12.418 E37.63528
G1 X17.260 Y11.916 E37.68453
G1 X18.681 Y11.729 E37.73435
G1 X192.782 Y10.920 E43.78846
G1 X211.729 Y10.920 E44.44730
G1 X212.810 Y11.003 E44.48499
G1 X213.876 Y11.251 E44.52304
G1 X214.881 Y11.653 E44.56068
G1 X215.847 Y12.224 E44.59972
G1 X290.950 Y67.233 E47.83684
G1 X291.938 Y68.027 E47.88092
G1 X292.733 Y68.916 E47.92241
G1 X293.411 Y70.005 E47.96701
G1 X293.865 Y71.133 E48.00931
G1 X294.097 Y72.147 E48.04546
G1 X294.180 Y73.177 E48.08141
G1 X295.996 Y260.975 E54.61200
G1 X295.987 Y280.482 E55.29034
G1 X295.879 Y281.360 E55.32110
G1 X295.656 Y282.184 E55.35077
G1 X295.307 Y282.998 E55.38155
G1 X294.836 Y283.766 E55.41290
G1 X294.176 Y284.542 E55.44834
G1 X293.391 Y285.202 E55.48400
G1 X292.518 Y285.719 E55.51926
G1 X291.533 Y286.097 E55.55596
G1 X276.661 Y289.233 E56.08446
G1 X275.764 Y289.337 E56.11588
G1 X75.345 Y292.502 E63.08592
G1 X13.624 Y292.501 E65.23214
G1 X12.847 Y292.431 E65.25928
G1 X12.084 Y292.242 E65.28661
G1 X11.358 Y291.940 E65.31394
G1 X10.691 Y291.535 E65.34108
G1 X10.013 Y290.955 E65.37211
G1 X9.444 Y290.267 E65.40314
G1 X7.155 Y286.414 E65.55898
G1 X6.641 Y285.269 E65.60264
G1 X6.371 Y284.052 E65.64599
G1 X4.411 Y239.473 E67.19762
G1 X12.027 Y28.294 E74.54573
G1 X12.692 Y16.934 E74.94142
G1 X13.051 Y15.577 E74.99024
G1 X13.765 Y14.289 E75.04144
G1 X14.605 Y13.372 E75.08468
G92 E0
G1 E-1.00000 F2100.000
G1 X23.368 Y271.631 F9000.000
G1 E0.00000 F2100.000
;TYPE:Perimeter
G1 F900.000
G1 X21.234 Y275.328 E0.14844
G1 X23.368 Y279.025 E0.29689
G1 X27.637 Y279.025 E0.44533
G1 X29.772 Y275.328 E0.59377
G1 X27.637 Y271.631 E0.74222
G1 X23.428 Y271.631 E0.88857
G1 X23.569 Y271.979 F9000.000
G1 F900.000
G1 X21.636 Y275.328 E1.02302
G1 X23.569 Y278.676 E1.15747
G1 X27.436 Y278.676 E1.29192
G1 X29.369 Y275.328 E1.42637
G1 X27.436 Y271.979 E1.56082
G1 X23.629 Y271.979 E1.69319
G1 X23.771 Y272.328 F9000.000
;TYPE:External perimeter
G1 F900.000
G1 X22.039 Y275.328 E1.81364
G1 X23.771 Y278.328 E1.93410
G1 X27.235 Y278.328 E2.05456
G1 X28.967 Y275.328 E2.17502
G1 X27.235 Y272.328 E2.29547
G1 X23.831 Y272.328 E2.41384
G1 X23.395 Y272.191 F9000.000
G92 E0
G1 E-1.00000 F2100.000
G1 X23.368 Y237.025 F9000.000
G1 E0.00000 F2100.000
;TYPE:Perimeter
G1 F900.000
G1 X27.637 Y237.025 E0.14844
G1 X29.772 Y233.328 E0.29689
G1 X27.637 Y229.631 E0.44533
G1 X23.368 Y229.631 E0.59377
G1 X21.234 Y233.328 E0.74222
G1 X23.338 Y236.973 E0.88857
G1 X23.569 Y236.676 F9000.000
G1 F900.000
G1 X27.436 Y236.676 E1.02302
G1 X29.369 Y233.328 E1.15747
G1 X27.436 Y229.979 E1.29192
G1 X23.569 Y229.979 E1.42637
G1 X21.636 Y233.328 E1.56082
G1 X23.539 Y236.624 E1.69319
G1 X23.771 Y236.328 F9000.000
;TYPE:External perimeter
G1 F900.000
G1 X27.235 Y236.328 E1.81364
G1 X28.967 Y233.328 E1.93410
G1 X27.235 Y230.328 E2.05456
G1 X23.771 Y230.328 E2.17502
G1 X22.039 Y233.328 E2.29547
G1 X23.741 Y236.276 E2.41384
G1 X23.840 Y236.722 F9000.000
G92 E0
G1 E-1.00000 F2100.000
G1 X75.368 Y271.631 F9000.000
G1 E0.00000 F2100.000
;TYPE:Perimeter
G1 F900.000
G1 X73.234 Y275.328 E0.14844
G1 X75.368 Y279.025 E0.29689
G1 X79.637 Y279.025 E0.44533
G1 X81.772 Y275.328 E0.59377
G1 X79.637 Y271.631 E0.74222
G1 X75.428 Y271.631 E0.88857
G1 X75.569 Y271.979 F9000.000
G1 F900.000
G1 X73.636 Y275.328 E1.02302
G1 X75.569 Y278.676 E1.15747
G1 X79.436 Y278.676 E1.29192
G1 X81.369 Y275.328 E1.42637
G1 X79.436 Y271.979 E1.56082
G1 X75.629 Y271.979 E1.69319
G1 X75.771 Y272.328 F9000.000
;TYPE:External perimeter
G1 F900.000
G1 X74.039 Y275.328 E1.81364
G1 X75.771 Y278.328 E1.93410
G1 X79.235 Y278.328 E2.05456
G1 X80.967 Y275.328 E2.17502
G1 X79.235 Y272.328 E2.29547
G1 X75.831 Y272.328 E2.41384
G1 X75.395 Y272.191 F9000.000
G92 E0
G1 E-1.00000 F2100.000
G1 X74.406 Y283.431 F9000.000
G1 E0.00000 F2100.000
;TYPE:Perimeter
G1 F900.000
G1 X74.406 Y286.431 E0.10432
G1 X66.600 Y286.431 E0.37576
G1 X66.600 Y283.431 E0.48008
G1 X41.143 Y283.431 E1.36528
G1 X41.038 Y282.790 E1.38786
G1 X40.838 Y282.042 E1.41479
G1 X40.560 Y281.319 E1.44171
G1 X40.209 Y280.629 E1.46864
G1 X39.551 Y279.672 E1.50900
G1 X39.033 Y279.097 E1.53592
G1 X38.458 Y278.579 E1.56285
G1 X37.501 Y277.921 E1.60321
G1 X36.811 Y277.570 E1.63014
G1 X36.089 Y277.292 E1.65706
G1 X34.960 Y277.021 E1.69742
G1 X34.190 Y276.940 E1.72435
G1 X33.416 Y276.940 E1.75127
G1 X32.265 Y277.092 E1.79164
G1 X31.152 Y277.422 E1.83200
G1 X30.104 Y277.921 E1.87236
G1 X29.455 Y278.343 E1.89929
G1 X28.853 Y278.830 E1.92621
G1 X28.054 Y279.672 E1.96658
G1 X27.599 Y280.299 E1.99350
G1 X27.212 Y280.969 E2.02042
G1 X26.767 Y282.042 E2.06079
G1 X26.567 Y282.790 E2.08771
G1 X26.462 Y283.431 E2.11030
G1 X22.406 Y283.431 E2.25135
G1 X22.406 Y286.431 E2.35567
G1 X14.600 Y286.431 E2.62711
G1 X14.600 Y283.431 E2.73143
G1 X12.400 Y283.431 E2.80793
G1 X12.400 Y242.141 E4.24370
G1 X12.328 Y241.456 E4.26765
G1 X12.114 Y240.789 E4.29200
G1 X11.769 Y240.180 E4.31635
G1 X11.318 Y239.655 E4.34040
G1 X11.994 Y239.136 E4.37002
G1 X12.512 Y238.640 E4.39499
G1 X13.186 Y237.800 E4.43241
G1 X13.559 Y237.187 E4.45737
G1 X13.993 Y236.202 E4.49480
G1 X14.195 Y235.513 E4.51976
G1 X14.324 Y234.807 E4.54472
G1 X14.377 Y233.732 E4.58215
G1 X14.319 Y233.016 E4.60711
G1 X14.187 Y232.311 E4.63208
G1 X13.982 Y231.623 E4.65704
G1 X13.707 Y230.960 E4.68200
G1 X13.363 Y230.329 E4.70697
G1 X12.956 Y229.738 E4.73193
G1 X12.122 Y228.825 E4.77494
G1 X26.501 Y228.825 E5.27494
G1 X27.299 Y228.927 E5.30290
G1 X28.105 Y229.114 E5.33168
G1 X28.888 Y229.380 E5.36045
G1 X29.641 Y229.724 E5.38922
G1 X30.695 Y230.377 E5.43236
G1 X31.339 Y230.897 E5.46113
G1 X31.927 Y231.480 E5.48990
G1 X32.691 Y232.456 E5.53303
G1 X32.999 Y233.003 E5.55483
G1 X33.273 Y233.792 E5.58387
G1 X33.381 Y234.620 E5.61291
G1 X33.351 Y235.246 E5.63471
G1 X33.163 Y236.060 E5.66375
G1 X32.916 Y236.636 E5.68555
G1 X32.584 Y237.168 E5.70735
G1 X32.175 Y237.643 E5.72914
G1 X31.307 Y238.451 E5.77038
G1 X30.706 Y239.279 E5.80596
G1 X30.290 Y240.214 E5.84153
G1 X30.111 Y240.960 E5.86824
G1 X30.058 Y241.470 E5.88605
G1 X30.058 Y267.186 E6.78026
G1 X30.218 Y268.197 E6.81586
G1 X30.585 Y269.153 E6.85146
G1 X30.986 Y269.808 E6.87819
G1 X31.671 Y270.569 E6.91379
G1 X32.281 Y271.036 E6.94051
G1 X32.956 Y271.403 E6.96723
G1 X33.930 Y271.720 E7.00283
G1 X34.692 Y271.820 E7.02955
G1 X68.310 Y271.820 E8.19857
G1 X69.063 Y271.722 E8.22497
G1 X69.553 Y271.593 E8.24258
G1 X70.026 Y271.413 E8.26019
G1 X70.696 Y271.055 E8.28659
G1 X71.108 Y270.760 E8.30420
G1 X71.663 Y270.243 E8.33060
G1 X72.381 Y269.311 E8.37149
G1 X72.814 Y268.860 E8.39323
G1 X73.488 Y268.372 E8.42219
G1 X74.247 Y268.029 E8.45115
G1 X75.060 Y267.847 E8.48011
G1 X75.893 Y267.833 E8.50907
G1 X76.890 Y267.984 E8.54414
G1 X78.445 Y268.362 E8.59978
G1 X79.953 Y268.896 E8.65542
G1 X80.685 Y269.221 E8.68325
G1 X81.399 Y269.582 E8.71108
G1 X82.767 Y270.412 E8.76672
G1 X84.042 Y271.378 E8.82237
G1 X85.213 Y272.470 E8.87801
G1 X85.754 Y273.059 E8.90584
G1 X86.743 Y274.317 E8.96148
G1 X87.188 Y274.982 E8.98931
G1 X87.973 Y276.377 E9.04495
G1 X88.311 Y277.102 E9.07278
G1 X88.873 Y278.600 E9.12842
G1 X89.278 Y280.148 E9.18406
G1 X89.421 Y280.936 E9.21189
G1 X89.585 Y282.528 E9.26753
G1 X89.608 Y283.431 E9.29895
G1 X74.466 Y283.431 E9.82549
G1 X74.754 Y283.779 F9000.000
G1 F900.000
G1 X74.754 Y286.779 E9.92981
G1 X66.251 Y286.779 E10.22549
G1 X66.251 Y283.779 E10.32981
G1 X40.828 Y283.779 E11.21386
G1 X40.611 Y282.503 E11.25886
G1 X40.383 Y281.802 E11.28452
G1 X40.083 Y281.128 E11.31017
G1 X39.714 Y280.489 E11.33583
G1 X39.281 Y279.892 E11.36148
G1 X38.519 Y279.089 E11.39994
G1 X37.946 Y278.625 E11.42560
G1 X37.327 Y278.223 E11.45125
G1 X36.329 Y277.747 E11.48972
G1 X35.627 Y277.519 E11.51537
G1 X34.905 Y277.366 E11.54103
G1 X34.172 Y277.289 E11.56668
G1 X33.434 Y277.289 E11.59234
G1 X32.700 Y277.366 E11.61799
G1 X31.978 Y277.519 E11.64365
G1 X30.936 Y277.888 E11.68211
G1 X29.964 Y278.416 E11.72057
G1 X29.367 Y278.850 E11.74623
G1 X28.819 Y279.343 E11.77188
G1 X28.325 Y279.892 E11.79754
G1 X27.891 Y280.489 E11.82319
G1 X27.363 Y281.461 E11.86166
G1 X26.994 Y282.503 E11.90012
G1 X26.778 Y283.779 E11.94511
G1 X22.754 Y283.779 E12.08503
G1 X22.754 Y286.779 E12.18935
G1 X14.251 Y286.779 E12.48502
G1 X14.251 Y283.779 E12.58934
G1 X12.409 Y283.769 E12.65340
G1 X12.167 Y283.630 E12.66310
G1 X12.052 Y283.351 E12.67358
G1 X12.047 Y241.995 E14.11166
G1 X11.950 Y241.374 E14.13351
G1 X11.654 Y240.648 E14.16079
G1 X11.289 Y240.136 E14.18264
G1 X10.706 Y239.615 E14.20984
G1 X11.502 Y239.088 E14.24303
G1 X12.258 Y238.401 E14.27856
G1 X12.898 Y237.604 E14.31409
G1 X13.252 Y237.022 E14.33779
G1 X13.664 Y236.087 E14.37331
G1 X13.856 Y235.433 E14.39701
G1 X13.978 Y234.762 E14.42071
G1 X14.029 Y233.742 E14.45624
G1 X13.974 Y233.063 E14.47993
G1 X13.848 Y232.393 E14.50363
G1 X13.654 Y231.740 E14.52733
G1 X13.237 Y230.807 E14.56286
G1 X12.881 Y230.226 E14.58655
G1 X12.465 Y229.685 E14.61025
G1 X11.996 Y229.191 E14.63395
G1 X11.141 Y228.476 E14.67270
G1 X26.519 Y228.476 E15.20742
G1 X27.360 Y228.584 E15.23692
G1 X28.612 Y228.907 E15.28189
G1 X29.414 Y229.226 E15.31188
G1 X30.179 Y229.623 E15.34187
G1 X30.901 Y230.095 E15.37186
G1 X31.571 Y230.638 E15.40185
G1 X32.184 Y231.245 E15.43184
G1 X32.981 Y232.263 E15.47680
G1 X33.315 Y232.856 E15.50045
G1 X33.612 Y233.712 E15.53196
G1 X33.729 Y234.610 E15.56347
G1 X33.697 Y235.289 E15.58712
G1 X33.493 Y236.172 E15.61863
G1 X33.225 Y236.797 E15.64228
G1 X32.865 Y237.374 E15.66593
G1 X32.421 Y237.890 E15.68958
G1 X31.566 Y238.684 E15.73015
G1 X31.008 Y239.453 E15.76319
G1 X30.622 Y240.321 E15.79623
G1 X30.456 Y241.015 E15.82104
G1 X30.406 Y241.488 E15.83758
G1 X30.406 Y267.167 E16.73052
G1 X30.555 Y268.107 E16.76359
G1 X30.895 Y268.994 E16.79666
G1 X31.268 Y269.603 E16.82148
G1 X31.905 Y270.310 E16.85455
G1 X32.471 Y270.744 E16.87936
G1 X33.098 Y271.085 E16.90418
G1 X34.003 Y271.379 E16.93725
G1 X34.710 Y271.472 E16.96207
G1 X68.292 Y271.472 E18.12982
G1 X68.992 Y271.381 E18.15434
G1 X69.446 Y271.261 E18.17070
G1 X69.886 Y271.094 E18.18706
G1 X70.508 Y270.761 E18.21158
G1 X71.243 Y270.176 E18.24425
G1 X72.260 Y268.918 E18.30049
G1 X72.754 Y268.454 E18.32408
G1 X73.512 Y267.962 E18.35550
G1 X74.137 Y267.699 E18.37908
G1 X75.019 Y267.501 E18.41050
G1 X75.922 Y267.486 E18.44192
G1 X76.955 Y267.642 E18.47823
G1 X78.544 Y268.028 E18.53511
G1 X80.086 Y268.574 E18.59200
G1 X80.834 Y268.906 E18.62045
G1 X81.564 Y269.275 E18.64890
G1 X82.963 Y270.124 E18.70578
G1 X84.267 Y271.112 E18.76267
G1 X85.463 Y272.227 E18.81955
G1 X86.017 Y272.830 E18.84800
G1 X87.028 Y274.116 E18.90488
G1 X87.483 Y274.796 E18.93334
G1 X88.285 Y276.221 E18.99022
G1 X88.630 Y276.963 E19.01867
G1 X89.205 Y278.495 E19.07555
G1 X89.620 Y280.077 E19.13244
G1 X89.766 Y280.882 E19.16089
G1 X89.933 Y282.510 E19.21777
G1 X89.944 Y283.421 E19.24948
G1 X89.787 Y283.678 E19.25996
G1 X89.496 Y283.779 E19.27067
G1 X74.814 Y283.779 E19.78119
G1 X75.103 Y284.128 F9000.000
;TYPE:External perimeter
G1 F900.000
G1 X75.103 Y287.128 E19.88551
G1 X65.903 Y287.128 E20.20542
G1 X65.903 Y284.128 E20.30974
G1 X40.498 Y284.128 E21.19315
G1 X40.356 Y282.935 E21.23493
G1 X40.175 Y282.257 E21.25931
G1 X39.924 Y281.602 E21.28370
G1 X39.605 Y280.978 E21.30809
G1 X39.223 Y280.389 E21.33247
G1 X38.782 Y279.844 E21.35686
G1 X38.286 Y279.348 E21.38125
G1 X37.741 Y278.907 E21.40563
G1 X37.153 Y278.525 E21.43002
G1 X36.204 Y278.073 E21.46658
G1 X35.537 Y277.856 E21.49097
G1 X34.851 Y277.710 E21.51535
G1 X34.153 Y277.637 E21.53974
G1 X33.452 Y277.637 E21.56412
G1 X32.755 Y277.710 E21.58851
G1 X32.069 Y277.856 E21.61290
G1 X31.078 Y278.207 E21.64946
G1 X30.154 Y278.708 E21.68602
G1 X29.586 Y279.121 E21.71040
G1 X29.065 Y279.590 E21.73479
G1 X28.596 Y280.111 E21.75918
G1 X28.184 Y280.678 E21.78356
G1 X27.682 Y281.602 E21.82012
G1 X27.431 Y282.257 E21.84451
G1 X27.249 Y282.935 E21.86889
G1 X27.108 Y284.128 E21.91067
G1 X23.103 Y284.128 E22.04994
G1 X23.103 Y287.128 E22.15426
G1 X13.903 Y287.128 E22.47417
G1 X13.903 Y284.128 E22.57849
G1 X12.255 Y284.088 E22.63579
G1 X11.881 Y283.831 E22.65159
G1 X11.707 Y283.411 E22.66739
G1 X11.699 Y242.013 E24.10692
G1 X11.574 Y241.329 E24.13109
G1 X11.201 Y240.585 E24.16005
G1 X10.728 Y240.076 E24.18422
G1 X10.007 Y239.575 E24.21474
G1 X10.759 Y239.180 E24.24427
G1 X11.538 Y238.608 E24.27790
G1 X12.219 Y237.921 E24.31153
G1 X12.784 Y237.136 E24.34516
G1 X13.220 Y236.273 E24.37879
G1 X13.516 Y235.352 E24.41242
G1 X13.665 Y234.397 E24.44605
G1 X13.663 Y233.430 E24.47968
G1 X13.425 Y232.163 E24.52449
G1 X13.078 Y231.261 E24.55812
G1 X12.769 Y230.694 E24.58055
G1 X11.984 Y229.672 E24.62535
G1 X11.266 Y229.025 E24.65898
G1 X10.476 Y228.511 E24.69174
G1 X10.546 Y228.413 E24.69591
G1 X10.840 Y228.194 E24.70864
G1 X11.162 Y228.128 E24.72008
G1 X26.537 Y228.128 E25.25471
G1 X27.422 Y228.241 E25.28574
G1 X28.725 Y228.577 E25.33253
G1 X29.559 Y228.909 E25.36374
G1 X30.355 Y229.322 E25.39495
G1 X31.106 Y229.814 E25.42616
G1 X31.804 Y230.378 E25.45737
G1 X32.442 Y231.010 E25.48858
G1 X33.013 Y231.702 E25.51979
G1 X33.522 Y232.489 E25.55238
G1 X33.889 Y233.395 E25.58636
G1 X34.039 Y234.113 E25.61186
G1 X34.067 Y235.089 E25.64584
G1 X33.896 Y236.051 E25.67981
G1 X33.534 Y236.959 E25.71379
G1 X33.145 Y237.581 E25.73929
G1 X32.667 Y238.137 E25.76479
G1 X31.826 Y238.917 E25.80470
G1 X31.310 Y239.627 E25.83521
G1 X30.953 Y240.429 E25.86572
G1 X30.754 Y241.506 E25.90382
G1 X30.754 Y267.149 E26.79550
G1 X30.891 Y268.016 E26.82603
G1 X31.206 Y268.836 E26.85656
G1 X31.550 Y269.398 E26.87948
G1 X32.138 Y270.051 E26.91001
G1 X32.661 Y270.452 E26.93293
G1 X33.240 Y270.766 E26.95585
G1 X34.075 Y271.038 E26.98638
G1 X34.728 Y271.124 E27.00930
G1 X68.274 Y271.124 E28.17579
G1 X69.340 Y270.929 E28.21346
G1 X70.320 Y270.468 E28.25113
G1 X70.999 Y269.927 E28.28129
G1 X72.003 Y268.683 E28.33688
G1 X72.536 Y268.182 E28.36231
G1 X73.353 Y267.652 E28.39619
G1 X74.260 Y267.297 E28.43007
G1 X75.220 Y267.132 E28.46395
