; generated by SuperSlicer 2.3.57 on 2022-03-15 at 19:58:54 UTC


;
;

;
;
; 

; external perimeters extrusion width = 0.20mm
; perimeters extrusion width = 0.23mm
; infill extrusion width = 0.36mm
; solid infill extrusion width = 0.28mm
; top infill extrusion width = 0.20mm
; support material extrusion width = 0.21mm
; first layer extrusion width = 0.24mm

; external perimeters extrusion width = 0.20mm
; perimeters extrusion width = 0.23mm
; infill extrusion width = 0.36mm
; solid infill extrusion width = 0.28mm
; top infill extrusion width = 0.20mm
; support material extrusion width = 0.21mm
; first layer extrusion width = 0.24mm

; object:{"name":"LogoBase-80p","id":"LogoBase-80p.STL id:0 copy 0","object_center":[146.862049,151.990010,0.000000],"boundingbox_center":[146.862049,151.990010,1.407800],"boundingbox_size":[30.275903,20.018280,2.815599]}
; object:{"name":"LogoBase-80p","id":"LogoBase-80p.STL id:1 copy 0","object_center":[146.862049,178.009140,0.000000],"boundingbox_center":[146.862049,178.009140,1.407800],"boundingbox_size":[30.275903,20.018280,2.815599]}
; object:{"name":"LogoBase-80p","id":"LogoBase-80p.STL id:2 copy 0","object_center":[183.137951,178.009140,0.000000],"boundingbox_center":[183.137951,178.009140,1.407800],"boundingbox_size":[30.275903,20.018280,2.815599]}
; object:{"name":"LogoBase-80p","id":"LogoBase-80p.STL id:3 copy 0","object_center":[183.137951,151.990010,0.000000],"boundingbox_center":[183.137951,151.990010,1.407800],"boundingbox_size":[30.275903,20.018280,2.815599]}
; object:{"name":"LogoBase-80p","id":"LogoBase-80p.STL id:4 copy 0","object_center":[146.862049,125.970880,0.000000],"boundingbox_center":[146.862049,125.970880,1.407800],"boundingbox_size":[30.275903,20.018280,2.815599]}
; object:{"name":"LogoBase-80p","id":"LogoBase-80p.STL id:5 copy 0","object_center":[183.137951,125.970880,0.000000],"boundingbox_center":[183.137951,125.970880,1.407800],"boundingbox_size":[30.275903,20.018280,2.815599]}
; object:{"name":"LogoBase-80p","id":"LogoBase-80p.STL id:6 copy 0","object_center":[165.000000,204.028270,0.000000],"boundingbox_center":[165.000000,204.028270,1.407800],"boundingbox_size":[30.275903,20.018280,2.815599]}
; plater:{"center":[165.000000,164.999575,0.000000],"boundingbox_center":[165.000000,164.999575,1.407800],"boundingbox_size":[66.551805,98.075670,2.815599]}

;TYPE:Custom
START_PRINT T_BED=60 T_EXTRUDER=205
M107
G21 ; set units to millimeters
G90 ; use absolute coordinates
M83 ; use relative distances for extrusion
; Filament gcode
M104 S205 ; set temperature
M109 S205 ; set temperature and wait for it to be reached
M190 S60 ; set bed temperature and wait for it to be reached
M107
;LAYER_CHANGE
;Z:0.1
;HEIGHT:0.1
G1 Z0.1 F9000
G1 E-0.8 F3000
G1 X129.32 Y113.87 F9000
G1 E0.8 F1800
; External perimeter
;Skirt
SET_VELOCITY_LIMIT ACCEL=300 ACCEL_TO_DECEL=3000 SQUARE_CORNER_VELOCITY=5

; Support material

;TYPE:Skirt
;WIDTH:0.24
G1 X129.045 Y114.232 E0.00413
G1 X128.819 Y114.632 E0.00417
G1 X128.579 Y115.324 E0.00666
G1 X128.496 Y116.048 E0.00662
G1 X128.496 Y187.921 E0.65302
G1 X128.556 Y188.548 E0.00572
G1 X128.752 Y189.198 E0.00617
G1 X129.079 Y189.799 E0.00621
G1 X147.239 Y215.851 E0.28854
G1 X147.504 Y216.181 E0.00385
G1 X147.813 Y216.478 E0.00389
G1 X148.156 Y216.733 E0.00389
G1 X148.53 Y216.941 E0.00389
G1 X149.209 Y217.179 E0.00654
G1 X149.928 Y217.265 E0.00658
G1 X180.044 Y217.245 E0.27363
G1 X180.444 Y217.22 E0.00364
G1 X180.838 Y217.147 E0.00364
G1 X181.582 Y216.864 E0.00723
G1 X182.228 Y216.422 E0.00711
G1 X182.75 Y215.846 E0.00707
G1 X200.907 Y189.799 E0.28848
G1 X201.181 Y189.328 E0.00495
G1 X201.421 Y188.635 E0.00666
G1 X201.504 Y187.911 E0.00662
G1 X201.501 Y115.932 E0.65399
G1 X201.416 Y115.303 E0.00576
G1 X201.211 Y114.698 E0.00581
G1 X200.897 Y114.146 E0.00576
G1 X200.484 Y113.665 E0.00576
G1 X199.987 Y113.27 E0.00576
G1 X199.42 Y112.975 E0.00581
G1 X198.812 Y112.795 E0.00576
G1 X198.18 Y112.734 E0.00576
G1 X131.735 Y112.735 E0.60372
G1 X131.277 Y112.779 E0.00417
G1 X130.835 Y112.884 E0.00413
G1 X130.411 Y113.049 E0.00413
G1 X130.009 Y113.272 E0.00417
G1 X129.643 Y113.549 E0.00417
G1 X129.342 Y113.848 E0.00386
G1 X129.495 Y114.003 F9000
G1 F1800
G1 X129.231 Y114.347 E0.00394
G1 X129.018 Y114.722 E0.00392
G1 X128.793 Y115.371 E0.00624
G1 X128.715 Y116.053 E0.00624
G1 X128.715 Y187.92 E0.65297
G1 X128.771 Y188.505 E0.00534
G1 X128.954 Y189.113 E0.00577
G1 X129.259 Y189.675 E0.00581
G1 X147.419 Y215.727 E0.28854
G1 X147.67 Y216.039 E0.00364
G1 X147.956 Y216.313 E0.0036
G1 X148.274 Y216.549 E0.0036
G1 X148.624 Y216.744 E0.00364
G1 X149.26 Y216.966 E0.00612
G1 X149.934 Y217.046 E0.00616
G1 X180.045 Y217.026 E0.27359
G1 X180.787 Y216.934 E0.00679
G1 X181.485 Y216.669 E0.00679
G1 X182.084 Y216.258 E0.00659
G1 X182.574 Y215.716 E0.00663
G1 X200.728 Y189.674 E0.28843
G1 X200.982 Y189.238 E0.00459
G1 X201.207 Y188.589 E0.00624
G1 X201.285 Y187.911 E0.0062
G1 X201.283 Y115.948 E0.65384
G1 X201.204 Y115.357 E0.00541
G1 X201.014 Y114.792 E0.00541
G1 X200.723 Y114.278 E0.00537
G1 X200.335 Y113.825 E0.00541
G1 X199.873 Y113.456 E0.00537
G1 X199.344 Y113.18 E0.00541
G1 X198.773 Y113.01 E0.00541
G1 X198.18 Y112.952 E0.00541
G1 X131.745 Y112.953 E0.60362
G1 X131.32 Y112.994 E0.00388
G1 X130.905 Y113.091 E0.00388
G1 X130.507 Y113.245 E0.00388
G1 X130.134 Y113.452 E0.00388
G1 X129.793 Y113.708 E0.00388
G1 X129.516 Y113.982 E0.00354
; INIT printing object LogoBase-80p.STL id:0 copy 0
G1 E-0.8 F3000
; printing object LogoBase-80p.STL id:0 copy 0
G1 X132.163 Y142.419 F9000
G1 E0.8 F1800
; External perimeter
;Perimeter
SET_VELOCITY_LIMIT ACCEL=2000 ACCEL_TO_DECEL=2000 SQUARE_CORNER_VELOCITY=5

; Overhang perimeter

;TYPE:Internal perimeter
G1 X161.561 Y142.419 E0.26711
G1 X161.561 Y161.54 E0.17373
G1 X132.163 Y161.56 E0.26711
G1 X132.163 Y142.449 E0.17364
G1 X131.944 Y161.779 F9000
; External perimeter
;ExternalPerimeter
SET_VELOCITY_LIMIT ACCEL=1000 ACCEL_TO_DECEL=1000 SQUARE_CORNER_VELOCITY=5

; Perimeter

;TYPE:External perimeter
G1 F1800
G1 X131.944 Y142.201 E0.17788
G1 X132.004 Y142.201 E0.00049
G1 X132.124 Y142.201 E0.00103
G1 X161.78 Y142.201 E0.26945
G1 X161.78 Y142.261 E0.00049
G1 X161.78 Y142.381 E0.00103
G1 X161.78 Y161.759 E0.17606
G1 X161.72 Y161.759 E0.00049
G1 X161.6 Y161.759 E0.00103
G1 X131.974 Y161.779 E0.26918
;WIPE_START
G1 X132.044 Y161.606 F9000
;WIPE_END
G1 X161.529 Y142.894
; External perimeter
;SolidInfill
SET_VELOCITY_LIMIT ACCEL=2000 ACCEL_TO_DECEL=2000 SQUARE_CORNER_VELOCITY=5

; Bridge infill

;TYPE:Solid infill
;WIDTH:0.24066
G1 F2400
G1 X161.181 Y142.546 E0.00448
G1 X160.872 Y142.546 E0.00282
G1 X161.435 Y143.109 E0.00725
G1 X161.435 Y143.418 E0.00282
G1 X160.563 Y142.546 E0.01124
G1 X160.254 Y142.546 E0.00282
G1 X161.435 Y143.727 E0.01522
G1 X161.435 Y144.036 E0.00282
G1 X159.945 Y142.546 E0.0192
G1 X159.636 Y142.546 E0.00282
G1 X161.435 Y144.345 E0.02318
G1 X161.435 Y144.654 E0.00282
G1 X159.327 Y142.546 E0.02716
G1 X159.017 Y142.546 E0.00282
G1 X161.435 Y144.963 E0.03115
G1 X161.435 Y145.272 E0.00282
G1 X158.708 Y142.546 E0.03513
G1 X158.399 Y142.546 E0.00282
G1 X161.435 Y145.582 E0.03911
G1 X161.435 Y145.891 E0.00282
G1 X158.09 Y142.546 E0.04309
G1 X157.781 Y142.546 E0.00282
G1 X161.435 Y146.2 E0.04707
G1 X161.435 Y146.509 E0.00282
G1 X157.472 Y142.546 E0.05106
G1 X157.163 Y142.546 E0.00282
G1 X161.435 Y146.818 E0.05504
G1 X161.435 Y147.127 E0.00282
G1 X156.854 Y142.546 E0.05902
G1 X156.545 Y142.546 E0.00282
G1 X161.435 Y147.436 E0.063
G1 X161.435 Y147.745 E0.00282
G1 X156.236 Y142.546 E0.06699
G1 X155.927 Y142.546 E0.00282
G1 X161.435 Y148.054 E0.07097
G1 X161.435 Y148.363 E0.00282
G1 X155.618 Y142.546 E0.07495
G1 X155.309 Y142.546 E0.00282
G1 X161.435 Y148.672 E0.07893
G1 X161.435 Y148.981 E0.00282
G1 X155 Y142.546 E0.08291
G1 X154.691 Y142.546 E0.00282
G1 X161.435 Y149.29 E0.0869
G1 X161.435 Y149.599 E0.00282
G1 X154.382 Y142.546 E0.09088
G1 X154.072 Y142.546 E0.00282
G1 X161.435 Y149.908 E0.09486
G1 X161.435 Y150.217 E0.00282
G1 X153.763 Y142.546 E0.09884
G1 X153.454 Y142.546 E0.00282
G1 X161.435 Y150.527 E0.10282
G1 X161.435 Y150.836 E0.00282
G1 X153.145 Y142.546 E0.10681
G1 X152.836 Y142.546 E0.00282
G1 X161.435 Y151.145 E0.11079
G1 X161.435 Y151.454 E0.00282
G1 X152.527 Y142.546 E0.11477
G1 X152.218 Y142.546 E0.00282
G1 X161.435 Y151.763 E0.11875
G1 X161.435 Y152.072 E0.00282
G1 X151.909 Y142.546 E0.12274
G1 X151.6 Y142.546 E0.00282
G1 X161.435 Y152.381 E0.12672
G1 X161.435 Y152.69 E0.00282
G1 X151.291 Y142.546 E0.1307
G1 X150.982 Y142.546 E0.00282
G1 X161.435 Y152.999 E0.13468
G1 X161.435 Y153.308 E0.00282
G1 X150.673 Y142.546 E0.13866
G1 X150.364 Y142.546 E0.00282
G1 X161.435 Y153.617 E0.14265
G1 X161.435 Y153.926 E0.00282
G1 X150.055 Y142.546 E0.14663
G1 X149.746 Y142.546 E0.00282
G1 X161.435 Y154.235 E0.15061
G1 X161.435 Y154.544 E0.00282
G1 X149.437 Y142.546 E0.15459
G1 X149.127 Y142.546 E0.00282
G1 X161.435 Y154.853 E0.15857
G1 X161.435 Y155.162 E0.00282
G1 X148.818 Y142.546 E0.16256
G1 X148.509 Y142.546 E0.00282
G1 X161.435 Y155.471 E0.16654
G1 X161.435 Y155.781 E0.00282
G1 X148.2 Y142.546 E0.17052
G1 X147.891 Y142.546 E0.00282
G1 X161.435 Y156.09 E0.1745
G1 X161.435 Y156.399 E0.00282
G1 X147.582 Y142.546 E0.17848
G1 X147.273 Y142.546 E0.00282
G1 X161.435 Y156.708 E0.18247
G1 X161.435 Y157.017 E0.00282
G1 X146.964 Y142.546 E0.18645
G1 X146.655 Y142.546 E0.00282
G1 X161.435 Y157.326 E0.19043
G1 X161.435 Y157.635 E0.00282
G1 X146.346 Y142.546 E0.19441
G1 X146.037 Y142.546 E0.00282
G1 X161.435 Y157.944 E0.1984
G1 X161.435 Y158.253 E0.00282
G1 X145.728 Y142.546 E0.20238
G1 X145.419 Y142.546 E0.00282
G1 X161.435 Y158.562 E0.20636
G1 X161.435 Y158.871 E0.00282
G1 X145.11 Y142.546 E0.21034
G1 X144.801 Y142.546 E0.00282
G1 X161.435 Y159.18 E0.21432
G1 X161.435 Y159.489 E0.00282
G1 X144.492 Y142.546 E0.21831
G1 X144.183 Y142.546 E0.00282
G1 X161.435 Y159.798 E0.22229
G1 X161.435 Y160.107 E0.00282
G1 X143.873 Y142.546 E0.22627
G1 X143.564 Y142.546 E0.00282
G1 X161.435 Y160.416 E0.23025
G1 X161.435 Y160.726 E0.00282
G1 X143.255 Y142.546 E0.23423
G1 X142.946 Y142.546 E0.00282
G1 X161.435 Y161.035 E0.23822
G1 X161.435 Y161.344 E0.00282
G1 X142.637 Y142.546 E0.2422
G1 X142.328 Y142.546 E0.00282
G1 X161.196 Y161.414 E0.2431
G1 X160.887 Y161.414 E0.00281
G1 X142.019 Y142.546 E0.2431
G1 X141.71 Y142.546 E0.00282
G1 X160.578 Y161.414 E0.24311
G1 X160.269 Y161.414 E0.00281
G1 X141.401 Y142.546 E0.24311
G1 X141.092 Y142.546 E0.00282
G1 X159.96 Y161.415 E0.24311
G1 X159.651 Y161.415 E0.00281
G1 X140.783 Y142.546 E0.24312
G1 X140.474 Y142.546 E0.00282
G1 X159.343 Y161.415 E0.24312
G1 X159.034 Y161.415 E0.00281
G1 X140.165 Y142.546 E0.24312
G1 X139.856 Y142.546 E0.00282
G1 X158.725 Y161.415 E0.24312
G1 X158.416 Y161.416 E0.00281
G1 X139.547 Y142.546 E0.24313
G1 X139.238 Y142.546 E0.00282
G1 X158.107 Y161.416 E0.24313
G1 X157.798 Y161.416 E0.00281
G1 X138.928 Y142.546 E0.24313
G1 X138.619 Y142.546 E0.00282
G1 X157.49 Y161.416 E0.24313
G1 X157.181 Y161.416 E0.00281
G1 X138.31 Y142.546 E0.24314
G1 X138.001 Y142.546 E0.00282
G1 X156.872 Y161.417 E0.24314
G1 X156.563 Y161.417 E0.00281
G1 X137.692 Y142.546 E0.24314
G1 X137.383 Y142.546 E0.00282
G1 X156.254 Y161.417 E0.24315
G1 X155.945 Y161.417 E0.00281
G1 X137.074 Y142.546 E0.24315
G1 X136.765 Y142.546 E0.00282
G1 X155.636 Y161.418 E0.24315
G1 X155.328 Y161.418 E0.00281
G1 X136.456 Y142.546 E0.24315
G1 X136.147 Y142.546 E0.00282
G1 X155.019 Y161.418 E0.24316
G1 X154.71 Y161.418 E0.00281
G1 X135.838 Y142.546 E0.24316
G1 X135.529 Y142.546 E0.00282
G1 X154.401 Y161.418 E0.24316
G1 X154.092 Y161.419 E0.00281
G1 X135.22 Y142.546 E0.24316
G1 X134.911 Y142.546 E0.00282
G1 X153.783 Y161.419 E0.24317
G1 X153.474 Y161.419 E0.00281
G1 X134.602 Y142.546 E0.24317
G1 X134.293 Y142.546 E0.00282
G1 X153.166 Y161.419 E0.24317
G1 X152.857 Y161.419 E0.00281
G1 X133.984 Y142.546 E0.24318
G1 X133.674 Y142.546 E0.00282
G1 X152.548 Y161.42 E0.24318
G1 X152.239 Y161.42 E0.00281
G1 X133.365 Y142.546 E0.24318
G1 X133.056 Y142.546 E0.00282
G1 X151.93 Y161.42 E0.24318
G1 X151.621 Y161.42 E0.00281
G1 X132.747 Y142.546 E0.24319
G1 X132.438 Y142.546 E0.00282
G1 X151.313 Y161.42 E0.24319
G1 X151.004 Y161.421 E0.00281
G1 X132.289 Y142.706 E0.24113
G1 X132.289 Y143.015 E0.00282
G1 X150.695 Y161.421 E0.23715
G1 X150.386 Y161.421 E0.00281
G1 X132.289 Y143.324 E0.23317
G1 X132.289 Y143.634 E0.00282
G1 X150.077 Y161.421 E0.22919
G1 X149.768 Y161.422 E0.00281
G1 X132.289 Y143.943 E0.22521
G1 X132.289 Y144.252 E0.00282
G1 X149.459 Y161.422 E0.22123
G1 X149.151 Y161.422 E0.00281
G1 X132.289 Y144.561 E0.21725
G1 X132.289 Y144.87 E0.00282
G1 X148.842 Y161.422 E0.21327
G1 X148.533 Y161.422 E0.00281
G1 X132.289 Y145.179 E0.20929
G1 X132.289 Y145.488 E0.00282
G1 X148.224 Y161.423 E0.20531
G1 X147.915 Y161.423 E0.00281
G1 X132.289 Y145.797 E0.20133
G1 X132.289 Y146.106 E0.00282
G1 X147.606 Y161.423 E0.19735
G1 X147.297 Y161.423 E0.00281
G1 X132.289 Y146.415 E0.19337
G1 X132.289 Y146.724 E0.00282
G1 X146.989 Y161.423 E0.18939
G1 X146.68 Y161.424 E0.00281
G1 X132.289 Y147.033 E0.18542
G1 X132.289 Y147.342 E0.00282
G1 X146.371 Y161.424 E0.18144
G1 X146.062 Y161.424 E0.00281
G1 X132.289 Y147.651 E0.17746
G1 X132.289 Y147.96 E0.00282
G1 X145.753 Y161.424 E0.17348
G1 X145.444 Y161.424 E0.00281
G1 X132.289 Y148.269 E0.1695
G1 X132.289 Y148.579 E0.00282
G1 X145.136 Y161.425 E0.16552
G1 X144.827 Y161.425 E0.00281
G1 X132.289 Y148.888 E0.16154
G1 X132.289 Y149.197 E0.00282
G1 X144.518 Y161.425 E0.15756
G1 X144.209 Y161.425 E0.00281
G1 X132.289 Y149.506 E0.15358
G1 X132.289 Y149.815 E0.00282
G1 X143.9 Y161.426 E0.1496
G1 X143.591 Y161.426 E0.00281
G1 X132.289 Y150.124 E0.14562
G1 X132.289 Y150.433 E0.00282
G1 X143.282 Y161.426 E0.14164
G1 X142.974 Y161.426 E0.00281
G1 X132.289 Y150.742 E0.13766
G1 X132.289 Y151.051 E0.00282
G1 X142.665 Y161.426 E0.13368
G1 X142.356 Y161.427 E0.00281
G1 X132.289 Y151.36 E0.1297
G1 X132.289 Y151.669 E0.00282
G1 X142.047 Y161.427 E0.12572
G1 X141.738 Y161.427 E0.00281
G1 X132.289 Y151.978 E0.12174
G1 X132.289 Y152.287 E0.00282
G1 X141.429 Y161.427 E0.11777
G1 X141.121 Y161.427 E0.00281
G1 X132.289 Y152.596 E0.11379
G1 X132.289 Y152.905 E0.00282
G1 X140.812 Y161.428 E0.10981
G1 X140.503 Y161.428 E0.00281
G1 X132.289 Y153.214 E0.10583
G1 X132.289 Y153.523 E0.00282
G1 X140.194 Y161.428 E0.10185
G1 X139.885 Y161.428 E0.00281
G1 X132.289 Y153.833 E0.09787
G1 X132.289 Y154.142 E0.00282
G1 X139.576 Y161.429 E0.09389
G1 X139.267 Y161.429 E0.00281
G1 X132.289 Y154.451 E0.08991
G1 X132.289 Y154.76 E0.00282
G1 X138.959 Y161.429 E0.08593
G1 X138.65 Y161.429 E0.00281
G1 X132.289 Y155.069 E0.08195
G1 X132.289 Y155.378 E0.00282
G1 X138.341 Y161.429 E0.07797
G1 X138.032 Y161.43 E0.00281
G1 X132.289 Y155.687 E0.07399
G1 X132.289 Y155.996 E0.00282
G1 X137.723 Y161.43 E0.07001
G1 X137.414 Y161.43 E0.00281
G1 X132.289 Y156.305 E0.06603
G1 X132.289 Y156.614 E0.00282
G1 X137.105 Y161.43 E0.06205
G1 X136.797 Y161.43 E0.00281
G1 X132.289 Y156.923 E0.05807
G1 X132.289 Y157.232 E0.00282
G1 X136.488 Y161.431 E0.05409
G1 X136.179 Y161.431 E0.00281
G1 X132.289 Y157.541 E0.05012
G1 X132.289 Y157.85 E0.00282
G1 X135.87 Y161.431 E0.04614
G1 X135.561 Y161.431 E0.00281
G1 X132.289 Y158.159 E0.04216
G1 X132.289 Y158.468 E0.00282
G1 X135.252 Y161.431 E0.03818
G1 X134.944 Y161.432 E0.00281
G1 X132.289 Y158.778 E0.0342
G1 X132.289 Y159.087 E0.00282
G1 X134.635 Y161.432 E0.03022
G1 X134.326 Y161.432 E0.00281
G1 X132.289 Y159.396 E0.02624
G1 X132.289 Y159.705 E0.00282
G1 X134.017 Y161.432 E0.02226
G1 X133.708 Y161.433 E0.00281
G1 X132.289 Y160.014 E0.01828
G1 X132.289 Y160.323 E0.00282
G1 X133.399 Y161.433 E0.0143
G1 X133.09 Y161.433 E0.00281
G1 X132.289 Y160.632 E0.01032
G1 X132.289 Y160.941 E0.00282
G1 X132.782 Y161.433 E0.00634
G1 X132.473 Y161.433 E0.00281
G1 X132.195 Y161.156 E0.00357
; INIT stop printing object LogoBase-80p.STL id:0 copy 0
; INIT printing object LogoBase-80p.STL id:4 copy 0
G1 E-0.8 F3000
; stop printing object LogoBase-80p.STL id:0 copy 0
; printing object LogoBase-80p.STL id:4 copy 0
G1 X132.178 Y135.541 F9000
