; generated by SuperSlicer 2.3.57 on 2022-02-26 at 18:04:37 UTC


;
;

;
;
; 

; external perimeters extrusion width = 0.40mm
; perimeters extrusion width = 0.45mm
; infill extrusion width = 0.72mm
; solid infill extrusion width = 0.56mm
; top infill extrusion width = 0.40mm
; support material extrusion width = 0.42mm
; first layer extrusion width = 0.48mm

; external perimeters extrusion width = 0.40mm
; perimeters extrusion width = 0.45mm
; infill extrusion width = 0.72mm
; solid infill extrusion width = 0.56mm
; top infill extrusion width = 0.40mm
; support material extrusion width = 0.42mm
; first layer extrusion width = 0.48mm

; object:{"name":"Post","id":"Post id:0 copy 0","object_center":[255.138688,165.000000,0.000000],"boundingbox_center":[255.138688,165.000000,10.875000],"boundingbox_size":[31.769470,112.090302,21.750000]}
; object:{"name":"Base","id":"Base.stl id:1 copy 0","object_center":[146.115265,165.000000,0.000000],"boundingbox_center":[146.115265,165.000000,4.875000],"boundingbox_size":[174.277374,66.049522,9.750000]}
; object:{"name":"Base","id":"Base.stl id:2 copy 0","object_center":[146.115265,237.049522,0.000000],"boundingbox_center":[146.115265,237.049522,4.875000],"boundingbox_size":[174.277374,66.049522,9.750000]}
; object:{"name":"Base","id":"Base.stl id:3 copy 0","object_center":[146.115265,92.950478,0.000000],"boundingbox_center":[146.115265,92.950478,4.875000],"boundingbox_size":[174.277374,66.049522,9.750000]}
; plater:{"center":[165.000000,165.000000,0.000000],"boundingbox_center":[165.000000,165.000000,10.875000],"boundingbox_size":[212.046845,210.148566,21.750000]}

;TYPE:Custom
START_PRINT T_BED=60 T_EXTRUDER=200
M107
G21 ; set units to millimeters
G90 ; use absolute coordinates
M83 ; use relative distances for extrusion
; Filament gcode
M104 S200 ; set temperature
M109 S200 ; set temperature and wait for it to be reached
M190 S60 ; set bed temperature and wait for it to be reached
M107
;LAYER_CHANGE
;Z:0.24
;HEIGHT:0.24
G1 Z0.24 F9000
G1 E-0.8 F3000
G1 X56.639 Y57.66 F9000
G1 E0.8 F1800
; External perimeter
;Skirt
SET_VELOCITY_LIMIT ACCEL=300 ACCEL_TO_DECEL=3000 SQUARE_CORNER_VELOCITY=5

; Support material

;TYPE:Skirt
;WIDTH:0.48
G1 X56.351 Y57.943 E0.01729
G1 X55.992 Y58.474 E0.02738
G1 X55.669 Y59.172 E0.03289
G1 X55.513 Y59.769 E0.02638
G1 X55.434 Y60.538 E0.03306
G1 X55.434 Y269.461 E8.93259
G1 X55.547 Y270.405 E0.04067
G1 X55.822 Y271.196 E0.03581
G1 X56.307 Y272.002 E0.04021
G1 X56.998 Y272.702 E0.04206
G1 X57.529 Y273.061 E0.02738
G1 X58.229 Y273.384 E0.03295
G1 X58.826 Y273.539 E0.02638
G1 X59.589 Y273.617 E0.03279
G1 X232.637 Y273.617 E7.39877
G1 X233.584 Y273.504 E0.04076
G1 X234.37 Y273.23 E0.03561
G1 X235.174 Y272.749 E0.04008
G1 X235.879 Y272.057 E0.04223
G1 X273.786 Y223.164 E2.64511
G1 X274.186 Y222.51 E0.0328
G1 X274.441 Y221.786 E0.0328
G1 X274.54 Y220.95 E0.03601
G1 X274.539 Y109.142 E4.7804
G1 X274.48 Y108.537 E0.02598
G1 X274.319 Y107.94 E0.02643
G1 X273.779 Y106.924 E0.04919
G1 X235.909 Y57.98 E2.64591
G1 X235.238 Y57.302 E0.04079
G1 X234.486 Y56.82 E0.03815
G1 X233.569 Y56.493 E0.04165
G1 X232.709 Y56.39 E0.03701
G1 X59.574 Y56.383 E7.40247
G1 X58.638 Y56.499 E0.04036
G1 X57.852 Y56.774 E0.03561
G1 X57.053 Y57.254 E0.03987
G1 X56.682 Y57.618 E0.02219
G1 X56.981 Y57.922 F9000
G1 F1800
G1 X56.683 Y58.215 E0.01785
G1 X56.366 Y58.684 E0.02421
G1 X56.072 Y59.316 E0.02982
G1 X55.862 Y60.539 E0.05303
G1 X55.862 Y269.459 E8.93246
G1 X55.965 Y270.312 E0.03677
G1 X56.208 Y271.009 E0.03156
G1 X56.64 Y271.731 E0.03597
G1 X57.265 Y272.367 E0.0381
G1 X57.737 Y272.686 E0.0244
G1 X58.373 Y272.98 E0.02992
G1 X59.594 Y273.189 E0.05299
G1 X232.635 Y273.189 E7.39845
G1 X233.487 Y273.086 E0.0367
G1 X234.185 Y272.844 E0.03156
G1 X234.909 Y272.412 E0.03605
G1 X235.547 Y271.787 E0.03819
G1 X273.447 Y222.902 E2.64468
G1 X273.8 Y222.325 E0.02892
G1 X274.024 Y221.687 E0.02892
G1 X274.111 Y220.949 E0.03174
G1 X274.111 Y109.153 E4.77989
G1 X273.914 Y108.081 E0.04662
G1 X273.436 Y107.181 E0.04356
G1 X235.574 Y58.248 E2.64529
G1 X234.972 Y57.638 E0.03666
G1 X234.303 Y57.208 E0.03398
G1 X233.473 Y56.91 E0.03773
G1 X232.709 Y56.818 E0.03287
G1 X59.582 Y56.812 E7.40215
G1 X58.734 Y56.916 E0.03651
G1 X58.042 Y57.158 E0.03137
G1 X57.322 Y57.588 E0.03586
G1 X57.024 Y57.88 E0.01786
; INIT printing object Post id:0 copy 0
G1 E-0.8 F3000
; printing object Post id:0 copy 0
G1 X259.364 Y110.18 F9000
G1 E0.8 F1800
; External perimeter
;Perimeter
SET_VELOCITY_LIMIT ACCEL=2000 ACCEL_TO_DECEL=2000 SQUARE_CORNER_VELOCITY=5

; Overhang perimeter

;TYPE:Internal perimeter
G1 X269.8 Y110.182 E0.44618
G1 X269.8 Y219.847 E4.68879
G1 X259.362 Y219.835 E0.44626
G1 X259.364 Y110.24 E4.6858
G1 X270.228 Y220.276 F9000
G1 F1800
G1 X258.934 Y220.263 E0.4829
G1 X258.936 Y109.751 E4.72499
G1 X270.228 Y109.753 E0.48282
G1 X270.228 Y220.216 E4.72288
G1 X270.657 Y220.705 F9000
; External perimeter
;ExternalPerimeter
SET_VELOCITY_LIMIT ACCEL=1000 ACCEL_TO_DECEL=1000 SQUARE_CORNER_VELOCITY=5

; Perimeter

;TYPE:External perimeter
G1 F1800
G1 X258.505 Y220.691 E0.51954
G1 X258.505 Y220.571 E0.0046
G1 X258.505 Y220.331 E0.00973
G1 X258.507 Y109.323 E4.74622
G1 X258.627 Y109.323 E0.00458
G1 X258.867 Y109.323 E0.00971
G1 X270.657 Y109.325 E0.50407
G1 X270.657 Y109.445 E0.0046
G1 X270.657 Y109.685 E0.00973
G1 X270.657 Y220.645 E4.74415
;WIPE_START
G1 X270.311 Y220.504 F9000
;WIPE_END
G1 X269.736 Y111.112
; External perimeter
;SolidInfill
SET_VELOCITY_LIMIT ACCEL=2000 ACCEL_TO_DECEL=2000 SQUARE_CORNER_VELOCITY=5

; Bridge infill

;TYPE:Solid infill
;WIDTH:0.472779
G1 F2400
G1 X269.054 Y110.43 E0.04062
G1 X268.447 Y110.43 E0.02552
G1 X269.551 Y111.534 E0.06574
G1 X269.551 Y112.14 E0.02552
G1 X267.841 Y110.43 E0.10184
G1 X267.235 Y110.43 E0.02552
G1 X269.551 Y112.746 E0.13793
G1 X269.551 Y113.352 E0.02552
G1 X266.629 Y110.43 E0.17403
G1 X266.023 Y110.429 E0.02552
G1 X269.551 Y113.958 E0.21012
G1 X269.551 Y114.564 E0.02552
G1 X265.417 Y110.429 E0.24622
G1 X264.811 Y110.429 E0.02552
G1 X269.551 Y115.17 E0.28231
G1 X269.551 Y115.776 E0.02552
G1 X264.205 Y110.429 E0.31841
G1 X263.599 Y110.429 E0.02552
G1 X269.551 Y116.382 E0.3545
G1 X269.551 Y116.988 E0.02552
G1 X262.993 Y110.429 E0.3906
G1 X262.387 Y110.429 E0.02552
G1 X269.551 Y117.594 E0.4267
G1 X269.551 Y118.2 E0.02552
G1 X261.781 Y110.429 E0.46279
G1 X261.175 Y110.429 E0.02552
G1 X269.551 Y118.806 E0.49889
G1 X269.551 Y119.412 E0.02552
G1 X260.568 Y110.429 E0.53498
G1 X259.962 Y110.429 E0.02552
G1 X269.551 Y120.017 E0.57108
G1 X269.551 Y120.623 E0.02552
G1 X259.613 Y110.685 E0.5919
G1 X259.613 Y111.291 E0.02552
G1 X269.551 Y121.229 E0.5919
G1 X269.551 Y121.835 E0.02552
G1 X259.613 Y111.897 E0.5919
G1 X259.613 Y112.503 E0.02552
G1 X269.551 Y122.441 E0.5919
G1 X269.551 Y123.047 E0.02552
G1 X259.613 Y113.109 E0.5919
G1 X259.613 Y113.715 E0.02552
G1 X269.551 Y123.653 E0.5919
G1 X269.551 Y124.259 E0.02552
G1 X259.613 Y114.321 E0.5919
G1 X259.613 Y114.927 E0.02552
G1 X269.551 Y124.865 E0.5919
G1 X269.551 Y125.471 E0.02552
G1 X259.613 Y115.533 E0.5919
G1 X259.613 Y116.139 E0.02552
G1 X269.551 Y126.077 E0.5919
G1 X269.551 Y126.683 E0.02552
G1 X259.613 Y116.745 E0.5919
G1 X259.613 Y117.351 E0.02552
G1 X269.551 Y127.289 E0.59191
G1 X269.551 Y127.895 E0.02552
G1 X259.613 Y117.957 E0.59191
G1 X259.613 Y118.563 E0.02552
G1 X269.551 Y128.501 E0.59191
G1 X269.551 Y129.107 E0.02552
G1 X259.613 Y119.169 E0.59191
G1 X259.613 Y119.775 E0.02552
G1 X269.551 Y129.713 E0.59191
G1 X269.551 Y130.319 E0.02552
G1 X259.613 Y120.38 E0.59191
G1 X259.613 Y120.986 E0.02552
G1 X269.551 Y130.925 E0.59191
G1 X269.551 Y131.531 E0.02552
G1 X259.613 Y121.592 E0.59191
G1 X259.613 Y122.198 E0.02552
G1 X269.551 Y132.137 E0.59191
G1 X269.551 Y132.743 E0.02552
G1 X259.613 Y122.804 E0.59191
G1 X259.613 Y123.41 E0.02552
G1 X269.551 Y133.349 E0.59191
G1 X269.551 Y133.955 E0.02552
G1 X259.613 Y124.016 E0.59191
G1 X259.613 Y124.622 E0.02552
G1 X269.551 Y134.561 E0.59191
G1 X269.551 Y135.167 E0.02552
G1 X259.612 Y125.228 E0.59191
G1 X259.612 Y125.834 E0.02552
G1 X269.551 Y135.773 E0.59191
G1 X269.551 Y136.379 E0.02552
G1 X259.612 Y126.44 E0.59191
G1 X259.612 Y127.046 E0.02552
G1 X269.551 Y136.985 E0.59192
G1 X269.551 Y137.591 E0.02552
G1 X259.612 Y127.652 E0.59192
G1 X259.612 Y128.258 E0.02552
G1 X269.551 Y138.197 E0.59192
G1 X269.551 Y138.803 E0.02552
G1 X259.612 Y128.864 E0.59192
G1 X259.612 Y129.47 E0.02552
G1 X269.551 Y139.409 E0.59192
G1 X269.551 Y140.015 E0.02552
G1 X259.612 Y130.076 E0.59192
G1 X259.612 Y130.682 E0.02552
G1 X269.551 Y140.621 E0.59192
G1 X269.551 Y141.227 E0.02552
G1 X259.612 Y131.288 E0.59192
G1 X259.612 Y131.894 E0.02552
G1 X269.551 Y141.833 E0.59192
G1 X269.551 Y142.439 E0.02552
G1 X259.612 Y132.5 E0.59192
G1 X259.612 Y133.106 E0.02552
G1 X269.551 Y143.045 E0.59192
G1 X269.551 Y143.651 E0.02552
G1 X259.612 Y133.712 E0.59192
G1 X259.612 Y134.318 E0.02552
G1 X269.551 Y144.257 E0.59192
G1 X269.551 Y144.863 E0.02552
G1 X259.612 Y134.924 E0.59192
G1 X259.612 Y135.53 E0.02552
G1 X269.551 Y145.469 E0.59192
G1 X269.551 Y146.075 E0.02552
G1 X259.612 Y136.136 E0.59193
G1 X259.612 Y136.742 E0.02552
G1 X269.551 Y146.681 E0.59193
G1 X269.551 Y147.287 E0.02552
G1 X259.612 Y137.348 E0.59193
G1 X259.612 Y137.954 E0.02552
G1 X269.551 Y147.893 E0.59193
G1 X269.551 Y148.499 E0.02552
G1 X259.612 Y138.56 E0.59193
G1 X259.612 Y139.166 E0.02552
G1 X269.551 Y149.105 E0.59193
G1 X269.551 Y149.711 E0.02552
G1 X259.612 Y139.772 E0.59193
G1 X259.612 Y140.378 E0.02552
G1 X269.551 Y150.317 E0.59193
G1 X269.551 Y150.923 E0.02552
G1 X259.612 Y140.984 E0.59193
G1 X259.612 Y141.59 E0.02552
G1 X269.551 Y151.529 E0.59193
G1 X269.551 Y152.135 E0.02552
G1 X259.612 Y142.196 E0.59193
G1 X259.612 Y142.801 E0.02552
G1 X269.551 Y152.741 E0.59193
G1 X269.551 Y153.347 E0.02552
G1 X259.612 Y143.407 E0.59193
G1 X259.612 Y144.013 E0.02552
G1 X269.551 Y153.953 E0.59193
G1 X269.551 Y154.559 E0.02552
G1 X259.612 Y144.619 E0.59193
G1 X259.612 Y145.225 E0.02552
G1 X269.551 Y155.165 E0.59193
G1 X269.551 Y155.771 E0.02552
G1 X259.612 Y145.831 E0.59194
G1 X259.612 Y146.437 E0.02552
G1 X269.551 Y156.377 E0.59194
G1 X269.551 Y156.982 E0.02552
G1 X259.612 Y147.043 E0.59194
G1 X259.612 Y147.649 E0.02552
G1 X269.551 Y157.588 E0.59194
G1 X269.551 Y158.194 E0.02552
G1 X259.612 Y148.255 E0.59194
G1 X259.612 Y148.861 E0.02552
G1 X269.551 Y158.8 E0.59194
G1 X269.551 Y159.406 E0.02552
G1 X259.612 Y149.467 E0.59194
G1 X259.612 Y150.073 E0.02552
G1 X269.551 Y160.012 E0.59194
G1 X269.551 Y160.618 E0.02552
G1 X259.612 Y150.679 E0.59194
G1 X259.612 Y151.285 E0.02552
G1 X269.551 Y161.224 E0.59194
G1 X269.551 Y161.83 E0.02552
G1 X259.612 Y151.891 E0.59194
G1 X259.612 Y152.497 E0.02552
G1 X269.551 Y162.436 E0.59194
G1 X269.551 Y163.042 E0.02552
G1 X259.612 Y153.103 E0.59194
G1 X259.612 Y153.709 E0.02552
G1 X269.551 Y163.648 E0.59194
G1 X269.551 Y164.254 E0.02552
G1 X259.612 Y154.315 E0.59194
G1 X259.612 Y154.921 E0.02552
G1 X269.551 Y164.86 E0.59194
G1 X269.551 Y165.466 E0.02552
G1 X259.612 Y155.527 E0.59195
G1 X259.612 Y156.133 E0.02552
G1 X269.551 Y166.072 E0.59195
G1 X269.551 Y166.678 E0.02552
G1 X259.612 Y156.739 E0.59195
G1 X259.612 Y157.345 E0.02552
G1 X269.551 Y167.284 E0.59195
G1 X269.551 Y167.89 E0.02552
G1 X259.612 Y157.951 E0.59195
G1 X259.612 Y158.557 E0.02552
G1 X269.551 Y168.496 E0.59195
G1 X269.551 Y169.102 E0.02552
G1 X259.612 Y159.163 E0.59195
G1 X259.612 Y159.769 E0.02552
G1 X269.551 Y169.708 E0.59195
G1 X269.551 Y170.314 E0.02552
G1 X259.612 Y160.375 E0.59195
G1 X259.612 Y160.981 E0.02552
G1 X269.551 Y170.92 E0.59195
G1 X269.551 Y171.526 E0.02552
G1 X259.612 Y161.587 E0.59195
G1 X259.612 Y162.193 E0.02552
G1 X269.551 Y172.132 E0.59195
G1 X269.551 Y172.738 E0.02552
G1 X259.612 Y162.799 E0.59195
G1 X259.612 Y163.405 E0.02552
G1 X269.551 Y173.344 E0.59195
G1 X269.551 Y173.95 E0.02552
G1 X259.612 Y164.011 E0.59195
G1 X259.612 Y164.616 E0.02552
G1 X269.551 Y174.556 E0.59195
G1 X269.551 Y175.162 E0.02552
G1 X259.612 Y165.222 E0.59196
G1 X259.612 Y165.828 E0.02552
G1 X269.551 Y175.768 E0.59196
G1 X269.551 Y176.374 E0.02552
G1 X259.612 Y166.434 E0.59196
G1 X259.612 Y167.04 E0.02552
G1 X269.551 Y176.98 E0.59196
G1 X269.551 Y177.586 E0.02552
G1 X259.612 Y167.646 E0.59196
G1 X259.612 Y168.252 E0.02552
G1 X269.551 Y178.192 E0.59196
G1 X269.551 Y178.798 E0.02552
G1 X259.612 Y168.858 E0.59196
G1 X259.612 Y169.464 E0.02552
G1 X269.551 Y179.404 E0.59196
G1 X269.551 Y180.01 E0.02552
G1 X259.612 Y170.07 E0.59196
G1 X259.612 Y170.676 E0.02552
G1 X269.551 Y180.616 E0.59196
G1 X269.551 Y181.222 E0.02552
G1 X259.612 Y171.282 E0.59196
G1 X259.612 Y171.888 E0.02552
G1 X269.551 Y181.828 E0.59196
G1 X269.551 Y182.434 E0.02552
G1 X259.612 Y172.494 E0.59196
G1 X259.612 Y173.1 E0.02552
G1 X269.551 Y183.04 E0.59196
G1 X269.551 Y183.646 E0.02552
G1 X259.612 Y173.706 E0.59196
G1 X259.612 Y174.312 E0.02552
G1 X269.551 Y184.252 E0.59197
G1 X269.551 Y184.858 E0.02552
G1 X259.612 Y174.918 E0.59197
G1 X259.612 Y175.524 E0.02552
G1 X269.551 Y185.464 E0.59197
G1 X269.551 Y186.07 E0.02552
G1 X259.612 Y176.13 E0.59197
G1 X259.612 Y176.736 E0.02552
G1 X269.551 Y186.676 E0.59197
G1 X269.551 Y187.282 E0.02552
G1 X259.612 Y177.342 E0.59197
G1 X259.612 Y177.948 E0.02552
G1 X269.551 Y187.888 E0.59197
G1 X269.551 Y188.494 E0.02552
G1 X259.612 Y178.554 E0.59197
G1 X259.612 Y179.16 E0.02552
G1 X269.551 Y189.1 E0.59197
G1 X269.551 Y189.706 E0.02552
G1 X259.612 Y179.766 E0.59197
G1 X259.612 Y180.372 E0.02552
G1 X269.551 Y190.312 E0.59197
G1 X269.551 Y190.918 E0.02552
G1 X259.612 Y180.978 E0.59197
G1 X259.611 Y181.584 E0.02552
G1 X269.551 Y191.524 E0.59197
G1 X269.551 Y192.13 E0.02552
G1 X259.611 Y182.19 E0.59197
G1 X259.611 Y182.796 E0.02552
G1 X269.551 Y192.736 E0.59197
G1 X269.551 Y193.341 E0.02552
G1 X259.611 Y183.402 E0.59197
G1 X259.611 Y184.008 E0.02552
G1 X269.551 Y193.947 E0.59198
G1 X269.551 Y194.553 E0.02552
G1 X259.611 Y184.614 E0.59198
G1 X259.611 Y185.22 E0.02552
G1 X269.551 Y195.159 E0.59198
G1 X269.551 Y195.765 E0.02552
G1 X259.611 Y185.826 E0.59198
G1 X259.611 Y186.432 E0.02552
G1 X269.551 Y196.371 E0.59198
G1 X269.551 Y196.977 E0.02552
G1 X259.611 Y187.037 E0.59198
G1 X259.611 Y187.643 E0.02552
G1 X269.551 Y197.583 E0.59198
G1 X269.551 Y198.189 E0.02552
G1 X259.611 Y188.249 E0.59198
G1 X259.611 Y188.855 E0.02552
G1 X269.551 Y198.795 E0.59198
G1 X269.551 Y199.401 E0.02552
G1 X259.611 Y189.461 E0.59198
G1 X259.611 Y190.067 E0.02552
G1 X269.551 Y200.007 E0.59198
G1 X269.551 Y200.613 E0.02552
G1 X259.611 Y190.673 E0.59198
G1 X259.611 Y191.279 E0.02552
G1 X269.551 Y201.219 E0.59198
G1 X269.551 Y201.825 E0.02552
G1 X259.611 Y191.885 E0.59198
G1 X259.611 Y192.491 E0.02552
G1 X269.551 Y202.431 E0.59198
G1 X269.551 Y203.037 E0.02552
G1 X259.611 Y193.097 E0.59198
G1 X259.611 Y193.703 E0.02552
G1 X269.551 Y203.643 E0.59199
G1 X269.551 Y204.249 E0.02552
G1 X259.611 Y194.309 E0.59199
G1 X259.611 Y194.915 E0.02552
G1 X269.551 Y204.855 E0.59199
G1 X269.551 Y205.461 E0.02552
G1 X259.611 Y195.521 E0.59199
G1 X259.611 Y196.127 E0.02552
G1 X269.551 Y206.067 E0.59199
G1 X269.551 Y206.673 E0.02552
G1 X259.611 Y196.733 E0.59199
G1 X259.611 Y197.339 E0.02552
G1 X269.551 Y207.279 E0.59199
G1 X269.551 Y207.885 E0.02552
G1 X259.611 Y197.945 E0.59199
G1 X259.611 Y198.551 E0.02552
G1 X269.551 Y208.491 E0.59199
G1 X269.551 Y209.097 E0.02552
G1 X259.611 Y199.157 E0.59199
G1 X259.611 Y199.763 E0.02552
G1 X269.551 Y209.703 E0.59199
G1 X269.551 Y210.309 E0.02552
G1 X259.611 Y200.369 E0.59199
G1 X259.611 Y200.975 E0.02552
G1 X269.551 Y210.915 E0.59199
G1 X269.551 Y211.521 E0.02552
G1 X259.611 Y201.581 E0.59199
G1 X259.611 Y202.187 E0.02552
G1 X269.551 Y212.127 E0.59199
G1 X269.551 Y212.733 E0.02552
G1 X259.611 Y202.793 E0.592
G1 X259.611 Y203.399 E0.02552
G1 X269.551 Y213.339 E0.592
G1 X269.551 Y213.945 E0.02552
G1 X259.611 Y204.005 E0.592
G1 X259.611 Y204.611 E0.02552
G1 X269.551 Y214.551 E0.592
G1 X269.551 Y215.157 E0.02552
G1 X259.611 Y205.217 E0.592
G1 X259.611 Y205.823 E0.02552
G1 X269.551 Y215.763 E0.592
G1 X269.551 Y216.369 E0.02552
G1 X259.611 Y206.429 E0.592
G1 X259.611 Y207.035 E0.02552
