; generated by SuperSlicer 2.5.59 on 2022-12-19 at 23:05:11 UTC


;
;

;
;
; 

; external perimeters extrusion width = 0.15mm
; perimeters extrusion width = 0.17mm
; infill extrusion width = 0.24mm
; solid infill extrusion width = 0.21mm
; top infill extrusion width = 0.15mm
; first layer extrusion width = 0.19mm

; external perimeters extrusion width = 0.15mm
; perimeters extrusion width = 0.17mm
; infill extrusion width = 0.24mm
; solid infill extrusion width = 0.21mm
; top infill extrusion width = 0.15mm
; first layer extrusion width = 0.19mm

; external perimeters extrusion width = 0.15mm
; perimeters extrusion width = 0.17mm
; infill extrusion width = 0.24mm
; solid infill extrusion width = 0.21mm
; top infill extrusion width = 0.15mm
; first layer extrusion width = 0.19mm

; external perimeters extrusion width = 0.15mm
; perimeters extrusion width = 0.17mm
; infill extrusion width = 0.24mm
; solid infill extrusion width = 0.21mm
; top infill extrusion width = 0.15mm
; first layer extrusion width = 0.19mm

; external perimeters extrusion width = 0.15mm
; perimeters extrusion width = 0.17mm
; infill extrusion width = 0.24mm
; solid infill extrusion width = 0.21mm
; top infill extrusion width = 0.15mm
; first layer extrusion width = 0.19mm

; object:{"name":"LogoBase-80p","id":"LogoBase-80p.STL id:0 copy 0","object_center":[170.637953,149.999575,0.000000],"boundingbox_center":[170.637953,149.999575,1.407800],"boundingbox_size":[30.275903,20.018280,2.815599]}
; object:{"name":"LogoBase-80p","id":"LogoBase-80p.STL id:1 copy 0","object_center":[170.637953,123.980445,0.000000],"boundingbox_center":[170.637953,123.980445,1.407800],"boundingbox_size":[30.275903,20.018280,2.815599]}
; object:{"name":"LogoBase-80p","id":"LogoBase-80p.STL id:2 copy 0","object_center":[134.362049,149.999575,0.000000],"boundingbox_center":[134.362049,149.999575,1.407800],"boundingbox_size":[30.275903,20.018280,2.815599]}
; object:{"name":"LogoBase-80p","id":"LogoBase-80p.STL id:3 copy 0","object_center":[134.362049,123.980445,0.000000],"boundingbox_center":[134.362049,123.980445,1.407800],"boundingbox_size":[30.275903,20.018280,2.815599]}
; object:{"name":"LogoBase-80p","id":"LogoBase-80p.STL id:4 copy 0","object_center":[152.500001,176.018705,0.000000],"boundingbox_center":[152.500001,176.018705,1.407800],"boundingbox_size":[30.275903,20.018280,2.815599]}
; plater:{"center":[152.500001,149.999575,0.000000],"boundingbox_center":[152.500001,149.999575,1.407800],"boundingbox_size":[66.551807,72.056540,2.815599]}

M73 P0 R122


; Pre-Processed for Cancel-Object support by preprocess_cancellation v0.2.0
; 5 known objects
EXCLUDE_OBJECT_DEFINE NAME=LogoBase_80p_STL_id_0_copy_0 CENTER=170.197,150.338 POLYGON=[[155.575,140.065],[155.575,159.934],[185.701,159.934],[185.701,140.065]]
EXCLUDE_OBJECT_DEFINE NAME=LogoBase_80p_STL_id_1_copy_0 CENTER=170.197,124.319 POLYGON=[[155.575,114.046],[155.575,133.915],[185.701,133.915],[185.701,114.046]]
EXCLUDE_OBJECT_DEFINE NAME=LogoBase_80p_STL_id_3_copy_0 CENTER=133.921,124.319 POLYGON=[[119.299,114.046],[119.299,133.915],[149.425,133.915],[149.425,114.046]]
EXCLUDE_OBJECT_DEFINE NAME=LogoBase_80p_STL_id_2_copy_0 CENTER=133.921,150.338 POLYGON=[[119.299,140.065],[119.299,159.934],[149.425,159.934],[149.425,140.065]]
EXCLUDE_OBJECT_DEFINE NAME=LogoBase_80p_STL_id_4_copy_0 CENTER=152.059,176.357 POLYGON=[[137.437,166.085],[137.437,185.953],[167.563,185.953],[167.563,166.085]]
;TYPE:Custom
START_PRINT T_BED=60 T_EXTRUDER=200
M107
G21 ; set units to millimeters
G90 ; use absolute coordinates
M83 ; use relative distances for extrusion
; Filament gcode
SET_PRESSURE_ADVANCE ADVANCE=0.053
;_TOOLCHANGE 0
M104 S200 ; set temperature
M109 S200 ; set temperature and wait for it to be reached
M190 S60 ; set bed temperature and wait for it to be reached
M107
;LAYER_CHANGE
;Z:0.1
;HEIGHT:0.1
G1 Z0.1 F9000
G92 E0
M73 P0 R122
G1 E-0.8 F3000
M204 S1000
G1 X117.544 Y111.34 F9000
G1 E0.8 F1800
;TYPE:Skirt
;WIDTH:0.195
G1 X116.458 Y112.518 E0.01098
G1 X116.064 Y114.071 E0.01098
G1 X116.064 Y159.909 E0.31418
G1 X116.65 Y161.773 E0.0134
G1 X134.787 Y187.792 E0.2174
G1 X135.911 Y188.795 E0.01032
G1 X137.464 Y189.188 E0.01098
G1 X167.54 Y189.167 E0.20615
G1 X169.001 Y188.821 E0.01029
G1 X170.213 Y187.772 E0.01098
G1 X188.35 Y161.753 E0.2174
G1 X188.936 Y159.888 E0.0134
G1 X188.936 Y114.071 E0.31404
G1 X188.407 Y112.291 E0.01273
G1 X187.229 Y111.205 E0.01098
G1 X185.676 Y110.811 E0.01098
G1 X119.324 Y110.811 E0.45479
G1 X117.544 Y111.34 E0.01273
G1 X117.681 Y111.471 F9000
G1 F1800
G1 X116.631 Y112.563 E0.01038
G1 X116.237 Y114.071 E0.01068
G1 X116.237 Y159.909 E0.31418
G1 X116.792 Y161.674 E0.01268
G1 X134.93 Y187.693 E0.2174
G1 X135.956 Y188.622 E0.00949
G1 X137.464 Y189.015 E0.01068
G1 X167.54 Y188.994 E0.20615
G1 X168.885 Y188.685 E0.00946
G1 X170.07 Y187.672 E0.01068
G1 X188.208 Y161.653 E0.2174
G1 X188.763 Y159.888 E0.01268
G1 X188.763 Y114.071 E0.31404
G1 X188.308 Y112.458 E0.01149
G1 X187.184 Y111.378 E0.01068
G1 X185.676 Y110.985 E0.01068
G1 X119.324 Y110.985 E0.45479
G1 X117.711 Y111.44 E0.01149
G1 X117.681 Y111.471 E0.0003
G1 E-0.8 F3000
; printing object LogoBase-80p.STL id:0 copy 0
EXCLUDE_OBJECT_START NAME=LogoBase_80p_STL_id_0_copy_0
G1 X170.607 Y159.805 F9000
G1 E0.8 F1800
;TYPE:External perimeter
;WIDTH:0.1875
G1 X155.777 Y159.815 E0.09726
;TYPE:Internal perimeter
;WIDTH:0.149669
G1 X155.943 Y159.649 E0.00123
;WIDTH:0.1875
G1 X185.416 Y159.628 E0.19329
G1 X185.416 Y140.35 E0.12643
G1 X155.86 Y140.35 E0.19383
G1 X155.86 Y159.4 E0.12493
G1 X156.026 Y159.316 E0.00122
G1 X156.026 Y140.516 E0.12329
G1 X185.25 Y140.516 E0.19165
G1 X185.25 Y159.463 E0.12425
G1 X156.026 Y159.483 E0.19165
G1 X155.86 Y159.566 E0.00122
;WIDTH:0.149669
G1 X155.694 Y159.732 E0.00123
;TYPE:External perimeter
;WIDTH:0.1875
G1 X155.694 Y140.184 E0.12819
G1 X185.582 Y140.184 E0.19601
G1 X185.582 Y159.794 E0.1286
G1 X170.607 Y159.805 E0.0982
;WIPE_START
M204 S3000
G1 X170.532 Y159.675 F9000
;WIPE_END
G1 E-0.8 F3000
M204 S1000
G1 X185.225 Y140.877 F9000
G1 E0.8 F1800
;TYPE:Solid infill
;WIDTH:0.189106
G1 F2400
G1 X184.89 Y140.541 E0.00314
G1 X184.655 Y140.541 F9000
G1 F2400
G1 X185.225 Y141.112 E0.00534
G1 X185.225 Y141.346 F9000
G1 F2400
G1 X184.42 Y140.541 E0.00753
G1 X184.185 Y140.541 F9000
G1 F2400
G1 X185.225 Y141.581 E0.00973
G1 X185.225 Y141.816 F9000
G1 F2400
G1 X183.95 Y140.541 E0.01193
G1 X183.715 Y140.541 F9000
G1 F2400
G1 X185.225 Y142.051 E0.01412
G1 X185.225 Y142.286 F9000
G1 F2400
G1 X183.481 Y140.541 E0.01632
G1 X183.246 Y140.541 F9000
G1 F2400
G1 X185.225 Y142.521 E0.01851
G1 X185.225 Y142.755 F9000
G1 F2400
G1 X183.011 Y140.541 E0.02071
G1 X182.776 Y140.541 F9000
G1 F2400
G1 X185.225 Y142.99 E0.02291
G1 X185.225 Y143.225 F9000
G1 F2400
G1 X182.541 Y140.541 E0.0251
G1 X182.307 Y140.541 F9000
G1 F2400
G1 X185.225 Y143.46 E0.0273
G1 X185.225 Y143.695 F9000
G1 F2400
G1 X182.072 Y140.541 E0.0295
G1 X181.837 Y140.541 F9000
G1 F2400
G1 X185.225 Y143.929 E0.03169
G1 X185.225 Y144.164 F9000
G1 F2400
G1 X181.602 Y140.541 E0.03389
G1 X181.367 Y140.541 F9000
G1 F2400
G1 X185.225 Y144.399 E0.03609
G1 X185.225 Y144.634 F9000
G1 F2400
G1 X181.132 Y140.541 E0.03828
G1 X180.898 Y140.541 F9000
G1 F2400
G1 X185.225 Y144.869 E0.04048
G1 X185.225 Y145.103 F9000
G1 F2400
G1 X180.663 Y140.541 E0.04268
G1 X180.428 Y140.541 F9000
G1 F2400
G1 X185.225 Y145.338 E0.04487
G1 X185.225 Y145.573 F9000
G1 F2400
G1 X180.193 Y140.541 E0.04707
G1 X179.958 Y140.541 F9000
G1 F2400
G1 X185.225 Y145.808 E0.04926
G1 X185.225 Y146.043 F9000
G1 F2400
G1 X179.724 Y140.541 E0.05146
G1 X179.489 Y140.541 F9000
G1 F2400
G1 X185.225 Y146.278 E0.05366
G1 X185.225 Y146.512 F9000
G1 F2400
G1 X179.254 Y140.541 E0.05585
G1 X179.019 Y140.541 F9000
G1 F2400
G1 X185.225 Y146.747 E0.05805
G1 X185.225 Y146.982 F9000
G1 F2400
G1 X178.784 Y140.541 E0.06025
G1 X178.55 Y140.541 F9000
G1 F2400
G1 X185.225 Y147.217 E0.06244
G1 X185.225 Y147.452 F9000
G1 F2400
G1 X178.315 Y140.541 E0.06464
G1 X178.08 Y140.541 F9000
G1 F2400
G1 X185.225 Y147.686 E0.06684
G1 X185.225 Y147.921 F9000
G1 F2400
G1 X177.845 Y140.541 E0.06903
G1 X177.61 Y140.541 F9000
G1 F2400
G1 X185.225 Y148.156 E0.07123
G1 X185.225 Y148.391 F9000
G1 F2400
G1 X177.375 Y140.541 E0.07343
G1 X177.141 Y140.541 F9000
G1 F2400
G1 X185.225 Y148.626 E0.07562
G1 X185.225 Y148.861 F9000
G1 F2400
G1 X176.906 Y140.541 E0.07782
G1 X176.671 Y140.541 F9000
G1 F2400
G1 X185.225 Y149.095 E0.08001
G1 X185.225 Y149.33 F9000
G1 F2400
G1 X176.436 Y140.541 E0.08221
G1 X176.201 Y140.541 F9000
G1 F2400
G1 X185.225 Y149.565 E0.08441
G1 X185.225 Y149.8 F9000
G1 F2400
G1 X175.967 Y140.541 E0.0866
G1 X175.732 Y140.541 F9000
G1 F2400
G1 X185.225 Y150.035 E0.0888
G1 X185.225 Y150.269 F9000
G1 F2400
G1 X175.497 Y140.541 E0.091
G1 X175.262 Y140.541 F9000
G1 F2400
G1 X185.225 Y150.504 E0.09319
G1 X185.225 Y150.739 F9000
G1 F2400
G1 X175.027 Y140.541 E0.09539
G1 X174.792 Y140.541 F9000
G1 F2400
G1 X185.225 Y150.974 E0.09759
G1 X185.225 Y151.209 F9000
G1 F2400
G1 X174.558 Y140.541 E0.09978
G1 X174.323 Y140.541 F9000
G1 F2400
G1 X185.225 Y151.443 E0.10198
G1 X185.225 Y151.678 F9000
G1 F2400
G1 X174.088 Y140.541 E0.10418
G1 X173.853 Y140.541 F9000
G1 F2400
G1 X185.225 Y151.913 E0.10637
G1 X185.225 Y152.148 F9000
G1 F2400
G1 X173.618 Y140.541 E0.10857
G1 X173.384 Y140.541 F9000
G1 F2400
G1 X185.225 Y152.383 E0.11076
G1 X185.225 Y152.618 F9000
G1 F2400
G1 X173.149 Y140.541 E0.11296
G1 X172.914 Y140.541 F9000
G1 F2400
G1 X185.225 Y152.852 E0.11516
G1 X185.225 Y153.087 F9000
G1 F2400
G1 X172.679 Y140.541 E0.11735
G1 X172.444 Y140.541 F9000
G1 F2400
G1 X185.225 Y153.322 E0.11955
G1 X185.225 Y153.557 F9000
G1 F2400
G1 X172.21 Y140.541 E0.12175
G1 X171.975 Y140.541 F9000
G1 F2400
G1 X185.225 Y153.792 E0.12394
G1 X185.225 Y154.026 F9000
G1 F2400
G1 X171.74 Y140.541 E0.12614
G1 X171.505 Y140.541 F9000
G1 F2400
G1 X185.225 Y154.261 E0.12834
G1 X185.225 Y154.496 F9000
G1 F2400
G1 X171.27 Y140.541 E0.13053
G1 X171.035 Y140.541 F9000
G1 F2400
G1 X185.225 Y154.731 E0.13273
G1 X185.225 Y154.966 F9000
G1 F2400
G1 X170.801 Y140.541 E0.13493
G1 X170.566 Y140.541 F9000
G1 F2400
G1 X185.225 Y155.201 E0.13712
G1 X185.225 Y155.435 F9000
G1 F2400
G1 X170.331 Y140.541 E0.13932
G1 X170.096 Y140.541 F9000
G1 F2400
G1 X185.225 Y155.67 E0.14151
G1 X185.225 Y155.905 F9000
G1 F2400
G1 X169.861 Y140.541 E0.14371
G1 X169.627 Y140.541 F9000
G1 F2400
G1 X185.225 Y156.14 E0.14591
G1 X185.225 Y156.375 F9000
G1 F2400
G1 X169.392 Y140.541 E0.1481
G1 X169.157 Y140.541 F9000
G1 F2400
G1 X185.225 Y156.609 E0.1503
M73 P1 R121
G1 X185.225 Y156.844 F9000
G1 F2400
G1 X168.922 Y140.541 E0.1525
G1 X168.687 Y140.541 F9000
G1 F2400
G1 X185.225 Y157.079 E0.15469
G1 X185.225 Y157.314 F9000
G1 F2400
G1 X168.452 Y140.541 E0.15689
G1 X168.218 Y140.541 F9000
G1 F2400
G1 X185.225 Y157.549 E0.15909
G1 X185.225 Y157.783 F9000
G1 F2400
G1 X167.983 Y140.541 E0.16128
G1 X167.748 Y140.541 F9000
G1 F2400
G1 X185.225 Y158.018 E0.16348
G1 X185.225 Y158.253 F9000
G1 F2400
G1 X167.513 Y140.541 E0.16567
G1 X167.278 Y140.541 F9000
G1 F2400
G1 X185.225 Y158.488 E0.16787
G1 X185.225 Y158.723 F9000
G1 F2400
G1 X167.044 Y140.541 E0.17007
G1 X166.809 Y140.541 F9000
G1 F2400
G1 X185.225 Y158.958 E0.17226
G1 X185.225 Y159.192 F9000
G1 F2400
G1 X166.574 Y140.541 E0.17446
G1 X166.339 Y140.541 F9000
G1 F2400
G1 X185.225 Y159.427 E0.17666
G1 X185.001 Y159.438 F9000
G1 F2400
G1 X166.104 Y140.541 E0.17676
G1 X165.87 Y140.541 F9000
G1 F2400
G1 X184.766 Y159.438 E0.17676
G1 X184.532 Y159.438 F9000
G1 F2400
G1 X165.635 Y140.541 E0.17676
G1 X165.4 Y140.541 F9000
G1 F2400
G1 X184.297 Y159.438 E0.17676
G1 X184.062 Y159.438 F9000
G1 F2400
G1 X165.165 Y140.541 E0.17676
G1 X164.93 Y140.541 F9000
G1 F2400
G1 X183.828 Y159.439 E0.17676
G1 X183.593 Y159.439 F9000
G1 F2400
G1 X164.695 Y140.541 E0.17677
G1 X164.461 Y140.541 F9000
G1 F2400
G1 X183.358 Y159.439 E0.17677
G1 X183.124 Y159.439 F9000
G1 F2400
G1 X164.226 Y140.541 E0.17677
G1 X163.991 Y140.541 F9000
G1 F2400
G1 X182.889 Y159.439 E0.17677
G1 X182.654 Y159.439 F9000
G1 F2400
G1 X163.756 Y140.541 E0.17677
G1 X163.521 Y140.541 F9000
G1 F2400
G1 X182.42 Y159.44 E0.17677
G1 X182.185 Y159.44 F9000
G1 F2400
G1 X163.287 Y140.541 E0.17677
G1 X163.052 Y140.541 F9000
G1 F2400
G1 X181.95 Y159.44 E0.17678
G1 X181.716 Y159.44 F9000
G1 F2400
G1 X162.817 Y140.541 E0.17678
G1 X162.582 Y140.541 F9000
G1 F2400
G1 X181.481 Y159.44 E0.17678
G1 X181.247 Y159.44 F9000
G1 F2400
G1 X162.347 Y140.541 E0.17678
G1 X162.112 Y140.541 F9000
G1 F2400
G1 X181.012 Y159.441 E0.17678
G1 X180.777 Y159.441 F9000
G1 F2400
G1 X161.878 Y140.541 E0.17678
G1 X161.643 Y140.541 F9000
G1 F2400
G1 X180.543 Y159.441 E0.17678
G1 X180.308 Y159.441 F9000
G1 F2400
G1 X161.408 Y140.541 E0.17679
G1 X161.173 Y140.541 F9000
G1 F2400
G1 X180.073 Y159.441 E0.17679
G1 X179.839 Y159.441 F9000
G1 F2400
G1 X160.938 Y140.541 E0.17679
G1 X160.704 Y140.541 F9000
G1 F2400
G1 X179.604 Y159.442 E0.17679
G1 X179.369 Y159.442 F9000
G1 F2400
G1 X160.469 Y140.541 E0.17679
G1 X160.234 Y140.541 F9000
G1 F2400
G1 X179.135 Y159.442 E0.17679
G1 X178.9 Y159.442 F9000
G1 F2400
G1 X159.999 Y140.541 E0.1768
G1 X159.764 Y140.541 F9000
G1 F2400
G1 X178.665 Y159.442 E0.1768
G1 X178.431 Y159.442 F9000
G1 F2400
G1 X159.53 Y140.541 E0.1768
G1 X159.295 Y140.541 F9000
G1 F2400
G1 X178.196 Y159.442 E0.1768
G1 X177.961 Y159.443 F9000
G1 F2400
G1 X159.06 Y140.541 E0.1768
G1 X158.825 Y140.541 F9000
G1 F2400
G1 X177.727 Y159.443 E0.1768
G1 X177.492 Y159.443 F9000
G1 F2400
G1 X158.59 Y140.541 E0.1768
G1 X158.355 Y140.541 F9000
G1 F2400
G1 X177.257 Y159.443 E0.17681
G1 X177.023 Y159.443 F9000
G1 F2400
G1 X158.121 Y140.541 E0.17681
G1 X157.886 Y140.541 F9000
G1 F2400
G1 X176.788 Y159.443 E0.17681
G1 X176.553 Y159.444 F9000
G1 F2400
G1 X157.651 Y140.541 E0.17681
G1 X157.416 Y140.541 F9000
G1 F2400
G1 X176.319 Y159.444 E0.17681
G1 X176.084 Y159.444 F9000
G1 F2400
G1 X157.181 Y140.541 E0.17681
G1 X156.947 Y140.541 F9000
G1 F2400
G1 X175.849 Y159.444 E0.17681
G1 X175.615 Y159.444 F9000
G1 F2400
G1 X156.712 Y140.541 E0.17682
G1 X156.477 Y140.541 F9000
G1 F2400
G1 X175.38 Y159.444 E0.17682
G1 X175.146 Y159.445 F9000
G1 F2400
G1 X156.242 Y140.541 E0.17682
G1 X156.051 Y140.585 F9000
G1 F2400
G1 X174.911 Y159.445 E0.17641
G1 X174.676 Y159.445 F9000
G1 F2400
G1 X156.051 Y140.819 E0.17422
G1 X156.051 Y141.054 F9000
G1 F2400
G1 X174.442 Y159.445 E0.17203
G1 X174.207 Y159.445 F9000
G1 F2400
G1 X156.051 Y141.289 E0.16983
G1 X156.051 Y141.524 F9000
G1 F2400
G1 X173.972 Y159.445 E0.16764
G1 X173.738 Y159.446 F9000
G1 F2400
G1 X156.051 Y141.759 E0.16544
G1 X156.051 Y141.993 F9000
G1 F2400
G1 X173.503 Y159.446 E0.16325
G1 X173.268 Y159.446 F9000
G1 F2400
G1 X156.051 Y142.228 E0.16105
G1 X156.051 Y142.463 F9000
G1 F2400
G1 X173.034 Y159.446 E0.15886
G1 X172.799 Y159.446 F9000
G1 F2400
G1 X156.051 Y142.698 E0.15666
G1 X156.051 Y142.933 F9000
G1 F2400
G1 X172.564 Y159.446 E0.15447
G1 X172.33 Y159.446 F9000
G1 F2400
G1 X156.051 Y143.168 E0.15227
G1 X156.051 Y143.402 F9000
G1 F2400
G1 X172.095 Y159.447 E0.15008
G1 X171.86 Y159.447 F9000
G1 F2400
G1 X156.051 Y143.637 E0.14788
G1 X156.051 Y143.872 F9000
G1 F2400
G1 X171.626 Y159.447 E0.14569
G1 X171.391 Y159.447 F9000
G1 F2400
G1 X156.051 Y144.107 E0.14349
G1 X156.051 Y144.342 F9000
G1 F2400
G1 X171.156 Y159.447 E0.1413
G1 X170.922 Y159.447 F9000
G1 F2400
G1 X156.051 Y144.576 E0.1391
G1 X156.051 Y144.811 F9000
G1 F2400
G1 X170.687 Y159.448 E0.13691
G1 X170.452 Y159.448 F9000
G1 F2400
G1 X156.051 Y145.046 E0.13471
G1 X156.051 Y145.281 F9000
G1 F2400
G1 X170.218 Y159.448 E0.13252
G1 X169.983 Y159.448 F9000
G1 F2400
G1 X156.051 Y145.516 E0.13032
G1 X156.051 Y145.75 F9000
G1 F2400
G1 X169.748 Y159.448 E0.12813
G1 X169.514 Y159.448 F9000
G1 F2400
G1 X156.051 Y145.985 E0.12593
G1 X156.051 Y146.22 F9000
G1 F2400
G1 X169.279 Y159.449 E0.12374
G1 X169.045 Y159.449 F9000
G1 F2400
G1 X156.051 Y146.455 E0.12154
G1 X156.051 Y146.69 F9000
G1 F2400
G1 X168.81 Y159.449 E0.11935
G1 X168.575 Y159.449 F9000
G1 F2400
G1 X156.051 Y146.925 E0.11715
G1 X156.051 Y147.159 F9000
