; generated by SuperSlicer 2.3.57 on 2022-03-03 at 00:26:11 UTC


;
;

;
;
; 

; external perimeters extrusion width = 0.40mm
; perimeters extrusion width = 0.45mm
; infill extrusion width = 0.72mm
; solid infill extrusion width = 0.56mm
; top infill extrusion width = 0.40mm
; support material extrusion width = 0.42mm
; first layer extrusion width = 0.48mm

; object:{"name":"Sign3_1","id":"Sign3_1.stl id:0 copy 0","object_center":[165.000000,165.000000,0.000000],"boundingbox_center":[165.000000,165.000000,2.500000],"boundingbox_size":[153.000000,90.950000,5.000000]}
; plater:{"center":[165.000000,165.000000,0.000000],"boundingbox_center":[165.000000,165.000000,2.500000],"boundingbox_size":[153.000000,90.950000,5.000000]}

;TYPE:Custom
START_PRINT T_BED=60 T_EXTRUDER=210
M107
G21 ; set units to millimeters
G90 ; use absolute coordinates
M83 ; use relative distances for extrusion
; Filament gcode
M104 S210 ; set temperature
M109 S210 ; set temperature and wait for it to be reached
M190 S60 ; set bed temperature and wait for it to be reached
M107
;LAYER_CHANGE
;Z:0.24
;HEIGHT:0.24
G1 Z0.24 F9000
G1 E-0.8 F3000
G1 X86.685 Y116.526 F9000
G1 E0.8 F1800
; External perimeter
;Skirt
SET_VELOCITY_LIMIT ACCEL=300 ACCEL_TO_DECEL=3000 SQUARE_CORNER_VELOCITY=5

; Support material

;TYPE:Skirt
;WIDTH:0.48
G1 X85.975 Y117.099 E0.03901
G1 X85.43 Y117.83 E0.03901
G1 X85.084 Y118.674 E0.03901
G1 X84.958 Y119.578 E0.03901
G1 X84.957 Y210.396 E3.88298
G1 X85.098 Y211.378 E0.04241
G1 X85.501 Y212.29 E0.04261
G1 X86.077 Y213.003 E0.03921
G1 X86.813 Y213.55 E0.03921
G1 X87.663 Y213.895 E0.03921
G1 X88.572 Y214.018 E0.03921
G1 X241.412 Y214.018 E6.53475
G1 X242.403 Y213.877 E0.04281
G1 X243.315 Y213.474 E0.04261
G1 X244.021 Y212.905 E0.03881
G1 X244.565 Y212.178 E0.03881
G1 X244.913 Y211.339 E0.03881
G1 X245.042 Y210.441 E0.03881
G1 X245.042 Y119.552 E3.88601
G1 X244.959 Y118.851 E0.03019
G1 X244.745 Y118.183 E0.02999
G1 X244.404 Y117.564 E0.03019
G1 X243.95 Y117.023 E0.03019
G1 X243.4 Y116.58 E0.03019
G1 X242.779 Y116.253 E0.02999
G1 X242.103 Y116.051 E0.03019
G1 X241.405 Y115.982 E0.02999
G1 X88.588 Y115.982 E6.53374
G1 X87.597 Y116.123 E0.04281
G1 X86.74 Y116.502 E0.04004
G1 X86.917 Y116.887 F9000
G1 F1800
G1 X86.287 Y117.393 E0.03456
G1 X85.803 Y118.041 E0.03456
G1 X85.496 Y118.789 E0.03456
G1 X85.386 Y119.59 E0.03456
G1 X85.386 Y210.392 E3.88231
G1 X85.509 Y211.258 E0.03738
G1 X85.862 Y212.058 E0.03738
G1 X86.371 Y212.691 E0.03475
G1 X87.024 Y213.176 E0.03475
G1 X87.772 Y213.481 E0.03456
G1 X88.578 Y213.589 E0.03475
G1 X241.408 Y213.589 E6.53434
G1 X242.279 Y213.467 E0.03757
G1 X243.083 Y213.113 E0.03757
G1 X243.71 Y212.61 E0.03438
G1 X244.192 Y211.967 E0.03438
G1 X244.5 Y211.224 E0.03438
G1 X244.614 Y210.428 E0.03438
G1 X244.614 Y119.568 E3.88477
G1 X244.542 Y118.948 E0.02666
G1 X244.352 Y118.354 E0.02666
G1 X244.052 Y117.808 E0.02666
G1 X243.654 Y117.334 E0.02647
G1 X243.173 Y116.944 E0.02647
G1 X242.622 Y116.652 E0.02666
G1 X242.025 Y116.472 E0.02666
G1 X241.404 Y116.411 E0.02666
G1 X88.592 Y116.411 E6.53358
G1 X87.721 Y116.533 E0.03757
G1 X86.972 Y116.862 E0.035
; INIT printing object Sign3_1.stl id:0 copy 0
G1 E-0.8 F3000
; printing object Sign3_1.stl id:0 copy 0
G1 X93.678 Y177.178 F9000
G1 E0.8 F1800
; External perimeter
;Perimeter
SET_VELOCITY_LIMIT ACCEL=2000 ACCEL_TO_DECEL=2000 SQUARE_CORNER_VELOCITY=5

; Overhang perimeter

;TYPE:Internal perimeter
G1 X93.678 Y184.922 E0.3311
G1 X236.322 Y184.922 E6.09881
G1 X236.322 Y177.178 E0.3311
G1 X93.738 Y177.178 E6.09624
G1 X94.107 Y177.607 F9000
G1 F1800
G1 X94.107 Y184.493 E0.29446
G1 X235.893 Y184.493 E6.06217
G1 X235.893 Y177.607 E0.29446
G1 X94.167 Y177.607 E6.0596
G1 X94.535 Y178.035 F9000
; External perimeter
;ExternalPerimeter
SET_VELOCITY_LIMIT ACCEL=1000 ACCEL_TO_DECEL=1000 SQUARE_CORNER_VELOCITY=5

; Perimeter

;TYPE:External perimeter
G1 F1800
G1 X94.535 Y184.065 E0.25782
G1 X94.655 Y184.065 E0.00458
G1 X94.895 Y184.065 E0.00971
G1 X235.465 Y184.065 E6.01014
G1 X235.465 Y183.945 E0.00458
G1 X235.465 Y183.705 E0.00971
G1 X235.465 Y178.035 E0.24242
G1 X235.345 Y178.035 E0.00458
G1 X235.105 Y178.035 E0.00971
G1 X94.595 Y178.035 E6.00757
;WIPE_START
G1 X94.135 Y178.035 F9000
;WIPE_END
G1 X93.678 Y145.078
; External perimeter
;Perimeter
SET_VELOCITY_LIMIT ACCEL=2000 ACCEL_TO_DECEL=2000 SQUARE_CORNER_VELOCITY=5

; Overhang perimeter

;TYPE:Internal perimeter
G1 F1800
G1 X93.678 Y152.822 E0.3311
G1 X236.322 Y152.822 E6.09881
G1 X236.322 Y145.078 E0.3311
G1 X93.738 Y145.078 E6.09624
G1 X94.107 Y145.507 F9000
G1 F1800
G1 X94.107 Y152.393 E0.29446
G1 X235.893 Y152.393 E6.06217
G1 X235.893 Y145.507 E0.29446
G1 X94.167 Y145.507 E6.0596
G1 X94.535 Y145.935 F9000
; External perimeter
;ExternalPerimeter
SET_VELOCITY_LIMIT ACCEL=1000 ACCEL_TO_DECEL=1000 SQUARE_CORNER_VELOCITY=5

; Perimeter

;TYPE:External perimeter
G1 F1800
G1 X94.535 Y151.965 E0.25782
G1 X94.655 Y151.965 E0.00458
G1 X94.895 Y151.965 E0.00971
G1 X235.465 Y151.965 E6.01014
G1 X235.465 Y151.845 E0.00458
G1 X235.465 Y151.605 E0.00971
G1 X235.465 Y145.935 E0.24242
G1 X235.345 Y145.935 E0.00458
G1 X235.105 Y145.935 E0.00971
G1 X94.595 Y145.935 E6.00757
;WIPE_START
G1 X94.135 Y145.935 F9000
;WIPE_END
G1 E-0.8 F3000
G1 X240.303 Y209.278 F9000
G1 E0.8 F1800
; External perimeter
;Perimeter
SET_VELOCITY_LIMIT ACCEL=2000 ACCEL_TO_DECEL=2000 SQUARE_CORNER_VELOCITY=5

; Overhang perimeter

;TYPE:Internal perimeter
G1 X89.697 Y209.278 E6.43923
G1 X89.697 Y120.722 E3.78625
G1 X240.303 Y120.722 E6.43923
G1 X240.303 Y209.218 E3.78369
G1 X240.732 Y209.707 F9000
G1 F1800
G1 X89.268 Y209.707 E6.47587
G1 X89.268 Y120.293 E3.82289
G1 X240.732 Y120.293 E6.47587
G1 X240.732 Y209.647 E3.82033
G1 X241.16 Y210.135 F9000
; External perimeter
;ExternalPerimeter
SET_VELOCITY_LIMIT ACCEL=1000 ACCEL_TO_DECEL=1000 SQUARE_CORNER_VELOCITY=5

; Perimeter

;TYPE:External perimeter
G1 F1800
G1 X88.84 Y210.135 E6.51251
G1 X88.84 Y210.015 E0.00458
G1 X88.84 Y209.775 E0.00971
G1 X88.84 Y119.865 E3.84414
G1 X88.96 Y119.865 E0.00458
G1 X89.2 Y119.865 E0.00971
G1 X241.16 Y119.865 E6.49712
G1 X241.16 Y119.985 E0.00458
G1 X241.16 Y120.225 E0.00971
G1 X241.16 Y210.075 E3.84158
;WIPE_START
G1 X240.814 Y209.935 F9000
;WIPE_END
G1 X240.239 Y121.652
; External perimeter
;SolidInfill
SET_VELOCITY_LIMIT ACCEL=2000 ACCEL_TO_DECEL=2000 SQUARE_CORNER_VELOCITY=5

; Bridge infill

;TYPE:Solid infill
;WIDTH:0.476606
G1 F2400
G1 X239.557 Y120.97 E0.04094
G1 X238.951 Y120.97 E0.02573
G1 X240.055 Y122.074 E0.06626
G1 X240.055 Y122.68 E0.02573
G1 X238.345 Y120.97 E0.10264
G1 X237.739 Y120.97 E0.02573
G1 X240.055 Y123.286 E0.13903
G1 X240.055 Y123.892 E0.02573
G1 X237.133 Y120.97 E0.17541
G1 X236.527 Y120.97 E0.02573
G1 X240.055 Y124.498 E0.21179
G1 X240.055 Y125.104 E0.02573
G1 X235.921 Y120.97 E0.24817
G1 X235.315 Y120.97 E0.02573
G1 X240.055 Y125.71 E0.28455
G1 X240.055 Y126.316 E0.02573
G1 X234.709 Y120.97 E0.32094
G1 X234.103 Y120.97 E0.02573
G1 X240.055 Y126.922 E0.35732
G1 X240.055 Y127.528 E0.02573
G1 X233.497 Y120.97 E0.3937
G1 X232.891 Y120.97 E0.02573
G1 X240.055 Y128.134 E0.43008
G1 X240.055 Y128.74 E0.02573
G1 X232.285 Y120.97 E0.46646
G1 X231.679 Y120.97 E0.02573
G1 X240.055 Y129.346 E0.50285
G1 X240.055 Y129.952 E0.02573
G1 X231.073 Y120.97 E0.53923
G1 X230.467 Y120.97 E0.02573
G1 X240.055 Y130.558 E0.57561
G1 X240.055 Y131.164 E0.02573
G1 X229.861 Y120.97 E0.61199
G1 X229.255 Y120.97 E0.02573
G1 X240.055 Y131.77 E0.64837
G1 X240.055 Y132.376 E0.02573
G1 X228.649 Y120.97 E0.68475
G1 X228.043 Y120.97 E0.02573
G1 X240.055 Y132.982 E0.72114
G1 X240.055 Y133.588 E0.02573
G1 X227.437 Y120.97 E0.75752
G1 X226.831 Y120.97 E0.02573
G1 X240.055 Y134.194 E0.7939
G1 X240.055 Y134.8 E0.02573
G1 X226.225 Y120.97 E0.83028
G1 X225.619 Y120.97 E0.02573
G1 X240.055 Y135.406 E0.86666
G1 X240.055 Y136.012 E0.02573
G1 X225.013 Y120.97 E0.90305
G1 X224.407 Y120.97 E0.02573
G1 X240.055 Y136.618 E0.93943
G1 X240.055 Y137.224 E0.02573
G1 X223.801 Y120.97 E0.97581
G1 X223.195 Y120.97 E0.02573
G1 X240.055 Y137.83 E1.01219
G1 X240.055 Y138.436 E0.02573
G1 X222.589 Y120.97 E1.04857
G1 X221.983 Y120.97 E0.02573
G1 X240.055 Y139.042 E1.08496
G1 X240.055 Y139.648 E0.02573
G1 X221.377 Y120.97 E1.12134
G1 X220.771 Y120.97 E0.02573
G1 X240.055 Y140.254 E1.15772
G1 X240.055 Y140.86 E0.02573
G1 X220.165 Y120.97 E1.1941
G1 X219.559 Y120.97 E0.02573
G1 X240.055 Y141.466 E1.23048
G1 X240.055 Y142.072 E0.02573
G1 X218.953 Y120.97 E1.26687
G1 X218.347 Y120.97 E0.02573
G1 X240.055 Y142.678 E1.30325
G1 X240.055 Y143.284 E0.02573
G1 X217.741 Y120.97 E1.33963
G1 X217.135 Y120.97 E0.02573
G1 X240.055 Y143.89 E1.37601
G1 X240.055 Y144.496 E0.02573
G1 X216.529 Y120.97 E1.41239
G1 X215.923 Y120.97 E0.02573
G1 X240.055 Y145.102 E1.44878
G1 X240.055 Y145.708 E0.02573
G1 X215.317 Y120.97 E1.48516
G1 X214.711 Y120.97 E0.02573
G1 X240.055 Y146.314 E1.52154
G1 X240.055 Y146.919 E0.02573
G1 X214.106 Y120.97 E1.55792
G1 X213.5 Y120.97 E0.02573
G1 X240.055 Y147.525 E1.5943
G1 X240.055 Y148.131 E0.02573
G1 X212.894 Y120.97 E1.63068
G1 X212.288 Y120.97 E0.02573
G1 X236.147 Y144.83 E1.43244
G1 X236.57 Y144.83 E0.018
G1 X236.57 Y145.253 E0.018
G1 X240.055 Y148.737 E0.20917
G1 X240.055 Y149.343 E0.02573
G1 X236.57 Y145.859 E0.20917
G1 X236.57 Y146.465 E0.02573
G1 X240.055 Y149.949 E0.20917
G1 X240.055 Y150.555 E0.02573
G1 X236.57 Y147.071 E0.20917
G1 X236.57 Y147.677 E0.02573
G1 X240.055 Y151.161 E0.20917
G1 X240.055 Y151.767 E0.02573
G1 X236.57 Y148.283 E0.20917
G1 X236.57 Y148.889 E0.02573
G1 X240.055 Y152.373 E0.20917
G1 X240.055 Y152.979 E0.02573
G1 X236.57 Y149.495 E0.20917
G1 X236.57 Y150.101 E0.02573
G1 X240.055 Y153.585 E0.20917
G1 X240.055 Y154.191 E0.02573
G1 X236.57 Y150.707 E0.20917
G1 X236.57 Y151.313 E0.02573
G1 X240.055 Y154.797 E0.20917
G1 X240.055 Y155.403 E0.02573
G1 X236.57 Y151.919 E0.20917
G1 X236.57 Y152.525 E0.02573
G1 X240.055 Y156.009 E0.20917
G1 X240.055 Y156.615 E0.02573
G1 X236.51 Y153.07 E0.21282
G1 X235.904 Y153.07 E0.02573
G1 X240.055 Y157.221 E0.2492
G1 X240.055 Y157.827 E0.02573
G1 X235.298 Y153.07 E0.28558
G1 X234.692 Y153.07 E0.02573
G1 X240.055 Y158.433 E0.32196
G1 X240.055 Y159.039 E0.02573
G1 X234.086 Y153.07 E0.35835
G1 X233.48 Y153.07 E0.02573
G1 X240.055 Y159.645 E0.39473
G1 X240.055 Y160.251 E0.02573
G1 X232.874 Y153.07 E0.43111
G1 X232.268 Y153.07 E0.02573
G1 X240.055 Y160.857 E0.46749
G1 X240.055 Y161.463 E0.02573
G1 X231.662 Y153.07 E0.50387
G1 X231.056 Y153.07 E0.02573
G1 X240.055 Y162.069 E0.54026
G1 X240.055 Y162.675 E0.02573
G1 X230.45 Y153.07 E0.57664
G1 X229.844 Y153.07 E0.02573
G1 X240.055 Y163.281 E0.61302
G1 X240.055 Y163.887 E0.02573
G1 X229.238 Y153.07 E0.6494
G1 X228.632 Y153.07 E0.02573
G1 X240.055 Y164.493 E0.68578
G1 X240.055 Y165.099 E0.02573
G1 X228.026 Y153.07 E0.72216
G1 X227.42 Y153.07 E0.02573
G1 X240.055 Y165.705 E0.75855
G1 X240.055 Y166.311 E0.02573
G1 X226.814 Y153.07 E0.79493
G1 X226.208 Y153.07 E0.02573
G1 X240.055 Y166.917 E0.83131
G1 X240.055 Y167.523 E0.02573
G1 X225.602 Y153.07 E0.86769
G1 X224.996 Y153.07 E0.02573
G1 X240.055 Y168.129 E0.90407
G1 X240.055 Y168.735 E0.02573
G1 X224.39 Y153.07 E0.94046
G1 X223.784 Y153.07 E0.02573
G1 X240.055 Y169.341 E0.97684
G1 X240.055 Y169.947 E0.02573
G1 X223.178 Y153.07 E1.01322
G1 X222.572 Y153.07 E0.02573
G1 X240.055 Y170.553 E1.0496
G1 X240.055 Y171.159 E0.02573
G1 X221.966 Y153.07 E1.08598
G1 X221.36 Y153.07 E0.02573
G1 X240.055 Y171.765 E1.12237
G1 X240.055 Y172.371 E0.02573
G1 X220.754 Y153.07 E1.15875
G1 X220.148 Y153.07 E0.02573
G1 X240.055 Y172.977 E1.19513
G1 X240.055 Y173.583 E0.02573
G1 X219.542 Y153.07 E1.23151
G1 X218.936 Y153.07 E0.02573
G1 X240.055 Y174.189 E1.26789
G1 X240.055 Y174.795 E0.02573
G1 X218.33 Y153.07 E1.30428
G1 X217.724 Y153.07 E0.02573
G1 X240.055 Y175.401 E1.34066
G1 X240.055 Y176.007 E0.02573
G1 X217.118 Y153.07 E1.37704
G1 X216.512 Y153.07 E0.02573
G1 X240.055 Y176.613 E1.41342
G1 X240.055 Y177.219 E0.02573
G1 X215.906 Y153.07 E1.4498
G1 X215.3 Y153.07 E0.02573
G1 X240.055 Y177.825 E1.48619
G1 X240.055 Y178.431 E0.02573
G1 X214.694 Y153.07 E1.52257
G1 X214.088 Y153.07 E0.02573
G1 X240.055 Y179.037 E1.55895
G1 X240.055 Y179.643 E0.02573
G1 X213.482 Y153.07 E1.59533
G1 X212.876 Y153.07 E0.02573
G1 X240.055 Y180.249 E1.63171
G1 X240.055 Y180.855 E0.02573
G1 X236.57 Y177.371 E0.20917
G1 X236.57 Y176.93 E0.01872
G1 X236.129 Y176.93 E0.01872
G1 X212.27 Y153.07 E1.43244
G1 X211.664 Y153.07 E0.02573
G1 X235.523 Y176.93 E1.43244
G1 X234.917 Y176.93 E0.02573
G1 X211.058 Y153.07 E1.43244
G1 X210.452 Y153.07 E0.02573
G1 X234.311 Y176.93 E1.43244
G1 X233.706 Y176.93 E0.02573
G1 X209.847 Y153.07 E1.43244
G1 X209.241 Y153.07 E0.02573
G1 X233.1 Y176.93 E1.43244
G1 X232.494 Y176.93 E0.02573
G1 X208.635 Y153.07 E1.43244
G1 X208.029 Y153.07 E0.02573
G1 X231.888 Y176.93 E1.43244
G1 X231.282 Y176.93 E0.02573
G1 X207.423 Y153.07 E1.43244
G1 X206.817 Y153.07 E0.02573
G1 X230.676 Y176.93 E1.43244
G1 X230.07 Y176.93 E0.02573
G1 X206.211 Y153.07 E1.43244
G1 X205.605 Y153.07 E0.02573
G1 X229.464 Y176.93 E1.43244
G1 X228.858 Y176.93 E0.02573
G1 X204.999 Y153.07 E1.43244
G1 X204.393 Y153.07 E0.02573
G1 X228.252 Y176.93 E1.43244
G1 X227.646 Y176.93 E0.02573
G1 X203.787 Y153.07 E1.43244
G1 X203.181 Y153.07 E0.02573
G1 X227.04 Y176.93 E1.43244
G1 X226.434 Y176.93 E0.02573
G1 X202.575 Y153.07 E1.43244
G1 X201.969 Y153.07 E0.02573
G1 X225.828 Y176.93 E1.43244
G1 X225.222 Y176.93 E0.02573
G1 X201.363 Y153.07 E1.43244
G1 X200.757 Y153.07 E0.02573
G1 X224.616 Y176.93 E1.43244
G1 X224.01 Y176.93 E0.02573
G1 X200.151 Y153.07 E1.43244
G1 X199.545 Y153.07 E0.02573
G1 X223.404 Y176.93 E1.43244
G1 X222.798 Y176.93 E0.02573
G1 X198.939 Y153.07 E1.43244
G1 X198.333 Y153.07 E0.02573
G1 X222.192 Y176.93 E1.43244
G1 X221.586 Y176.93 E0.02573
G1 X197.727 Y153.07 E1.43244
G1 X197.121 Y153.07 E0.02573
G1 X220.98 Y176.93 E1.43244
G1 X220.374 Y176.93 E0.02573
G1 X196.515 Y153.07 E1.43244
G1 X195.909 Y153.07 E0.02573
G1 X219.768 Y176.93 E1.43244
G1 X219.162 Y176.93 E0.02573
G1 X195.303 Y153.07 E1.43244
G1 X194.697 Y153.07 E0.02573
G1 X218.556 Y176.93 E1.43244
G1 X217.95 Y176.93 E0.02573
G1 X194.091 Y153.07 E1.43244
G1 X193.485 Y153.07 E0.02573
G1 X217.344 Y176.93 E1.43244
G1 X216.738 Y176.93 E0.02573
G1 X192.879 Y153.07 E1.43244
G1 X192.273 Y153.07 E0.02573
G1 X216.132 Y176.93 E1.43244
G1 X215.526 Y176.93 E0.02573
G1 X191.667 Y153.07 E1.43244
G1 X191.061 Y153.07 E0.02573
G1 X214.92 Y176.93 E1.43244
G1 X214.314 Y176.93 E0.02573
G1 X190.455 Y153.07 E1.43244
G1 X189.849 Y153.07 E0.02573
G1 X213.708 Y176.93 E1.43244
G1 X213.102 Y176.93 E0.02573
G1 X189.243 Y153.07 E1.43244
G1 X188.637 Y153.07 E0.02573
G1 X212.496 Y176.93 E1.43244
G1 X211.89 Y176.93 E0.02573
G1 X188.031 Y153.07 E1.43244
G1 X187.425 Y153.07 E0.02573
G1 X211.284 Y176.93 E1.43244
G1 X210.678 Y176.93 E0.02573
G1 X186.819 Y153.07 E1.43244
G1 X186.213 Y153.07 E0.02573
G1 X210.072 Y176.93 E1.43244
G1 X209.466 Y176.93 E0.02573
G1 X185.607 Y153.07 E1.43244
G1 X185.001 Y153.07 E0.02573
G1 X208.86 Y176.93 E1.43244
G1 X208.254 Y176.93 E0.02573
G1 X184.395 Y153.07 E1.43244
G1 X183.789 Y153.07 E0.02573
G1 X207.648 Y176.93 E1.43244
G1 X207.042 Y176.93 E0.02573
G1 X183.183 Y153.07 E1.43244
G1 X182.577 Y153.07 E0.02573
G1 X206.436 Y176.93 E1.43244
G1 X205.83 Y176.93 E0.02573
G1 X181.971 Y153.07 E1.43244
G1 X181.365 Y153.07 E0.02573
G1 X205.224 Y176.93 E1.43244
G1 X204.618 Y176.93 E0.02573
G1 X180.759 Y153.07 E1.43244
G1 X180.153 Y153.07 E0.02573
G1 X204.012 Y176.93 E1.43244
G1 X203.406 Y176.93 E0.02573
G1 X179.547 Y153.07 E1.43244
G1 X178.941 Y153.07 E0.02573
G1 X202.8 Y176.93 E1.43244
G1 X202.194 Y176.93 E0.02573
G1 X178.335 Y153.07 E1.43244
G1 X177.729 Y153.07 E0.02573
G1 X201.588 Y176.93 E1.43244
G1 X200.982 Y176.93 E0.02573
G1 X177.123 Y153.07 E1.43244
G1 X176.517 Y153.07 E0.02573
G1 X200.376 Y176.93 E1.43244
G1 X199.77 Y176.93 E0.02573
G1 X175.911 Y153.07 E1.43244
G1 X175.305 Y153.07 E0.02573
G1 X199.164 Y176.93 E1.43244
G1 X198.558 Y176.93 E0.02573
G1 X174.699 Y153.07 E1.43244
G1 X174.093 Y153.07 E0.02573
G1 X197.952 Y176.93 E1.43244
