; generated by SuperSlicer 2.3.57 on 2022-03-02 at 18:21:55 UTC


;
;

;
;
; 

; external perimeters extrusion width = 0.40mm
; perimeters extrusion width = 0.45mm
; infill extrusion width = 0.72mm
; solid infill extrusion width = 0.56mm
; top infill extrusion width = 0.40mm
; support material extrusion width = 0.42mm
; first layer extrusion width = 0.48mm

; object:{"name":"British Columbia","id":"British Columbia.stl id:0 copy 0","object_center":[165.000000,149.500001,0.000000],"boundingbox_center":[165.000000,149.500001,3.025000],"boundingbox_size":[140.000000,25.000000,6.050000]}
; object:{"name":"Recreation Site","id":"Recreation Site.stl id:1 copy 0","object_center":[165.000000,180.500000,0.000000],"boundingbox_center":[165.000000,180.500000,3.025000],"boundingbox_size":[140.000000,25.000000,6.050000]}
; plater:{"center":[165.000000,165.000000,0.000000],"boundingbox_center":[165.000000,165.000000,3.025000],"boundingbox_size":[140.000000,55.999999,6.050000]}

;TYPE:Custom
START_PRINT T_BED=60 T_EXTRUDER=200
M107
G21 ; set units to millimeters
G90 ; use absolute coordinates
M83 ; use relative distances for extrusion
; Filament gcode
M104 S200 ; set temperature
M109 S200 ; set temperature and wait for it to be reached
M190 S60 ; set bed temperature and wait for it to be reached
M107
;LAYER_CHANGE
;Z:0.24
;HEIGHT:0.24
G1 Z0.24 F9000
G1 E-0.8 F3000
G1 X92.794 Y134.28 F9000
G1 E0.8 F1800
; External perimeter
;Skirt
SET_VELOCITY_LIMIT ACCEL=300 ACCEL_TO_DECEL=3000 SQUARE_CORNER_VELOCITY=5

; Support material

;TYPE:Skirt
;WIDTH:0.48
G1 X92.095 Y135.041 E0.0442
G1 X91.637 Y135.969 E0.0442
G1 X91.459 Y136.982 E0.044
G1 X91.457 Y192.917 E2.3915
G1 X91.533 Y193.638 E0.031
G1 X91.748 Y194.325 E0.03079
G1 X92.292 Y195.22 E0.0448
G1 X93.069 Y195.924 E0.0448
G1 X94.018 Y196.378 E0.045
G1 X95.053 Y196.542 E0.0448
G1 X234.907 Y196.543 E5.97953
G1 X235.628 Y196.469 E0.031
G1 X236.325 Y196.252 E0.0312
G1 X237.206 Y195.72 E0.044
G1 X237.9 Y194.966 E0.0438
G1 X238.358 Y194.045 E0.044
G1 X238.54 Y193.037 E0.0438
G1 X238.542 Y137.017 E2.39513
G1 X238.458 Y136.321 E0.02999
G1 X238.243 Y135.653 E0.02999
G1 X237.901 Y135.035 E0.03019
G1 X237.45 Y134.498 E0.02999
G1 X236.9 Y134.055 E0.03019
G1 X236.279 Y133.728 E0.02999
G1 X235.603 Y133.526 E0.03019
G1 X234.905 Y133.457 E0.02999
G1 X95.093 Y133.457 E5.97772
G1 X94.372 Y133.531 E0.031
G1 X93.675 Y133.748 E0.0312
G1 X92.846 Y134.249 E0.04144
G1 X93.067 Y134.61 F9000
G1 F1800
G1 X92.449 Y135.283 E0.03907
G1 X92.043 Y136.107 E0.03926
G1 X91.887 Y137.007 E0.03907
G1 X91.886 Y192.913 E2.39028
G1 X91.951 Y193.542 E0.02704
G1 X92.139 Y194.15 E0.02723
G1 X92.619 Y194.943 E0.03963
G1 X93.305 Y195.566 E0.03963
G1 X94.145 Y195.969 E0.03982
G1 X95.06 Y196.114 E0.03963
G1 X234.904 Y196.114 E5.97909
G1 X235.542 Y196.049 E0.02741
G1 X236.15 Y195.861 E0.02723
G1 X236.933 Y195.39 E0.03907
G1 X237.549 Y194.721 E0.03888
G1 X237.954 Y193.902 E0.03907
G1 X238.112 Y193.006 E0.03888
G1 X238.114 Y137.034 E2.39312
G1 X238.04 Y136.415 E0.02666
G1 X237.851 Y135.825 E0.02647
G1 X237.552 Y135.283 E0.02647
G1 X237.151 Y134.806 E0.02666
G1 X236.666 Y134.414 E0.02666
G1 X236.118 Y134.125 E0.02647
G1 X235.525 Y133.947 E0.02647
G1 X234.904 Y133.886 E0.02666
G1 X95.096 Y133.886 E5.97757
G1 X94.458 Y133.951 E0.02741
G1 X93.85 Y134.139 E0.02723
G1 X93.118 Y134.579 E0.0365
; INIT printing object British Columbia.stl id:0 copy 0
G1 E-0.8 F3000
; printing object British Columbia.stl id:0 copy 0
G1 X95.768 Y137.768 F9000
G1 E0.8 F1800
; External perimeter
;Perimeter
SET_VELOCITY_LIMIT ACCEL=2000 ACCEL_TO_DECEL=2000 SQUARE_CORNER_VELOCITY=5

; Overhang perimeter

;TYPE:Internal perimeter
G1 X234.232 Y137.768 E5.92005
G1 X234.232 Y161.232 E1.00317
G1 X95.768 Y161.232 E5.92005
G1 X95.768 Y137.828 E1.00061
G1 X234.66 Y161.66 F9000
; External perimeter
;ExternalPerimeter
SET_VELOCITY_LIMIT ACCEL=1000 ACCEL_TO_DECEL=1000 SQUARE_CORNER_VELOCITY=5

; Perimeter

;TYPE:External perimeter
G1 F1800
G1 X95.34 Y161.66 E5.95669
G1 X95.34 Y161.54 E0.00458
G1 X95.34 Y161.3 E0.00971
G1 X95.34 Y137.34 E1.02442
G1 X95.46 Y137.34 E0.00458
G1 X95.7 Y137.34 E0.00971
G1 X234.66 Y137.34 E5.9413
G1 X234.66 Y137.46 E0.00458
G1 X234.66 Y137.7 E0.00971
G1 X234.66 Y161.6 E1.02186
;WIPE_START
G1 X234.314 Y161.46 F9000
;WIPE_END
G1 X233.301 Y137.833
; External perimeter
;SolidInfill
SET_VELOCITY_LIMIT ACCEL=2000 ACCEL_TO_DECEL=2000 SQUARE_CORNER_VELOCITY=5

; Bridge infill

;TYPE:Solid infill
;WIDTH:0.476559
G1 F2400
G1 X233.983 Y138.515 E0.04094
G1 X233.983 Y139.121 E0.02572
G1 X232.879 Y138.017 E0.06626
G1 X232.273 Y138.017 E0.02572
G1 X233.983 Y139.727 E0.10263
G1 X233.983 Y140.333 E0.02572
G1 X231.667 Y138.017 E0.13901
G1 X231.061 Y138.017 E0.02572
G1 X233.983 Y140.939 E0.17539
G1 X233.983 Y141.545 E0.02572
G1 X230.455 Y138.017 E0.21177
G1 X229.849 Y138.017 E0.02572
G1 X233.983 Y142.151 E0.24815
G1 X233.983 Y142.757 E0.02572
G1 X229.243 Y138.017 E0.28453
G1 X228.637 Y138.017 E0.02572
G1 X233.983 Y143.363 E0.3209
G1 X233.983 Y143.969 E0.02572
G1 X228.031 Y138.017 E0.35728
G1 X227.425 Y138.017 E0.02572
G1 X233.983 Y144.575 E0.39366
G1 X233.983 Y145.181 E0.02572
G1 X226.819 Y138.017 E0.43004
G1 X226.214 Y138.017 E0.02572
G1 X233.983 Y145.786 E0.46642
G1 X233.983 Y146.392 E0.02572
G1 X225.608 Y138.017 E0.5028
G1 X225.002 Y138.017 E0.02572
G1 X233.983 Y146.998 E0.53917
G1 X233.983 Y147.604 E0.02572
G1 X224.396 Y138.017 E0.57555
G1 X223.79 Y138.017 E0.02572
G1 X233.983 Y148.21 E0.61193
G1 X233.983 Y148.816 E0.02572
G1 X223.184 Y138.017 E0.64831
G1 X222.578 Y138.017 E0.02572
G1 X233.983 Y149.422 E0.68469
G1 X233.983 Y150.028 E0.02572
G1 X221.972 Y138.017 E0.72107
G1 X221.366 Y138.017 E0.02572
G1 X233.983 Y150.634 E0.75744
G1 X233.983 Y151.24 E0.02572
G1 X220.76 Y138.017 E0.79382
G1 X220.154 Y138.017 E0.02572
G1 X233.983 Y151.846 E0.8302
G1 X233.983 Y152.452 E0.02572
G1 X219.548 Y138.017 E0.86658
G1 X218.942 Y138.017 E0.02572
G1 X233.983 Y153.058 E0.90296
G1 X233.983 Y153.664 E0.02572
G1 X218.336 Y138.017 E0.93934
G1 X217.73 Y138.017 E0.02572
G1 X233.983 Y154.27 E0.97571
G1 X233.983 Y154.876 E0.02572
G1 X217.124 Y138.017 E1.01209
G1 X216.518 Y138.017 E0.02572
G1 X233.983 Y155.482 E1.04847
G1 X233.983 Y156.088 E0.02572
G1 X215.912 Y138.017 E1.08485
G1 X215.306 Y138.017 E0.02572
G1 X233.983 Y156.694 E1.12123
G1 X233.983 Y157.3 E0.02572
G1 X214.7 Y138.017 E1.15761
G1 X214.094 Y138.017 E0.02572
G1 X233.983 Y157.906 E1.19398
G1 X233.983 Y158.512 E0.02572
G1 X213.488 Y138.017 E1.23036
G1 X212.882 Y138.017 E0.02572
G1 X233.983 Y159.118 E1.26674
G1 X233.983 Y159.724 E0.02572
G1 X212.276 Y138.017 E1.30312
G1 X211.67 Y138.017 E0.02572
G1 X233.983 Y160.33 E1.3395
G1 X233.983 Y160.936 E0.02572
G1 X211.064 Y138.017 E1.37588
G1 X210.458 Y138.017 E0.02572
G1 X233.424 Y160.983 E1.37869
G1 X232.818 Y160.983 E0.02572
G1 X209.852 Y138.017 E1.37869
G1 X209.246 Y138.017 E0.02572
G1 X232.212 Y160.983 E1.37869
G1 X231.606 Y160.983 E0.02572
G1 X208.64 Y138.017 E1.37869
G1 X208.034 Y138.017 E0.02572
G1 X231 Y160.983 E1.37869
G1 X230.394 Y160.983 E0.02572
G1 X207.428 Y138.017 E1.37869
G1 X206.822 Y138.017 E0.02572
G1 X229.788 Y160.983 E1.37869
G1 X229.182 Y160.983 E0.02572
G1 X206.216 Y138.017 E1.37869
G1 X205.61 Y138.017 E0.02572
G1 X228.576 Y160.983 E1.37869
G1 X227.97 Y160.983 E0.02572
G1 X205.004 Y138.017 E1.37869
G1 X204.398 Y138.017 E0.02572
G1 X227.364 Y160.983 E1.37869
G1 X226.758 Y160.983 E0.02572
G1 X203.792 Y138.017 E1.37869
G1 X203.186 Y138.017 E0.02572
G1 X226.152 Y160.983 E1.37869
G1 X225.546 Y160.983 E0.02572
G1 X202.58 Y138.017 E1.37869
G1 X201.974 Y138.017 E0.02572
G1 X224.94 Y160.983 E1.37869
G1 X224.334 Y160.983 E0.02572
G1 X201.368 Y138.017 E1.37869
G1 X200.762 Y138.017 E0.02572
G1 X223.728 Y160.983 E1.37869
G1 X223.122 Y160.983 E0.02572
G1 X200.156 Y138.017 E1.37869
G1 X199.55 Y138.017 E0.02572
G1 X222.516 Y160.983 E1.37869
G1 X221.91 Y160.983 E0.02572
G1 X198.944 Y138.017 E1.37869
G1 X198.338 Y138.017 E0.02572
G1 X221.304 Y160.983 E1.37869
G1 X220.698 Y160.983 E0.02572
G1 X197.732 Y138.017 E1.37869
G1 X197.126 Y138.017 E0.02572
G1 X220.092 Y160.983 E1.37869
G1 X219.486 Y160.983 E0.02572
G1 X196.52 Y138.017 E1.37869
G1 X195.914 Y138.017 E0.02572
G1 X218.88 Y160.983 E1.37869
G1 X218.274 Y160.983 E0.02572
G1 X195.308 Y138.017 E1.37869
G1 X194.702 Y138.017 E0.02572
G1 X217.668 Y160.983 E1.37869
G1 X217.062 Y160.983 E0.02572
G1 X194.096 Y138.017 E1.37869
G1 X193.49 Y138.017 E0.02572
G1 X216.456 Y160.983 E1.37869
G1 X215.85 Y160.983 E0.02572
G1 X192.884 Y138.017 E1.37869
G1 X192.278 Y138.017 E0.02572
G1 X215.244 Y160.983 E1.37869
G1 X214.638 Y160.983 E0.02572
G1 X191.672 Y138.017 E1.37869
G1 X191.066 Y138.017 E0.02572
G1 X214.032 Y160.983 E1.37869
G1 X213.426 Y160.983 E0.02572
G1 X190.46 Y138.017 E1.37869
G1 X189.854 Y138.017 E0.02572
G1 X212.82 Y160.983 E1.37869
G1 X212.215 Y160.983 E0.02572
G1 X189.249 Y138.017 E1.37869
G1 X188.643 Y138.017 E0.02572
G1 X211.609 Y160.983 E1.37869
G1 X211.003 Y160.983 E0.02572
G1 X188.037 Y138.017 E1.37869
G1 X187.431 Y138.017 E0.02572
G1 X210.397 Y160.983 E1.37869
G1 X209.791 Y160.983 E0.02572
G1 X186.825 Y138.017 E1.37869
G1 X186.219 Y138.017 E0.02572
G1 X209.185 Y160.983 E1.37869
G1 X208.579 Y160.983 E0.02572
G1 X185.613 Y138.017 E1.37869
G1 X185.007 Y138.017 E0.02572
G1 X207.973 Y160.983 E1.37869
G1 X207.367 Y160.983 E0.02572
G1 X184.401 Y138.017 E1.37869
G1 X183.795 Y138.017 E0.02572
G1 X206.761 Y160.983 E1.37869
G1 X206.155 Y160.983 E0.02572
G1 X183.189 Y138.017 E1.37869
G1 X182.583 Y138.017 E0.02572
G1 X205.549 Y160.983 E1.37869
G1 X204.943 Y160.983 E0.02572
G1 X181.977 Y138.017 E1.37869
G1 X181.371 Y138.017 E0.02572
G1 X204.337 Y160.983 E1.37869
G1 X203.731 Y160.983 E0.02572
G1 X180.765 Y138.017 E1.37869
G1 X180.159 Y138.017 E0.02572
G1 X203.125 Y160.983 E1.37869
G1 X202.519 Y160.983 E0.02572
G1 X179.553 Y138.017 E1.37869
G1 X178.947 Y138.017 E0.02572
G1 X201.913 Y160.983 E1.37869
G1 X201.307 Y160.983 E0.02572
G1 X178.341 Y138.017 E1.37869
G1 X177.735 Y138.017 E0.02572
G1 X200.701 Y160.983 E1.37869
G1 X200.095 Y160.983 E0.02572
G1 X177.129 Y138.017 E1.37869
G1 X176.523 Y138.017 E0.02572
G1 X199.489 Y160.983 E1.37869
G1 X198.883 Y160.983 E0.02572
G1 X175.917 Y138.017 E1.37869
G1 X175.311 Y138.017 E0.02572
G1 X198.277 Y160.983 E1.37869
G1 X197.671 Y160.983 E0.02572
G1 X174.705 Y138.017 E1.37869
G1 X174.099 Y138.017 E0.02572
G1 X197.065 Y160.983 E1.37869
G1 X196.459 Y160.983 E0.02572
G1 X173.493 Y138.017 E1.37869
G1 X172.887 Y138.017 E0.02572
G1 X195.853 Y160.983 E1.37869
G1 X195.247 Y160.983 E0.02572
G1 X172.281 Y138.017 E1.37869
G1 X171.675 Y138.017 E0.02572
G1 X194.641 Y160.983 E1.37869
G1 X194.035 Y160.983 E0.02572
G1 X171.069 Y138.017 E1.37869
G1 X170.463 Y138.017 E0.02572
G1 X193.429 Y160.983 E1.37869
G1 X192.823 Y160.983 E0.02572
G1 X169.857 Y138.017 E1.37869
G1 X169.251 Y138.017 E0.02572
G1 X192.217 Y160.983 E1.37869
G1 X191.611 Y160.983 E0.02572
G1 X168.645 Y138.017 E1.37869
G1 X168.039 Y138.017 E0.02572
G1 X191.005 Y160.983 E1.37869
G1 X190.399 Y160.983 E0.02572
G1 X167.433 Y138.017 E1.37869
G1 X166.827 Y138.017 E0.02572
G1 X189.793 Y160.983 E1.37869
G1 X189.187 Y160.983 E0.02572
G1 X166.221 Y138.017 E1.37869
G1 X165.615 Y138.017 E0.02572
G1 X188.581 Y160.983 E1.37869
G1 X187.975 Y160.983 E0.02572
G1 X165.009 Y138.017 E1.37869
G1 X164.403 Y138.017 E0.02572
G1 X187.369 Y160.983 E1.37869
G1 X186.763 Y160.983 E0.02572
G1 X163.797 Y138.017 E1.37869
G1 X163.191 Y138.017 E0.02572
G1 X186.157 Y160.983 E1.37869
G1 X185.551 Y160.983 E0.02572
G1 X162.585 Y138.017 E1.37869
G1 X161.979 Y138.017 E0.02572
G1 X184.945 Y160.983 E1.37869
G1 X184.339 Y160.983 E0.02572
G1 X161.373 Y138.017 E1.37869
G1 X160.767 Y138.017 E0.02572
G1 X183.733 Y160.983 E1.37869
G1 X183.127 Y160.983 E0.02572
G1 X160.161 Y138.017 E1.37869
G1 X159.555 Y138.017 E0.02572
G1 X182.521 Y160.983 E1.37869
G1 X181.915 Y160.983 E0.02572
G1 X158.949 Y138.017 E1.37869
G1 X158.343 Y138.017 E0.02572
G1 X181.309 Y160.983 E1.37869
G1 X180.703 Y160.983 E0.02572
G1 X157.737 Y138.017 E1.37869
G1 X157.131 Y138.017 E0.02572
G1 X180.097 Y160.983 E1.37869
G1 X179.491 Y160.983 E0.02572
G1 X156.525 Y138.017 E1.37869
G1 X155.919 Y138.017 E0.02572
G1 X178.885 Y160.983 E1.37869
G1 X178.279 Y160.983 E0.02572
G1 X155.313 Y138.017 E1.37869
G1 X154.707 Y138.017 E0.02572
G1 X177.673 Y160.983 E1.37869
G1 X177.067 Y160.983 E0.02572
G1 X154.101 Y138.017 E1.37869
G1 X153.495 Y138.017 E0.02572
G1 X176.461 Y160.983 E1.37869
G1 X175.856 Y160.983 E0.02572
G1 X152.89 Y138.017 E1.37869
G1 X152.284 Y138.017 E0.02572
G1 X175.25 Y160.983 E1.37869
G1 X174.644 Y160.983 E0.02572
G1 X151.678 Y138.017 E1.37869
G1 X151.072 Y138.017 E0.02572
G1 X174.038 Y160.983 E1.37869
G1 X173.432 Y160.983 E0.02572
G1 X150.466 Y138.017 E1.37869
G1 X149.86 Y138.017 E0.02572
G1 X172.826 Y160.983 E1.37869
G1 X172.22 Y160.983 E0.02572
G1 X149.254 Y138.017 E1.37869
G1 X148.648 Y138.017 E0.02572
G1 X171.614 Y160.983 E1.37869
G1 X171.008 Y160.983 E0.02572
G1 X148.042 Y138.017 E1.37869
G1 X147.436 Y138.017 E0.02572
G1 X170.402 Y160.983 E1.37869
G1 X169.796 Y160.983 E0.02572
G1 X146.83 Y138.017 E1.37869
G1 X146.224 Y138.017 E0.02572
G1 X169.19 Y160.983 E1.37869
G1 X168.584 Y160.983 E0.02572
G1 X145.618 Y138.017 E1.37869
G1 X145.012 Y138.017 E0.02572
G1 X167.978 Y160.983 E1.37869
G1 X167.372 Y160.983 E0.02572
G1 X144.406 Y138.017 E1.37869
G1 X143.8 Y138.017 E0.02572
G1 X166.766 Y160.983 E1.37869
G1 X166.16 Y160.983 E0.02572
G1 X143.194 Y138.017 E1.37869
G1 X142.588 Y138.017 E0.02572
G1 X165.554 Y160.983 E1.37869
G1 X164.948 Y160.983 E0.02572
G1 X141.982 Y138.017 E1.37869
G1 X141.376 Y138.017 E0.02572
G1 X164.342 Y160.983 E1.37869
G1 X163.736 Y160.983 E0.02572
G1 X140.77 Y138.017 E1.37869
G1 X140.164 Y138.017 E0.02572
G1 X163.13 Y160.983 E1.37869
G1 X162.524 Y160.983 E0.02572
G1 X139.558 Y138.017 E1.37869
G1 X138.952 Y138.017 E0.02572
G1 X161.918 Y160.983 E1.37869
G1 X161.312 Y160.983 E0.02572
G1 X138.346 Y138.017 E1.37869
G1 X137.74 Y138.017 E0.02572
G1 X160.706 Y160.983 E1.37869
G1 X160.1 Y160.983 E0.02572
G1 X137.134 Y138.017 E1.37869
G1 X136.528 Y138.017 E0.02572
G1 X159.494 Y160.983 E1.37869
G1 X158.888 Y160.983 E0.02572
G1 X135.922 Y138.017 E1.37869
G1 X135.316 Y138.017 E0.02572
G1 X158.282 Y160.983 E1.37869
G1 X157.676 Y160.983 E0.02572
G1 X134.71 Y138.017 E1.37869
G1 X134.104 Y138.017 E0.02572
G1 X157.07 Y160.983 E1.37869
G1 X156.464 Y160.983 E0.02572
G1 X133.498 Y138.017 E1.37869
G1 X132.892 Y138.017 E0.02572
G1 X155.858 Y160.983 E1.37869
G1 X155.252 Y160.983 E0.02572
G1 X132.286 Y138.017 E1.37869
G1 X131.68 Y138.017 E0.02572
G1 X154.646 Y160.983 E1.37869
G1 X154.04 Y160.983 E0.02572
G1 X131.074 Y138.017 E1.37869
G1 X130.468 Y138.017 E0.02572
G1 X153.434 Y160.983 E1.37869
G1 X152.828 Y160.983 E0.02572
G1 X129.862 Y138.017 E1.37869
G1 X129.256 Y138.017 E0.02572
G1 X152.222 Y160.983 E1.37869
G1 X151.616 Y160.983 E0.02572
G1 X128.65 Y138.017 E1.37869
G1 X128.044 Y138.017 E0.02572
G1 X151.01 Y160.983 E1.37869
G1 X150.404 Y160.983 E0.02572
G1 X127.438 Y138.017 E1.37869
G1 X126.832 Y138.017 E0.02572
G1 X149.798 Y160.983 E1.37869
G1 X149.192 Y160.983 E0.02572
G1 X126.226 Y138.017 E1.37869
G1 X125.62 Y138.017 E0.02572
G1 X148.586 Y160.983 E1.37869
G1 X147.98 Y160.983 E0.02572
G1 X125.014 Y138.017 E1.37869
G1 X124.408 Y138.017 E0.02572
G1 X147.374 Y160.983 E1.37869
G1 X146.768 Y160.983 E0.02572
G1 X123.802 Y138.017 E1.37869
G1 X123.196 Y138.017 E0.02572
G1 X146.162 Y160.983 E1.37869
G1 X145.556 Y160.983 E0.02572
G1 X122.59 Y138.017 E1.37869
G1 X121.984 Y138.017 E0.02572
G1 X144.95 Y160.983 E1.37869
G1 X144.344 Y160.983 E0.02572
G1 X121.378 Y138.017 E1.37869
G1 X120.772 Y138.017 E0.02572
G1 X143.738 Y160.983 E1.37869
G1 X143.132 Y160.983 E0.02572
G1 X120.166 Y138.017 E1.37869
G1 X119.56 Y138.017 E0.02572
G1 X142.526 Y160.983 E1.37869
G1 X141.92 Y160.983 E0.02572
G1 X118.954 Y138.017 E1.37869
G1 X118.348 Y138.017 E0.02572
G1 X141.314 Y160.983 E1.37869
G1 X140.708 Y160.983 E0.02572
G1 X117.742 Y138.017 E1.37869
G1 X117.136 Y138.017 E0.02572
G1 X140.102 Y160.983 E1.37869
G1 X139.496 Y160.983 E0.02572
