; generated by SuperSlicer 2.3.57 on 2022-03-03 at 16:19:14 UTC


;
;

;
;
; 

; external perimeters extrusion width = 0.40mm
; perimeters extrusion width = 0.45mm
; infill extrusion width = 0.72mm
; solid infill extrusion width = 0.56mm
; top infill extrusion width = 0.40mm
; support material extrusion width = 0.42mm
; first layer extrusion width = 0.48mm

; object:{"name":"Post","id":"Post.stl id:0 copy 0","object_center":[165.000000,165.000000,0.000000],"boundingbox_center":[165.000000,165.000000,6.500000],"boundingbox_size":[20.000000,130.000000,13.000000]}
; plater:{"center":[165.000000,165.000000,0.000000],"boundingbox_center":[165.000000,165.000000,6.500000],"boundingbox_size":[20.000000,130.000000,13.000000]}

;TYPE:Custom
START_PRINT T_BED=60 T_EXTRUDER=200
M107
G21 ; set units to millimeters
G90 ; use absolute coordinates
M83 ; use relative distances for extrusion
; Filament gcode
M104 S200 ; set temperature
M109 S200 ; set temperature and wait for it to be reached
M190 S60 ; set bed temperature and wait for it to be reached
M107
;LAYER_CHANGE
;Z:0.24
;HEIGHT:0.24
G1 Z0.24 F9000
G1 E-0.8 F3000
G1 X151.852 Y98.451 F9000
G1 E0.8 F1800
; External perimeter
;Skirt
SET_VELOCITY_LIMIT ACCEL=300 ACCEL_TO_DECEL=3000 SQUARE_CORNER_VELOCITY=5

; Support material

;TYPE:Skirt
;WIDTH:0.48
G1 X151.497 Y99.564 E0.04998
G1 X151.458 Y229.983 E5.57609
G1 X151.528 Y230.614 E0.02718
G1 X151.707 Y231.225 E0.02718
G1 X151.991 Y231.798 E0.02738
G1 X152.368 Y232.31 E0.02718
G1 X152.829 Y232.748 E0.02718
G1 X153.359 Y233.1 E0.02718
G1 X153.942 Y233.354 E0.02718
G1 X154.564 Y233.503 E0.02738
G1 X175.363 Y233.513 E0.88926
G1 X176.488 Y233.178 E0.05018
G1 X177.452 Y232.5 E0.05038
G1 X178.146 Y231.554 E0.05018
G1 X178.503 Y230.436 E0.05018
G1 X178.541 Y100.003 E5.57669
G1 X178.455 Y99.307 E0.02999
G1 X178.238 Y98.64 E0.02999
G1 X177.896 Y98.028 E0.02999
G1 X177.443 Y97.492 E0.02999
G1 X176.896 Y97.053 E0.02999
G1 X176.275 Y96.727 E0.02999
G1 X175.603 Y96.526 E0.02999
G1 X174.905 Y96.457 E0.02999
G1 X154.623 Y96.489 E0.86717
G1 X153.499 Y96.828 E0.05018
G1 X152.545 Y97.503 E0.04998
G1 X151.887 Y98.402 E0.04762
G1 X152.24 Y98.633 F9000
G1 F1800
G1 X151.921 Y99.628 E0.04468
G1 X151.886 Y229.966 E5.57267
G1 X151.948 Y230.529 E0.02421
G1 X152.106 Y231.068 E0.02402
G1 X152.355 Y231.572 E0.02402
G1 X152.688 Y232.024 E0.02402
G1 X153.094 Y232.412 E0.02402
G1 X153.562 Y232.723 E0.02402
G1 X154.081 Y232.949 E0.02421
G1 X154.628 Y233.079 E0.02402
G1 X175.266 Y233.093 E0.88241
G1 X176.276 Y232.805 E0.04487
G1 X177.135 Y232.21 E0.04468
G1 X177.76 Y231.367 E0.04487
G1 X178.079 Y230.372 E0.04468
G1 X178.113 Y100.025 E5.57305
G1 X178.038 Y99.406 E0.02666
G1 X177.847 Y98.817 E0.02647
G1 X177.547 Y98.276 E0.02647
G1 X177.148 Y97.802 E0.02647
G1 X176.662 Y97.412 E0.02666
G1 X176.114 Y97.124 E0.02647
G1 X175.521 Y96.946 E0.02647
G1 X174.904 Y96.886 E0.02647
G1 X154.72 Y96.908 E0.86298
G1 X153.716 Y97.199 E0.04468
G1 X152.862 Y97.793 E0.0445
G1 X152.276 Y98.585 E0.04212
; INIT printing object Post.stl id:0 copy 0
G1 E-0.8 F3000
; printing object Post.stl id:0 copy 0
G1 X155.768 Y100.768 F9000
G1 E0.8 F1800
; External perimeter
;Perimeter
SET_VELOCITY_LIMIT ACCEL=2000 ACCEL_TO_DECEL=2000 SQUARE_CORNER_VELOCITY=5

; Overhang perimeter

;TYPE:Internal perimeter
G1 X174.232 Y100.768 E0.78939
G1 X174.232 Y229.232 E5.4925
G1 X155.768 Y229.232 E0.78939
G1 X155.768 Y100.828 E5.48993
G1 X174.66 Y229.66 F9000
; External perimeter
;ExternalPerimeter
SET_VELOCITY_LIMIT ACCEL=1000 ACCEL_TO_DECEL=1000 SQUARE_CORNER_VELOCITY=5

; Perimeter

;TYPE:External perimeter
G1 F1800
G1 X155.34 Y229.66 E0.82604
G1 X155.34 Y229.54 E0.00458
G1 X155.34 Y229.3 E0.00971
G1 X155.34 Y100.34 E5.51374
G1 X155.46 Y100.34 E0.00458
G1 X155.7 Y100.34 E0.00971
G1 X174.66 Y100.34 E0.81064
G1 X174.66 Y100.46 E0.00458
G1 X174.66 Y100.7 E0.00971
G1 X174.66 Y229.6 E5.51118
;WIPE_START
G1 X174.314 Y229.46 F9000
;WIPE_END
G1 X173.301 Y100.833
; External perimeter
;SolidInfill
SET_VELOCITY_LIMIT ACCEL=2000 ACCEL_TO_DECEL=2000 SQUARE_CORNER_VELOCITY=5

; Bridge infill

;TYPE:Solid infill
;WIDTH:0.475753
G1 F2400
G1 X173.983 Y101.515 E0.04087
G1 X173.983 Y102.121 E0.02568
G1 X172.879 Y101.017 E0.06614
G1 X172.273 Y101.017 E0.02568
G1 X173.983 Y102.727 E0.10246
G1 X173.983 Y103.333 E0.02568
G1 X171.667 Y101.017 E0.13878
G1 X171.061 Y101.017 E0.02568
G1 X173.983 Y103.939 E0.17509
G1 X173.983 Y104.545 E0.02568
G1 X170.455 Y101.017 E0.21141
G1 X169.849 Y101.017 E0.02568
G1 X173.983 Y105.151 E0.24773
G1 X173.983 Y105.757 E0.02568
G1 X169.243 Y101.017 E0.28404
G1 X168.637 Y101.017 E0.02568
G1 X173.983 Y106.363 E0.32036
G1 X173.983 Y106.969 E0.02568
G1 X168.031 Y101.017 E0.35668
G1 X167.425 Y101.017 E0.02568
G1 X173.983 Y107.575 E0.39299
G1 X173.983 Y108.181 E0.02568
G1 X166.819 Y101.017 E0.42931
G1 X166.214 Y101.017 E0.02568
G1 X173.983 Y108.786 E0.46563
G1 X173.983 Y109.392 E0.02568
G1 X165.608 Y101.017 E0.50194
G1 X165.002 Y101.017 E0.02568
G1 X173.983 Y109.998 E0.53826
G1 X173.983 Y110.604 E0.02568
G1 X164.396 Y101.017 E0.57458
G1 X163.79 Y101.017 E0.02568
G1 X173.983 Y111.21 E0.6109
G1 X173.983 Y111.816 E0.02568
G1 X163.184 Y101.017 E0.64721
G1 X162.578 Y101.017 E0.02568
G1 X173.983 Y112.422 E0.68353
G1 X173.983 Y113.028 E0.02568
G1 X161.972 Y101.017 E0.71985
G1 X161.366 Y101.017 E0.02568
G1 X173.983 Y113.634 E0.75616
G1 X173.983 Y114.24 E0.02568
G1 X160.76 Y101.017 E0.79248
G1 X160.154 Y101.017 E0.02568
G1 X173.983 Y114.846 E0.8288
G1 X173.983 Y115.452 E0.02568
G1 X159.548 Y101.017 E0.86511
G1 X158.942 Y101.017 E0.02568
G1 X173.983 Y116.058 E0.90143
G1 X173.983 Y116.664 E0.02568
G1 X158.336 Y101.017 E0.93775
G1 X157.73 Y101.017 E0.02568
G1 X173.983 Y117.27 E0.97406
G1 X173.983 Y117.876 E0.02568
G1 X157.124 Y101.017 E1.01038
G1 X156.518 Y101.017 E0.02568
G1 X173.983 Y118.482 E1.0467
G1 X173.983 Y119.088 E0.02568
G1 X156.017 Y101.122 E1.07671
G1 X156.017 Y101.728 E0.02568
G1 X173.983 Y119.694 E1.07671
G1 X173.983 Y120.3 E0.02568
G1 X156.017 Y102.334 E1.07671
G1 X156.017 Y102.94 E0.02568
G1 X173.983 Y120.906 E1.07671
G1 X173.983 Y121.512 E0.02568
G1 X156.017 Y103.546 E1.07671
G1 X156.017 Y104.152 E0.02568
G1 X173.983 Y122.118 E1.07671
G1 X173.983 Y122.724 E0.02568
G1 X156.017 Y104.758 E1.07671
G1 X156.017 Y105.364 E0.02568
G1 X173.983 Y123.33 E1.07671
G1 X173.983 Y123.936 E0.02568
G1 X156.017 Y105.97 E1.07671
G1 X156.017 Y106.576 E0.02568
G1 X173.983 Y124.542 E1.07671
G1 X173.983 Y125.148 E0.02568
G1 X156.017 Y107.182 E1.07671
G1 X156.017 Y107.788 E0.02568
G1 X173.983 Y125.754 E1.07671
G1 X173.983 Y126.36 E0.02568
G1 X156.017 Y108.394 E1.07671
G1 X156.017 Y109 E0.02568
G1 X173.983 Y126.966 E1.07671
G1 X173.983 Y127.572 E0.02568
G1 X156.017 Y109.606 E1.07671
G1 X156.017 Y110.212 E0.02568
G1 X173.983 Y128.178 E1.07671
G1 X173.983 Y128.784 E0.02568
G1 X156.017 Y110.818 E1.07671
G1 X156.017 Y111.424 E0.02568
G1 X173.983 Y129.39 E1.07671
G1 X173.983 Y129.996 E0.02568
G1 X156.017 Y112.03 E1.07671
G1 X156.017 Y112.636 E0.02568
G1 X173.983 Y130.602 E1.07671
G1 X173.983 Y131.208 E0.02568
G1 X156.017 Y113.242 E1.07671
G1 X156.017 Y113.848 E0.02568
G1 X173.983 Y131.814 E1.07671
G1 X173.983 Y132.42 E0.02568
G1 X156.017 Y114.454 E1.07671
G1 X156.017 Y115.06 E0.02568
G1 X173.983 Y133.026 E1.07671
G1 X173.983 Y133.632 E0.02568
G1 X156.017 Y115.666 E1.07671
G1 X156.017 Y116.272 E0.02568
G1 X173.983 Y134.238 E1.07671
G1 X173.983 Y134.844 E0.02568
G1 X156.017 Y116.878 E1.07671
G1 X156.017 Y117.484 E0.02568
G1 X173.983 Y135.45 E1.07671
G1 X173.983 Y136.056 E0.02568
G1 X156.017 Y118.09 E1.07671
G1 X156.017 Y118.696 E0.02568
G1 X173.983 Y136.662 E1.07671
G1 X173.983 Y137.268 E0.02568
G1 X156.017 Y119.302 E1.07671
G1 X156.017 Y119.908 E0.02568
G1 X173.983 Y137.874 E1.07671
G1 X173.983 Y138.48 E0.02568
G1 X156.017 Y120.514 E1.07671
G1 X156.017 Y121.12 E0.02568
G1 X173.983 Y139.086 E1.07671
G1 X173.983 Y139.692 E0.02568
G1 X156.017 Y121.726 E1.07671
G1 X156.017 Y122.332 E0.02568
G1 X173.983 Y140.298 E1.07671
G1 X173.983 Y140.904 E0.02568
G1 X156.017 Y122.938 E1.07671
G1 X156.017 Y123.544 E0.02568
G1 X173.983 Y141.51 E1.07671
G1 X173.983 Y142.116 E0.02568
G1 X156.017 Y124.15 E1.07671
G1 X156.017 Y124.756 E0.02568
G1 X173.983 Y142.722 E1.07671
G1 X173.983 Y143.328 E0.02568
G1 X156.017 Y125.362 E1.07671
G1 X156.017 Y125.968 E0.02568
G1 X173.983 Y143.934 E1.07671
G1 X173.983 Y144.54 E0.02568
G1 X156.017 Y126.574 E1.07671
G1 X156.017 Y127.18 E0.02568
G1 X173.983 Y145.146 E1.07671
G1 X173.983 Y145.751 E0.02568
G1 X156.017 Y127.785 E1.07671
G1 X156.017 Y128.391 E0.02568
G1 X173.983 Y146.357 E1.07671
G1 X173.983 Y146.963 E0.02568
G1 X156.017 Y128.997 E1.07671
G1 X156.017 Y129.603 E0.02568
G1 X173.983 Y147.569 E1.07671
G1 X173.983 Y148.175 E0.02568
G1 X156.017 Y130.209 E1.07671
G1 X156.017 Y130.815 E0.02568
G1 X173.983 Y148.781 E1.07671
G1 X173.983 Y149.387 E0.02568
G1 X156.017 Y131.421 E1.07671
G1 X156.017 Y132.027 E0.02568
G1 X173.983 Y149.993 E1.07671
G1 X173.983 Y150.599 E0.02568
G1 X156.017 Y132.633 E1.07671
G1 X156.017 Y133.239 E0.02568
G1 X173.983 Y151.205 E1.07671
G1 X173.983 Y151.811 E0.02568
G1 X156.017 Y133.845 E1.07671
G1 X156.017 Y134.451 E0.02568
G1 X173.983 Y152.417 E1.07671
G1 X173.983 Y153.023 E0.02568
G1 X156.017 Y135.057 E1.07671
G1 X156.017 Y135.663 E0.02568
G1 X173.983 Y153.629 E1.07671
G1 X173.983 Y154.235 E0.02568
G1 X156.017 Y136.269 E1.07671
G1 X156.017 Y136.875 E0.02568
G1 X173.983 Y154.841 E1.07671
G1 X173.983 Y155.447 E0.02568
G1 X156.017 Y137.481 E1.07671
G1 X156.017 Y138.087 E0.02568
G1 X173.983 Y156.053 E1.07671
G1 X173.983 Y156.659 E0.02568
G1 X156.017 Y138.693 E1.07671
G1 X156.017 Y139.299 E0.02568
G1 X173.983 Y157.265 E1.07671
G1 X173.983 Y157.871 E0.02568
G1 X156.017 Y139.905 E1.07671
G1 X156.017 Y140.511 E0.02568
G1 X173.983 Y158.477 E1.07671
G1 X173.983 Y159.083 E0.02568
G1 X156.017 Y141.117 E1.07671
G1 X156.017 Y141.723 E0.02568
G1 X173.983 Y159.689 E1.07671
G1 X173.983 Y160.295 E0.02568
G1 X156.017 Y142.329 E1.07671
G1 X156.017 Y142.935 E0.02568
G1 X173.983 Y160.901 E1.07671
G1 X173.983 Y161.507 E0.02568
G1 X156.017 Y143.541 E1.07671
G1 X156.017 Y144.147 E0.02568
G1 X173.983 Y162.113 E1.07671
G1 X173.983 Y162.719 E0.02568
G1 X156.017 Y144.753 E1.07671
G1 X156.017 Y145.359 E0.02568
G1 X173.983 Y163.325 E1.07671
G1 X173.983 Y163.931 E0.02568
G1 X156.017 Y145.965 E1.07671
G1 X156.017 Y146.571 E0.02568
G1 X173.983 Y164.537 E1.07671
G1 X173.983 Y165.143 E0.02568
G1 X156.017 Y147.177 E1.07671
G1 X156.017 Y147.783 E0.02568
G1 X173.983 Y165.749 E1.07671
G1 X173.983 Y166.355 E0.02568
G1 X156.017 Y148.389 E1.07671
G1 X156.017 Y148.995 E0.02568
G1 X173.983 Y166.961 E1.07671
G1 X173.983 Y167.567 E0.02568
G1 X156.017 Y149.601 E1.07671
G1 X156.017 Y150.207 E0.02568
G1 X173.983 Y168.173 E1.07671
G1 X173.983 Y168.779 E0.02568
G1 X156.017 Y150.813 E1.07671
G1 X156.017 Y151.419 E0.02568
G1 X173.983 Y169.385 E1.07671
G1 X173.983 Y169.991 E0.02568
G1 X156.017 Y152.025 E1.07671
G1 X156.017 Y152.631 E0.02568
G1 X173.983 Y170.597 E1.07671
G1 X173.983 Y171.203 E0.02568
G1 X156.017 Y153.237 E1.07671
G1 X156.017 Y153.843 E0.02568
G1 X173.983 Y171.809 E1.07671
G1 X173.983 Y172.415 E0.02568
G1 X156.017 Y154.449 E1.07671
G1 X156.017 Y155.055 E0.02568
G1 X173.983 Y173.021 E1.07671
G1 X173.983 Y173.627 E0.02568
G1 X156.017 Y155.661 E1.07671
G1 X156.017 Y156.267 E0.02568
G1 X173.983 Y174.233 E1.07671
G1 X173.983 Y174.839 E0.02568
G1 X156.017 Y156.873 E1.07671
G1 X156.017 Y157.479 E0.02568
G1 X173.983 Y175.445 E1.07671
G1 X173.983 Y176.051 E0.02568
G1 X156.017 Y158.085 E1.07671
G1 X156.017 Y158.691 E0.02568
G1 X173.983 Y176.657 E1.07671
G1 X173.983 Y177.263 E0.02568
G1 X156.017 Y159.297 E1.07671
G1 X156.017 Y159.903 E0.02568
G1 X173.983 Y177.869 E1.07671
G1 X173.983 Y178.475 E0.02568
G1 X156.017 Y160.509 E1.07671
G1 X156.017 Y161.115 E0.02568
G1 X173.983 Y179.081 E1.07671
G1 X173.983 Y179.687 E0.02568
G1 X156.017 Y161.721 E1.07671
G1 X156.017 Y162.327 E0.02568
G1 X173.983 Y180.293 E1.07671
G1 X173.983 Y180.899 E0.02568
G1 X156.017 Y162.933 E1.07671
G1 X156.017 Y163.539 E0.02568
G1 X173.983 Y181.505 E1.07671
G1 X173.983 Y182.11 E0.02568
G1 X156.017 Y164.144 E1.07671
G1 X156.017 Y164.75 E0.02568
G1 X173.983 Y182.716 E1.07671
G1 X173.983 Y183.322 E0.02568
G1 X156.017 Y165.356 E1.07671
G1 X156.017 Y165.962 E0.02568
G1 X173.983 Y183.928 E1.07671
G1 X173.983 Y184.534 E0.02568
G1 X156.017 Y166.568 E1.07671
G1 X156.017 Y167.174 E0.02568
G1 X173.983 Y185.14 E1.07671
G1 X173.983 Y185.746 E0.02568
G1 X156.017 Y167.78 E1.07671
G1 X156.017 Y168.386 E0.02568
G1 X173.983 Y186.352 E1.07671
G1 X173.983 Y186.958 E0.02568
G1 X156.017 Y168.992 E1.07671
G1 X156.017 Y169.598 E0.02568
G1 X173.983 Y187.564 E1.07671
G1 X173.983 Y188.17 E0.02568
G1 X156.017 Y170.204 E1.07671
G1 X156.017 Y170.81 E0.02568
G1 X173.983 Y188.776 E1.07671
G1 X173.983 Y189.382 E0.02568
G1 X156.017 Y171.416 E1.07671
G1 X156.017 Y172.022 E0.02568
G1 X173.983 Y189.988 E1.07671
G1 X173.983 Y190.594 E0.02568
G1 X156.017 Y172.628 E1.07671
G1 X156.017 Y173.234 E0.02568
G1 X173.983 Y191.2 E1.07671
G1 X173.983 Y191.806 E0.02568
G1 X156.017 Y173.84 E1.07671
G1 X156.017 Y174.446 E0.02568
G1 X173.983 Y192.412 E1.07671
G1 X173.983 Y193.018 E0.02568
G1 X156.017 Y175.052 E1.07671
G1 X156.017 Y175.658 E0.02568
G1 X173.983 Y193.624 E1.07671
G1 X173.983 Y194.23 E0.02568
G1 X156.017 Y176.264 E1.07671
G1 X156.017 Y176.87 E0.02568
G1 X173.983 Y194.836 E1.07671
G1 X173.983 Y195.442 E0.02568
G1 X156.017 Y177.476 E1.07671
G1 X156.017 Y178.082 E0.02568
G1 X173.983 Y196.048 E1.07671
G1 X173.983 Y196.654 E0.02568
G1 X156.017 Y178.688 E1.07671
G1 X156.017 Y179.294 E0.02568
G1 X173.983 Y197.26 E1.07671
G1 X173.983 Y197.866 E0.02568
G1 X156.017 Y179.9 E1.07671
G1 X156.017 Y180.506 E0.02568
G1 X173.983 Y198.472 E1.07671
G1 X173.983 Y199.078 E0.02568
G1 X156.017 Y181.112 E1.07671
G1 X156.017 Y181.718 E0.02568
G1 X173.983 Y199.684 E1.07671
G1 X173.983 Y200.29 E0.02568
G1 X156.017 Y182.324 E1.07671
G1 X156.017 Y182.93 E0.02568
G1 X173.983 Y200.896 E1.07671
G1 X173.983 Y201.502 E0.02568
G1 X156.017 Y183.536 E1.07671
G1 X156.017 Y184.142 E0.02568
G1 X173.983 Y202.108 E1.07671
G1 X173.983 Y202.714 E0.02568
G1 X156.017 Y184.748 E1.07671
G1 X156.017 Y185.354 E0.02568
G1 X173.983 Y203.32 E1.07671
G1 X173.983 Y203.926 E0.02568
G1 X156.017 Y185.96 E1.07671
G1 X156.017 Y186.566 E0.02568
G1 X173.983 Y204.532 E1.07671
G1 X173.983 Y205.138 E0.02568
G1 X156.017 Y187.172 E1.07671
G1 X156.017 Y187.778 E0.02568
G1 X173.983 Y205.744 E1.07671
G1 X173.983 Y206.35 E0.02568
G1 X156.017 Y188.384 E1.07671
G1 X156.017 Y188.99 E0.02568
G1 X173.983 Y206.956 E1.07671
G1 X173.983 Y207.562 E0.02568
G1 X156.017 Y189.596 E1.07671
G1 X156.017 Y190.202 E0.02568
G1 X173.983 Y208.168 E1.07671
G1 X173.983 Y208.774 E0.02568
G1 X156.017 Y190.808 E1.07671
G1 X156.017 Y191.414 E0.02568
G1 X173.983 Y209.38 E1.07671
G1 X173.983 Y209.986 E0.02568
G1 X156.017 Y192.02 E1.07671
G1 X156.017 Y192.626 E0.02568
G1 X173.983 Y210.592 E1.07671
G1 X173.983 Y211.198 E0.02568
G1 X156.017 Y193.232 E1.07671
G1 X156.017 Y193.838 E0.02568
G1 X173.983 Y211.804 E1.07671
G1 X173.983 Y212.41 E0.02568
G1 X156.017 Y194.444 E1.07671
G1 X156.017 Y195.05 E0.02568
G1 X173.983 Y213.016 E1.07671
G1 X173.983 Y213.622 E0.02568
G1 X156.017 Y195.656 E1.07671
G1 X156.017 Y196.262 E0.02568
G1 X173.983 Y214.228 E1.07671
G1 X173.983 Y214.834 E0.02568
G1 X156.017 Y196.868 E1.07671
G1 X156.017 Y197.474 E0.02568
G1 X173.983 Y215.44 E1.07671
G1 X173.983 Y216.046 E0.02568
G1 X156.017 Y198.08 E1.07671
G1 X156.017 Y198.686 E0.02568
G1 X173.983 Y216.652 E1.07671
G1 X173.983 Y217.258 E0.02568
G1 X156.017 Y199.292 E1.07671
G1 X156.017 Y199.898 E0.02568
G1 X173.983 Y217.864 E1.07671
G1 X173.983 Y218.469 E0.02568
G1 X156.017 Y200.504 E1.07671
G1 X156.017 Y201.109 E0.02568
G1 X173.983 Y219.075 E1.07671
G1 X173.983 Y219.681 E0.02568
G1 X156.017 Y201.715 E1.07671
G1 X156.017 Y202.321 E0.02568
G1 X173.983 Y220.287 E1.07671
G1 X173.983 Y220.893 E0.02568
G1 X156.017 Y202.927 E1.07671
G1 X156.017 Y203.533 E0.02568
G1 X173.983 Y221.499 E1.07671
G1 X173.983 Y222.105 E0.02568
