; generated by SuperSlicer 2.3.57 on 2022-03-03 at 06:14:08 UTC


;
;

;
;
; 

; external perimeters extrusion width = 0.40mm
; perimeters extrusion width = 0.45mm
; infill extrusion width = 0.72mm
; solid infill extrusion width = 0.56mm
; top infill extrusion width = 0.40mm
; support material extrusion width = 0.42mm
; first layer extrusion width = 0.48mm

; object:{"name":"Sign3_1","id":"Sign3_1.stl id:0 copy 0","object_center":[152.500000,150.000000,0.000000],"boundingbox_center":[152.500000,150.000000,2.500000],"boundingbox_size":[152.000000,96.000000,5.000000]}
; plater:{"center":[152.500000,150.000000,0.000000],"boundingbox_center":[152.500000,150.000000,2.500000],"boundingbox_size":[152.000000,96.000000,5.000000]}

;TYPE:Custom
START_PRINT T_BED=60 T_EXTRUDER=200
M107
G21 ; set units to millimeters
G90 ; use absolute coordinates
M83 ; use relative distances for extrusion
; Filament gcode
M104 S200 ; set temperature
M109 S200 ; set temperature and wait for it to be reached
M190 S60 ; set bed temperature and wait for it to be reached
M107
;LAYER_CHANGE
;Z:0.2
;HEIGHT:0.2
G1 Z0.2 F9000
G1 E-0.8 F3000
G1 X74.597 Y99.042 F9000
G1 E0.8 F1800
; External perimeter
;Skirt
SET_VELOCITY_LIMIT ACCEL=300 ACCEL_TO_DECEL=3000 SQUARE_CORNER_VELOCITY=5

; Support material

;TYPE:Skirt
;WIDTH:0.48
G1 X73.914 Y99.62 E0.03254
G1 X73.394 Y100.343 E0.03237
G1 X73.063 Y101.175 E0.03254
G1 X72.945 Y102.062 E0.03254
G1 X72.944 Y197.922 E3.48386
G1 X73.1 Y198.955 E0.03798
G1 X73.542 Y199.903 E0.03798
G1 X74.124 Y200.589 E0.03271
G1 X74.851 Y201.11 E0.03254
G1 X75.684 Y201.439 E0.03254
G1 X76.576 Y201.556 E0.03271
G1 X228.413 Y201.556 E5.51823
G1 X229.451 Y201.401 E0.03815
G1 X230.403 Y200.958 E0.03815
G1 X231.079 Y200.387 E0.03219
G1 X231.601 Y199.665 E0.03237
G1 X231.933 Y198.839 E0.03237
G1 X232.055 Y197.961 E0.03219
G1 X232.055 Y102.026 E3.48661
G1 X231.973 Y101.328 E0.02554
G1 X231.758 Y100.654 E0.02571
G1 X231.416 Y100.035 E0.02571
G1 X230.962 Y99.492 E0.02571
G1 X230.412 Y99.048 E0.02571
G1 X229.786 Y98.717 E0.02571
G1 X229.109 Y98.514 E0.02571
G1 X228.405 Y98.444 E0.02571
G1 X76.587 Y98.444 E5.51754
G1 X75.549 Y98.599 E0.03815
G1 X74.652 Y99.016 E0.03597
G1 X74.842 Y99.404 F9000
G1 F1800
G1 X74.237 Y99.915 E0.02876
G1 X73.777 Y100.553 E0.0286
G1 X73.486 Y101.285 E0.0286
G1 X73.382 Y102.069 E0.02876
G1 X73.382 Y197.916 E3.48341
G1 X73.517 Y198.825 E0.03339
G1 X73.904 Y199.658 E0.03339
G1 X74.415 Y200.263 E0.02876
G1 X75.057 Y200.725 E0.02876
G1 X75.797 Y201.017 E0.02892
G1 X76.582 Y201.118 E0.02876
G1 X228.412 Y201.119 E5.51799
G1 X229.321 Y200.984 E0.03339
G1 X230.158 Y200.596 E0.03355
G1 X230.757 Y200.092 E0.02844
G1 X231.218 Y199.454 E0.0286
G1 X231.511 Y198.724 E0.0286
G1 X231.618 Y197.949 E0.02844
G1 X231.618 Y102.044 E3.4855
G1 X231.548 Y101.428 E0.02252
G1 X231.359 Y100.834 E0.02268
G1 X231.059 Y100.286 E0.02268
G1 X230.659 Y99.807 E0.02268
G1 X230.174 Y99.415 E0.02268
G1 X229.623 Y99.123 E0.02268
G1 X229.025 Y98.943 E0.02268
G1 X228.404 Y98.881 E0.02268
G1 X76.588 Y98.881 E5.51751
G1 X75.679 Y99.016 E0.03339
G1 X74.896 Y99.379 E0.03137
; INIT printing object Sign3_1.stl id:0 copy 0
G1 E-0.8 F3000
; printing object Sign3_1.stl id:0 copy 0
G1 X82.056 Y163.341 F9000
G1 E0.8 F1800
; External perimeter
;Perimeter
SET_VELOCITY_LIMIT ACCEL=2000 ACCEL_TO_DECEL=2000 SQUARE_CORNER_VELOCITY=5

; Overhang perimeter

;TYPE:Internal perimeter
G1 X82.056 Y170.542 E0.26172
G1 X222.944 Y170.542 E5.12032
G1 X222.944 Y163.341 E0.26172
G1 X82.116 Y163.341 E5.11814
G1 X82.493 Y163.778 F9000
; External perimeter
;ExternalPerimeter
SET_VELOCITY_LIMIT ACCEL=1000 ACCEL_TO_DECEL=1000 SQUARE_CORNER_VELOCITY=5

; Perimeter

;TYPE:External perimeter
G1 F1800
G1 X82.493 Y170.105 E0.22995
G1 X82.613 Y170.105 E0.00389
G1 X82.853 Y170.105 E0.00825
G1 X222.507 Y170.105 E5.07547
G1 X222.507 Y169.985 E0.00389
G1 X222.507 Y169.745 E0.00825
G1 X222.507 Y163.778 E0.21686
G1 X222.387 Y163.778 E0.00389
G1 X222.147 Y163.778 E0.00825
G1 X82.553 Y163.778 E5.07329
;WIPE_START
G1 X82.093 Y163.778 F9000
;WIPE_END
G1 X82.093 Y136.659
; External perimeter
;Perimeter
SET_VELOCITY_LIMIT ACCEL=2000 ACCEL_TO_DECEL=2000 SQUARE_CORNER_VELOCITY=5

; Overhang perimeter

;TYPE:Internal perimeter
G1 F1800
G1 X222.944 Y136.659 E5.11897
G1 X222.944 Y129.458 E0.26172
G1 X82.056 Y129.458 E5.12032
G1 X82.056 Y136.637 E0.26088
G1 X82.493 Y136.222 F9000
; External perimeter
;ExternalPerimeter
SET_VELOCITY_LIMIT ACCEL=1000 ACCEL_TO_DECEL=1000 SQUARE_CORNER_VELOCITY=5

; Perimeter

;TYPE:External perimeter
G1 F1800
G1 X222.507 Y136.222 E5.08855
G1 X222.507 Y136.102 E0.00389
G1 X222.507 Y135.862 E0.00825
G1 X222.507 Y129.895 E0.21686
G1 X222.387 Y129.895 E0.00389
G1 X222.147 Y129.895 E0.00825
G1 X82.493 Y129.895 E5.07547
G1 X82.493 Y130.015 E0.00389
G1 X82.493 Y130.255 E0.00825
G1 X82.493 Y136.162 E0.21468
;WIPE_START
G1 X82.493 Y136.622 F9000
;WIPE_END
G1 E-0.8 F3000
G1 X227.723 Y197.223 F9000
G1 E0.8 F1800
; External perimeter
;Perimeter
SET_VELOCITY_LIMIT ACCEL=2000 ACCEL_TO_DECEL=2000 SQUARE_CORNER_VELOCITY=5

; Overhang perimeter

;TYPE:Internal perimeter
G1 X77.277 Y197.223 E5.4677
G1 X77.277 Y102.777 E3.43248
G1 X227.723 Y102.777 E5.4677
G1 X227.723 Y197.163 E3.4303
G1 X228.16 Y197.66 F9000
; External perimeter
;ExternalPerimeter
SET_VELOCITY_LIMIT ACCEL=1000 ACCEL_TO_DECEL=1000 SQUARE_CORNER_VELOCITY=5

; Perimeter

;TYPE:External perimeter
G1 F1800
G1 X76.84 Y197.66 E5.49947
G1 X76.84 Y197.54 E0.00389
G1 X76.84 Y197.3 E0.00825
G1 X76.84 Y102.34 E3.45116
G1 X76.96 Y102.34 E0.00389
G1 X77.2 Y102.34 E0.00825
G1 X228.16 Y102.34 E5.48639
G1 X228.16 Y102.46 E0.00389
G1 X228.16 Y102.7 E0.00825
G1 X228.16 Y197.6 E3.44898
;WIPE_START
G1 X227.814 Y197.46 F9000
;WIPE_END
G1 X227.657 Y103.726
; External perimeter
;SolidInfill
SET_VELOCITY_LIMIT ACCEL=2000 ACCEL_TO_DECEL=2000 SQUARE_CORNER_VELOCITY=5

; Bridge infill

;TYPE:Solid infill
;WIDTH:0.476745
G1 F2400
G1 X226.962 Y103.031 E0.03551
G1 X226.344 Y103.031 E0.02231
G1 X227.469 Y104.156 E0.05747
G1 X227.469 Y104.774 E0.02231
G1 X225.726 Y103.031 E0.08902
G1 X225.107 Y103.031 E0.02231
G1 X227.469 Y105.393 E0.12058
G1 X227.469 Y106.011 E0.02231
G1 X224.489 Y103.031 E0.15213
G1 X223.871 Y103.031 E0.02231
G1 X227.469 Y106.629 E0.18369
G1 X227.469 Y107.247 E0.02231
G1 X223.253 Y103.031 E0.21524
G1 X222.635 Y103.031 E0.02231
G1 X227.469 Y107.865 E0.2468
G1 X227.469 Y108.483 E0.02231
G1 X222.017 Y103.031 E0.27835
G1 X221.399 Y103.031 E0.02231
G1 X227.469 Y109.101 E0.3099
G1 X227.469 Y109.719 E0.02231
G1 X220.781 Y103.031 E0.34146
G1 X220.162 Y103.031 E0.02231
G1 X227.469 Y110.338 E0.37301
G1 X227.469 Y110.956 E0.02231
G1 X219.544 Y103.031 E0.40457
G1 X218.926 Y103.031 E0.02231
G1 X227.469 Y111.574 E0.43612
G1 X227.469 Y112.192 E0.02231
G1 X218.308 Y103.031 E0.46768
G1 X217.69 Y103.031 E0.02231
G1 X227.469 Y112.81 E0.49923
G1 X227.469 Y113.428 E0.02231
G1 X217.072 Y103.031 E0.53079
G1 X216.454 Y103.031 E0.02231
G1 X227.469 Y114.046 E0.56234
G1 X227.469 Y114.664 E0.02231
G1 X215.836 Y103.031 E0.59389
G1 X215.217 Y103.031 E0.02231
G1 X227.469 Y115.283 E0.62545
G1 X227.469 Y115.901 E0.02231
G1 X214.599 Y103.031 E0.657
G1 X213.981 Y103.031 E0.02231
G1 X227.469 Y116.519 E0.68856
G1 X227.469 Y117.137 E0.02231
G1 X213.363 Y103.031 E0.72011
G1 X212.745 Y103.031 E0.02231
G1 X227.469 Y117.755 E0.75167
G1 X227.469 Y118.373 E0.02231
G1 X212.127 Y103.031 E0.78322
G1 X211.509 Y103.031 E0.02231
G1 X227.469 Y118.991 E0.81477
G1 X227.469 Y119.609 E0.02231
G1 X210.891 Y103.031 E0.84633
G1 X210.272 Y103.031 E0.02231
G1 X227.469 Y120.228 E0.87788
G1 X227.469 Y120.846 E0.02231
G1 X209.654 Y103.031 E0.90944
G1 X209.036 Y103.031 E0.02231
G1 X227.469 Y121.464 E0.94099
G1 X227.469 Y122.082 E0.02231
G1 X208.418 Y103.031 E0.97255
G1 X207.8 Y103.031 E0.02231
G1 X227.469 Y122.7 E1.0041
G1 X227.469 Y123.318 E0.02231
G1 X207.182 Y103.031 E1.03565
G1 X206.564 Y103.031 E0.02231
G1 X227.469 Y123.936 E1.06721
G1 X227.469 Y124.554 E0.02231
G1 X205.946 Y103.031 E1.09876
G1 X205.327 Y103.031 E0.02231
G1 X227.469 Y125.173 E1.13032
G1 X227.469 Y125.791 E0.02231
G1 X204.709 Y103.031 E1.16187
G1 X204.091 Y103.031 E0.02231
G1 X227.469 Y126.409 E1.19343
G1 X227.469 Y127.027 E0.02231
G1 X203.473 Y103.031 E1.22498
G1 X202.855 Y103.031 E0.02231
G1 X227.469 Y127.645 E1.25654
G1 X227.469 Y128.263 E0.02231
G1 X202.237 Y103.031 E1.28809
G1 X201.619 Y103.031 E0.02231
G1 X227.469 Y128.881 E1.31964
G1 X227.469 Y129.499 E0.02231
G1 X201.001 Y103.031 E1.3512
G1 X200.382 Y103.031 E0.02231
G1 X227.469 Y130.118 E1.38275
G1 X227.469 Y130.736 E0.02231
G1 X199.764 Y103.031 E1.41431
G1 X199.146 Y103.031 E0.02231
G1 X227.469 Y131.354 E1.44586
G1 X227.469 Y131.972 E0.02231
G1 X198.528 Y103.031 E1.47742
G1 X197.91 Y103.031 E0.02231
G1 X227.469 Y132.59 E1.50897
G1 X227.469 Y133.208 E0.02231
G1 X197.292 Y103.031 E1.54052
G1 X196.674 Y103.031 E0.02231
G1 X227.469 Y133.826 E1.57208
G1 X227.469 Y134.444 E0.02231
G1 X223.197 Y130.172 E0.21809
G1 X223.197 Y130.79 E0.02231
G1 X227.469 Y135.062 E0.21809
G1 X227.469 Y135.681 E0.02231
G1 X223.197 Y131.408 E0.21809
G1 X223.197 Y132.027 E0.02231
G1 X227.469 Y136.299 E0.21809
G1 X227.469 Y136.917 E0.02231
G1 X223.197 Y132.645 E0.21809
G1 X223.197 Y133.263 E0.02231
G1 X227.469 Y137.535 E0.21809
G1 X227.469 Y138.153 E0.02231
G1 X223.197 Y133.881 E0.21809
G1 X223.197 Y134.499 E0.02231
G1 X227.469 Y138.771 E0.21809
G1 X227.469 Y139.389 E0.02231
G1 X223.197 Y135.117 E0.21809
G1 X223.197 Y135.735 E0.02231
G1 X227.469 Y140.007 E0.21809
G1 X227.469 Y140.626 E0.02231
G1 X223.197 Y136.353 E0.21809
G1 X223.197 Y136.913 E0.0202
G1 X223.139 Y136.913 E0.00212
G1 X227.469 Y141.244 E0.22108
G1 X227.469 Y141.862 E0.02231
G1 X222.52 Y136.913 E0.25264
G1 X221.902 Y136.913 E0.02231
G1 X227.469 Y142.48 E0.28419
G1 X227.469 Y143.098 E0.02231
G1 X221.284 Y136.913 E0.31575
G1 X220.666 Y136.913 E0.02231
G1 X227.469 Y143.716 E0.3473
G1 X227.469 Y144.334 E0.02231
G1 X220.048 Y136.913 E0.37885
G1 X219.43 Y136.913 E0.02231
G1 X227.469 Y144.952 E0.41041
G1 X227.469 Y145.571 E0.02231
G1 X218.812 Y136.913 E0.44196
G1 X218.194 Y136.913 E0.02231
G1 X227.469 Y146.189 E0.47352
G1 X227.469 Y146.807 E0.02231
G1 X217.576 Y136.913 E0.50507
G1 X216.957 Y136.913 E0.02231
G1 X227.469 Y147.425 E0.53663
G1 X227.469 Y148.043 E0.02231
G1 X216.339 Y136.913 E0.56818
G1 X215.721 Y136.913 E0.02231
G1 X227.469 Y148.661 E0.59973
G1 X227.469 Y149.279 E0.02231
G1 X215.103 Y136.913 E0.63129
G1 X214.485 Y136.913 E0.02231
G1 X227.469 Y149.897 E0.66284
G1 X227.469 Y150.516 E0.02231
G1 X213.867 Y136.913 E0.6944
G1 X213.249 Y136.913 E0.02231
G1 X227.469 Y151.134 E0.72595
G1 X227.469 Y151.752 E0.02231
G1 X212.631 Y136.913 E0.75751
G1 X212.012 Y136.913 E0.02231
G1 X227.469 Y152.37 E0.78906
G1 X227.469 Y152.988 E0.02231
G1 X211.394 Y136.913 E0.82062
G1 X210.776 Y136.913 E0.02231
G1 X227.469 Y153.606 E0.85217
G1 X227.469 Y154.224 E0.02231
G1 X210.158 Y136.913 E0.88372
G1 X209.54 Y136.913 E0.02231
G1 X227.469 Y154.842 E0.91528
G1 X227.469 Y155.461 E0.02231
G1 X208.922 Y136.913 E0.94683
G1 X208.304 Y136.913 E0.02231
G1 X227.469 Y156.079 E0.97839
G1 X227.469 Y156.697 E0.02231
G1 X207.686 Y136.913 E1.00994
G1 X207.067 Y136.913 E0.02231
G1 X227.469 Y157.315 E1.0415
G1 X227.469 Y157.933 E0.02231
G1 X206.449 Y136.913 E1.07305
G1 X205.831 Y136.913 E0.02231
G1 X227.469 Y158.551 E1.1046
G1 X227.469 Y159.169 E0.02231
G1 X205.213 Y136.913 E1.13616
G1 X204.595 Y136.913 E0.02231
G1 X227.469 Y159.787 E1.16771
G1 X227.469 Y160.406 E0.02231
G1 X203.977 Y136.913 E1.19927
G1 X203.359 Y136.913 E0.02231
G1 X227.469 Y161.024 E1.23082
G1 X227.469 Y161.642 E0.02231
G1 X202.741 Y136.913 E1.26238
G1 X202.122 Y136.913 E0.02231
G1 X227.469 Y162.26 E1.29393
G1 X227.469 Y162.878 E0.02231
G1 X201.504 Y136.913 E1.32548
G1 X200.886 Y136.913 E0.02231
G1 X227.469 Y163.496 E1.35704
G1 X227.469 Y164.114 E0.02231
G1 X200.268 Y136.913 E1.38859
G1 X199.65 Y136.913 E0.02231
G1 X227.469 Y164.732 E1.42015
G1 X227.469 Y165.351 E0.02231
G1 X199.032 Y136.913 E1.4517
G1 X198.414 Y136.913 E0.02231
G1 X227.469 Y165.969 E1.48326
G1 X227.469 Y166.587 E0.02231
G1 X197.796 Y136.913 E1.51481
G1 X197.177 Y136.913 E0.02231
G1 X227.469 Y167.205 E1.54637
G1 X227.469 Y167.823 E0.02231
G1 X223.197 Y163.551 E0.21809
G1 X223.197 Y163.087 E0.01674
G1 X222.733 Y163.087 E0.01674
G1 X196.559 Y136.913 E1.33616
G1 X195.941 Y136.913 E0.02231
G1 X222.115 Y163.087 E1.33616
G1 X221.497 Y163.087 E0.02231
G1 X195.323 Y136.913 E1.33616
G1 X194.705 Y136.913 E0.02231
G1 X220.879 Y163.087 E1.33616
G1 X220.261 Y163.087 E0.02231
G1 X194.087 Y136.913 E1.33616
G1 X193.469 Y136.913 E0.02231
G1 X219.643 Y163.087 E1.33616
G1 X219.025 Y163.087 E0.02231
G1 X192.851 Y136.913 E1.33616
G1 X192.232 Y136.913 E0.02231
G1 X218.407 Y163.087 E1.33616
G1 X217.789 Y163.087 E0.02231
G1 X191.614 Y136.913 E1.33616
G1 X190.996 Y136.913 E0.02231
G1 X217.17 Y163.087 E1.33616
G1 X216.552 Y163.087 E0.02231
G1 X190.378 Y136.913 E1.33616
G1 X189.76 Y136.913 E0.02231
G1 X215.934 Y163.087 E1.33616
G1 X215.316 Y163.087 E0.02231
G1 X189.142 Y136.913 E1.33616
G1 X188.524 Y136.913 E0.02231
G1 X214.698 Y163.087 E1.33616
G1 X214.08 Y163.087 E0.02231
G1 X187.906 Y136.913 E1.33616
G1 X187.287 Y136.913 E0.02231
G1 X213.462 Y163.087 E1.33616
G1 X212.844 Y163.087 E0.02231
G1 X186.669 Y136.913 E1.33616
G1 X186.051 Y136.913 E0.02231
G1 X212.225 Y163.087 E1.33616
G1 X211.607 Y163.087 E0.02231
G1 X185.433 Y136.913 E1.33616
G1 X184.815 Y136.913 E0.02231
G1 X210.989 Y163.087 E1.33616
G1 X210.371 Y163.087 E0.02231
G1 X184.197 Y136.913 E1.33616
G1 X183.579 Y136.913 E0.02231
G1 X209.753 Y163.087 E1.33616
G1 X209.135 Y163.087 E0.02231
G1 X182.961 Y136.913 E1.33616
G1 X182.343 Y136.913 E0.02231
G1 X208.517 Y163.087 E1.33616
G1 X207.899 Y163.087 E0.02231
G1 X181.724 Y136.913 E1.33616
G1 X181.106 Y136.913 E0.02231
G1 X207.28 Y163.087 E1.33616
G1 X206.662 Y163.087 E0.02231
G1 X180.488 Y136.913 E1.33616
G1 X179.87 Y136.913 E0.02231
G1 X206.044 Y163.087 E1.33616
G1 X205.426 Y163.087 E0.02231
G1 X179.252 Y136.913 E1.33616
G1 X178.634 Y136.913 E0.02231
G1 X204.808 Y163.087 E1.33616
G1 X204.19 Y163.087 E0.02231
G1 X178.016 Y136.913 E1.33616
G1 X177.398 Y136.913 E0.02231
G1 X203.572 Y163.087 E1.33616
G1 X202.954 Y163.087 E0.02231
G1 X176.779 Y136.913 E1.33616
G1 X176.161 Y136.913 E0.02231
G1 X202.335 Y163.087 E1.33616
G1 X201.717 Y163.087 E0.02231
G1 X175.543 Y136.913 E1.33616
G1 X174.925 Y136.913 E0.02231
G1 X201.099 Y163.087 E1.33616
G1 X200.481 Y163.087 E0.02231
G1 X174.307 Y136.913 E1.33616
G1 X173.689 Y136.913 E0.02231
G1 X199.863 Y163.087 E1.33616
G1 X199.245 Y163.087 E0.02231
G1 X173.071 Y136.913 E1.33616
G1 X172.453 Y136.913 E0.02231
G1 X198.627 Y163.087 E1.33616
G1 X198.009 Y163.087 E0.02231
G1 X171.834 Y136.913 E1.33616
G1 X171.216 Y136.913 E0.02231
G1 X197.39 Y163.087 E1.33616
G1 X196.772 Y163.087 E0.02231
G1 X170.598 Y136.913 E1.33616
G1 X169.98 Y136.913 E0.02231
G1 X196.154 Y163.087 E1.33616
G1 X195.536 Y163.087 E0.02231
G1 X169.362 Y136.913 E1.33616
G1 X168.744 Y136.913 E0.02231
G1 X194.918 Y163.087 E1.33616
G1 X194.3 Y163.087 E0.02231
G1 X168.126 Y136.913 E1.33616
G1 X167.508 Y136.913 E0.02231
G1 X193.682 Y163.087 E1.33616
G1 X193.064 Y163.087 E0.02231
G1 X166.889 Y136.913 E1.33616
G1 X166.271 Y136.913 E0.02231
G1 X192.445 Y163.087 E1.33616
G1 X191.827 Y163.087 E0.02231
G1 X165.653 Y136.913 E1.33616
G1 X165.035 Y136.913 E0.02231
G1 X191.209 Y163.087 E1.33616
G1 X190.591 Y163.087 E0.02231
G1 X164.417 Y136.913 E1.33616
G1 X163.799 Y136.913 E0.02231
G1 X189.973 Y163.087 E1.33616
G1 X189.355 Y163.087 E0.02231
G1 X163.181 Y136.913 E1.33616
G1 X162.563 Y136.913 E0.02231
G1 X188.737 Y163.087 E1.33616
G1 X188.119 Y163.087 E0.02231
G1 X161.944 Y136.913 E1.33616
G1 X161.326 Y136.913 E0.02231
G1 X187.5 Y163.087 E1.33616
G1 X186.882 Y163.087 E0.02231
G1 X160.708 Y136.913 E1.33616
G1 X160.09 Y136.913 E0.02231
G1 X186.264 Y163.087 E1.33616
G1 X185.646 Y163.087 E0.02231
G1 X159.472 Y136.913 E1.33616
G1 X158.854 Y136.913 E0.02231
G1 X185.028 Y163.087 E1.33616
G1 X184.41 Y163.087 E0.02231
G1 X158.236 Y136.913 E1.33616
G1 X157.618 Y136.913 E0.02231
