; generated by SuperSlicer 2.3.56 on 2021-10-18 at 16:36:14 UTC


;
;

;
;
; 

; external perimeters extrusion width = 1.60mm
; perimeters extrusion width = 1.60mm
; infill extrusion width = 0.40mm
; solid infill extrusion width = 0.40mm
; top infill extrusion width = 0.40mm
; first layer extrusion width = 0.96mm


;TYPE:Custom
START_PRINT T_BED=60 T_EXTRUDER=235
M107
G21 ; set units to millimeters
G90 ; use absolute coordinates
M83 ; use relative distances for extrusion
; Filament gcode
M109 S235 ; set temperature and wait for it to be reached
M190 S60 ; set bed temperature and wait for it to be reached
;LAYER_CHANGE
;Z:0.24
;HEIGHT:0.24
G1 Z0.240000 F6000.000
G1 X137.551 Y128.550
;TYPE:Skirt
;WIDTH:0.96
G1 F1200.000
G1 X140.655 Y125.769 E0.37785
G1 X143.124 Y123.947 E0.27812
G1 X146.691 Y121.804 E0.37728
G1 X150.466 Y120.066 E0.37672
G1 X153.368 Y119.050 E0.27868
G1 X157.402 Y118.053 E0.37672
G1 X160.352 Y117.614 E0.27032
G1 X164.507 Y117.387 E0.37718
G1 X168.662 Y117.615 E0.37728
G1 X171.696 Y118.073 E0.27812
G1 X175.734 Y119.080 E0.37728
G1 X179.632 Y120.520 E0.37672
G1 X182.402 Y121.853 E0.27868
G1 X185.960 Y124.002 E0.37672
G1 X188.356 Y125.777 E0.27032
G1 X191.450 Y128.549 E0.37661
G1 X194.224 Y131.644 E0.37672
G1 X195.998 Y134.040 E0.27022
G1 X198.146 Y137.597 E0.37672
G1 X199.480 Y140.368 E0.27879
G1 X200.920 Y144.265 E0.37661
G1 X201.927 Y148.303 E0.37728
G1 X202.385 Y151.343 E0.27868
G1 X202.614 Y155.499 E0.37728
G1 X202.386 Y159.648 E0.37672
G1 X201.947 Y162.597 E0.27022
G1 X200.951 Y166.631 E0.37672
G1 X199.934 Y169.534 E0.27879
G1 X198.197 Y173.308 E0.37661
G1 X196.054 Y176.875 E0.37728
G1 X194.228 Y179.349 E0.27868
G1 X191.451 Y182.449 E0.37728
G1 X188.356 Y185.222 E0.37672
G1 X185.961 Y186.996 E0.27022
G1 X182.403 Y189.145 E0.37672
G1 X179.632 Y190.479 E0.27879
G1 X175.735 Y191.919 E0.37661
G1 X171.691 Y192.927 E0.37785
G1 X168.657 Y193.384 E0.27812
G1 X164.501 Y193.612 E0.37728
G1 X160.352 Y193.385 E0.37672
G1 X157.404 Y192.945 E0.27022
G1 X153.369 Y191.949 E0.37672
G1 X150.466 Y190.933 E0.27879
G1 X146.692 Y189.196 E0.37661
G1 X143.125 Y187.052 E0.37728
G1 X140.651 Y185.227 E0.27868
G1 X137.551 Y182.450 E0.37728
G1 X134.778 Y179.355 E0.37672
G1 X133.004 Y176.959 E0.27022
G1 X130.855 Y173.402 E0.37672
G1 X129.522 Y170.631 E0.27879
G1 X128.082 Y166.734 E0.37661
G1 X127.073 Y162.689 E0.37784
G1 X126.616 Y159.656 E0.27812
G1 X126.388 Y155.500 E0.37728
G1 X126.616 Y151.350 E0.37672
G1 X127.055 Y148.402 E0.27022
G1 X128.051 Y144.367 E0.37672
G1 X129.067 Y141.465 E0.27879
G1 X130.805 Y137.691 E0.37661
G1 X132.948 Y134.123 E0.37728
G1 X134.773 Y131.650 E0.27868
G1 X137.471 Y128.639 E0.36640
G1 X138.146 Y129.245 F6000.000
G1 F1200.000
G1 X138.195 Y129.191 E0.00658
G1 X141.230 Y126.473 E0.36932
G1 X143.621 Y124.707 E0.26945
G1 X147.118 Y122.606 E0.36984
G1 X150.814 Y120.905 E0.36880
G1 X153.625 Y119.921 E0.26997
G1 X157.575 Y118.946 E0.36880
G1 X160.437 Y118.519 E0.26232
G1 X164.508 Y118.295 E0.36966
G1 X168.571 Y118.519 E0.36880
G1 X171.510 Y118.962 E0.26945
G1 X175.463 Y119.947 E0.36932
G1 X179.285 Y121.359 E0.36932
G1 X181.968 Y122.651 E0.26997
G1 X185.451 Y124.754 E0.36880
G1 X187.776 Y126.476 E0.26232
G1 X190.810 Y129.193 E0.36914
G1 X193.528 Y132.228 E0.36932
G1 X195.293 Y134.620 E0.26945
G1 X197.395 Y138.117 E0.36984
G1 X199.095 Y141.813 E0.36880
G1 X200.079 Y144.623 E0.26997
G1 X201.055 Y148.573 E0.36880
G1 X201.482 Y151.435 E0.26232
G1 X201.705 Y155.501 E0.36914
G1 X201.481 Y159.569 E0.36932
G1 X201.038 Y162.508 E0.26945
G1 X200.052 Y166.467 E0.36984
G1 X198.641 Y170.283 E0.36880
G1 X197.349 Y172.967 E0.26997
G1 X195.246 Y176.449 E0.36880
G1 X193.524 Y178.775 E0.26232
G1 X190.807 Y181.808 E0.36914
G1 X187.772 Y184.526 E0.36932
G1 X185.380 Y186.291 E0.26945
G1 X181.884 Y188.393 E0.36984
G1 X178.188 Y190.094 E0.36880
G1 X175.377 Y191.078 E0.26997
G1 X171.427 Y192.053 E0.36880
G1 X168.565 Y192.480 E0.26232
G1 X164.499 Y192.704 E0.36914
G1 X160.431 Y192.480 E0.36932
G1 X157.492 Y192.037 E0.26945
G1 X153.538 Y191.052 E0.36932
G1 X149.717 Y189.639 E0.36932
G1 X147.034 Y188.347 E0.26997
G1 X143.551 Y186.244 E0.36880
G1 X141.225 Y184.522 E0.26232
G1 X138.192 Y181.805 E0.36914
G1 X135.474 Y178.771 E0.36932
G1 X133.709 Y176.379 E0.26945
G1 X131.607 Y172.882 E0.36984
G1 X129.907 Y169.186 E0.36880
G1 X128.923 Y166.375 E0.26997
G1 X127.947 Y162.426 E0.36880
G1 X127.520 Y159.563 E0.26232
G1 X127.297 Y155.498 E0.36913
G1 X127.521 Y151.430 E0.36932
G1 X127.964 Y148.490 E0.26945
G1 X128.950 Y144.531 E0.36984
G1 X130.361 Y140.716 E0.36880
G1 X131.653 Y138.032 E0.26997
G1 X133.756 Y134.549 E0.36880
G1 X135.478 Y132.224 E0.26232
G1 X138.066 Y129.334 E0.35168
G1 X142.334 Y133.446 F6000.000
;TYPE:External perimeter
G1 F600.000
G1 X142.390 Y133.388 E0.00722
G1 X143.232 Y132.577 E0.10601
G1 X144.104 Y131.798 E0.10601
G1 X145.004 Y131.052 E0.10601
G1 X145.932 Y130.340 E0.10601
G1 X146.886 Y129.663 E0.10601
G1 X147.864 Y129.022 E0.10601
G1 X148.866 Y128.419 E0.10601
G1 X149.889 Y127.853 E0.10601
G1 X150.933 Y127.326 E0.10601
G1 X151.996 Y126.839 E0.10601
G1 X153.077 Y126.391 E0.10601
G1 X154.173 Y125.984 E0.10601
G1 X155.284 Y125.619 E0.10601
G1 X156.408 Y125.295 E0.10601
G1 X157.543 Y125.013 E0.10601
G1 X158.687 Y124.775 E0.10601
G1 X159.840 Y124.579 E0.10601
G1 X161.000 Y124.426 E0.10601
G1 X162.164 Y124.317 E0.10601
G1 X163.332 Y124.251 E0.10601
G1 X164.501 Y124.229 E0.10601
G1 X165.670 Y124.251 E0.10601
G1 X166.838 Y124.317 E0.10601
G1 X168.002 Y124.426 E0.10601
G1 X169.161 Y124.579 E0.10601
G1 X170.314 Y124.775 E0.10601
G1 X171.459 Y125.013 E0.10601
G1 X172.594 Y125.295 E0.10601
G1 X173.718 Y125.619 E0.10601
G1 X174.829 Y125.984 E0.10601
G1 X175.925 Y126.391 E0.10601
G1 X177.005 Y126.839 E0.10601
G1 X178.068 Y127.326 E0.10601
G1 X179.112 Y127.853 E0.10601
G1 X180.136 Y128.419 E0.10601
G1 X181.137 Y129.022 E0.10601
G1 X182.116 Y129.663 E0.10601
G1 X183.070 Y130.340 E0.10601
G1 X183.997 Y131.052 E0.10601
G1 X184.898 Y131.798 E0.10601
G1 X185.770 Y132.577 E0.10601
G1 X186.612 Y133.388 E0.10601
G1 X187.423 Y134.230 E0.10601
G1 X188.203 Y135.102 E0.10601
G1 X188.949 Y136.003 E0.10601
G1 X189.661 Y136.931 E0.10601
G1 X190.337 Y137.884 E0.10601
G1 X190.978 Y138.863 E0.10601
G1 X191.581 Y139.864 E0.10601
G1 X192.147 Y140.888 E0.10601
G1 X192.674 Y141.932 E0.10601
G1 X193.162 Y142.995 E0.10601
G1 X193.609 Y144.075 E0.10601
G1 X194.016 Y145.172 E0.10601
G1 X194.382 Y146.282 E0.10601
G1 X194.705 Y147.406 E0.10601
G1 X194.987 Y148.541 E0.10601
G1 X195.226 Y149.686 E0.10601
G1 X195.422 Y150.839 E0.10601
G1 X195.574 Y151.998 E0.10601
G1 X195.683 Y153.163 E0.10601
G1 X195.749 Y154.330 E0.10601
G1 X195.771 Y155.499 E0.10601
G1 X195.749 Y156.669 E0.10601
G1 X195.683 Y157.836 E0.10601
G1 X195.574 Y159.000 E0.10601
G1 X195.422 Y160.160 E0.10601
G1 X195.226 Y161.313 E0.10601
G1 X194.987 Y162.458 E0.10601
G1 X194.705 Y163.593 E0.10601
G1 X194.382 Y164.716 E0.10601
G1 X194.016 Y165.827 E0.10601
G1 X193.609 Y166.924 E0.10601
G1 X193.162 Y168.004 E0.10601
G1 X192.674 Y169.067 E0.10601
G1 X192.147 Y170.111 E0.10601
G1 X191.581 Y171.134 E0.10601
G1 X190.978 Y172.136 E0.10601
G1 X190.337 Y173.114 E0.10601
G1 X189.661 Y174.068 E0.10601
G1 X188.949 Y174.996 E0.10601
G1 X188.203 Y175.896 E0.10601
G1 X187.423 Y176.768 E0.10601
G1 X186.612 Y177.611 E0.10601
G1 X185.770 Y178.422 E0.10601
G1 X184.898 Y179.201 E0.10601
G1 X183.997 Y179.947 E0.10601
G1 X183.070 Y180.659 E0.10601
G1 X182.116 Y181.336 E0.10601
G1 X181.137 Y181.976 E0.10601
G1 X180.136 Y182.580 E0.10601
G1 X179.112 Y183.146 E0.10601
G1 X178.068 Y183.673 E0.10601
G1 X177.005 Y184.160 E0.10601
G1 X175.925 Y184.608 E0.10601
G1 X174.829 Y185.015 E0.10601
G1 X173.718 Y185.380 E0.10601
G1 X172.594 Y185.704 E0.10601
G1 X171.459 Y185.985 E0.10601
G1 X170.314 Y186.224 E0.10601
G1 X169.161 Y186.420 E0.10601
G1 X168.002 Y186.573 E0.10601
G1 X166.838 Y186.682 E0.10601
G1 X165.670 Y186.747 E0.10601
G1 X164.501 Y186.769 E0.10601
G1 X163.332 Y186.747 E0.10601
G1 X162.164 Y186.682 E0.10601
G1 X161.000 Y186.573 E0.10601
G1 X159.840 Y186.420 E0.10601
G1 X158.687 Y186.224 E0.10601
G1 X157.543 Y185.985 E0.10601
G1 X156.408 Y185.704 E0.10601
G1 X155.284 Y185.380 E0.10601
G1 X154.173 Y185.015 E0.10601
G1 X153.077 Y184.608 E0.10601
G1 X151.996 Y184.160 E0.10601
G1 X150.933 Y183.673 E0.10601
G1 X149.889 Y183.146 E0.10601
G1 X148.866 Y182.580 E0.10601
G1 X147.864 Y181.976 E0.10601
G1 X146.886 Y181.336 E0.10601
G1 X145.932 Y180.659 E0.10601
G1 X145.004 Y179.947 E0.10601
G1 X144.104 Y179.201 E0.10601
G1 X143.232 Y178.422 E0.10601
G1 X142.390 Y177.611 E0.10601
G1 X141.578 Y176.768 E0.10601
G1 X140.799 Y175.896 E0.10601
G1 X140.053 Y174.996 E0.10601
G1 X139.341 Y174.068 E0.10601
G1 X138.664 Y173.114 E0.10601
G1 X138.024 Y172.136 E0.10601
G1 X137.420 Y171.134 E0.10601
G1 X136.855 Y170.111 E0.10601
G1 X136.328 Y169.067 E0.10601
G1 X135.840 Y168.004 E0.10601
G1 X135.393 Y166.924 E0.10601
G1 X134.986 Y165.827 E0.10601
G1 X134.620 Y164.716 E0.10601
G1 X134.296 Y163.593 E0.10601
G1 X134.015 Y162.458 E0.10601
G1 X133.776 Y161.313 E0.10601
G1 X133.580 Y160.160 E0.10601
G1 X133.428 Y159.000 E0.10601
G1 X133.318 Y157.836 E0.10601
G1 X133.253 Y156.669 E0.10601
G1 X133.231 Y155.499 E0.10601
G1 X133.253 Y154.330 E0.10601
G1 X133.318 Y153.163 E0.10601
G1 X133.428 Y151.998 E0.10601
G1 X133.580 Y150.839 E0.10601
G1 X133.776 Y149.686 E0.10601
G1 X134.015 Y148.541 E0.10601
G1 X134.296 Y147.406 E0.10601
G1 X134.620 Y146.282 E0.10601
G1 X134.986 Y145.172 E0.10601
G1 X135.393 Y144.075 E0.10601
G1 X135.840 Y142.995 E0.10601
G1 X136.328 Y141.932 E0.10601
G1 X136.855 Y140.888 E0.10601
G1 X137.420 Y139.864 E0.10601
G1 X138.024 Y138.863 E0.10601
G1 X138.664 Y137.884 E0.10601
G1 X139.341 Y136.931 E0.10601
G1 X140.053 Y136.003 E0.10601
G1 X140.799 Y135.102 E0.10601
G1 X141.578 Y134.230 E0.10601
G1 X142.251 Y133.532 E0.08791
G1 X179.146 Y128.235 F6000.000
;TYPE:Solid infill
;WIDTH:0.958557
G1 F600.000
G1 X191.765 Y140.854 E1.61527
G1 X192.956 Y143.330 F6000.000
G1 F600.000
G1 X177.484 Y127.858 E1.98058
G1 X176.715 Y127.505 E0.07659
G1 X175.659 Y127.068 E0.10339
G1 X175.261 Y126.920 E0.03843
G1 X193.080 Y144.739 E2.28091
G1 X193.330 Y145.412 E0.06496
G1 X193.687 Y146.497 E0.10339
G1 X193.741 Y146.684 E0.01768
G1 X173.316 Y126.259 E2.61454
G1 X172.406 Y125.997 E0.08571
G1 X171.559 Y125.787 E0.07900
G1 X194.213 Y148.441 E2.89990
G1 X194.278 Y148.703 E0.02439
G1 X194.511 Y149.821 E0.10339
G1 X194.553 Y150.066 E0.02249
G1 X169.934 Y125.447 E3.15135
G1 X169.053 Y125.297 E0.08090
G1 X168.416 Y125.214 E0.05818
G1 X194.787 Y151.584 E3.37562
G1 X194.852 Y152.080 E0.04521
G1 X194.940 Y153.023 E0.08575
G1 X166.977 Y125.060 E3.57941
G1 X166.783 Y125.042 E0.01764
G1 X165.643 Y124.978 E0.10339
G1 X165.610 Y124.977 E0.00300
G1 X195.023 Y154.391 E3.76509
G1 X195.044 Y155.499 E0.10038
G1 X195.040 Y155.692 E0.01748
G1 X164.308 Y124.960 E3.93394
G1 X163.359 Y124.978 E0.08591
G1 X163.058 Y124.995 E0.02730
G1 X195.006 Y156.943 E4.08953
G1 X194.958 Y157.782 E0.07608
G1 X194.924 Y158.146 E0.03312
G1 X161.854 Y125.076 E4.23318
G1 X161.081 Y125.148 E0.07027
G1 X160.693 Y125.200 E0.03544
G1 X194.801 Y159.307 E4.36600
G1 X194.703 Y160.052 E0.06795
G1 X194.638 Y160.430 E0.03473
G1 X159.570 Y125.362 E4.48892
G1 X158.823 Y125.489 E0.06866
G1 X158.483 Y125.560 E0.03136
G1 X194.441 Y161.517 E4.60274
G1 X194.278 Y162.296 E0.07203
G1 X194.210 Y162.571 E0.02565
G1 X157.429 Y125.790 E4.70813
G1 X156.596 Y125.997 E0.07774
G1 X156.406 Y126.052 E0.01788
G1 X193.948 Y163.594 E4.80566
G1 X193.687 Y164.502 E0.08551
G1 X193.658 Y164.589 E0.00828
G1 X155.411 Y126.342 E4.89585
G1 X154.445 Y126.660 E0.09212
G1 X193.340 Y165.556 E4.97888
G1 X193.330 Y165.587 E0.00299
G1 X192.993 Y166.494 E0.08753
G1 X153.506 Y127.007 E5.05457
G1 X153.342 Y127.068 E0.01586
G1 X152.593 Y127.378 E0.07341
G1 X192.622 Y167.407 E5.12397
G1 X192.495 Y167.713 E0.02998
G1 X192.227 Y168.297 E0.05816
G1 X151.703 Y127.773 E5.18739
G1 X151.249 Y127.981 E0.04522
G1 X150.835 Y128.190 E0.04193
G1 X191.810 Y169.165 E5.24507
G1 X191.504 Y169.771 E0.06145
G1 X191.372 Y170.011 E0.02483
G1 X149.989 Y128.628 E5.29723
G1 X149.229 Y129.048 E0.07856
G1 X149.164 Y129.088 E0.00694
G1 X190.912 Y170.837 E5.34407
G1 X190.429 Y171.638 E0.08472
G1 X148.362 Y129.571 E5.38486
G1 X148.251 Y129.638 E0.01172
G1 X147.582 Y130.076 E0.07238
G1 X189.924 Y172.418 E5.42007
G1 X189.737 Y172.705 E0.03101
G1 X189.400 Y173.179 E0.05262
G1 X146.821 Y130.600 E5.45036
G1 X146.364 Y130.925 E0.05077
G1 X146.079 Y131.143 E0.03246
G1 X188.857 Y173.921 E5.47585
G1 X188.380 Y174.543 E0.07093
G1 X188.296 Y174.644 E0.01196
G1 X145.356 Y131.704 E5.49660
G1 X144.653 Y132.286 E0.08259
G1 X187.714 Y175.347 E5.51202
G1 X187.652 Y175.422 E0.00884
G1 X187.110 Y176.028 E0.07355
G1 X143.972 Y132.890 E5.52192
G1 X143.726 Y133.110 E0.02984
G1 X143.309 Y133.512 E0.05245
G1 X186.488 Y176.691 E5.52722
G1 X186.098 Y177.097 E0.05094
G1 X185.849 Y177.336 E0.03131
G1 X142.664 Y134.151 E5.52796
G1 X142.111 Y134.725 E0.07208
G1 X142.036 Y134.809 E0.01018
G1 X185.192 Y177.964 E5.52412
G1 X184.513 Y178.570 E0.08236
G1 X141.430 Y135.487 E5.51488
G1 X141.350 Y135.577 E0.01085
G1 X140.845 Y136.187 E0.07171
G1 X183.814 Y179.156 E5.50028
G1 X183.544 Y179.379 E0.03168
G1 X183.096 Y179.723 E0.05113
G1 X140.277 Y136.904 E5.48102
G1 X139.926 Y137.362 E0.05226
G1 X139.729 Y137.640 E0.03086
G1 X182.360 Y180.271 E5.45704
G1 X181.706 Y180.735 E0.07253
G1 X181.605 Y180.801 E0.01095
G1 X139.199 Y138.395 E5.42826
G1 X138.690 Y139.172 E0.08400
G1 X180.829 Y181.310 E5.39395
G1 X180.751 Y181.361 E0.00843
G1 X180.029 Y181.795 E0.07622
G1 X138.205 Y139.971 E5.35381
G1 X138.050 Y140.228 E0.02717
G1 X137.739 Y140.790 E0.05813
G1 X179.210 Y182.261 E5.30854
G1 X178.773 Y182.503 E0.04526
G1 X178.370 Y182.706 E0.04079
G1 X137.294 Y141.630 E5.25799
G1 X136.983 Y142.247 E0.06260
G1 X136.871 Y142.491 E0.02428
G1 X177.509 Y183.130 E5.20196
G1 X176.715 Y183.494 E0.07910
G1 X176.626 Y183.531 E0.00873
G1 X136.469 Y143.375 E5.14024
G1 X136.093 Y144.283 E0.08901
G1 X175.717 Y183.907 E5.07211
G1 X175.659 Y183.931 E0.00565
G1 X174.782 Y184.257 E0.08473
G1 X135.744 Y145.218 E4.99713
G1 X135.672 Y145.412 E0.01866
G1 X135.419 Y146.179 E0.07312
G1 X173.821 Y184.581 E4.91567
G1 X173.504 Y184.685 E0.03027
G1 X172.834 Y184.878 E0.06308
G1 X135.122 Y147.166 E4.82736
G1 X134.999 Y147.594 E0.04031
G1 X134.853 Y148.182 E0.05482
G1 X171.818 Y185.147 E4.73178
G1 X171.297 Y185.277 E0.04857
G1 X170.772 Y185.386 E0.04856
G1 X134.614 Y149.228 E4.62845
G1 X134.490 Y149.821 E0.05483
G1 X134.408 Y150.307 E0.04458
G1 X169.694 Y185.592 E4.51678
G1 X169.053 Y185.701 E0.05880
G1 X168.580 Y185.764 E0.04320
G1 X134.237 Y151.420 E4.39613
G1 X134.150 Y152.080 E0.06019
G1 X134.104 Y152.572 E0.04478
G1 X167.428 Y185.897 E4.26571
G1 X166.783 Y185.957 E0.05861
G1 X166.235 Y185.988 E0.04975
G1 X134.012 Y153.766 E4.12461
G1 X133.979 Y154.357 E0.05363
G1 X133.967 Y155.005 E0.05865
G1 X164.995 Y186.033 E3.97176
G1 X164.501 Y186.042 E0.04474
G1 X163.705 Y186.027 E0.07209
G1 X133.973 Y156.296 E3.80585
G1 X133.979 Y156.641 E0.03130
G1 X134.035 Y157.643 E0.09082
G1 X162.357 Y185.965 E3.62533
G1 X162.218 Y185.957 E0.01257
G1 X161.081 Y185.850 E0.10339
G1 X160.939 Y185.832 E0.01296
G1 X134.169 Y159.061 E3.42679
G1 X134.299 Y160.052 E0.09042
G1 X134.386 Y160.563 E0.04698
G1 X159.437 Y185.614 E3.20668
G1 X158.823 Y185.510 E0.05641
G1 X157.844 Y185.306 E0.09053
G1 X134.695 Y162.157 E2.96320
G1 X134.724 Y162.296 E0.01286
G1 X134.999 Y163.404 E0.10339
G1 X135.137 Y163.883 E0.04512
G1 X156.117 Y184.864 E2.68558
G1 X155.498 Y184.685 E0.05827
G1 X154.413 Y184.328 E0.10339
G1 X154.228 Y184.260 E0.01788
G1 X135.741 Y165.772 E2.36650
G1 X136.069 Y166.658 E0.08551
G1 X136.506 Y167.713 E0.10339
G1 X136.599 Y167.916 E0.02016
G1 X152.855 Y184.172 E2.08089
G1 X150.493 Y183.094 F6000.000
G1 F600.000
G1 X136.906 Y169.508 E1.73911
G1 X138.696 Y172.582 F6000.000
G1 F600.000
G1 X147.418 Y181.304 E1.11645
G1 X189.944 Y138.268 F6000.000
;TYPE:Gap fill
;WIDTH:0.243707
G1 F1200.000
G1 X189.882 Y138.194 E0.00184
G1 X189.734 Y138.018 E0.00441
;WIDTH:0.292071
