; generated by SuperSlicer 2.3.56 on 2021-05-30 at 23:44:13 UTC

; 

; external perimeters extrusion width = 1.00mm
; perimeters extrusion width = 1.00mm
; infill extrusion width = 1.00mm
; solid infill extrusion width = 1.00mm
; top infill extrusion width = 0.40mm
; first layer extrusion width = 1.00mm


M140 S60 ; set bed temperature
M104 S220 ; set temperature
;TYPE:Custom
START_PRINT T_BED=60 T_EXTRUDER=220
M107
G21 ; set units to millimeters
G90 ; use absolute coordinates
M82 ; use absolute distances for extrusion
G92 E0
; Filament gcode
M109 S220 ; set temperature and wait for it to be reached
M190 S60 ; set bed temperature and wait for it to be reached
;LAYER_CHANGE
;Z:0.24
;HEIGHT:0.24
G1 Z0.240000 F9000.000
G1 X138.008 Y138.009
;TYPE:Skirt
;WIDTH:1
G1 F900.000
G1 X141.117 Y135.224 E0.39507
G1 X143.590 Y133.399 E0.68596
G1 X147.163 Y131.252 E1.08044
G1 X150.943 Y129.512 E1.47432
G1 X153.850 Y128.494 E1.76580
G1 X157.897 Y127.495 E2.16028
G1 X160.846 Y127.056 E2.44250
G1 X165.006 Y126.828 E2.83677
G1 X169.168 Y127.057 E3.23125
G1 X172.207 Y127.515 E3.52213
G1 X176.251 Y128.523 E3.91661
G1 X180.155 Y129.966 E4.31050
G1 X182.930 Y131.302 E4.60198
G1 X186.498 Y133.457 E4.99645
G1 X188.894 Y135.232 E5.27868
G1 X191.992 Y138.008 E5.67235
G1 X194.770 Y141.107 E6.06624
G1 X196.547 Y143.507 E6.34884
G1 X198.699 Y147.069 E6.74272
G1 X200.036 Y149.846 E7.03442
G1 X201.477 Y153.748 E7.42809
G1 X202.487 Y157.798 E7.82316
G1 X202.945 Y160.838 E8.11404
G1 X203.174 Y164.999 E8.50852
G1 X202.946 Y169.155 E8.90241
G1 X202.506 Y172.109 E9.18501
G1 X201.509 Y176.149 E9.57890
G1 X200.490 Y179.058 E9.87059
G1 X198.750 Y182.837 E10.26426
G1 X196.601 Y186.415 E10.65933
G1 X194.775 Y188.888 E10.95022
G1 X191.994 Y191.992 E11.34470
G1 X188.894 Y194.770 E11.73859
G1 X186.495 Y196.547 E12.02118
G1 X182.932 Y198.699 E12.41507
G1 X180.155 Y200.035 E12.70676
G1 X176.254 Y201.477 E13.10044
G1 X172.203 Y202.487 E13.49551
G1 X169.164 Y202.945 E13.78639
G1 X165.002 Y203.173 E14.18087
G1 X160.846 Y202.946 E14.57476
G1 X157.893 Y202.506 E14.85736
G1 X153.852 Y201.508 E15.25125
G1 X150.943 Y200.490 E15.54294
G1 X147.165 Y198.750 E15.93661
G1 X143.587 Y196.600 E16.33168
G1 X141.114 Y194.775 E16.62257
G1 X138.009 Y191.994 E17.01705
G1 X135.232 Y188.894 E17.41093
G1 X133.455 Y186.495 E17.69353
G1 X131.303 Y182.932 E18.08742
G1 X129.966 Y180.155 E18.37911
G1 X128.524 Y176.253 E18.77279
G1 X127.516 Y172.209 E19.16726
G1 X127.057 Y169.164 E19.45874
G1 X126.828 Y165.002 E19.85322
G1 X127.056 Y160.846 E20.24711
G1 X127.496 Y157.893 E20.52971
G1 X128.493 Y153.852 E20.92359
G1 X129.512 Y150.943 E21.21529
G1 X131.251 Y147.165 E21.60896
G1 X133.401 Y143.587 E22.00403
G1 X135.227 Y141.114 E22.29492
G1 X137.908 Y138.121 E22.67520
G1 X138.613 Y138.753 F9000.000
G1 F900.000
G1 X138.681 Y138.678 E22.68474
G1 X141.717 Y135.958 E23.07051
G1 X144.110 Y134.192 E23.35200
G1 X147.609 Y132.089 E23.73833
G1 X151.306 Y130.388 E24.12356
G1 X154.119 Y129.403 E24.40559
G1 X158.071 Y128.427 E24.79082
G1 X160.935 Y128.000 E25.06489
G1 X165.008 Y127.776 E25.45098
G1 X169.073 Y128.000 E25.83622
G1 X172.014 Y128.444 E26.11770
G1 X175.974 Y129.431 E26.50403
G1 X179.792 Y130.842 E26.88926
G1 X182.477 Y132.135 E27.17129
G1 X185.962 Y134.239 E27.55652
G1 X188.289 Y135.962 E27.83059
G1 X191.324 Y138.680 E28.21614
G1 X194.043 Y141.717 E28.60192
G1 X195.809 Y144.110 E28.88341
G1 X197.912 Y147.608 E29.26973
G1 X199.614 Y151.306 E29.65496
G1 X200.598 Y154.119 E29.93699
G1 X201.574 Y158.071 E30.32223
G1 X202.002 Y160.935 E30.59629
G1 X202.225 Y165.002 E30.98184
G1 X202.001 Y169.072 E31.36762
G1 X201.558 Y172.013 E31.64911
G1 X200.571 Y175.974 E32.03543
G1 X199.159 Y179.792 E32.42066
G1 X197.867 Y182.477 E32.70270
G1 X195.763 Y185.962 E33.08793
G1 X194.039 Y188.289 E33.36199
G1 X191.321 Y191.323 E33.74754
G1 X188.285 Y194.043 E34.13332
G1 X185.892 Y195.809 E34.41481
G1 X182.393 Y197.912 E34.80113
G1 X178.695 Y199.613 E35.18636
G1 X175.883 Y200.598 E35.46840
G1 X171.931 Y201.574 E35.85363
G1 X169.067 Y202.001 E36.12770
G1 X164.999 Y202.225 E36.51324
G1 X160.929 Y202.001 E36.89902
G1 X157.988 Y201.558 E37.18051
G1 X154.027 Y200.571 E37.56683
G1 X150.209 Y199.159 E37.95206
G1 X147.524 Y197.866 E38.23410
G1 X144.040 Y195.762 E38.61933
G1 X141.712 Y194.039 E38.89340
G1 X138.678 Y191.321 E39.27895
G1 X135.959 Y188.285 E39.66472
G1 X134.192 Y185.892 E39.94621
G1 X132.090 Y182.393 E40.33254
G1 X130.388 Y178.695 E40.71777
G1 X129.403 Y175.882 E40.99980
G1 X128.427 Y171.931 E41.38503
G1 X128.000 Y169.067 E41.65910
G1 X127.777 Y164.999 E42.04465
G1 X128.001 Y160.929 E42.43042
G1 X128.444 Y157.988 E42.71191
G1 X129.431 Y154.027 E43.09824
G1 X130.842 Y150.209 E43.48347
G1 X132.135 Y147.524 E43.76550
G1 X134.239 Y144.040 E44.15073
G1 X135.962 Y141.712 E44.42480
G1 X138.513 Y138.865 E44.78662
G92 E0
G1 X142.809 Y143.002 F9000.000
;TYPE:External perimeter
G1 F900.000
G1 X142.904 Y142.904 E0.01299
G1 X143.746 Y142.093 E0.12359
G1 X144.617 Y141.314 E0.23420
G1 X145.517 Y140.568 E0.34480
G1 X146.444 Y139.857 E0.45541
G1 X147.397 Y139.181 E0.56601
G1 X148.375 Y138.541 E0.67662
G1 X149.376 Y137.937 E0.78722
G1 X150.399 Y137.372 E0.89783
G1 X151.442 Y136.845 E1.00843
G1 X152.504 Y136.358 E1.11904
G1 X153.584 Y135.911 E1.22964
G1 X154.680 Y135.504 E1.34025
G1 X155.790 Y135.139 E1.45085
G1 X156.913 Y134.816 E1.56146
G1 X158.047 Y134.534 E1.67206
G1 X159.191 Y134.296 E1.78267
G1 X160.343 Y134.100 E1.89327
G1 X161.502 Y133.947 E2.00388
G1 X162.666 Y133.838 E2.11448
G1 X163.832 Y133.773 E2.22509
G1 X165.001 Y133.751 E2.33569
G1 X166.169 Y133.773 E2.44630
G1 X167.336 Y133.838 E2.55690
G1 X168.500 Y133.947 E2.66751
G1 X169.658 Y134.100 E2.77811
G1 X170.811 Y134.296 E2.88872
G1 X171.955 Y134.534 E2.99932
G1 X173.089 Y134.816 E3.10993
G1 X174.212 Y135.139 E3.22053
G1 X175.322 Y135.504 E3.33114
G1 X176.418 Y135.911 E3.44174
G1 X177.497 Y136.358 E3.55235
G1 X178.560 Y136.845 E3.66295
G1 X179.603 Y137.372 E3.77356
G1 X180.626 Y137.937 E3.88416
G1 X181.627 Y138.541 E3.99477
G1 X182.605 Y139.181 E4.10537
G1 X183.558 Y139.857 E4.21597
G1 X184.485 Y140.568 E4.32658
G1 X185.385 Y141.314 E4.43718
G1 X186.256 Y142.093 E4.54779
G1 X187.098 Y142.904 E4.65839
G1 X187.909 Y143.745 E4.76900
G1 X188.687 Y144.617 E4.87960
G1 X189.433 Y145.517 E4.99021
G1 X190.144 Y146.444 E5.10081
G1 X190.821 Y147.397 E5.21142
G1 X191.461 Y148.375 E5.32202
G1 X192.064 Y149.376 E5.43263
G1 X192.629 Y150.399 E5.54323
G1 X193.156 Y151.442 E5.65384
G1 X193.643 Y152.504 E5.76444
G1 X194.091 Y153.584 E5.87505
G1 X194.497 Y154.679 E5.98565
G1 X194.862 Y155.790 E6.09626
G1 X195.186 Y156.913 E6.20686
G1 X195.467 Y158.047 E6.31747
G1 X195.706 Y159.191 E6.42807
G1 X195.902 Y160.343 E6.53868
G1 X196.054 Y161.502 E6.64928
G1 X196.163 Y162.665 E6.75989
G1 X196.229 Y163.832 E6.87049
G1 X196.251 Y165.001 E6.98110
G1 X196.229 Y166.169 E7.09170
G1 X196.163 Y167.336 E7.20231
G1 X196.054 Y168.500 E7.31291
G1 X195.902 Y169.658 E7.42352
G1 X195.706 Y170.810 E7.53412
G1 X195.467 Y171.954 E7.64473
G1 X195.186 Y173.089 E7.75533
G1 X194.862 Y174.212 E7.86594
G1 X194.497 Y175.322 E7.97654
G1 X194.091 Y176.418 E8.08715
G1 X193.643 Y177.497 E8.19775
G1 X193.156 Y178.559 E8.30836
G1 X192.629 Y179.603 E8.41896
G1 X192.064 Y180.626 E8.52957
G1 X191.461 Y181.627 E8.64017
G1 X190.821 Y182.604 E8.75078
G1 X190.144 Y183.557 E8.86138
G1 X189.433 Y184.485 E8.97199
G1 X188.687 Y185.385 E9.08259
G1 X187.909 Y186.256 E9.19320
G1 X187.098 Y187.098 E9.30380
G1 X186.256 Y187.908 E9.41441
G1 X185.385 Y188.687 E9.52501
G1 X184.485 Y189.433 E9.63562
G1 X183.558 Y190.144 E9.74622
G1 X182.605 Y190.821 E9.85683
G1 X181.627 Y191.461 E9.96743
G1 X180.626 Y192.064 E10.07804
G1 X179.603 Y192.629 E10.18864
G1 X178.560 Y193.156 E10.29925
G1 X177.497 Y193.643 E10.40985
G1 X176.418 Y194.090 E10.52046
G1 X175.322 Y194.497 E10.63106
G1 X174.212 Y194.862 E10.74167
G1 X173.089 Y195.186 E10.85227
G1 X171.955 Y195.467 E10.96288
G1 X170.811 Y195.706 E11.07348
G1 X169.658 Y195.902 E11.18409
G1 X168.500 Y196.054 E11.29469
G1 X167.336 Y196.163 E11.40530
G1 X166.169 Y196.229 E11.51590
G1 X165.001 Y196.251 E11.62651
G1 X163.832 Y196.229 E11.73711
G1 X162.666 Y196.163 E11.84772
G1 X161.502 Y196.054 E11.95832
G1 X160.343 Y195.902 E12.06893
G1 X159.191 Y195.706 E12.17953
G1 X158.047 Y195.467 E12.29014
G1 X156.913 Y195.186 E12.40074
G1 X155.790 Y194.862 E12.51135
G1 X154.680 Y194.497 E12.62195
G1 X153.584 Y194.090 E12.73256
G1 X152.504 Y193.643 E12.84316
G1 X151.442 Y193.156 E12.95377
G1 X150.399 Y192.629 E13.06437
G1 X149.376 Y192.064 E13.17498
G1 X148.375 Y191.461 E13.28558
G1 X147.397 Y190.821 E13.39619
G1 X146.444 Y190.144 E13.50679
G1 X145.517 Y189.433 E13.61740
G1 X144.617 Y188.687 E13.72800
G1 X143.746 Y187.908 E13.83861
G1 X142.904 Y187.098 E13.94921
G1 X142.093 Y186.256 E14.05982
G1 X141.314 Y185.385 E14.17042
G1 X140.569 Y184.485 E14.28103
G1 X139.857 Y183.557 E14.39163
G1 X139.181 Y182.604 E14.50224
G1 X138.541 Y181.627 E14.61284
G1 X137.938 Y180.626 E14.72345
G1 X137.372 Y179.603 E14.83405
G1 X136.846 Y178.559 E14.94466
G1 X136.358 Y177.497 E15.05526
G1 X135.911 Y176.418 E15.16587
G1 X135.505 Y175.322 E15.27647
G1 X135.139 Y174.212 E15.38708
G1 X134.816 Y173.089 E15.49768
G1 X134.534 Y171.954 E15.60829
G1 X134.296 Y170.810 E15.71889
G1 X134.100 Y169.658 E15.82950
G1 X133.947 Y168.500 E15.94010
G1 X133.838 Y167.336 E16.05071
G1 X133.773 Y166.169 E16.16131
G1 X133.751 Y165.001 E16.27192
G1 X133.773 Y163.832 E16.38252
G1 X133.838 Y162.665 E16.49313
G1 X133.947 Y161.502 E16.60373
G1 X134.100 Y160.343 E16.71434
G1 X134.296 Y159.191 E16.82494
G1 X134.534 Y158.047 E16.93555
G1 X134.816 Y156.913 E17.04615
G1 X135.139 Y155.790 E17.15676
G1 X135.505 Y154.679 E17.26736
G1 X135.911 Y153.584 E17.37797
G1 X136.358 Y152.504 E17.48857
G1 X136.846 Y151.442 E17.59918
G1 X137.372 Y150.399 E17.70978
G1 X137.938 Y149.376 E17.82039
G1 X138.541 Y148.375 E17.93099
G1 X139.181 Y147.397 E18.04160
G1 X139.857 Y146.444 E18.15220
G1 X140.569 Y145.517 E18.26281
G1 X141.314 Y144.617 E18.37341
G1 X142.093 Y143.745 E18.48402
G1 X142.705 Y143.110 E18.56744
G92 E0
G1 X192.338 Y150.559 F9000.000
;TYPE:Solid infill
;WIDTH:0.99831
G1 F1800.000
G1 X179.443 Y137.663 E1.72307
G92 E0
G1 X176.914 Y136.476 F9000.000
G1 F1800.000
G1 X192.695 Y152.257 E2.10860
G1 X192.948 Y152.808 E2.16585
G1 X193.384 Y153.861 E2.27358
G1 X193.636 Y154.539 E2.34187
G1 X175.463 Y136.366 E4.77004
G1 X175.071 Y136.221 E4.80949
G1 X173.988 Y135.864 E4.91723
G1 X173.471 Y135.715 E4.96811
G1 X194.286 Y156.531 E7.74943
G1 X194.453 Y157.109 E7.80628
G1 X194.727 Y158.216 E7.91401
G1 X194.753 Y158.339 E7.92590
G1 X171.663 Y135.248 E11.01118
G1 X170.669 Y135.041 E11.10703
G1 X170.000 Y134.928 E11.17116
G1 X195.074 Y160.001 E14.52142
G1 X195.151 Y160.456 E14.56503
G1 X195.297 Y161.566 E14.67078
G1 X168.436 Y134.704 E18.25998
G1 X168.415 Y134.701 E18.26196
G1 X167.279 Y134.595 E18.36970
G1 X166.967 Y134.577 E18.39922
G1 X195.424 Y163.034 E22.20151
G1 X195.471 Y163.861 E22.27972
G1 X195.481 Y164.433 E22.33378
G1 X165.569 Y134.520 E26.33056
G1 X165.001 Y134.510 E26.38424
G1 X164.231 Y134.524 E26.45696
G1 X195.477 Y165.770 E30.63197
G1 X195.471 Y166.141 E30.66698
G1 X195.419 Y167.053 E30.75335
G1 X162.948 Y134.582 E35.09203
G1 X162.722 Y134.595 E35.11341
G1 X161.714 Y134.689 E35.20909
G1 X195.312 Y168.288 E39.69835
G1 X195.300 Y168.415 E39.71041
G1 X195.160 Y169.477 E39.81166
G1 X160.524 Y134.841 E44.43959
G1 X160.456 Y134.850 E44.44607
G1 X159.376 Y135.034 E44.54964
G1 X194.968 Y170.626 E49.30533
G1 X194.960 Y170.669 E49.30949
G1 X194.737 Y171.737 E49.41255
G1 X158.264 Y135.264 E54.28596
G1 X158.216 Y135.274 E54.29064
G1 X157.188 Y135.529 E54.39070
G1 X194.472 Y172.813 E59.37252
G1 X194.453 Y172.892 E59.38019
G1 X194.175 Y173.857 E59.47507
G1 X156.144 Y135.827 E64.55660
G1 X156.013 Y135.864 E64.56946
G1 X155.131 Y136.155 E64.65724
G1 X193.847 Y174.871 E69.83032
G1 X193.781 Y175.071 E69.85028
G1 X193.490 Y175.855 E69.92928
G1 X154.146 Y136.512 E75.18622
G1 X153.861 Y136.617 E75.21497
G1 X153.189 Y136.896 E75.28369
G1 X193.106 Y176.812 E80.61720
G1 X192.948 Y177.194 E80.65622
G1 X192.696 Y177.743 E80.71335
G1 X152.258 Y137.306 E86.11648
G1 X151.771 Y137.529 E86.16708
G1 X151.352 Y137.741 E86.21148
G1 X192.261 Y178.650 E91.67757
G1 X191.958 Y179.248 E91.74091
G1 X191.801 Y179.532 E91.77156
G1 X150.469 Y138.200 E97.29421
G1 X149.755 Y138.595 E97.37130
G1 X149.610 Y138.682 E97.38731
G1 X191.319 Y180.391 E102.96036
G1 X190.818 Y181.223 E103.05208
G1 X190.815 Y181.228 E103.05268
G1 X148.773 Y139.187 E108.67013
G1 X147.963 Y139.717 E108.76167
G1 X190.284 Y182.039 E114.41651
G1 X190.194 Y182.177 E114.43210
G1 X189.732 Y182.828 E114.50752
G1 X147.174 Y140.270 E120.19400
G1 X146.895 Y140.468 E120.22632
G1 X146.406 Y140.843 E120.28457
G1 X189.159 Y183.596 E125.99708
G1 X188.840 Y184.011 E126.04657
G1 X188.565 Y184.343 E126.08730
G1 X145.658 Y141.437 E131.82034
G1 X145.112 Y141.889 E131.88734
G1 X144.931 Y142.051 E131.91028
G1 X187.950 Y185.071 E137.65840
G1 X187.352 Y185.740 E137.74319
G1 X187.316 Y185.778 E137.74815
G1 X144.224 Y142.686 E143.50596
G1 X143.541 Y143.344 E143.59559
G1 X186.658 Y186.461 E149.35676
G1 X186.561 Y186.561 E149.36991
G1 X185.978 Y187.123 E149.44639
G1 X142.879 Y144.023 E155.20519
G1 X142.649 Y144.261 E155.23644
G1 X142.237 Y144.723 E155.29490
G1 X185.279 Y187.764 E161.04597
G1 X184.890 Y188.112 E161.09525
G1 X184.559 Y188.386 E161.13584
G1 X141.615 Y145.443 E166.87381
G1 X141.162 Y145.990 E166.94096
G1 X141.014 Y146.183 E166.96391
G1 X183.819 Y188.987 E172.68335
G1 X183.107 Y189.534 E172.76813
G1 X183.058 Y189.568 E172.77377
G1 X140.433 Y146.943 E178.46919
G1 X139.877 Y147.728 E178.56008
G1 X182.274 Y190.125 E184.22505
G1 X182.177 Y190.193 E184.23625
G1 X181.466 Y190.659 E184.31651
G1 X139.343 Y148.535 E189.94494
G1 X139.183 Y148.778 E189.97240
G1 X138.830 Y149.364 E190.03703
G1 X180.637 Y191.171 E195.62312
G1 X180.246 Y191.407 E195.66623
G1 X179.786 Y191.661 E195.71594
G1 X138.340 Y150.216 E201.25375
G1 X138.043 Y150.753 E201.31177
G1 X137.873 Y151.090 E201.34742
G1 X178.912 Y192.128 E206.83082
G1 X178.230 Y192.472 E206.90291
G1 X178.014 Y192.572 E206.92546
G1 X137.430 Y151.988 E212.34810
G1 X137.054 Y152.808 E212.43329
G1 X137.011 Y152.911 E212.44384
G1 X177.091 Y192.990 E217.79914
G1 X176.142 Y193.383 E217.89614
G1 X136.618 Y153.859 E223.17720
G1 X136.618 Y153.861 E223.17739
G1 X136.255 Y154.837 E223.27580
G1 X175.164 Y193.746 E228.47465
G1 X175.071 Y193.781 E228.48399
G1 X174.158 Y194.081 E228.57487
G1 X135.920 Y155.844 E233.68403
G1 X135.864 Y156.013 E233.70089
G1 X135.615 Y156.880 E233.78609
G1 X173.122 Y194.387 E238.79763
G1 X172.893 Y194.453 E238.82017
G1 X172.054 Y194.661 E238.90177
G1 X135.341 Y157.947 E243.80728
G1 X135.274 Y158.216 E243.83342
G1 X135.101 Y159.048 E243.91377
G1 X170.953 Y194.901 E248.70428
G1 X170.669 Y194.960 E248.73166
G1 X169.816 Y195.105 E248.81345
G1 X134.896 Y160.185 E253.47929
G1 X134.850 Y160.456 E253.50524
G1 X134.731 Y161.362 E253.59153
G1 X168.640 Y195.270 E258.12229
G1 X168.415 Y195.300 E258.14373
G1 X167.421 Y195.393 E258.23801
G1 X134.608 Y162.580 E262.62236
G1 X134.595 Y162.722 E262.63582
G1 X134.532 Y163.845 E262.74210
G1 X166.156 Y195.469 E266.96763
G1 X166.141 Y195.470 E266.96908
G1 X165.001 Y195.492 E267.07682
G1 X164.834 Y195.489 E267.09259
G1 X134.513 Y165.168 E271.14398
G1 X134.531 Y166.141 E271.23594
G1 X134.554 Y166.550 E271.27468
G1 X163.451 Y195.447 E275.13583
G1 X162.722 Y195.406 E275.20483
G1 X162.001 Y195.339 E275.27323
G1 X134.663 Y168.000 E278.92615
G1 X134.702 Y168.415 E278.96548
G1 X134.848 Y169.527 E279.07147
G1 X160.475 Y195.154 E282.49564
G1 X160.456 Y195.151 E282.49739
G1 X159.332 Y194.960 E282.60513
G1 X158.837 Y194.857 E282.65296
G1 X135.145 Y171.165 E285.81858
G1 X135.274 Y171.786 E285.87848
G1 X135.549 Y172.892 E285.98622
G1 X135.556 Y172.918 E285.98870
G1 X157.084 Y194.445 E288.86519
G1 X156.013 Y194.137 E288.97044
G1 X155.150 Y193.853 E289.05632
G1 X136.149 Y174.851 E291.59524
G1 X136.221 Y175.071 E291.61710
G1 X136.618 Y176.140 E291.72483
G1 X136.986 Y177.031 E291.81588
