; generated by SuperSlicer 2.5.59 on 2022-12-15 at 20:47:22 UTC


;
;

;
;
; 

; external perimeters extrusion width = 0.70mm
; perimeters extrusion width = 0.70mm
; infill extrusion width = 0.64mm
; solid infill extrusion width = 0.56mm
; top infill extrusion width = 0.40mm
; first layer extrusion width = 0.50mm

; object:{"name":"Bellows_v4","id":"Bellows_v4.stl id:0 copy 0","object_center":[164.999997,165.000005,0.000000],"boundingbox_center":[164.999997,165.000005,19.000000],"boundingbox_size":[73.498291,73.500832,38.000000]}
; plater:{"center":[164.999997,165.000005,0.000000],"boundingbox_center":[164.999997,165.000005,19.000000],"boundingbox_size":[73.498291,73.500832,38.000000]}

M73 P0 R47


; Pre-Processed for Cancel-Object support by preprocess_cancellation v0.2.0
; 1 known objects
EXCLUDE_OBJECT_DEFINE NAME=Bellows_v4_stl_id_0_copy_0 CENTER=164.513,164.822 POLYGON=[[128.608,128.609],[128.608,201.387],[201.388,201.387],[201.388,128.609]]
;TYPE:Custom
START_PRINT T_BED=60 T_EXTRUDER=220
M107
G21 ; set units to millimeters
G90 ; use absolute coordinates
M83 ; use relative distances for extrusion
; Filament gcode
;_TOOLCHANGE 0
M104 S220 ; set temperature
M109 S220 ; set temperature and wait for it to be reached
M190 S60 ; set bed temperature and wait for it to be reached
M107
;LAYER_CHANGE
;Z:0.2
;HEIGHT:0.2
G1 Z0.2 F9000
G92 E0
M204 S1000
G1 X140.896 Y139.122
;TYPE:Skirt
;WIDTH:0.52
G1 F1800
G1 X143.005 Y137.307 E0.11042
G1 X146.127 Y135.092 E0.15182
G1 X149.594 Y133.167 E0.15732
G1 X152.145 Y132.054 E0.11042
G1 X155.781 Y130.857 E0.15182
G1 X158.494 Y130.238 E0.11042
G1 X162.427 Y129.728 E0.15732
G1 X166.254 Y129.657 E0.15182
G1 X169.03 Y129.865 E0.11042
G1 X172.938 Y130.537 E0.15732
G1 X176.616 Y131.596 E0.15182
G1 X179.207 Y132.613 E0.11042
G1 X182.743 Y134.407 E0.15732
G1 X185.945 Y136.504 E0.15182
G1 X188.122 Y138.239 E0.11042
G1 X190.878 Y140.894 E0.15182
G1 X192.694 Y143.004 E0.11042
G1 X194.908 Y146.125 E0.15182
G1 X196.833 Y149.592 E0.15732
G1 X197.947 Y152.144 E0.11042
G1 X199.143 Y155.779 E0.15182
G1 X199.762 Y158.493 E0.11042
G1 X200.272 Y162.426 E0.15732
G1 X200.344 Y166.252 E0.15182
G1 X200.136 Y169.028 E0.11042
G1 X199.495 Y172.801 E0.15182
G1 X198.774 Y175.49 E0.11042
G1 X197.387 Y179.205 E0.15732
G1 X195.593 Y182.742 E0.15732
G1 X193.497 Y185.944 E0.15182
G1 X191.761 Y188.12 E0.11042
G1 X189.106 Y190.876 E0.15182
G1 X186.057 Y193.413 E0.15732
G1 X183.757 Y194.981 E0.11042
G1 X180.408 Y196.832 E0.15182
G1 X177.856 Y197.945 E0.11042
G1 X174.221 Y199.141 E0.15182
G1 X171.507 Y199.761 E0.11042
G1 X167.574 Y200.271 E0.15732
G1 X163.748 Y200.342 E0.15182
G1 X160.972 Y200.134 E0.11042
G1 X157.064 Y199.462 E0.15732
G1 X153.386 Y198.403 E0.15182
G1 X150.795 Y197.386 E0.11042
G1 X147.258 Y195.592 E0.15732
G1 X144.056 Y193.495 E0.15182
G1 X141.88 Y191.76 E0.11042
G1 X139.124 Y189.105 E0.15182
G1 X136.588 Y186.056 E0.15732
G1 X135.02 Y183.756 E0.11042
G1 X133.168 Y180.406 E0.15182
G1 X132.055 Y177.855 E0.11042
G1 X130.859 Y174.22 E0.15182
G1 X130.24 Y171.506 E0.11042
G1 X129.73 Y167.573 E0.15732
G1 X129.658 Y163.746 E0.15182
G1 X129.866 Y160.971 E0.11042
G1 X130.538 Y157.062 E0.15732
G1 X131.598 Y153.385 E0.15182
G1 X132.614 Y150.794 E0.11042
G1 X134.339 Y147.377 E0.15182
G1 X135.82 Y145.02 E0.11042
M73 P0 R47
G1 X138.241 Y141.879 E0.15732
G1 X140.896 Y139.122 E0.15182
G1 X141.227 Y139.466 F9000
G1 F1800
G1 X143.296 Y137.685 E0.1083
G1 X146.388 Y135.491 E0.1504
G1 X149.809 Y133.593 E0.1552
G1 X152.311 Y132.501 E0.1083
G1 X155.913 Y131.316 E0.1504
G1 X158.574 Y130.708 E0.1083
G1 X162.333 Y130.213 E0.1504
G1 X166.245 Y130.134 E0.1552
G1 X168.967 Y130.338 E0.1083
G1 X172.705 Y130.973 E0.1504
G1 X175.342 Y131.679 E0.1083
G1 X179.008 Y133.047 E0.1552
G1 X182.392 Y134.755 E0.1504
G1 X185.669 Y136.893 E0.1552
G1 X187.804 Y138.595 E0.1083
G1 X190.534 Y141.225 E0.1504
G1 X192.315 Y143.294 E0.1083
G1 X194.509 Y146.387 E0.1504
G1 X196.408 Y149.807 E0.1552
G1 X197.499 Y152.31 E0.1083
G1 X198.684 Y155.911 E0.1504
G1 X199.292 Y158.573 E0.1083
G1 X199.787 Y162.332 E0.1504
G1 X199.867 Y166.243 E0.1552
G1 X199.663 Y168.966 E0.1083
G1 X199.001 Y172.822 E0.1552
G1 X197.951 Y176.465 E0.1504
G1 X196.954 Y179.006 E0.1083
G1 X195.245 Y182.391 E0.1504
G1 X193.108 Y185.668 E0.1552
G1 X191.405 Y187.802 E0.1083
G1 X188.775 Y190.533 E0.1504
G1 X186.706 Y192.314 E0.1083
G1 X183.614 Y194.508 E0.1504
G1 X180.193 Y196.406 E0.1552
G1 X177.69 Y197.498 E0.1083
G1 X174.089 Y198.683 E0.1504
G1 X171.427 Y199.29 E0.1083
G1 X167.668 Y199.785 E0.1504
G1 X163.757 Y199.865 E0.1552
G1 X161.034 Y199.661 E0.1083
G1 X157.297 Y199.026 E0.1504
G1 X153.909 Y198.073 E0.13959
G1 X150.994 Y196.952 E0.1239
G1 X147.609 Y195.244 E0.1504
G1 X144.332 Y193.106 E0.1552
G1 X142.198 Y191.404 E0.1083
G1 X139.467 Y188.774 E0.1504
G1 X137.687 Y186.704 E0.1083
G1 X135.493 Y183.612 E0.1504
G1 X133.594 Y180.191 E0.1552
G1 X132.502 Y177.689 E0.1083
G1 X131.317 Y174.088 E0.1504
G1 X130.71 Y171.426 E0.1083
G1 X130.215 Y167.667 E0.1504
G1 X130.135 Y163.755 E0.1552
G1 X130.339 Y161.033 E0.1083
G1 X130.974 Y157.295 E0.1504
G1 X132.051 Y153.534 E0.1552
G1 X133.048 Y150.992 E0.1083
G1 X134.757 Y147.608 E0.1504
G1 X136.209 Y145.296 E0.1083
G1 X138.596 Y142.196 E0.1552
G1 X141.227 Y139.466 E0.1504
; printing object Bellows_v4.stl id:0 copy 0
EXCLUDE_OBJECT_START NAME=Bellows_v4_stl_id_0_copy_0
G1 X143.643 Y141.982 F9000
;TYPE:External perimeter
;WIDTH:0.5
G1 F1800
G1 X144.519 Y141.199 E0.04463
G1 X145.423 Y140.45 E0.04463
G1 X146.355 Y139.735 E0.04463
G1 X147.313 Y139.056 E0.04463
G1 X148.295 Y138.412 E0.04463
G1 X149.301 Y137.806 E0.04463
G1 X150.329 Y137.238 E0.04463
G1 X151.377 Y136.709 E0.04463
G1 X152.444 Y136.219 E0.04463
G1 X153.529 Y135.77 E0.04463
M73 P1 R47
G1 X154.63 Y135.361 E0.04463
G1 X155.746 Y134.994 E0.04463
G1 X156.874 Y134.669 E0.04463
G1 X158.014 Y134.387 E0.04463
G1 X159.163 Y134.147 E0.04463
G1 X160.321 Y133.95 E0.04463
G1 X161.485 Y133.797 E0.04463
G1 X162.654 Y133.687 E0.04463
G1 X163.826 Y133.621 E0.04459
G1 X165.394 Y133.607 E0.05959
G1 X166.175 Y133.621 E0.0297
G1 X167.347 Y133.687 E0.04463
G1 X168.517 Y133.797 E0.04463
G1 X169.681 Y133.95 E0.04463
G1 X170.838 Y134.147 E0.04463
G1 X171.988 Y134.387 E0.04463
G1 X173.128 Y134.669 E0.04463
G1 X174.256 Y134.994 E0.04463
G1 X175.372 Y135.361 E0.04463
G1 X176.473 Y135.77 E0.04463
G1 X177.557 Y136.219 E0.04463
G1 X178.625 Y136.709 E0.04463
G1 X179.673 Y137.238 E0.04463
G1 X180.701 Y137.806 E0.04463
G1 X181.707 Y138.412 E0.04463
G1 X182.689 Y139.056 E0.04463
G1 X183.647 Y139.735 E0.04463
G1 X184.578 Y140.45 E0.04463
G1 X185.483 Y141.199 E0.04463
G1 X186.358 Y141.982 E0.04463
G1 X187.204 Y142.796 E0.04463
G1 X188.019 Y143.642 E0.04463
G1 X188.801 Y144.518 E0.04463
G1 X189.55 Y145.422 E0.04463
G1 X190.265 Y146.353 E0.04463
G1 X190.945 Y147.311 E0.04463
G1 X191.588 Y148.294 E0.04463
G1 X192.194 Y149.299 E0.04463
G1 X192.762 Y150.327 E0.04463
G1 X193.291 Y151.375 E0.04463
G1 X193.781 Y152.443 E0.04463
G1 X194.23 Y153.528 E0.04463
G1 X194.639 Y154.629 E0.04463
G1 X195.006 Y155.744 E0.04463
G1 X195.331 Y156.872 E0.04463
G1 X195.614 Y158.012 E0.04463
G1 X195.853 Y159.162 E0.04463
G1 X196.05 Y160.319 E0.04463
G1 X196.203 Y161.484 E0.04463
G1 X196.313 Y162.653 E0.04463
G1 X196.379 Y163.825 E0.04463
G1 X196.401 Y164.999 E0.04463
G1 X196.379 Y166.173 E0.04463
G1 X196.313 Y167.346 E0.04463
G1 X196.203 Y168.515 E0.04463
G1 X196.05 Y169.679 E0.04463
G1 X195.853 Y170.837 E0.04463
G1 X195.614 Y171.987 E0.04463
G1 X195.331 Y173.126 E0.04463
G1 X195.006 Y174.255 E0.04463
G1 X194.639 Y175.37 E0.04463
G1 X194.23 Y176.471 E0.04463
G1 X193.781 Y177.556 E0.04463
G1 X193.291 Y178.623 E0.04463
G1 X192.762 Y179.672 E0.04463
G1 X192.194 Y180.699 E0.04463
G1 X191.588 Y181.705 E0.04463
G1 X190.945 Y182.688 E0.04463
G1 X190.265 Y183.645 E0.04463
G1 X189.55 Y184.577 E0.04463
G1 X188.801 Y185.481 E0.04463
G1 X188.019 Y186.357 E0.04463
G1 X187.204 Y187.202 E0.04463
G1 X186.358 Y188.017 E0.04463
G1 X185.483 Y188.8 E0.04463
G1 X184.578 Y189.549 E0.04463
G1 X183.647 Y190.264 E0.04463
G1 X182.689 Y190.943 E0.04463
G1 X181.707 Y191.586 E0.04463
G1 X180.701 Y192.193 E0.04463
G1 X179.673 Y192.761 E0.04463
G1 X178.625 Y193.29 E0.04463
G1 X177.557 Y193.779 E0.04463
G1 X176.473 Y194.229 E0.04463
G1 X175.372 Y194.637 E0.04463
G1 X174.256 Y195.004 E0.04463
G1 X173.128 Y195.329 E0.04463
G1 X172.567 Y195.468 E0.02196
G1 X171.988 Y195.612 E0.02267
G1 X170.838 Y195.852 E0.04463
G1 X169.681 Y196.049 E0.04463
G1 X168.517 Y196.202 E0.04463
G1 X167.347 Y196.312 E0.04463
G1 X166.175 Y196.377 E0.04463
G1 X165.001 Y196.399 E0.04463
G1 X163.827 Y196.377 E0.04463
G1 X162.654 Y196.312 E0.04463
G1 X161.485 Y196.202 E0.04463
G1 X160.321 Y196.049 E0.04463
G1 X159.39 Y195.89 E0.0359
G1 X158.014 Y195.612 E0.05335
G1 X156.874 Y195.329 E0.04463
G1 X155.746 Y195.004 E0.04463
G1 X155.003 Y194.76 E0.0297
G1 X153.528 Y194.228 E0.05959
G1 X152.444 Y193.779 E0.04459
G1 X151.377 Y193.29 E0.04463
G1 X150.329 Y192.761 E0.04463
G1 X149.301 Y192.193 E0.04463
G1 X148.295 Y191.586 E0.04463
G1 X147.313 Y190.943 E0.04463
G1 X146.355 Y190.264 E0.04463
G1 X145.423 Y189.549 E0.04463
G1 X144.519 Y188.8 E0.04463
G1 X143.643 Y188.017 E0.04463
G1 X142.798 Y187.202 E0.04463
G1 X141.983 Y186.357 E0.04463
G1 X141.201 Y185.481 E0.04463
G1 X140.451 Y184.577 E0.04463
G1 X139.737 Y183.645 E0.04463
G1 X139.057 Y182.688 E0.04463
G1 X138.414 Y181.705 E0.04463
G1 X137.808 Y180.699 E0.04463
G1 X137.24 Y179.672 E0.04463
G1 X136.71 Y178.623 E0.04463
G1 X136.221 Y177.556 E0.04463
G1 X135.771 Y176.471 E0.04463
G1 X135.363 Y175.37 E0.04463
G1 X135.119 Y174.628 E0.0297
G1 X134.671 Y173.125 E0.05959
G1 X134.388 Y171.987 E0.04459
G1 X134.148 Y170.837 E0.04463
G1 X133.952 Y169.679 E0.04463
G1 X133.798 Y168.515 E0.04463
G1 X133.689 Y167.346 E0.04463
G1 X133.623 Y166.173 E0.04463
G1 X133.601 Y164.999 E0.04463
G1 X133.623 Y163.825 E0.04463
G1 X133.689 Y162.653 E0.04463
G1 X133.798 Y161.484 E0.04463
G1 X133.952 Y160.319 E0.04463
G1 X134.148 Y159.162 E0.04463
G1 X134.388 Y158.012 E0.04463
G1 X134.671 Y156.872 E0.04463
G1 X134.996 Y155.744 E0.04463
G1 X135.363 Y154.629 E0.04463
G1 X135.771 Y153.528 E0.04463
G1 X136.221 Y152.443 E0.04463
G1 X136.71 Y151.375 E0.04463
G1 X137.24 Y150.327 E0.04463
G1 X137.808 Y149.299 E0.04463
G1 X138.414 Y148.294 E0.04463
G1 X139.057 Y147.311 E0.04463
G1 X139.737 Y146.353 E0.04463
G1 X140.451 Y145.422 E0.04463
G1 X141.201 Y144.518 E0.04463
G1 X141.983 Y143.642 E0.04463
G1 X142.798 Y142.796 E0.04463
G1 X143.643 Y141.982 E0.04463
;WIPE_START
M204 S3000
G1 X144.025 Y142.102 F9000
;WIPE_END
M204 S1000
G1 X189.374 Y145.385
;TYPE:Solid infill
;WIDTH:0.498253
G1 F1800
G1 X184.615 Y140.626 E0.25488
G1 X182.235 Y138.893 F9000
G1 F1800
G1 X191.224 Y147.882 E0.48148
G1 X192.152 Y149.456 F9000
G1 F1800
G1 X180.455 Y137.759 E0.62653
G1 X179.149 Y137.1 F9000
G1 F1800
G1 X192.951 Y150.901 E0.73923
G1 X193.555 Y152.152 F9000
G1 F1800
G1 X177.844 Y136.441 E0.84153
G1 X176.749 Y135.993 F9000
G1 F1800
G1 X194.056 Y153.299 E0.92695
G1 X194.437 Y154.327 F9000
G1 F1800
G1 X175.722 Y135.611 E1.00244
G1 X174.694 Y135.23 F9000
G1 F1800
G1 X194.785 Y155.321 E1.07612
G1 X195.058 Y156.241 F9000
G1 F1800
G1 X173.746 Y134.929 E1.1415
G1 X172.863 Y134.692 F9000
G1 F1800
G1 X195.272 Y157.1 E1.20022
G1 X195.485 Y157.96 F9000
G1 F1800
G1 X171.98 Y134.456 E1.25893
G1 X171.201 Y134.322 F9000
G1 F1800
G1 X195.698 Y158.82 E1.3121
G1 X195.843 Y159.612 F9000
G1 F1800
G1 X170.422 Y134.19 E1.36161
G1 X169.643 Y134.058 F9000
G1 F1800
G1 X195.941 Y160.356 E1.40856
G1 X196.039 Y161.1 F9000
G1 F1800
G1 X168.865 Y133.926 E1.45552
M73 P1 R47
G1 X168.129 Y133.837 F9000
G1 F1800
G1 X196.137 Y161.845 E1.50016
G1 X196.235 Y162.589 F9000
G1 F1800
G1 X167.43 Y133.784 E1.54283
G1 X166.732 Y133.732 F9000
G1 F1800
G1 X196.256 Y163.256 E1.58135
G1 X196.268 Y163.915 F9000
G1 F1800
G1 X166.046 Y133.692 E1.61874
G1 X165.411 Y133.704 F9000
G1 F1800
G1 X196.28 Y164.573 E1.65339
G1 X196.293 Y165.232 F9000
G1 F1800
G1 X164.777 Y133.716 E1.68804
G1 X164.142 Y133.728 F9000
G1 F1800
G1 X196.305 Y165.891 E1.72268
G1 X196.284 Y166.517 F9000
G1 F1800
G1 X163.508 Y133.74 E1.75557
G1 X162.873 Y133.752 F9000
G1 F1800
G1 X196.239 Y167.118 E1.78714
G1 X196.194 Y167.719 F9000
G1 F1800
G1 X162.281 Y133.806 E1.81646
G1 X161.709 Y133.881 F9000
G1 F1800
G1 X196.149 Y168.321 E1.84464
G1 X196.07 Y168.888 F9000
G1 F1800
G1 X161.138 Y133.956 E1.87102
G1 X160.567 Y134.031 F9000
G1 F1800
G1 X195.977 Y169.441 E1.89658
G1 X195.883 Y169.993 F9000
G1 F1800
G1 X159.996 Y134.106 E1.92215
G1 X159.425 Y134.182 F9000
G1 F1800
G1 X195.789 Y170.546 E1.94772
G1 X195.695 Y171.098 F9000
G1 F1800
G1 X158.879 Y134.282 E1.97193
G1 X158.352 Y134.402 F9000
G1 F1800
G1 X195.601 Y171.651 E1.99509
G1 X195.489 Y172.186 F9000
G1 F1800
G1 X157.826 Y134.522 E2.01729
M73 P2 R46
G1 X157.3 Y134.642 F9000
G1 F1800
G1 X195.353 Y172.695 E2.03816
G1 X195.216 Y173.205 F9000
G1 F1800
G1 X156.783 Y134.772 E2.05855
G1 X156.296 Y134.932 F9000
G1 F1800
G1 X195.079 Y173.715 E2.07728
G1 X194.943 Y174.225 F9000
G1 F1800
G1 X155.81 Y135.092 E2.09602
G1 X155.323 Y135.252 F9000
G1 F1800
G1 X194.769 Y174.697 E2.11273
G1 X194.594 Y175.168 F9000
G1 F1800
G1 X154.837 Y135.412 E2.12941
M73 P3 R46
G1 X154.351 Y135.572 F9000
G1 F1800
G1 X194.419 Y175.64 E2.1461
G1 X194.244 Y176.111 F9000
G1 F1800
G1 X153.864 Y135.732 E2.16278
G1 X153.391 Y135.905 F9000
G1 F1800
G1 X194.069 Y176.583 E2.17875
G1 X193.894 Y177.054 F9000
G1 F1800
G1 X152.941 Y136.101 E2.19349
G1 X152.491 Y136.298 F9000
G1 F1800
G1 X193.719 Y177.526 E2.20822
G1 X193.502 Y177.956 F9000
G1 F1800
G1 X152.041 Y136.494 E2.22073
G1 X151.591 Y136.69 F9000
G1 F1800
G1 X193.286 Y178.385 E2.23322
G1 X193.069 Y178.815 F9000
G1 F1800
G1 X151.161 Y136.907 E2.24464
G1 X150.744 Y137.137 F9000
G1 F1800
G1 X192.852 Y179.244 E2.25532
M73 P3 R46
G1 X192.635 Y179.674 F9000
G1 F1800
G1 X150.328 Y137.367 E2.26601
G1 X149.912 Y137.597 F9000
G1 F1800
G1 X192.418 Y180.103 E2.27669
G1 X192.201 Y180.533 F9000
G1 F1800
G1 X149.496 Y137.827 E2.28737
G1 X149.079 Y138.057 F9000
G1 F1800
G1 X191.957 Y180.935 E2.29662
G1 X191.702 Y181.326 F9000
G1 F1800
G1 X148.663 Y138.287 E2.30521
G1 X148.253 Y138.524 F9000
G1 F1800
G1 X191.446 Y181.717 E2.31347
G1 X191.19 Y182.107 F9000
G1 F1800
G1 X147.869 Y138.786 E2.32035
G1 X147.484 Y139.048 F9000
G1 F1800
G1 X190.934 Y182.498 E2.32724
G1 X190.679 Y182.889 F9000
G1 F1800
G1 X147.1 Y139.31 E2.33413
G1 X146.716 Y139.572 F9000
G1 F1800
G1 X190.423 Y183.279 E2.34102
G1 X190.161 Y183.664 F9000
G1 F1800
G1 X146.336 Y139.839 E2.34729
G1 X145.983 Y140.132 F9000
G1 F1800
G1 X189.868 Y184.017 E2.35054
G1 X189.575 Y184.371 F9000
G1 F1800
G1 X145.629 Y140.425 E2.35379
M73 P4 R45
G1 X145.276 Y140.718 F9000
G1 F1800
G1 X189.282 Y184.724 E2.35703
G1 X188.989 Y185.078 F9000
G1 F1800
G1 X144.922 Y141.011 E2.36028
G1 X144.569 Y141.304 F9000
G1 F1800
G1 X188.696 Y185.431 E2.36353
G1 X188.403 Y185.785 F9000
G1 F1800
G1 X144.215 Y141.597 E2.36677
G1 X143.862 Y141.89 F9000
G1 F1800
G1 X188.111 Y186.138 E2.37002
G1 X187.802 Y186.476 F9000
G1 F1800
G1 X143.527 Y142.201 E2.37143
G1 X143.21 Y142.53 F9000
G1 F1800
G1 X187.479 Y186.799 E2.37111
M73 P5 R45
G1 X187.156 Y187.123 F9000
G1 F1800
G1 X142.893 Y142.86 E2.37078
G1 X142.576 Y143.189 F9000
G1 F1800
G1 X186.833 Y187.446 E2.37046
G1 X186.509 Y187.769 F9000
G1 F1800
G1 X142.258 Y143.518 E2.37014
G1 X141.941 Y143.847 F9000
G1 F1800
G1 X186.177 Y188.083 E2.36931
G1 X185.829 Y188.382 F9000
G1 F1800
G1 X141.624 Y144.177 E2.36769
G1 X141.307 Y144.506 F9000
G1 F1800
G1 X185.482 Y188.681 E2.36607
G1 X185.134 Y188.98 F9000
G1 F1800
G1 X141.02 Y144.865 E2.36283
M73 P5 R45
G1 X140.739 Y145.231 F9000
G1 F1800
G1 X184.787 Y189.279 E2.35925
G1 X184.431 Y189.569 F9000
G1 F1800
G1 X140.459 Y145.597 E2.35522
G1 X140.178 Y145.963 F9000
G1 F1800
G1 X184.053 Y189.838 E2.35
G1 X183.675 Y190.106 F9000
G1 F1800
G1 X139.897 Y146.328 E2.34478
G1 X139.617 Y146.694 F9000
G1 F1800
G1 X183.297 Y190.374 E2.33956
G1 X182.919 Y190.642 F9000
G1 F1800
G1 X139.336 Y147.06 E2.33433
G1 X139.062 Y147.432 F9000
G1 F1800
