; generated by SuperSlicer 2.3.57 on 2022-04-13 at 01:47:49 UTC


;
;

;
;
; 

; external perimeters extrusion width = 0.20mm
; perimeters extrusion width = 0.23mm
; infill extrusion width = 0.36mm
; solid infill extrusion width = 0.28mm
; top infill extrusion width = 0.20mm
; support material extrusion width = 0.21mm
; first layer extrusion width = 0.24mm

; external perimeters extrusion width = 0.20mm
; perimeters extrusion width = 0.23mm
; infill extrusion width = 0.36mm
; solid infill extrusion width = 0.28mm
; top infill extrusion width = 0.20mm
; support material extrusion width = 0.21mm
; first layer extrusion width = 0.24mm

; external perimeters extrusion width = 0.20mm
; perimeters extrusion width = 0.23mm
; infill extrusion width = 0.36mm
; solid infill extrusion width = 0.28mm
; top infill extrusion width = 0.20mm
; support material extrusion width = 0.21mm
; first layer extrusion width = 0.24mm

; object:{"name":"LogoBoard","id":"LogoBoard.STL id:0 copy 0","object_center":[152.500000,150.000000,0.000000],"boundingbox_center":[152.500000,150.000000,3.030534],"boundingbox_size":[35.644882,8.557648,6.061068]}
; plater:{"center":[152.500000,150.000000,0.000000],"boundingbox_center":[152.500000,150.000000,3.030534],"boundingbox_size":[35.644882,8.557648,6.061068]}

;TYPE:Custom
START_PRINT T_BED=60 T_EXTRUDER=200
M107
G21 ; set units to millimeters
G90 ; use absolute coordinates
M83 ; use relative distances for extrusion
; Filament gcode
M104 S200 ; set temperature
M109 S200 ; set temperature and wait for it to be reached
M190 S60 ; set bed temperature and wait for it to be reached
M107
;LAYER_CHANGE
;Z:0.1
;HEIGHT:0.1
G1 Z0.1 F9000
G1 E-0.6 F3000
G1 X132.655 Y143.259 F9000
G1 E0.6 F1800
; External perimeter
;Skirt
SET_VELOCITY_LIMIT ACCEL=300 ACCEL_TO_DECEL=3000 SQUARE_CORNER_VELOCITY=5

; Support material

;TYPE:Skirt
;WIDTH:0.24
G1 X132.328 Y143.569 E0.00409
G1 X132.049 Y143.916 E0.00405
G1 X131.817 Y144.302 E0.00409
G1 X131.639 Y144.716 E0.00409
G1 X131.518 Y145.15 E0.00409
G1 X131.451 Y145.745 E0.00544
G1 X131.35 Y152.527 E0.06163
G1 X131.405 Y153.374 E0.00771
G1 X131.517 Y153.916 E0.00503
G1 X131.692 Y154.379 E0.0045
G1 X131.936 Y154.815 E0.00454
G1 X132.24 Y155.207 E0.0045
G1 X132.602 Y155.551 E0.00454
G1 X133.007 Y155.836 E0.0045
G1 X133.455 Y156.058 E0.00454
G1 X133.93 Y156.211 E0.00454
G1 X134.419 Y156.291 E0.0045
G1 X169.535 Y157.505 E0.31924
G1 X170.496 Y157.495 E0.00874
G1 X171.164 Y157.371 E0.00617
G1 X171.587 Y157.214 E0.00409
G1 X171.984 Y157.002 E0.00409
G1 X172.349 Y156.739 E0.00409
G1 X172.675 Y156.428 E0.00409
G1 X172.956 Y156.076 E0.00409
G1 X173.19 Y155.686 E0.00413
G1 X173.366 Y155.271 E0.00409
G1 X173.485 Y154.837 E0.00409
G1 X173.55 Y154.201 E0.00581
G1 X173.544 Y145.61 E0.07806
G1 X173.445 Y144.992 E0.00568
G1 X173.233 Y144.404 E0.00568
G1 X172.915 Y143.865 E0.00568
G1 X172.501 Y143.396 E0.00568
G1 X172.007 Y143.012 E0.00568
G1 X171.45 Y142.728 E0.00568
G1 X170.85 Y142.553 E0.00568
G1 X170.227 Y142.493 E0.00568
G1 X134.765 Y142.493 E0.3222
G1 X134.293 Y142.529 E0.0043
G1 X133.836 Y142.629 E0.00426
G1 X133.418 Y142.784 E0.00405
G1 X133.02 Y142.995 E0.00409
G1 X132.679 Y143.241 E0.00382
G1 X132.806 Y143.418 F9000
G1 F1800
G1 X132.489 Y143.717 E0.00396
G1 X132.225 Y144.046 E0.00384
G1 X132.006 Y144.412 E0.00388
G1 X131.839 Y144.805 E0.00388
G1 X131.728 Y145.212 E0.00384
G1 X131.669 Y145.753 E0.00494
G1 X131.568 Y152.523 E0.06152
G1 X131.621 Y153.335 E0.00739
G1 X131.722 Y153.838 E0.00467
G1 X131.886 Y154.279 E0.00427
G1 X132.112 Y154.686 E0.00423
G1 X132.397 Y155.054 E0.00423
G1 X132.737 Y155.379 E0.00427
G1 X133.118 Y155.647 E0.00423
G1 X133.538 Y155.856 E0.00427
G1 X133.986 Y156 E0.00427
G1 X134.446 Y156.074 E0.00423
G1 X169.542 Y157.287 E0.31907
G1 X170.467 Y157.278 E0.0084
G1 X171.087 Y157.165 E0.00573
G1 X171.488 Y157.019 E0.00388
G1 X171.865 Y156.819 E0.00388
G1 X172.211 Y156.569 E0.00388
G1 X172.516 Y156.278 E0.00384
G1 X172.782 Y155.944 E0.00388
G1 X172.999 Y155.577 E0.00388
G1 X173.165 Y155.184 E0.00388
G1 X173.275 Y154.772 E0.00388
G1 X173.332 Y154.196 E0.00526
G1 X173.326 Y145.638 E0.07776
G1 X173.236 Y145.057 E0.00534
G1 X173.039 Y144.504 E0.00534
G1 X172.744 Y144.002 E0.0053
G1 X172.357 Y143.56 E0.00534
G1 X171.894 Y143.199 E0.00534
G1 X171.375 Y142.933 E0.0053
G1 X170.811 Y142.768 E0.00534
G1 X170.227 Y142.712 E0.00534
G1 X134.767 Y142.712 E0.32218
G1 X134.337 Y142.743 E0.00392
G1 X133.916 Y142.834 E0.00392
G1 X133.515 Y142.98 E0.00388
G1 X133.141 Y143.177 E0.00384
G1 X132.83 Y143.401 E0.00348
; INIT printing object LogoBoard.STL id:0 copy 0
G1 E-0.6 F3000
; printing object LogoBoard.STL id:0 copy 0
G1 X169.862 Y153.837 F9000
G1 E0.6 F1800
; External perimeter
;Perimeter
SET_VELOCITY_LIMIT ACCEL=2000 ACCEL_TO_DECEL=2000 SQUARE_CORNER_VELOCITY=5

; Overhang perimeter

;TYPE:Internal perimeter
G1 X169.527 Y153.652 E0.00348
G1 X168.957 Y153.568 E0.00524
G1 X168.295 Y153.36 E0.0063
G1 X167.97 Y153.298 E0.00301
G1 X167.712 Y153.29 E0.00235
G1 X167.479 Y153.322 E0.00213
G1 X167.09 Y153.43 E0.00367
G1 X167.012 Y153.43 E0.00071
G1 X166.939 Y153.398 E0.00073
G1 X166.555 Y153.163 E0.00408
G1 X166.331 Y153.071 E0.0022
G1 X166.075 Y153.011 E0.00239
G1 X165.106 Y152.951 E0.00882
G1 X164.753 Y152.862 E0.00331
G1 X164.108 Y152.621 E0.00626
G1 X163.359 Y152.227 E0.00768
G1 X162.903 Y152.091 E0.00432
G1 X162.194 Y151.899 E0.00668
G1 X161.622 Y151.777 E0.00531
G1 X161.032 Y151.744 E0.00537
G1 X160.225 Y151.808 E0.00736
G1 X159.054 Y151.983 E0.01076
G1 X157.924 Y151.951 E0.01027
G1 X156.831 Y151.852 E0.00997
G1 X156.53 Y151.86 E0.00273
G1 X156.288 Y151.906 E0.00224
G1 X155.809 Y152.095 E0.00468
G1 X155.684 Y152.105 E0.00114
G1 X154.663 Y151.888 E0.00948
G1 X154.036 Y151.815 E0.00573
G1 X153.542 Y151.83 E0.00449
G1 X153.114 Y151.905 E0.00395
G1 X152.713 Y152.04 E0.00384
G1 X152.127 Y152.348 E0.00602
G1 X152.041 Y152.367 E0.0008
G1 X151.813 Y152.34 E0.00209
G1 X151.496 Y152.233 E0.00304
G1 X150.826 Y151.948 E0.00661
G1 X150.233 Y151.785 E0.00559
G1 X149.446 Y151.686 E0.0072
G1 X148.67 Y151.666 E0.00706
G1 X148.29 Y151.698 E0.00346
G1 X147.954 Y151.786 E0.00316
G1 X147.483 Y151.947 E0.00452
G1 X146.763 Y152.127 E0.00674
G1 X146.331 Y152.218 E0.00401
G1 X146.128 Y152.229 E0.00185
G1 X145.918 Y152.205 E0.00192
G1 X145.72 Y152.148 E0.00187
G1 X144.949 Y151.826 E0.00759
G1 X144.619 Y151.758 E0.00306
G1 X144.022 Y151.739 E0.00543
G1 X142.375 Y151.74 E0.01496
G1 X141.886 Y151.806 E0.00449
G1 X141.51 Y151.885 E0.00349
G1 X141.138 Y151.838 E0.0034
G1 X140.001 Y151.814 E0.01034
G1 X139.671 Y151.827 E0.003
G1 X139.274 Y151.919 E0.00371
G1 X138.236 Y152.297 E0.01004
G1 X137.898 Y152.354 E0.00311
G1 X137.202 Y152.388 E0.00633
G1 X136.413 Y152.354 E0.00717
G1 X135.1 Y152.167 E0.01205
G1 X135.137 Y151.074 E0.00993
G1 X135.138 Y146.181 E0.04446
G1 X169.862 Y146.181 E0.3155
G1 X169.862 Y153.807 E0.06929
G1 X170.102 Y154.059 F9000
; External perimeter
;ExternalPerimeter
SET_VELOCITY_LIMIT ACCEL=1000 ACCEL_TO_DECEL=1000 SQUARE_CORNER_VELOCITY=5

; Perimeter

;TYPE:External perimeter
G1 F1800
G1 X169.694 Y154.059 E0.00371
G1 X169.644 Y153.991 E0.00077
G1 X169.449 Y153.883 E0.00203
G1 X168.903 Y153.803 E0.00501
G1 X168.237 Y153.593 E0.00635
G1 X167.944 Y153.537 E0.00271
G1 X167.725 Y153.531 E0.00199
G1 X167.528 Y153.558 E0.00181
G1 X167.123 Y153.67 E0.00382
G1 X167.049 Y153.68 E0.00068
G1 X166.962 Y153.67 E0.00079
G1 X166.828 Y153.612 E0.00133
G1 X166.446 Y153.378 E0.00406
G1 X166.257 Y153.3 E0.00185
G1 X166.04 Y153.249 E0.00203
G1 X165.069 Y153.189 E0.00884
G1 X164.681 Y153.091 E0.00363
G1 X164.009 Y152.84 E0.00652
G1 X163.268 Y152.45 E0.00761
G1 X162.838 Y152.322 E0.00408
G1 X162.138 Y152.132 E0.00659
G1 X161.59 Y152.015 E0.00508
G1 X161.035 Y151.984 E0.00505
G1 X160.252 Y152.047 E0.00714
G1 X159.068 Y152.223 E0.01087
G1 X157.91 Y152.191 E0.01053
G1 X156.823 Y152.092 E0.00992
G1 X156.556 Y152.099 E0.00243
G1 X156.355 Y152.137 E0.00186
G1 X155.864 Y152.331 E0.00479
G1 X155.669 Y152.348 E0.00178
G1 X155.516 Y152.327 E0.0014
G1 X155.227 Y152.249 E0.00273
G1 X154.624 Y152.125 E0.00559
G1 X154.026 Y152.055 E0.00547
G1 X153.566 Y152.069 E0.00418
G1 X153.173 Y152.138 E0.00362
G1 X152.808 Y152.262 E0.00351
G1 X152.21 Y152.575 E0.00613
G1 X152.054 Y152.61 E0.00146
G1 X151.76 Y152.575 E0.00269
G1 X151.411 Y152.457 E0.00335
G1 X150.747 Y152.175 E0.00655
G1 X150.186 Y152.021 E0.00529
G1 X149.428 Y151.925 E0.00694
G1 X148.677 Y151.906 E0.00683
G1 X148.331 Y151.936 E0.00315
G1 X148.023 Y152.016 E0.00289
G1 X147.551 Y152.177 E0.00453
G1 X146.817 Y152.36 E0.00687
G1 X146.363 Y152.457 E0.00422
G1 X146.12 Y152.47 E0.00221
G1 X145.871 Y152.441 E0.00228
G1 X145.64 Y152.375 E0.00218
G1 X144.878 Y152.056 E0.00751
G1 X144.591 Y151.998 E0.00266
G1 X144.018 Y151.979 E0.00521
G1 X142.392 Y151.98 E0.01478
G1 X141.927 Y152.043 E0.00426
G1 X141.607 Y152.121 E0.00299
G1 X141.52 Y152.128 E0.0008
G1 X141.121 Y152.078 E0.00365
G1 X140.003 Y152.054 E0.01016
G1 X139.703 Y152.066 E0.00272
G1 X139.342 Y152.149 E0.00337
G1 X138.297 Y152.53 E0.01011
G1 X137.923 Y152.593 E0.00344
G1 X137.203 Y152.628 E0.00655
G1 X136.391 Y152.594 E0.00738
G1 X135.196 Y152.423 E0.01097
G1 X135.085 Y152.495 E0.00121
G1 X134.995 Y152.511 E0.00083
G1 X134.877 Y152.573 E0.00121
G1 X134.808 Y152.666 E0.00105
G1 X134.803 Y152.606 E0.00016
G1 X134.798 Y152.531 E0.0003
G1 X134.864 Y152.051 E0.0044
G1 X134.897 Y151.07 E0.00891
G1 X134.898 Y145.941 E0.0466
G1 X134.958 Y145.941 E0.00049
G1 X135.078 Y145.941 E0.00103
G1 X170.102 Y145.941 E0.31823
G1 X170.102 Y146.001 E0.00049
G1 X170.102 Y146.121 E0.00103
G1 X170.102 Y154.029 E0.07185
;WIPE_START
G1 X169.929 Y153.959 F9000
;WIPE_END
G1 X169.29 Y146.312
; External perimeter
;SolidInfill
SET_VELOCITY_LIMIT ACCEL=2000 ACCEL_TO_DECEL=2000 SQUARE_CORNER_VELOCITY=5

; Bridge infill

;TYPE:Solid infill
;WIDTH:0.239632
G1 F2400
G1 X169.638 Y146.66 E0.00446
G1 X169.638 Y146.969 E0.0028
G1 X169.075 Y146.406 E0.00722
G1 X168.766 Y146.406 E0.0028
G1 X169.638 Y147.278 E0.01119
G1 X169.638 Y147.587 E0.0028
G1 X168.457 Y146.406 E0.01515
G1 X168.147 Y146.406 E0.0028
G1 X169.638 Y147.896 E0.01912
G1 X169.638 Y148.205 E0.0028
G1 X167.838 Y146.406 E0.02308
G1 X167.529 Y146.406 E0.0028
G1 X169.638 Y148.514 E0.02705
G1 X169.638 Y148.823 E0.0028
G1 X167.22 Y146.406 E0.03101
G1 X166.911 Y146.406 E0.0028
G1 X169.638 Y149.132 E0.03498
G1 X169.638 Y149.441 E0.0028
G1 X166.602 Y146.406 E0.03894
G1 X166.293 Y146.406 E0.0028
G1 X169.638 Y149.751 E0.04291
G1 X169.638 Y150.06 E0.0028
G1 X165.984 Y146.406 E0.04687
G1 X165.675 Y146.406 E0.0028
G1 X169.638 Y150.369 E0.05084
G1 X169.638 Y150.678 E0.0028
G1 X165.366 Y146.406 E0.0548
G1 X165.057 Y146.406 E0.0028
G1 X169.638 Y150.987 E0.05877
G1 X169.638 Y151.296 E0.0028
G1 X164.748 Y146.406 E0.06273
G1 X164.439 Y146.406 E0.0028
G1 X169.638 Y151.605 E0.0667
G1 X169.638 Y151.914 E0.0028
G1 X164.13 Y146.406 E0.07066
G1 X163.821 Y146.406 E0.0028
G1 X169.638 Y152.223 E0.07463
G1 X169.638 Y152.532 E0.0028
G1 X163.512 Y146.406 E0.07859
G1 X163.202 Y146.406 E0.0028
G1 X169.638 Y152.841 E0.08256
G1 X169.638 Y153.15 E0.0028
G1 X162.893 Y146.406 E0.08652
G1 X162.584 Y146.406 E0.0028
G1 X169.616 Y153.437 E0.09021
G1 X169.254 Y153.384 E0.00332
G1 X162.275 Y146.406 E0.08953
G1 X161.966 Y146.406 E0.0028
G1 X168.863 Y153.303 E0.08848
G1 X168.412 Y153.161 E0.00429
G1 X161.657 Y146.406 E0.08666
G1 X161.348 Y146.406 E0.0028
G1 X168.021 Y153.079 E0.08561
G1 X167.995 Y153.074 E0.00024
G1 X167.698 Y153.065 E0.00269
G1 X161.039 Y146.406 E0.08543
G1 X160.73 Y146.406 E0.0028
G1 X167.427 Y153.103 E0.08592
G1 X167.185 Y153.17 E0.00228
G1 X160.421 Y146.406 E0.08678
G1 X160.112 Y146.406 E0.0028
G1 X166.684 Y152.978 E0.08432
G1 X166.655 Y152.961 E0.0003
G1 X166.4 Y152.856 E0.0025
G1 X166.208 Y152.811 E0.00179
G1 X159.803 Y146.406 E0.08217
G1 X159.494 Y146.406 E0.0028
G1 X165.86 Y152.772 E0.08167
G1 X165.53 Y152.752 E0.00299
G1 X159.185 Y146.406 E0.08141
G1 X158.876 Y146.406 E0.0028
G1 X165.201 Y152.731 E0.08115
G1 X165.141 Y152.728 E0.00055
G1 X164.82 Y152.647 E0.003
G1 X164.8 Y152.639 E0.00019
G1 X158.567 Y146.406 E0.07997
G1 X158.258 Y146.406 E0.0028
G1 X164.307 Y152.455 E0.07761
G1 X164.2 Y152.415 E0.00104
G1 X163.689 Y152.146 E0.00524
G1 X157.948 Y146.406 E0.07365
G1 X157.639 Y146.406 E0.0028
G1 X163.169 Y151.935 E0.07094
G1 X162.965 Y151.874 E0.00193
G1 X162.737 Y151.813 E0.00214
G1 X157.33 Y146.406 E0.06937
G1 X157.021 Y146.406 E0.0028
G1 X162.314 Y151.698 E0.0679
G1 X162.247 Y151.68 E0.00063
G1 X161.916 Y151.609 E0.00307
G1 X156.712 Y146.406 E0.06676
G1 X156.403 Y146.406 E0.0028
G1 X161.544 Y151.547 E0.06596
G1 X161.217 Y151.529 E0.00297
G1 X156.094 Y146.406 E0.06572
G1 X155.785 Y146.406 E0.0028
G1 X160.907 Y151.528 E0.06571
G1 X160.621 Y151.551 E0.00261
G1 X155.476 Y146.406 E0.06601
G1 X155.167 Y146.406 E0.0028
G1 X160.335 Y151.574 E0.0663
G1 X160.199 Y151.585 E0.00123
G1 X160.057 Y151.606 E0.0013
G1 X154.858 Y146.406 E0.06671
G1 X154.549 Y146.406 E0.0028
G1 X159.789 Y151.646 E0.06722
G1 X159.52 Y151.686 E0.00247
G1 X154.24 Y146.406 E0.06774
G1 X153.931 Y146.406 E0.0028
G1 X159.251 Y151.726 E0.06825
G1 X159.04 Y151.757 E0.00193
G1 X158.971 Y151.756 E0.00063
G1 X153.622 Y146.406 E0.06863
G1 X153.313 Y146.406 E0.0028
G1 X158.653 Y151.747 E0.06852
G1 X158.335 Y151.738 E0.00288
G1 X153.003 Y146.406 E0.06841
G1 X152.694 Y146.406 E0.0028
G1 X158.017 Y151.729 E0.06829
G1 X157.938 Y151.727 E0.00072
G1 X157.683 Y151.704 E0.00232
G1 X152.385 Y146.406 E0.06797
G1 X152.076 Y146.406 E0.0028
G1 X157.343 Y151.673 E0.06757
G1 X157.003 Y151.642 E0.0031
G1 X151.767 Y146.406 E0.06717
G1 X151.458 Y146.406 E0.0028
G1 X156.683 Y151.631 E0.06703
G1 X156.506 Y151.636 E0.00161
G1 X156.399 Y151.656 E0.00099
G1 X151.149 Y146.406 E0.06735
G1 X150.84 Y146.406 E0.0028
G1 X156.152 Y151.718 E0.06815
G1 X155.93 Y151.805 E0.00216
G1 X150.531 Y146.406 E0.06927
G1 X150.222 Y146.406 E0.0028
G1 X155.693 Y151.878 E0.0702
G1 X155.301 Y151.794 E0.00364
G1 X149.913 Y146.406 E0.06912
G1 X149.604 Y146.406 E0.0028
G1 X154.908 Y151.71 E0.06805
G1 X154.7 Y151.665 E0.00193
G1 X154.535 Y151.646 E0.0015
G1 X149.295 Y146.406 E0.06723
G1 X148.986 Y146.406 E0.0028
G1 X154.185 Y151.606 E0.06671
G1 X154.046 Y151.589 E0.00127
G1 X153.865 Y151.595 E0.00164
G1 X148.677 Y146.406 E0.06657
G1 X148.368 Y146.406 E0.0028
G1 X153.566 Y151.604 E0.06669
G1 X153.519 Y151.606 E0.00043
G1 X153.297 Y151.645 E0.00204
G1 X148.059 Y146.406 E0.06721
G1 X147.749 Y146.406 E0.0028
G1 X153.037 Y151.694 E0.06784
G1 X152.806 Y151.772 E0.00221
G1 X147.44 Y146.406 E0.06884
G1 X147.131 Y146.406 E0.0028
G1 X152.581 Y151.856 E0.06992
G1 X152.378 Y151.962 E0.00208
G1 X146.822 Y146.406 E0.07128
G1 X146.513 Y146.406 E0.0028
G1 X152.175 Y152.068 E0.07264
G1 X152.039 Y152.14 E0.0014
G1 X151.924 Y152.126 E0.00104
G1 X146.204 Y146.406 E0.07339
G1 X145.895 Y146.406 E0.0028
G1 X151.464 Y151.975 E0.07145
G1 X150.926 Y151.746 E0.0053
G1 X145.586 Y146.406 E0.06851
G1 X145.277 Y146.406 E0.0028
G1 X150.494 Y151.624 E0.06694
G1 X150.277 Y151.564 E0.00205
G1 X150.104 Y151.542 E0.00158
G1 X144.968 Y146.406 E0.06589
G1 X144.659 Y146.406 E0.0028
G1 X149.75 Y151.497 E0.06532
G1 X149.463 Y151.461 E0.00262
G1 X149.403 Y151.46 E0.00054
G1 X144.35 Y146.406 E0.06483
G1 X144.041 Y146.406 E0.0028
G1 X149.086 Y151.451 E0.06473
G1 X148.769 Y151.443 E0.00288
G1 X143.732 Y146.406 E0.06463
G1 X143.423 Y146.406 E0.0028
G1 X148.473 Y151.457 E0.0648
G1 X148.252 Y151.476 E0.00202
G1 X148.197 Y151.49 E0.00051
G1 X143.114 Y146.406 E0.06522
G1 X142.804 Y146.406 E0.0028
G1 X147.952 Y151.554 E0.06604
G1 X147.889 Y151.57 E0.00059
G1 X147.718 Y151.629 E0.00164
G1 X142.495 Y146.406 E0.067
G1 X142.186 Y146.406 E0.0028
G1 X147.488 Y151.707 E0.06801
G1 X147.419 Y151.731 E0.00066
G1 X147.246 Y151.774 E0.00162
G1 X141.877 Y146.406 E0.06887
G1 X141.568 Y146.406 E0.0028
G1 X146.998 Y151.836 E0.06966
G1 X146.751 Y151.898 E0.00231
G1 X141.259 Y146.406 E0.07046
G1 X140.95 Y146.406 E0.0028
G1 X146.497 Y151.953 E0.07117
G1 X146.302 Y151.994 E0.00181
G1 X146.233 Y151.998 E0.00063
G1 X140.641 Y146.406 E0.07174
G1 X140.332 Y146.406 E0.0028
