; generated by SuperSlicer 2.4 on 2022-11-05 at 20:36:11 UTC


;
;

;
;
; 

; external perimeters extrusion width = 0.15mm
; perimeters extrusion width = 0.17mm
; infill extrusion width = 0.24mm
; solid infill extrusion width = 0.21mm
; top infill extrusion width = 0.15mm
; support material extrusion width = 0.17mm
; first layer extrusion width = 0.19mm

; external perimeters extrusion width = 0.15mm
; perimeters extrusion width = 0.17mm
; infill extrusion width = 0.24mm
; solid infill extrusion width = 0.21mm
; top infill extrusion width = 0.15mm
; support material extrusion width = 0.17mm
; first layer extrusion width = 0.19mm

; external perimeters extrusion width = 0.15mm
; perimeters extrusion width = 0.17mm
; infill extrusion width = 0.24mm
; solid infill extrusion width = 0.21mm
; top infill extrusion width = 0.15mm
; support material extrusion width = 0.17mm
; first layer extrusion width = 0.19mm

; external perimeters extrusion width = 0.15mm
; perimeters extrusion width = 0.17mm
; infill extrusion width = 0.24mm
; solid infill extrusion width = 0.21mm
; top infill extrusion width = 0.15mm
; support material extrusion width = 0.17mm
; first layer extrusion width = 0.19mm

; external perimeters extrusion width = 0.15mm
; perimeters extrusion width = 0.17mm
; infill extrusion width = 0.24mm
; solid infill extrusion width = 0.21mm
; top infill extrusion width = 0.15mm
; support material extrusion width = 0.17mm
; first layer extrusion width = 0.19mm

; external perimeters extrusion width = 0.15mm
; perimeters extrusion width = 0.17mm
; infill extrusion width = 0.24mm
; solid infill extrusion width = 0.21mm
; top infill extrusion width = 0.15mm
; support material extrusion width = 0.17mm
; first layer extrusion width = 0.19mm

; object:{"name":"LogoBoard","id":"LogoBoard id:0 copy 0","object_center":[152.500001,137.500000,0.000000],"boundingbox_center":[152.500001,137.500000,2.424775],"boundingbox_size":[28.520000,6.500001,4.849550]}
; object:{"name":"LogoBoard","id":"LogoBoard id:1 copy 0","object_center":[152.500001,150.000000,0.000000],"boundingbox_center":[152.500001,150.000000,2.424775],"boundingbox_size":[28.520000,6.500001,4.849550]}
; object:{"name":"LogoBoard","id":"LogoBoard id:2 copy 0","object_center":[152.500001,162.500000,0.000000],"boundingbox_center":[152.500001,162.500000,2.424775],"boundingbox_size":[28.520000,6.500001,4.849550]}
; plater:{"center":[152.500001,150.000000,0.000000],"boundingbox_center":[152.500001,150.000000,2.424775],"boundingbox_size":[28.520000,31.500001,4.849550]}

M73 P0 R47
M73 P0 R47
;TYPE:Custom
START_PRINT T_BED=60 T_EXTRUDER=200
M107
G21 ; set units to millimeters
G90 ; use absolute coordinates
M83 ; use relative distances for extrusion
; Filament gcode
;_TOOLCHANGE 0
M104 S200 ; set temperature
M109 S200 ; set temperature and wait for it to be reached
M190 S60 ; set bed temperature and wait for it to be reached
M107
;LAYER_CHANGE
;Z:0.1
;HEIGHT:0.1
G1 Z0.1 F9000
G92 E0
M73 P0 R47
G1 E-0.8 F3000
M204 S1000
G1 X136.615 Y131.583 F9000
G1 E0.8 F1800
;TYPE:Skirt
;WIDTH:0.195
G1 X135.505 Y132.739 E0.01133
G1 X135.08 Y134.284 E0.01133
G1 X134.98 Y139.261 E0.0352
G1 X134.98 Y164.327 E0.17723
G1 X135.02 Y164.988 E0.00468
G1 X135.484 Y166.437 E0.01076
G1 X136.626 Y167.561 E0.01133
G1 X138.166 Y168.005 E0.01133
G1 X166.66 Y168.91 E0.20157
G1 X168.44 Y168.382 E0.01313
G1 X169.526 Y167.203 E0.01133
G1 X169.92 Y165.65 E0.01133
G1 X169.92 Y134.35 E0.22131
G1 X169.392 Y132.57 E0.01313
G1 X168.213 Y131.484 E0.01133
G1 X166.66 Y131.09 E0.01133
G1 X138.34 Y131.09 E0.20024
G1 X136.615 Y131.583 E0.01268
G1 X136.749 Y131.717 F9000
G1 F1800
G1 X135.678 Y132.788 E0.01071
M73 P0 R47
G1 X135.254 Y134.288 E0.01102
G1 X135.154 Y139.265 E0.0352
G1 X135.153 Y164.327 E0.1772
G1 X135.193 Y164.975 E0.00459
G1 X135.589 Y166.273 E0.0096
G1 X136.677 Y167.389 E0.01102
G1 X138.171 Y167.832 E0.01102
G1 X166.66 Y168.737 E0.20153
G1 X168.273 Y168.282 E0.01185
G1 X169.353 Y167.158 E0.01102
G1 X169.747 Y165.65 E0.01102
G1 X169.747 Y134.35 E0.22131
G1 X169.292 Y132.737 E0.01185
G1 X168.168 Y131.657 E0.01102
G1 X166.66 Y131.263 E0.01102
G1 X138.34 Y131.263 E0.20024
G1 X136.78 Y131.686 E0.01143
G1 X136.749 Y131.717 E0.00031
G1 E-0.8 F3000
; printing object LogoBoard id:0 copy 0
G1 X166.234 Y140.111 F9000
G1 E0.8 F1800
;TYPE:Internal perimeter
;WIDTH:0.1875
G1 X165.695 Y140.036 E0.00368
G1 X165.171 Y139.879 E0.0037
G1 X164.873 Y139.825 E0.00205
G1 X164.487 Y139.843 E0.00261
G1 X164.146 Y139.923 E0.00237
G1 X163.63 Y139.667 E0.00389
G1 X163.381 Y139.611 E0.00173
G1 X162.606 Y139.566 E0.00525
G1 X162.343 Y139.503 E0.00183
G1 X161.842 Y139.325 E0.0036
G1 X161.241 Y139.025 E0.00455
G1 X160.855 Y138.915 E0.00272
G1 X159.824 Y138.674 E0.00716
G1 X159.325 Y138.648 E0.00338
G1 X158.666 Y138.698 E0.00447
G1 X157.736 Y138.829 E0.00636
G1 X156.849 Y138.806 E0.006
G1 X155.969 Y138.73 E0.00598
G1 X155.71 Y138.737 E0.00175
G1 X155.494 Y138.776 E0.00148
G1 X155.118 Y138.916 E0.00272
G1 X155.059 Y138.921 E0.0004
G1 X154.252 Y138.759 E0.00556
G1 X153.735 Y138.702 E0.00352
G1 X153.32 Y138.714 E0.00281
G1 X152.958 Y138.774 E0.00248
G1 X152.618 Y138.883 E0.00242
G1 X152.156 Y139.112 E0.00349
G1 X152.127 Y139.119 E0.00021
G1 X151.977 Y139.102 E0.00102
G1 X151.744 Y139.028 E0.00165
G1 X151.205 Y138.81 E0.00394
G1 X150.712 Y138.681 E0.00345
G1 X150.066 Y138.604 E0.0044
G1 X149.431 Y138.589 E0.0043
G1 X149.097 Y138.616 E0.00227
G1 X148.455 Y138.806 E0.00453
G1 X147.88 Y138.942 E0.00399
G1 X147.547 Y139.009 E0.0023
G1 X147.405 Y139.016 E0.00096
G1 X147.259 Y139 E0.00099
G1 X147.119 Y138.962 E0.00099
G1 X146.499 Y138.716 E0.00451
G1 X146.204 Y138.658 E0.00203
G1 X144.384 Y138.645 E0.01231
G1 X143.696 Y138.754 E0.00471
G1 X143.064 Y138.706 E0.00429
G1 X142.226 Y138.71 E0.00567
G1 X141.88 Y138.786 E0.0024
G1 X141.052 Y139.072 E0.00593
G1 X140.802 Y139.112 E0.00171
G1 X140.259 Y139.137 E0.00368
G1 X139.64 Y139.113 E0.00419
G1 X138.719 Y138.988 E0.00629
G1 X138.731 Y138.909 E0.00055
G1 X138.76 Y138.417 E0.00333
G1 X138.765 Y134.776 E0.02463
G1 X166.234 Y134.776 E0.18583
G1 X166.234 Y140.111 E0.03609
G1 X166.4 Y140.409 F9000
G1 F1800
G1 X166.118 Y140.262 E0.00215
G1 X165.659 Y140.198 E0.00313
G1 X165.132 Y140.041 E0.00372
G1 X164.862 Y139.992 E0.00186
G1 X164.51 Y140.008 E0.00238
G1 X164.125 Y140.098 E0.00267
G1 X163.574 Y139.825 E0.00416
G1 X163.358 Y139.776 E0.0015
G1 X162.582 Y139.731 E0.00526
G1 X162.296 Y139.662 E0.00199
G1 X161.777 Y139.478 E0.00372
G1 X161.181 Y139.18 E0.00451
G1 X160.813 Y139.076 E0.00259
G1 X159.801 Y138.839 E0.00703
G1 X159.327 Y138.814 E0.00321
G1 X158.684 Y138.863 E0.00436
G1 X157.745 Y138.996 E0.00641
G1 X156.839 Y138.972 E0.00613
G1 X155.964 Y138.896 E0.00595
G1 X155.727 Y138.902 E0.0016
G1 X155.539 Y138.936 E0.0013
G1 X155.155 Y139.079 E0.00277
G1 X155.049 Y139.088 E0.00072
G1 X154.227 Y138.923 E0.00567
G1 X153.728 Y138.868 E0.00339
G1 X153.336 Y138.88 E0.00265
G1 X152.998 Y138.936 E0.00232
G1 X152.681 Y139.038 E0.00225
G1 X152.211 Y139.271 E0.00354
G1 X152.135 Y139.287 E0.00053
G1 X151.942 Y139.265 E0.00131
G1 X151.688 Y139.184 E0.0018
G1 X151.153 Y138.968 E0.00391
G1 X150.681 Y138.845 E0.0033
G1 X150.055 Y138.77 E0.00427
G1 X149.436 Y138.755 E0.00419
G1 X149.128 Y138.78 E0.00209
G1 X148.498 Y138.966 E0.00445
G1 X147.916 Y139.104 E0.00404
G1 X147.568 Y139.174 E0.0024
G1 X147.401 Y139.183 E0.00113
G1 X147.228 Y139.164 E0.00117
G1 X147.066 Y139.12 E0.00114
G1 X146.452 Y138.876 E0.00447
G1 X146.187 Y138.824 E0.00182
G1 X144.397 Y138.811 E0.01211
G1 X143.703 Y138.921 E0.00475
G1 X143.41 Y138.886 E0.002
G1 X143.058 Y138.872 E0.00238
G1 X142.245 Y138.876 E0.0055
G1 X141.925 Y138.946 E0.00221
G1 X141.093 Y139.234 E0.00596
G1 X140.819 Y139.277 E0.00187
G1 X140.26 Y139.303 E0.00379
G1 X139.626 Y139.278 E0.00429
G1 X138.531 Y139.131 E0.00747
G1 X138.565 Y138.892 E0.00163
G1 X138.594 Y138.412 E0.00325
G1 X138.599 Y134.61 E0.02572
G1 X166.4 Y134.61 E0.18807
G1 X166.4 Y140.409 E0.03923
G1 X166.566 Y140.556 F9000
;TYPE:External perimeter
G1 F1800
G1 X166.263 Y140.556 E0.00205
G1 X166.238 Y140.511 E0.00035
G1 X166.067 Y140.423 E0.0013
G1 X165.624 Y140.361 E0.00303
G1 X165.093 Y140.203 E0.00375
G1 X164.851 Y140.159 E0.00167
G1 X164.533 Y140.174 E0.00215
G1 X164.133 Y140.267 E0.00278
G1 X164.08 Y140.261 E0.00036
G1 X163.519 Y139.982 E0.00424
G1 X163.335 Y139.941 E0.00127
G1 X162.558 Y139.896 E0.00527
G1 X162.249 Y139.822 E0.00215
G1 X161.712 Y139.631 E0.00385
G1 X161.12 Y139.336 E0.00447
G1 X160.772 Y139.236 E0.00245
G1 X159.777 Y139.004 E0.00691
G1 X159.329 Y138.981 E0.00304
G1 X158.702 Y139.028 E0.00425
G1 X157.755 Y139.162 E0.00647
G1 X156.83 Y139.138 E0.00626
G1 X155.958 Y139.062 E0.00592
G1 X155.744 Y139.068 E0.00145
G1 X155.583 Y139.097 E0.00111
G1 X155.191 Y139.243 E0.00282
G1 X155.039 Y139.256 E0.00103
G1 X154.201 Y139.087 E0.00578
G1 X153.721 Y139.034 E0.00327
G1 X153.352 Y139.045 E0.0025
G1 X153.037 Y139.098 E0.00216
G1 X152.743 Y139.192 E0.00209
G1 X152.266 Y139.429 E0.0036
G1 X152.143 Y139.455 E0.00085
G1 X151.907 Y139.429 E0.0016
G1 X151.632 Y139.34 E0.00196
G1 X151.1 Y139.126 E0.00388
G1 X150.65 Y139.008 E0.00315
G1 X150.043 Y138.936 E0.00414
G1 X149.441 Y138.921 E0.00407
G1 X149.158 Y138.944 E0.00192
G1 X148.54 Y139.127 E0.00436
G1 X147.951 Y139.266 E0.0041
G1 X147.589 Y139.339 E0.0025
G1 X147.396 Y139.349 E0.00131
G1 X147.197 Y139.328 E0.00135
G1 X147.013 Y139.277 E0.00129
G1 X146.405 Y139.036 E0.00443
G1 X146.17 Y138.99 E0.00161
G1 X144.409 Y138.977 E0.01191
G1 X143.706 Y139.088 E0.00482
G1 X143.397 Y139.052 E0.00211
G1 X143.056 Y139.038 E0.00231
G1 X142.263 Y139.042 E0.00536
G1 X141.97 Y139.106 E0.00203
G1 X141.133 Y139.396 E0.00599
G1 X140.836 Y139.443 E0.00203
G1 X140.26 Y139.469 E0.0039
G1 X139.611 Y139.444 E0.00439
G1 X138.566 Y139.303 E0.00713
G1 X138.348 Y139.511 E0.00204
G1 X138.334 Y139.33 E0.00122
G1 X138.4 Y138.875 E0.00311
G1 X138.428 Y138.407 E0.00317
G1 X138.434 Y134.444 E0.02681
G1 X166.566 Y134.444 E0.19032
G1 X166.566 Y140.556 E0.04135
;WIPE_START
M204 S3000
G1 X166.436 Y140.481 F9000
;WIPE_END
G1 E-0.8 F3000
M204 S1000
G1 X165.874 Y134.801 F9000
G1 E0.8 F1800
;TYPE:Solid infill
;WIDTH:0.191555
G1 F2400
G1 X166.138 Y135.065 E0.00258
G1 X166.138 Y135.3 E0.00162
G1 X165.71 Y134.872 E0.00418
G1 X165.475 Y134.872 E0.00162
G1 X166.138 Y135.535 E0.00648
G1 X166.138 Y135.769 E0.00162
G1 X165.241 Y134.872 E0.00877
G1 X165.006 Y134.872 E0.00162
G1 X166.138 Y136.004 E0.01107
G1 X166.138 Y136.239 E0.00162
G1 X164.771 Y134.872 E0.01336
G1 X164.536 Y134.872 E0.00162
G1 X166.138 Y136.474 E0.01566
G1 X166.138 Y136.709 E0.00162
G1 X164.301 Y134.872 E0.01795
G1 X164.066 Y134.872 E0.00162
G1 X166.138 Y136.944 E0.02025
G1 X166.138 Y137.178 E0.00162
G1 X163.832 Y134.872 E0.02254
G1 X163.597 Y134.872 E0.00162
G1 X166.138 Y137.413 E0.02484
G1 X166.138 Y137.648 E0.00162
G1 X163.362 Y134.872 E0.02713
G1 X163.127 Y134.872 E0.00162
G1 X166.138 Y137.883 E0.02943
G1 X166.138 Y138.118 E0.00162
G1 X162.892 Y134.872 E0.03172
G1 X162.658 Y134.872 E0.00162
G1 X166.138 Y138.352 E0.03402
G1 X166.138 Y138.587 E0.00162
G1 X162.423 Y134.872 E0.03631
G1 X162.188 Y134.872 E0.00162
G1 X166.138 Y138.822 E0.03861
G1 X166.138 Y139.057 E0.00162
G1 X161.953 Y134.872 E0.0409
G1 X161.718 Y134.872 E0.00162
G1 X166.138 Y139.292 E0.0432
G1 X166.138 Y139.526 E0.00162
G1 X161.484 Y134.872 E0.04549
G1 X161.249 Y134.872 E0.00162
G1 X166.138 Y139.761 E0.04779
G1 X166.138 Y139.992 E0.0016
G1 X166.133 Y139.991 E0.00004
G1 X161.014 Y134.872 E0.05003
G1 X160.779 Y134.872 E0.00162
G1 X165.836 Y139.929 E0.04942
G1 X165.539 Y139.866 E0.0021
G1 X160.544 Y134.872 E0.04882
G1 X160.309 Y134.872 E0.00162
G1 X165.242 Y139.804 E0.04821
M73 P1 R47
G1 X164.944 Y139.742 E0.0021
G1 X160.075 Y134.872 E0.0476
G1 X159.84 Y134.872 E0.00162
G1 X164.717 Y139.749 E0.04767
G1 X164.51 Y139.777 E0.00144
G1 X159.605 Y134.872 E0.04794
G1 X159.37 Y134.872 E0.00162
G1 X164.303 Y139.805 E0.04821
G1 X164.162 Y139.823 E0.00098
G1 X164.013 Y139.749 E0.00115
G1 X159.135 Y134.872 E0.04767
G1 X158.901 Y134.872 E0.00162
G1 X163.594 Y139.565 E0.04587
G1 X163.325 Y139.531 E0.00188
G1 X158.666 Y134.872 E0.04554
G1 X158.431 Y134.872 E0.00162
G1 X163.055 Y139.497 E0.0452
G1 X162.786 Y139.462 E0.00188
G1 X158.196 Y134.872 E0.04486
G1 X157.961 Y134.872 E0.00162
G1 X162.517 Y139.428 E0.04453
G1 X162.367 Y139.409 E0.00104
G1 X162.195 Y139.341 E0.00128
G1 X157.726 Y134.872 E0.04368
G1 X157.492 Y134.872 E0.00162
G1 X161.807 Y139.188 E0.04218
G1 X161.419 Y139.034 E0.00288
G1 X157.257 Y134.872 E0.04068
G1 X157.022 Y134.872 E0.00162
G1 X161.031 Y138.881 E0.03918
G1 X160.883 Y138.823 E0.0011
G1 X160.693 Y138.778 E0.00135
G1 X156.787 Y134.872 E0.03818
G1 X156.552 Y134.872 E0.00162
G1 X160.387 Y138.707 E0.03748
G1 X160.081 Y138.635 E0.00217
G1 X156.318 Y134.872 E0.03678
G1 X156.083 Y134.872 E0.00162
G1 X159.786 Y138.576 E0.0362
G1 X159.539 Y138.563 E0.00172
G1 X155.848 Y134.872 E0.03607
G1 X155.613 Y134.872 E0.00162
G1 X159.295 Y138.554 E0.03599
G1 X159.085 Y138.578 E0.00147
G1 X155.378 Y134.872 E0.03623
G1 X155.144 Y134.872 E0.00162
G1 X158.874 Y138.602 E0.03646
G1 X158.663 Y138.627 E0.00147
G1 X154.909 Y134.872 E0.0367
G1 X154.674 Y134.872 E0.00162
G1 X158.452 Y138.651 E0.03693
G1 X158.242 Y138.675 E0.00147
G1 X154.439 Y134.872 E0.03717
G1 X154.204 Y134.872 E0.00162
G1 X158.031 Y138.699 E0.0374
G1 X157.82 Y138.723 E0.00147
G1 X153.969 Y134.872 E0.03764
G1 X153.735 Y134.872 E0.00162
G1 X157.589 Y138.726 E0.03767
G1 X157.343 Y138.715 E0.0017
G1 X153.5 Y134.872 E0.03756
G1 X153.265 Y134.872 E0.00162
G1 X157.097 Y138.704 E0.03745
G1 X156.85 Y138.692 E0.0017
G1 X153.03 Y134.872 E0.03734
G1 X152.795 Y134.872 E0.00162
G1 X156.604 Y138.681 E0.03723
G1 X156.358 Y138.67 E0.0017
G1 X152.561 Y134.872 E0.03712
G1 X152.326 Y134.872 E0.00162
G1 X156.112 Y138.659 E0.03701
G1 X155.866 Y138.647 E0.0017
G1 X152.091 Y134.872 E0.0369
G1 X151.856 Y134.872 E0.00162
G1 X155.64 Y138.656 E0.03699
G1 X155.457 Y138.708 E0.00131
G1 X151.621 Y134.872 E0.03749
G1 X151.386 Y134.872 E0.00162
G1 X155.274 Y138.76 E0.038
G1 X155.091 Y138.811 E0.00131
G1 X151.152 Y134.872 E0.0385
G1 X150.917 Y134.872 E0.00162
G1 X154.819 Y138.774 E0.03814
G1 X154.525 Y138.715 E0.00207
G1 X150.682 Y134.872 E0.03757
G1 X150.447 Y134.872 E0.00162
G1 X154.237 Y138.662 E0.03704
G1 X153.99 Y138.65 E0.00171
G1 X150.212 Y134.872 E0.03692
G1 X149.978 Y134.872 E0.00162
G1 X153.743 Y138.638 E0.03681
G1 X153.497 Y138.626 E0.00171
G1 X149.743 Y134.872 E0.03669
G1 X149.508 Y134.872 E0.00162
G1 X153.264 Y138.628 E0.03671
G1 X153.075 Y138.674 E0.00134
G1 X149.273 Y134.872 E0.03716
G1 X149.038 Y134.872 E0.00162
G1 X152.886 Y138.72 E0.03761
G1 X152.697 Y138.765 E0.00134
G1 X148.804 Y134.872 E0.03805
G1 X148.569 Y134.872 E0.00162
G1 X152.52 Y138.823 E0.03862
G1 X152.361 Y138.9 E0.00122
G1 X148.334 Y134.872 E0.03936
G1 X148.099 Y134.872 E0.00162
G1 X152.203 Y138.976 E0.04011
G1 X152.119 Y139.016 E0.00064
G1 X151.958 Y138.966 E0.00116
G1 X147.864 Y134.872 E0.04001
G1 X147.629 Y134.872 E0.00162
G1 X151.618 Y138.861 E0.03899
G1 X151.278 Y138.756 E0.00246
G1 X147.395 Y134.872 E0.03796
G1 X147.16 Y134.872 E0.00162
G1 X150.938 Y138.65 E0.03693
M73 P1 R47
G1 X150.73 Y138.586 E0.00151
G1 X150.632 Y138.579 E0.00068
G1 X146.925 Y134.872 E0.03623
G1 X146.69 Y134.872 E0.00162
G1 X150.379 Y138.561 E0.03605
G1 X150.126 Y138.542 E0.00175
G1 X146.455 Y134.872 E0.03587
G1 X146.221 Y134.872 E0.00162
G1 X149.872 Y138.524 E0.03569
G1 X149.619 Y138.506 E0.00175
G1 X145.986 Y134.872 E0.03552
G1 X145.751 Y134.872 E0.00162
G1 X149.38 Y138.501 E0.03547
G1 X149.186 Y138.542 E0.00137
G1 X145.516 Y134.872 E0.03587
G1 X145.281 Y134.872 E0.00162
G1 X148.992 Y138.583 E0.03627
G1 X148.798 Y138.624 E0.00137
G1 X145.046 Y134.872 E0.03667
G1 X144.812 Y134.872 E0.00162
G1 X148.604 Y138.665 E0.03707
G1 X148.41 Y138.706 E0.00137
G1 X144.577 Y134.872 E0.03747
G1 X144.342 Y134.872 E0.00162
G1 X148.217 Y138.747 E0.03787
G1 X148.023 Y138.787 E0.00137
G1 X144.107 Y134.872 E0.03827
G1 X143.872 Y134.872 E0.00162
G1 X147.829 Y138.828 E0.03867
G1 X147.635 Y138.869 E0.00137
