; generated by SuperSlicer 2.3.57 on 2022-02-27 at 22:58:18 UTC


;
;

;
;
; 

; external perimeters extrusion width = 0.40mm
; perimeters extrusion width = 0.45mm
; infill extrusion width = 0.72mm
; solid infill extrusion width = 0.56mm
; top infill extrusion width = 0.40mm
; support material extrusion width = 0.42mm
; first layer extrusion width = 0.48mm

; object:{"name":"Bottom_Mod2","id":"Bottom_Mod2.stl id:0 copy 0","object_center":[152.500000,150.000000,0.000000],"boundingbox_center":[152.500000,150.000000,5.460000],"boundingbox_size":[138.684006,29.120001,10.920000]}
; plater:{"center":[152.500000,150.000000,0.000000],"boundingbox_center":[152.500000,150.000000,5.460000],"boundingbox_size":[138.684006,29.120001,10.920000]}

;TYPE:Custom
START_PRINT T_BED=70 T_EXTRUDER=230
M107
G21 ; set units to millimeters
G90 ; use absolute coordinates
M83 ; use relative distances for extrusion
; Filament gcode
M104 S230 ; set temperature
M109 S230 ; set temperature and wait for it to be reached
M190 S70 ; set bed temperature and wait for it to be reached
M107
;LAYER_CHANGE
;Z:0.24
;HEIGHT:0.24
G1 Z0.24 F9000
G1 E-1 F3000
G1 X84.548 Y133.393 F9000
G1 E1 F1800
; External perimeter
;Skirt
SET_VELOCITY_LIMIT ACCEL=300 ACCEL_TO_DECEL=3000 SQUARE_CORNER_VELOCITY=5

; Support material

;TYPE:Skirt
;WIDTH:0.48
G1 X83.364 Y134.172 E0.06062
G1 X82.909 Y134.554 E0.02537
G1 X82.039 Y135.45 E0.0534
G1 X81.214 Y136.638 E0.06186
G1 X80.604 Y137.94 E0.06146
G1 X80.251 Y139.192 E0.05562
G1 X80.074 Y140.9 E0.07339
G1 X80.074 Y159.121 E0.77907
G1 X80.225 Y160.692 E0.06747
G1 X80.599 Y162.046 E0.06006
G1 X81.23 Y163.39 E0.06347
G1 X82.075 Y164.593 E0.06287
G1 X83.117 Y165.637 E0.06307
G1 X84.336 Y166.493 E0.06367
G1 X85.658 Y167.114 E0.06246
G1 X87.095 Y167.506 E0.06367
G1 X88.443 Y167.639 E0.05794
G1 X216.384 Y167.644 E5.47018
G1 X217.974 Y167.493 E0.06827
G1 X219.284 Y167.135 E0.05804
G1 X220.452 Y166.607 E0.05482
G1 X222.081 Y165.456 E0.08528
G1 X222.958 Y164.554 E0.0538
G1 X223.779 Y163.374 E0.06146
G1 X224.391 Y162.073 E0.06146
G1 X224.734 Y160.867 E0.05361
G1 X224.925 Y159.129 E0.07478
G1 X224.922 Y140.737 E0.78632
G1 X224.777 Y139.317 E0.06104
G1 X224.298 Y137.706 E0.07187
G1 X223.782 Y136.631 E0.05099
G1 X223.12 Y135.661 E0.05022
G1 X222.085 Y134.547 E0.06499
G1 X220.725 Y133.544 E0.07227
G1 X219.364 Y132.894 E0.06447
G1 X217.882 Y132.49 E0.06568
G1 X216.382 Y132.356 E0.06438
G1 X88.616 Y132.356 E5.46272
G1 X87.026 Y132.507 E0.06827
G1 X85.716 Y132.865 E0.05804
G1 X84.603 Y133.368 E0.05225
G1 X84.78 Y133.758 F9000
G1 F1800
G1 X84.743 Y133.775 E0.00172
G1 X83.208 Y134.861 E0.08039
G1 X82.373 Y135.719 E0.05121
G1 X81.583 Y136.855 E0.05915
G1 X81.003 Y138.097 E0.05859
G1 X80.662 Y139.319 E0.05424
G1 X80.503 Y140.9 E0.06794
G1 X80.503 Y159.119 E0.77897
G1 X80.643 Y160.597 E0.06349
G1 X80.999 Y161.893 E0.05746
G1 X81.598 Y163.17 E0.06029
G1 X82.403 Y164.317 E0.05991
G1 X83.393 Y165.309 E0.05991
G1 X84.554 Y166.124 E0.06067
G1 X85.815 Y166.715 E0.05953
G1 X87.175 Y167.085 E0.06029
G1 X88.472 Y167.212 E0.05569
G1 X216.384 Y167.215 E5.46892
G1 X217.88 Y167.075 E0.06425
G1 X219.138 Y166.732 E0.05576
G1 X220.253 Y166.227 E0.05235
G1 X221.786 Y165.146 E0.08021
G1 X222.627 Y164.281 E0.05159
G1 X223.413 Y163.152 E0.05878
G1 X223.994 Y161.911 E0.05859
G1 X224.326 Y160.733 E0.05235
G1 X224.497 Y159.122 E0.06925
G1 X224.494 Y140.766 E0.78484
G1 X224.358 Y139.411 E0.05821
G1 X223.909 Y137.886 E0.06799
G1 X223.411 Y136.845 E0.04932
G1 X222.769 Y135.906 E0.04863
G1 X221.787 Y134.856 E0.06149
G1 X220.499 Y133.908 E0.06837
G1 X219.21 Y133.294 E0.06104
G1 X217.803 Y132.911 E0.06236
G1 X216.382 Y132.785 E0.06098
G1 X88.616 Y132.785 E5.46268
G1 X87.12 Y132.925 E0.06424
G1 X85.862 Y133.268 E0.05576
G1 X84.834 Y133.733 E0.04825
; INIT printing object Bottom_Mod2.stl id:0 copy 0
G1 E-1 F3000
; printing object Bottom_Mod2.stl id:0 copy 0
G1 X195.213 Y148.038 F9000
G1 E1 F1800
; External perimeter
;Perimeter
SET_VELOCITY_LIMIT ACCEL=2000 ACCEL_TO_DECEL=2000 SQUARE_CORNER_VELOCITY=5

; Overhang perimeter

;TYPE:Internal perimeter
G1 X195.151 Y148.837 E0.03424
G1 X195.153 Y149.637 E0.03424
G1 X195.217 Y150.436 E0.03424
G1 X195.344 Y151.226 E0.03424
G1 X195.532 Y152.004 E0.03424
G1 X195.781 Y152.766 E0.03424
G1 X196.089 Y153.505 E0.03424
G1 X196.454 Y154.218 E0.03424
G1 X196.873 Y154.9 E0.03424
G1 X197.345 Y155.546 E0.03424
G1 X197.866 Y156.154 E0.03424
G1 X198.434 Y156.719 E0.03424
G1 X199.044 Y157.238 E0.03424
G1 X199.692 Y157.708 E0.03424
G1 X200.376 Y158.125 E0.03424
G1 X201.09 Y158.487 E0.03424
G1 X201.83 Y158.792 E0.03424
G1 X202.592 Y159.038 E0.03424
G1 X203.371 Y159.224 E0.03424
G1 X204.162 Y159.347 E0.03424
G1 X204.961 Y159.409 E0.03424
G1 X205.761 Y159.407 E0.03424
G1 X206.56 Y159.343 E0.03424
G1 X207.35 Y159.216 E0.03424
G1 X208.128 Y159.028 E0.03424
G1 X208.89 Y158.779 E0.03424
G1 X209.629 Y158.471 E0.03424
G1 X210.342 Y158.106 E0.03424
G1 X211.024 Y157.687 E0.03424
G1 X211.681 Y157.207 E0.03477
G1 X212.284 Y156.668 E0.0346
G1 X212.836 Y156.135 E0.0328
G1 X213.362 Y155.516 E0.03474
G1 X213.832 Y154.868 E0.03424
G1 X214.249 Y154.184 E0.03424
G1 X214.611 Y153.47 E0.03424
G1 X214.916 Y152.73 E0.03424
G1 X215.162 Y151.968 E0.03424
G1 X215.255 Y151.578 E0.01712
G1 X215.348 Y151.189 E0.01712
G1 X215.471 Y150.398 E0.03424
G1 X215.533 Y149.599 E0.03424
G1 X215.531 Y148.799 E0.03424
G1 X215.467 Y148 E0.03424
G1 X215.34 Y147.21 E0.03424
G1 X215.152 Y146.432 E0.03424
G1 X214.903 Y145.67 E0.03424
G1 X214.595 Y144.931 E0.03424
G1 X214.23 Y144.218 E0.03424
G1 X213.811 Y143.536 E0.03424
G1 X213.575 Y143.213 E0.01712
G1 X213.339 Y142.89 E0.01712
G1 X212.818 Y142.282 E0.03424
G1 X212.25 Y141.717 E0.03424
G1 X211.64 Y141.198 E0.03424
G1 X210.992 Y140.728 E0.03424
G1 X210.308 Y140.311 E0.03424
G1 X209.594 Y139.949 E0.03424
G1 X208.854 Y139.644 E0.03424
G1 X208.092 Y139.398 E0.03424
G1 X207.313 Y139.212 E0.03424
G1 X206.522 Y139.089 E0.03424
G1 X205.723 Y139.027 E0.03424
G1 X205.323 Y139.028 E0.01712
G1 X204.923 Y139.029 E0.01712
G1 X204.124 Y139.093 E0.03424
G1 X203.334 Y139.22 E0.03424
G1 X202.556 Y139.408 E0.03424
G1 X201.794 Y139.657 E0.03424
G1 X201.055 Y139.965 E0.03424
G1 X200.342 Y140.33 E0.03424
G1 X199.66 Y140.749 E0.03424
G1 X199.014 Y141.221 E0.03424
G1 X198.406 Y141.742 E0.03424
G1 X197.841 Y142.31 E0.03424
G1 X197.322 Y142.92 E0.03424
G1 X196.852 Y143.568 E0.03424
G1 X196.435 Y144.252 E0.03424
G1 X196.073 Y144.966 E0.03424
G1 X195.768 Y145.706 E0.03424
G1 X195.522 Y146.468 E0.03424
G1 X195.336 Y147.247 E0.03424
G1 X195.222 Y147.979 E0.03167
G1 X195.645 Y148.045 F9000
G1 F1800
G1 X195.638 Y148.088 E0.00185
G1 X195.58 Y148.853 E0.0328
G1 X195.581 Y149.62 E0.0328
G1 X195.643 Y150.384 E0.0328
G1 X195.764 Y151.142 E0.0328
G1 X195.945 Y151.887 E0.0328
G1 X196.183 Y152.616 E0.0328
G1 X196.478 Y153.325 E0.0328
G1 X196.827 Y154.007 E0.0328
G1 X197.229 Y154.661 E0.0328
G1 X197.681 Y155.28 E0.0328
G1 X198.181 Y155.863 E0.0328
G1 X198.724 Y156.404 E0.0328
G1 X199.308 Y156.901 E0.0328
G1 X199.93 Y157.351 E0.0328
G1 X200.585 Y157.75 E0.0328
G1 X201.269 Y158.097 E0.0328
G1 X201.978 Y158.39 E0.0328
G1 X202.708 Y158.625 E0.0328
G1 X203.454 Y158.803 E0.0328
G1 X204.212 Y158.922 E0.0328
G1 X204.977 Y158.98 E0.0328
G1 X205.744 Y158.979 E0.0328
G1 X206.508 Y158.917 E0.0328
G1 X207.266 Y158.796 E0.0328
G1 X208.011 Y158.615 E0.0328
G1 X208.74 Y158.377 E0.0328
G1 X209.449 Y158.082 E0.0328
G1 X210.131 Y157.733 E0.0328
G1 X210.785 Y157.331 E0.0328
G1 X211.411 Y156.874 E0.03314
G1 X211.992 Y156.354 E0.03334
G1 X212.523 Y155.842 E0.03155
G1 X213.025 Y155.252 E0.03312
G1 X213.475 Y154.63 E0.0328
G1 X213.874 Y153.975 E0.0328
G1 X214.221 Y153.291 E0.0328
G1 X214.514 Y152.582 E0.0328
G1 X214.749 Y151.852 E0.0328
G1 X214.838 Y151.479 E0.0164
G1 X214.927 Y151.106 E0.0164
G1 X215.046 Y150.348 E0.0328
G1 X215.104 Y149.583 E0.0328
G1 X215.103 Y148.816 E0.0328
G1 X215.041 Y148.052 E0.0328
G1 X214.92 Y147.294 E0.0328
G1 X214.739 Y146.549 E0.0328
G1 X214.501 Y145.82 E0.0328
G1 X214.206 Y145.111 E0.0328
G1 X213.857 Y144.429 E0.0328
G1 X213.455 Y143.775 E0.0328
G1 X213.229 Y143.466 E0.0164
G1 X213.003 Y143.156 E0.0164
G1 X212.503 Y142.573 E0.0328
G1 X211.96 Y142.032 E0.0328
G1 X211.376 Y141.535 E0.0328
G1 X210.754 Y141.085 E0.0328
G1 X210.099 Y140.686 E0.0328
G1 X209.415 Y140.339 E0.0328
G1 X208.706 Y140.046 E0.0328
G1 X207.976 Y139.811 E0.0328
G1 X207.23 Y139.633 E0.0328
G1 X206.472 Y139.514 E0.0328
G1 X205.707 Y139.456 E0.0328
G1 X205.324 Y139.456 E0.0164
G1 X204.94 Y139.457 E0.0164
G1 X204.176 Y139.519 E0.0328
G1 X203.418 Y139.64 E0.0328
G1 X202.673 Y139.821 E0.0328
G1 X201.944 Y140.059 E0.0328
G1 X201.235 Y140.354 E0.0328
G1 X200.553 Y140.703 E0.0328
G1 X199.899 Y141.105 E0.0328
G1 X199.28 Y141.557 E0.0328
G1 X198.697 Y142.057 E0.0328
G1 X198.156 Y142.6 E0.0328
G1 X197.659 Y143.184 E0.0328
G1 X197.209 Y143.806 E0.0328
G1 X196.81 Y144.461 E0.0328
G1 X196.463 Y145.145 E0.0328
G1 X196.17 Y145.854 E0.0328
G1 X195.935 Y146.584 E0.0328
G1 X195.757 Y147.33 E0.0328
G1 X195.654 Y147.986 E0.02839
G1 X196.078 Y148.052 F9000
; External perimeter
;ExternalPerimeter
SET_VELOCITY_LIMIT ACCEL=1000 ACCEL_TO_DECEL=1000 SQUARE_CORNER_VELOCITY=5

; Perimeter

;TYPE:External perimeter
G1 F1800
G1 X196.064 Y148.138 E0.00369
G1 X196.008 Y148.869 E0.03136
G1 X196.01 Y149.602 E0.03136
G1 X196.069 Y150.333 E0.03136
G1 X196.185 Y151.057 E0.03136
G1 X196.357 Y151.77 E0.03136
G1 X196.585 Y152.467 E0.03136
G1 X196.867 Y153.144 E0.03136
G1 X197.201 Y153.797 E0.03136
G1 X197.586 Y154.422 E0.03136
G1 X198.018 Y155.014 E0.03136
G1 X198.495 Y155.571 E0.03136
G1 X199.015 Y156.089 E0.03136
G1 X199.573 Y156.564 E0.03136
G1 X200.167 Y156.994 E0.03136
G1 X200.793 Y157.376 E0.03136
G1 X201.447 Y157.708 E0.03136
G1 X202.126 Y157.987 E0.03136
G1 X202.823 Y158.212 E0.03136
G1 X203.537 Y158.382 E0.03136
G1 X204.262 Y158.496 E0.03136
G1 X204.993 Y158.552 E0.03136
G1 X205.726 Y158.55 E0.03136
G1 X206.457 Y158.491 E0.03136
G1 X207.181 Y158.375 E0.03136
G1 X207.894 Y158.203 E0.03136
G1 X208.591 Y157.975 E0.03136
G1 X209.268 Y157.693 E0.03136
G1 X209.921 Y157.359 E0.03136
G1 X210.546 Y156.974 E0.03136
G1 X211.141 Y156.54 E0.03151
G1 X211.7 Y156.04 E0.03208
G1 X212.21 Y155.548 E0.0303
G1 X212.688 Y154.987 E0.0315
G1 X213.118 Y154.393 E0.03136
G1 X213.5 Y153.767 E0.03136
G1 X213.832 Y153.113 E0.03136
G1 X214.111 Y152.434 E0.03136
G1 X214.336 Y151.737 E0.03136
G1 X214.421 Y151.38 E0.01568
G1 X214.506 Y151.023 E0.01568
G1 X214.62 Y150.298 E0.03136
G1 X214.676 Y149.567 E0.03136
G1 X214.674 Y148.834 E0.03136
G1 X214.615 Y148.103 E0.03136
G1 X214.499 Y147.379 E0.03136
G1 X214.327 Y146.666 E0.03136
G1 X214.099 Y145.969 E0.03136
G1 X213.817 Y145.292 E0.03136
G1 X213.483 Y144.639 E0.03136
G1 X213.098 Y144.014 E0.03136
G1 X212.882 Y143.718 E0.01568
G1 X212.666 Y143.422 E0.01568
G1 X212.189 Y142.865 E0.03136
G1 X211.669 Y142.347 E0.03136
G1 X211.111 Y141.872 E0.03136
G1 X210.517 Y141.442 E0.03136
G1 X209.891 Y141.06 E0.03136
G1 X209.237 Y140.728 E0.03136
G1 X208.558 Y140.449 E0.03136
G1 X207.861 Y140.224 E0.03136
G1 X207.147 Y140.054 E0.03136
G1 X206.422 Y139.94 E0.03136
G1 X205.691 Y139.884 E0.03136
G1 X205.325 Y139.885 E0.01568
G1 X204.958 Y139.886 E0.01568
G1 X204.227 Y139.945 E0.03136
G1 X203.503 Y140.061 E0.03136
G1 X202.79 Y140.233 E0.03136
G1 X202.093 Y140.461 E0.03136
G1 X201.416 Y140.743 E0.03136
G1 X200.763 Y141.077 E0.03136
G1 X200.138 Y141.462 E0.03136
G1 X199.546 Y141.894 E0.03136
G1 X198.989 Y142.371 E0.03136
G1 X198.471 Y142.891 E0.03136
G1 X197.996 Y143.449 E0.03136
G1 X197.566 Y144.043 E0.03136
G1 X197.184 Y144.669 E0.03136
G1 X196.852 Y145.323 E0.03136
G1 X196.573 Y146.002 E0.03136
G1 X196.348 Y146.699 E0.03136
G1 X196.178 Y147.413 E0.03136
G1 X196.087 Y147.993 E0.0251
;WIPE_START
G1 X195.997 Y148.083 F9000
;WIPE_END
G1 X109.855 Y149.397
; External perimeter
;Perimeter
SET_VELOCITY_LIMIT ACCEL=2000 ACCEL_TO_DECEL=2000 SQUARE_CORNER_VELOCITY=5

; Overhang perimeter

;TYPE:Internal perimeter
G1 F1800
G1 X109.832 Y148.597 E0.03424
G1 X109.746 Y147.8 E0.03424
G1 X109.597 Y147.014 E0.03424
G1 X109.388 Y146.241 E0.03424
G1 X109.118 Y145.487 E0.03424
G1 X108.79 Y144.756 E0.03424
G1 X108.405 Y144.054 E0.03424
G1 X107.967 Y143.384 E0.03424
G1 X107.478 Y142.75 E0.03424
G1 X106.94 Y142.157 E0.03424
G1 X106.357 Y141.607 E0.03424
G1 X105.734 Y141.105 E0.03424
G1 X105.072 Y140.654 E0.03424
G1 X104.377 Y140.256 E0.03424
G1 X103.654 Y139.913 E0.03424
G1 X102.905 Y139.629 E0.03424
G1 X102.137 Y139.404 E0.03424
G1 X101.745 Y139.322 E0.01712
G1 X101.353 Y139.24 E0.01712
G1 X100.559 Y139.138 E0.03424
G1 X99.759 Y139.099 E0.03424
G1 X98.959 Y139.122 E0.03424
G1 X98.162 Y139.208 E0.03424
G1 X97.376 Y139.357 E0.03424
G1 X96.603 Y139.566 E0.03424
G1 X96.226 Y139.701 E0.01712
G1 X95.849 Y139.836 E0.01712
G1 X95.118 Y140.164 E0.03424
G1 X94.416 Y140.549 E0.03424
G1 X93.746 Y140.987 E0.03424
G1 X93.112 Y141.476 E0.03424
G1 X92.519 Y142.014 E0.03424
G1 X91.969 Y142.597 E0.03424
G1 X91.467 Y143.22 E0.03424
G1 X91.016 Y143.882 E0.03424
G1 X90.618 Y144.577 E0.03424
G1 X90.275 Y145.3 E0.03424
G1 X89.991 Y146.049 E0.03424
G1 X89.766 Y146.817 E0.03424
G1 X89.602 Y147.601 E0.03424
G1 X89.5 Y148.395 E0.03424
G1 X89.461 Y149.195 E0.03424
G1 X89.484 Y149.995 E0.03424
G1 X89.57 Y150.792 E0.03424
G1 X89.719 Y151.578 E0.03424
G1 X89.928 Y152.351 E0.03424
G1 X90.198 Y153.105 E0.03424
G1 X90.526 Y153.836 E0.03424
G1 X90.911 Y154.538 E0.03424
G1 X91.349 Y155.208 E0.03424
G1 X91.838 Y155.842 E0.03424
G1 X92.376 Y156.435 E0.03424
G1 X92.959 Y156.985 E0.03424
G1 X93.582 Y157.487 E0.03424
G1 X94.244 Y157.938 E0.03424
G1 X94.939 Y158.336 E0.03424
G1 X95.662 Y158.679 E0.03424
G1 X96.411 Y158.963 E0.03424
G1 X97.179 Y159.188 E0.03424
G1 X97.963 Y159.352 E0.03424
G1 X98.36 Y159.403 E0.01712
G1 X98.757 Y159.454 E0.01712
G1 X99.557 Y159.493 E0.03424
G1 X100.357 Y159.47 E0.03424
G1 X101.154 Y159.384 E0.03424
G1 X101.547 Y159.309 E0.01712
G1 X101.94 Y159.235 E0.01712
G1 X102.713 Y159.025 E0.03424
G1 X103.467 Y158.756 E0.03424
G1 X104.198 Y158.428 E0.03424
G1 X104.9 Y158.043 E0.03424
G1 X105.57 Y157.605 E0.03424
G1 X106.204 Y157.116 E0.03424
G1 X106.797 Y156.578 E0.03424
G1 X107.347 Y155.995 E0.03424
G1 X107.849 Y155.372 E0.03424
G1 X108.3 Y154.71 E0.03424
G1 X108.698 Y154.015 E0.03424
G1 X109.041 Y153.292 E0.03424
G1 X109.325 Y152.543 E0.03424
G1 X109.55 Y151.775 E0.03424
G1 X109.714 Y150.991 E0.03424
G1 X109.816 Y150.197 E0.03424
G1 X109.852 Y149.457 E0.03167
G1 X109.424 Y149.436 F9000
G1 F1800
G1 X109.427 Y149.393 E0.00185
G1 X109.404 Y148.626 E0.0328
G1 X109.321 Y147.863 E0.0328
G1 X109.179 Y147.11 E0.0328
G1 X108.978 Y146.369 E0.0328
G1 X108.72 Y145.647 E0.0328
G1 X108.406 Y144.947 E0.0328
G1 X108.038 Y144.274 E0.0328
G1 X107.618 Y143.632 E0.0328
G1 X107.149 Y143.025 E0.0328
G1 X106.634 Y142.457 E0.0328
G1 X106.076 Y141.931 E0.0328
G1 X105.478 Y141.45 E0.0328
G1 X104.845 Y141.017 E0.0328
G1 X104.179 Y140.636 E0.0328
G1 X103.486 Y140.308 E0.0328
G1 X102.769 Y140.035 E0.0328
G1 X102.032 Y139.82 E0.0328
G1 X101.657 Y139.741 E0.0164
G1 X101.282 Y139.663 E0.0164
G1 X100.521 Y139.565 E0.0328
G1 X99.755 Y139.527 E0.0328
G1 X98.988 Y139.55 E0.0328
G1 X98.225 Y139.633 E0.0328
G1 X97.472 Y139.775 E0.0328
G1 X96.731 Y139.976 E0.0328
G1 X96.37 Y140.105 E0.0164
G1 X96.009 Y140.234 E0.0164
G1 X95.309 Y140.548 E0.0328
G1 X94.636 Y140.916 E0.0328
G1 X93.994 Y141.336 E0.0328
G1 X93.387 Y141.805 E0.0328
G1 X92.819 Y142.32 E0.0328
G1 X92.293 Y142.878 E0.0328
G1 X91.812 Y143.476 E0.0328
G1 X91.379 Y144.109 E0.0328
G1 X90.998 Y144.775 E0.0328
G1 X90.67 Y145.468 E0.0328
G1 X90.397 Y146.185 E0.0328
G1 X90.182 Y146.922 E0.0328
G1 X90.025 Y147.672 E0.0328
G1 X89.927 Y148.433 E0.0328
G1 X89.889 Y149.199 E0.0328
G1 X89.912 Y149.966 E0.0328
G1 X89.995 Y150.729 E0.0328
G1 X90.137 Y151.482 E0.0328
G1 X90.338 Y152.223 E0.0328
G1 X90.596 Y152.945 E0.0328
G1 X90.91 Y153.645 E0.0328
G1 X91.278 Y154.318 E0.0328
G1 X91.698 Y154.96 E0.0328
G1 X92.167 Y155.567 E0.0328
G1 X92.682 Y156.135 E0.0328
G1 X93.24 Y156.661 E0.0328
G1 X93.838 Y157.142 E0.0328
G1 X94.471 Y157.575 E0.0328
