; generated by SuperSlicer 2.4 on 2022-06-06 at 18:22:56 UTC


;
;

;
;
; 

; external perimeters extrusion width = 0.40mm
; perimeters extrusion width = 0.40mm
; infill extrusion width = 0.72mm
; solid infill extrusion width = 0.56mm
; top infill extrusion width = 0.40mm
; first layer extrusion width = 0.48mm

; object:{"name":"1x3","id":"1x3.STL id:0 copy 0","object_center":[152.500000,150.000000,0.000000],"boundingbox_center":[152.500000,150.000000,31.750002],"boundingbox_size":[145.796005,48.429337,63.500004]}
; plater:{"center":[152.500000,150.000000,0.000000],"boundingbox_center":[152.500000,150.000000,31.750002],"boundingbox_size":[145.796005,48.429337,63.500004]}

M73 P0 R181
;TYPE:Custom
START_PRINT T_BED=70 T_EXTRUDER=235
M107
G21 ; set units to millimeters
G90 ; use absolute coordinates
M83 ; use relative distances for extrusion
; Filament gcode
M104 S235 ; set temperature
M109 S235 ; set temperature and wait for it to be reached
M190 S70 ; set bed temperature and wait for it to be reached
M107
;LAYER_CHANGE
;Z:0.24
;HEIGHT:0.24
G1 Z0.24 F9000
G92 E0
G1 E-1 F3000
M204 S1000
G1 X81.995 Y127.43 F9000
G1 E1 F1800
;TYPE:Skirt
;WIDTH:0.52
G1 X80.896 Y128.738 E0.07988
G1 X80.501 Y130.401 E0.07988
G1 X80.501 Y169.599 E1.83239
G1 X81.23 Y171.804 E0.10858
G1 X82.538 Y172.904 E0.07988
G1 X84.201 Y173.299 E0.07988
G1 X220.783 Y173.299 E6.38475
G1 X222.988 Y172.57 E0.10858
G1 X224.087 Y171.262 E0.07988
G1 X224.482 Y169.599 E0.07988
G1 X224.482 Y130.401 E1.83239
M73 P0 R180
G1 X223.753 Y128.196 E0.10858
G1 X222.445 Y127.096 E0.07988
G1 X220.783 Y126.701 E0.07988
G1 X84.201 Y126.701 E6.38475
G1 X81.995 Y127.43 E0.10858
G1 X82.365 Y127.773 F9000
G1 F1800
G1 X81.361 Y128.854 E0.06895
G1 X80.967 Y130.401 E0.0746
G1 X80.967 Y169.599 E1.83239
G1 X81.484 Y171.353 E0.08548
G1 X82.654 Y172.439 E0.0746
G1 X84.201 Y172.832 E0.0746
G1 X220.783 Y172.832 E6.38475
G1 X222.536 Y172.315 E0.08548
G1 X223.622 Y171.146 E0.0746
G1 X224.016 Y169.599 E0.0746
G1 X224.016 Y130.401 E1.83239
G1 X223.499 Y128.647 E0.08548
G1 X222.329 Y127.561 E0.0746
G1 X220.783 Y127.168 E0.0746
G1 X84.201 Y127.168 E6.38475
G1 X82.447 Y127.685 E0.08548
G1 X82.365 Y127.773 E0.00565
G1 E-1 F3000
; printing object 1x3.STL id:0 copy 0
G1 X182.253 Y131.069 F9000
G1 E1 F1800
;TYPE:Internal perimeter
;WIDTH:0.48
G1 X220.114 Y131.069 E1.61878
G1 X220.114 Y168.931 E1.61878
G1 X182.253 Y168.931 E1.61878
G1 X182.253 Y131.069 E1.61878
G1 X181.824 Y130.641 F9000
;TYPE:External perimeter
G1 F1800
G1 X220.543 Y130.641 E1.65542
G1 X220.543 Y169.359 E1.65542
G1 X181.824 Y169.359 E1.65542
G1 X181.824 Y130.641 E1.65542
;WIPE_START
M204 S3000
G1 X182.171 Y130.841 F9000
;WIPE_END
M204 S1000
G1 X219.184 Y131.134
;TYPE:Solid infill
;WIDTH:0.476391
G1 F2400
G1 X219.866 Y131.816 E0.04092
G1 X219.866 Y132.421 E0.02571
G1 X218.762 Y131.318 E0.06623
G1 X218.156 Y131.318 E0.02571
G1 X219.866 Y133.027 E0.1026
G1 X219.866 Y133.633 E0.02571
G1 X217.55 Y131.318 E0.13896
G1 X216.944 Y131.318 E0.02571
G1 X219.866 Y134.239 E0.17533
G1 X219.866 Y134.845 E0.02571
G1 X216.338 Y131.318 E0.21169
G1 X215.732 Y131.318 E0.02571
G1 X219.866 Y135.451 E0.24806
G1 X219.866 Y136.057 E0.02571
G1 X215.126 Y131.318 E0.28443
G1 X214.52 Y131.318 E0.02571
G1 X219.866 Y136.663 E0.32079
G1 X219.866 Y137.269 E0.02571
G1 X213.914 Y131.318 E0.35716
G1 X213.308 Y131.318 E0.02571
G1 X219.866 Y137.875 E0.39352
G1 X219.866 Y138.481 E0.02571
G1 X212.702 Y131.318 E0.42989
G1 X212.096 Y131.318 E0.02571
G1 X219.866 Y139.087 E0.46625
G1 X219.866 Y139.693 E0.02571
G1 X211.49 Y131.318 E0.50262
G1 X210.884 Y131.318 E0.02571
G1 X219.866 Y140.299 E0.53898
G1 X219.866 Y140.905 E0.02571
G1 X210.278 Y131.318 E0.57535
G1 X209.672 Y131.318 E0.02571
G1 X219.866 Y141.511 E0.61171
G1 X219.866 Y142.117 E0.02571
G1 X209.066 Y131.318 E0.64808
G1 X208.46 Y131.318 E0.02571
G1 X219.866 Y142.723 E0.68445
G1 X219.866 Y143.329 E0.02571
G1 X207.854 Y131.318 E0.72081
G1 X207.248 Y131.318 E0.02571
G1 X219.866 Y143.935 E0.75718
G1 X219.866 Y144.541 E0.02571
G1 X206.642 Y131.318 E0.79354
G1 X206.036 Y131.318 E0.02571
G1 X219.866 Y145.147 E0.82991
G1 X219.866 Y145.753 E0.02571
G1 X205.43 Y131.318 E0.86627
G1 X204.824 Y131.318 E0.02571
G1 X219.866 Y146.359 E0.90264
G1 X219.866 Y146.965 E0.02571
G1 X204.218 Y131.318 E0.939
G1 X203.612 Y131.318 E0.02571
G1 X219.866 Y147.571 E0.97537
G1 X219.866 Y148.177 E0.02571
G1 X203.006 Y131.318 E1.01174
G1 X202.4 Y131.318 E0.02571
G1 X219.866 Y148.783 E1.0481
G1 X219.866 Y149.389 E0.02571
G1 X201.794 Y131.318 E1.08447
G1 X201.188 Y131.318 E0.02571
G1 X219.866 Y149.995 E1.12083
G1 X219.866 Y150.601 E0.02571
G1 X200.582 Y131.318 E1.1572
G1 X199.976 Y131.318 E0.02571
G1 X219.866 Y151.207 E1.19356
G1 X219.866 Y151.813 E0.02571
G1 X199.37 Y131.318 E1.22993
G1 X198.764 Y131.318 E0.02571
G1 X219.866 Y152.419 E1.26629
G1 X219.866 Y153.025 E0.02571
G1 X198.158 Y131.318 E1.30266
G1 X197.552 Y131.318 E0.02571
G1 X219.866 Y153.631 E1.33903
G1 X219.866 Y154.237 E0.02571
G1 X196.946 Y131.318 E1.37539
G1 X196.34 Y131.318 E0.02571
G1 X219.866 Y154.843 E1.41176
G1 X219.866 Y155.449 E0.02571
G1 X195.734 Y131.318 E1.44812
G1 X195.128 Y131.318 E0.02571
G1 X219.866 Y156.055 E1.48449
G1 X219.866 Y156.661 E0.02571
G1 X194.523 Y131.318 E1.52085
G1 X193.917 Y131.318 E0.02571
G1 X219.866 Y157.267 E1.55722
G1 X219.866 Y157.873 E0.02571
G1 X193.311 Y131.318 E1.59358
G1 X192.705 Y131.318 E0.02571
G1 X219.866 Y158.479 E1.62995
G1 X219.866 Y159.085 E0.02571
G1 X192.099 Y131.318 E1.66631
G1 X191.493 Y131.318 E0.02571
G1 X219.866 Y159.691 E1.70268
G1 X219.866 Y160.297 E0.02571
G1 X190.887 Y131.318 E1.73905
G1 X190.281 Y131.318 E0.02571
G1 X219.866 Y160.903 E1.77541
G1 X219.866 Y161.509 E0.02571
G1 X189.675 Y131.318 E1.81178
G1 X189.069 Y131.318 E0.02571
G1 X219.866 Y162.115 E1.84814
M73 P0 R179
G1 X219.866 Y162.721 E0.02571
G1 X188.463 Y131.318 E1.88451
G1 X187.857 Y131.318 E0.02571
G1 X219.866 Y163.327 E1.92087
G1 X219.866 Y163.933 E0.02571
G1 X187.251 Y131.318 E1.95724
G1 X186.645 Y131.318 E0.02571
G1 X219.866 Y164.539 E1.9936
G1 X219.866 Y165.145 E0.02571
G1 X186.039 Y131.318 E2.02997
G1 X185.433 Y131.318 E0.02571
G1 X219.866 Y165.751 E2.06634
G1 X219.866 Y166.357 E0.02571
G1 X184.827 Y131.318 E2.1027
G1 X184.221 Y131.318 E0.02571
G1 X219.866 Y166.963 E2.13907
G1 X219.866 Y167.569 E0.02571
G1 X183.615 Y131.318 E2.17543
G1 X183.009 Y131.318 E0.02571
G1 X219.866 Y168.175 E2.2118
G1 X219.866 Y168.682 E0.02154
G1 X219.767 Y168.682 E0.00417
G1 X182.501 Y131.416 E2.23636
G1 X182.501 Y132.022 E0.02571
G1 X219.161 Y168.682 E2.2
G1 X218.555 Y168.682 E0.02571
G1 X182.501 Y132.628 E2.16363
G1 X182.501 Y133.234 E0.02571
G1 X217.949 Y168.682 E2.12727
G1 X217.343 Y168.682 E0.02571
G1 X182.501 Y133.84 E2.0909
G1 X182.501 Y134.446 E0.02571
G1 X216.737 Y168.682 E2.05453
M73 P1 R179
G1 X216.131 Y168.682 E0.02571
G1 X182.501 Y135.052 E2.01817
G1 X182.501 Y135.658 E0.02571
G1 X215.525 Y168.682 E1.9818
G1 X214.919 Y168.682 E0.02571
G1 X182.501 Y136.264 E1.94544
G1 X182.501 Y136.87 E0.02571
G1 X214.313 Y168.682 E1.90907
G1 X213.707 Y168.682 E0.02571
G1 X182.501 Y137.476 E1.87271
G1 X182.501 Y138.082 E0.02571
G1 X213.101 Y168.682 E1.83634
G1 X212.495 Y168.682 E0.02571
G1 X182.501 Y138.688 E1.79998
G1 X182.501 Y139.294 E0.02571
G1 X211.889 Y168.682 E1.76361
G1 X211.283 Y168.682 E0.02571
G1 X182.501 Y139.9 E1.72724
G1 X182.501 Y140.506 E0.02571
G1 X210.677 Y168.682 E1.69088
G1 X210.071 Y168.682 E0.02571
G1 X182.501 Y141.112 E1.65451
G1 X182.501 Y141.718 E0.02571
G1 X209.465 Y168.682 E1.61815
G1 X208.859 Y168.682 E0.02571
G1 X182.501 Y142.324 E1.58178
G1 X182.501 Y142.93 E0.02571
G1 X208.253 Y168.682 E1.54542
G1 X207.648 Y168.682 E0.02571
G1 X182.501 Y143.536 E1.50905
G1 X182.501 Y144.142 E0.02571
G1 X207.042 Y168.682 E1.47269
G1 X206.436 Y168.682 E0.02571
G1 X182.501 Y144.748 E1.43632
G1 X182.501 Y145.354 E0.02571
G1 X205.83 Y168.682 E1.39995
G1 X205.224 Y168.682 E0.02571
G1 X182.501 Y145.96 E1.36359
G1 X182.501 Y146.566 E0.02571
G1 X204.618 Y168.682 E1.32722
G1 X204.012 Y168.682 E0.02571
G1 X182.501 Y147.172 E1.29086
G1 X182.501 Y147.778 E0.02571
G1 X203.406 Y168.682 E1.25449
G1 X202.8 Y168.682 E0.02571
G1 X182.501 Y148.384 E1.21813
G1 X182.501 Y148.99 E0.02571
G1 X202.194 Y168.682 E1.18176
G1 X201.588 Y168.682 E0.02571
G1 X182.501 Y149.596 E1.1454
G1 X182.501 Y150.202 E0.02571
G1 X200.982 Y168.682 E1.10903
G1 X200.376 Y168.682 E0.02571
G1 X182.501 Y150.808 E1.07267
G1 X182.501 Y151.414 E0.02571
G1 X199.77 Y168.682 E1.0363
G1 X199.164 Y168.682 E0.02571
G1 X182.501 Y152.02 E0.99993
G1 X182.501 Y152.626 E0.02571
G1 X198.558 Y168.682 E0.96357
G1 X197.952 Y168.682 E0.02571
G1 X182.501 Y153.232 E0.9272
G1 X182.501 Y153.838 E0.02571
G1 X197.346 Y168.682 E0.89084
G1 X196.74 Y168.682 E0.02571
G1 X182.501 Y154.444 E0.85447
G1 X182.501 Y155.05 E0.02571
G1 X196.134 Y168.682 E0.81811
G1 X195.528 Y168.682 E0.02571
G1 X182.501 Y155.655 E0.78174
G1 X182.501 Y156.261 E0.02571
G1 X194.922 Y168.682 E0.74538
G1 X194.316 Y168.682 E0.02571
G1 X182.501 Y156.867 E0.70901
G1 X182.501 Y157.473 E0.02571
G1 X193.71 Y168.682 E0.67264
G1 X193.104 Y168.682 E0.02571
G1 X182.501 Y158.079 E0.63628
G1 X182.501 Y158.685 E0.02571
G1 X192.498 Y168.682 E0.59991
G1 X191.892 Y168.682 E0.02571
G1 X182.501 Y159.291 E0.56355
G1 X182.501 Y159.897 E0.02571
G1 X191.286 Y168.682 E0.52718
G1 X190.68 Y168.682 E0.02571
G1 X182.501 Y160.503 E0.49082
G1 X182.501 Y161.109 E0.02571
G1 X190.074 Y168.682 E0.45445
G1 X189.468 Y168.682 E0.02571
G1 X182.501 Y161.715 E0.41809
G1 X182.501 Y162.321 E0.02571
G1 X188.862 Y168.682 E0.38172
G1 X188.256 Y168.682 E0.02571
G1 X182.501 Y162.927 E0.34535
G1 X182.501 Y163.533 E0.02571
G1 X187.65 Y168.682 E0.30899
G1 X187.044 Y168.682 E0.02571
G1 X182.501 Y164.139 E0.27262
G1 X182.501 Y164.745 E0.02571
G1 X186.438 Y168.682 E0.23626
G1 X185.832 Y168.682 E0.02571
G1 X182.501 Y165.351 E0.19989
G1 X182.501 Y165.957 E0.02571
G1 X185.226 Y168.682 E0.16353
G1 X184.62 Y168.682 E0.02571
G1 X182.501 Y166.563 E0.12716
G1 X182.501 Y167.169 E0.02571
G1 X184.014 Y168.682 E0.0908
G1 X183.408 Y168.682 E0.02571
G1 X182.501 Y167.775 E0.05443
G1 X182.501 Y168.381 E0.02571
G1 X182.986 Y168.866 E0.02912
G1 E-1 F3000
G1 X171.431 Y168.931 F9000
G1 E1 F1800
;TYPE:Internal perimeter
;WIDTH:0.48
G1 X133.561 Y168.931 E1.61914
G1 X133.561 Y131.069 E1.61878
M73 P1 R178
G1 X171.431 Y131.069 E1.61914
G1 X171.431 Y168.931 E1.61878
G1 X171.859 Y169.359 F9000
;TYPE:External perimeter
G1 F1800
G1 X133.132 Y169.359 E1.65578
G1 X133.132 Y130.641 E1.65542
G1 X171.859 Y130.641 E1.65578
G1 X171.859 Y169.359 E1.65542
;WIPE_START
M204 S3000
G1 X171.513 Y169.159 F9000
;WIPE_END
M204 S1000
G1 X170.5 Y131.134
;TYPE:Solid infill
;WIDTH:0.476392
G1 F2400
G1 X171.182 Y131.816 E0.04092
G1 X171.182 Y132.421 E0.02571
G1 X170.078 Y131.318 E0.06623
G1 X169.473 Y131.318 E0.02571
G1 X171.182 Y133.027 E0.1026
G1 X171.182 Y133.633 E0.02571
G1 X168.867 Y131.318 E0.13896
G1 X168.261 Y131.318 E0.02571
G1 X171.182 Y134.239 E0.17533
G1 X171.182 Y134.845 E0.02571
G1 X167.655 Y131.318 E0.21169
G1 X167.049 Y131.318 E0.02571
G1 X171.182 Y135.451 E0.24806
G1 X171.182 Y136.057 E0.02571
G1 X166.443 Y131.318 E0.28443
G1 X165.837 Y131.318 E0.02571
G1 X171.182 Y136.663 E0.32079
G1 X171.182 Y137.269 E0.02571
G1 X165.231 Y131.318 E0.35716
G1 X164.625 Y131.318 E0.02571
G1 X171.182 Y137.875 E0.39352
G1 X171.182 Y138.481 E0.02571
G1 X164.019 Y131.318 E0.42989
G1 X163.413 Y131.318 E0.02571
G1 X171.182 Y139.087 E0.46625
G1 X171.182 Y139.693 E0.02571
G1 X162.807 Y131.318 E0.50262
G1 X162.201 Y131.318 E0.02571
G1 X171.182 Y140.299 E0.53899
G1 X171.182 Y140.905 E0.02571
G1 X161.595 Y131.318 E0.57535
G1 X160.989 Y131.318 E0.02571
G1 X171.182 Y141.511 E0.61172
G1 X171.182 Y142.117 E0.02571
G1 X160.383 Y131.318 E0.64808
G1 X159.777 Y131.318 E0.02571
G1 X171.182 Y142.723 E0.68445
G1 X171.182 Y143.329 E0.02571
G1 X159.171 Y131.318 E0.72081
G1 X158.565 Y131.318 E0.02571
G1 X171.182 Y143.935 E0.75718
G1 X171.182 Y144.541 E0.02571
G1 X157.959 Y131.318 E0.79354
G1 X157.353 Y131.318 E0.02571
G1 X171.182 Y145.147 E0.82991
G1 X171.182 Y145.753 E0.02571
G1 X156.747 Y131.318 E0.86628
G1 X156.141 Y131.318 E0.02571
G1 X171.182 Y146.359 E0.90264
G1 X171.182 Y146.965 E0.02571
G1 X155.535 Y131.318 E0.93901
G1 X154.929 Y131.318 E0.02571
G1 X171.182 Y147.571 E0.97537
G1 X171.182 Y148.177 E0.02571
G1 X154.323 Y131.318 E1.01174
G1 X153.717 Y131.318 E0.02571
G1 X171.182 Y148.783 E1.0481
G1 X171.182 Y149.389 E0.02571
G1 X153.111 Y131.318 E1.08447
G1 X152.505 Y131.318 E0.02571
G1 X171.182 Y149.995 E1.12083
G1 X171.182 Y150.601 E0.02571
G1 X151.899 Y131.318 E1.1572
G1 X151.293 Y131.318 E0.02571
G1 X171.182 Y151.207 E1.19357
G1 X171.182 Y151.813 E0.02571
G1 X150.687 Y131.318 E1.22993
G1 X150.081 Y131.318 E0.02571
G1 X171.182 Y152.419 E1.2663
G1 X171.182 Y153.025 E0.02571
G1 X149.475 Y131.318 E1.30266
G1 X148.869 Y131.318 E0.02571
G1 X171.182 Y153.631 E1.33903
G1 X171.182 Y154.237 E0.02571
G1 X148.263 Y131.318 E1.37539
G1 X147.657 Y131.318 E0.02571
G1 X171.182 Y154.843 E1.41176
G1 X171.182 Y155.449 E0.02571
G1 X147.051 Y131.318 E1.44812
G1 X146.445 Y131.318 E0.02571
G1 X171.182 Y156.055 E1.48449
G1 X171.182 Y156.661 E0.02571
G1 X145.839 Y131.318 E1.52086
G1 X145.233 Y131.318 E0.02571
G1 X171.182 Y157.267 E1.55722
G1 X171.182 Y157.873 E0.02571
G1 X144.627 Y131.318 E1.59359
G1 X144.021 Y131.318 E0.02571
G1 X171.182 Y158.479 E1.62995
G1 X171.182 Y159.085 E0.02571
G1 X143.415 Y131.318 E1.66632
G1 X142.809 Y131.318 E0.02571
G1 X171.182 Y159.691 E1.70268
G1 X171.182 Y160.297 E0.02571
G1 X142.203 Y131.318 E1.73905
G1 X141.597 Y131.318 E0.02571
G1 X171.182 Y160.903 E1.77542
G1 X171.182 Y161.509 E0.02571
G1 X140.991 Y131.318 E1.81178
G1 X140.385 Y131.318 E0.02571
G1 X171.182 Y162.115 E1.84815
G1 X171.182 Y162.721 E0.02571
G1 X139.779 Y131.318 E1.88451
G1 X139.173 Y131.318 E0.02571
G1 X171.182 Y163.327 E1.92088
G1 X171.182 Y163.933 E0.02571
G1 X138.567 Y131.318 E1.95724
G1 X137.961 Y131.318 E0.02571
G1 X171.182 Y164.539 E1.99361
G1 X171.182 Y165.145 E0.02571
G1 X137.355 Y131.318 E2.02997
G1 X136.749 Y131.318 E0.02571
G1 X171.182 Y165.751 E2.06634
G1 X171.182 Y166.357 E0.02571
G1 X136.143 Y131.318 E2.10271
G1 X135.537 Y131.318 E0.02571
G1 X171.182 Y166.963 E2.13907
G1 X171.182 Y167.569 E0.02571
G1 X134.931 Y131.318 E2.17544
G1 X134.325 Y131.318 E0.02571
G1 X171.182 Y168.175 E2.2118
G1 X171.182 Y168.682 E0.02154
G1 X171.084 Y168.682 E0.00417
G1 X133.809 Y131.408 E2.23687
G1 X133.809 Y132.014 E0.02571
G1 X170.478 Y168.682 E2.20051
G1 X169.872 Y168.682 E0.02571
G1 X133.809 Y132.62 E2.16414
G1 X133.809 Y133.226 E0.02571
G1 X169.266 Y168.682 E2.12778
G1 X168.66 Y168.682 E0.02571
G1 X133.809 Y133.832 E2.09141
G1 X133.809 Y134.438 E0.02571
G1 X168.054 Y168.682 E2.05505
M73 P1 R177
G1 X167.448 Y168.682 E0.02571
G1 X133.809 Y135.044 E2.01868
G1 X133.809 Y135.65 E0.02571
G1 X166.842 Y168.682 E1.98231
G1 X166.236 Y168.682 E0.02571
G1 X133.809 Y136.256 E1.94595
G1 X133.809 Y136.862 E0.02571
G1 X165.63 Y168.682 E1.90958
G1 X165.024 Y168.682 E0.02571
G1 X133.809 Y137.468 E1.87322
G1 X133.809 Y138.074 E0.02571
G1 X164.418 Y168.682 E1.83685
G1 X163.812 Y168.682 E0.02571
G1 X133.809 Y138.679 E1.80049
M73 P2 R177
G1 X133.809 Y139.285 E0.02571
G1 X163.206 Y168.682 E1.76412
G1 X162.6 Y168.682 E0.02571
G1 X133.809 Y139.891 E1.72776
G1 X133.809 Y140.497 E0.02571
G1 X161.994 Y168.682 E1.69139
G1 X161.388 Y168.682 E0.02571
G1 X133.809 Y141.103 E1.65502
G1 X133.809 Y141.709 E0.02571
G1 X160.782 Y168.682 E1.61866
G1 X160.176 Y168.682 E0.02571
G1 X133.809 Y142.315 E1.58229
G1 X133.809 Y142.921 E0.02571
G1 X159.57 Y168.682 E1.54593
G1 X158.964 Y168.682 E0.02571
G1 X133.809 Y143.527 E1.50956
G1 X133.809 Y144.133 E0.02571
G1 X158.358 Y168.682 E1.4732
G1 X157.752 Y168.682 E0.02571
G1 X133.809 Y144.739 E1.43683
G1 X133.809 Y145.345 E0.02571
G1 X157.146 Y168.682 E1.40047
G1 X156.54 Y168.682 E0.02571
G1 X133.809 Y145.951 E1.3641
G1 X133.809 Y146.557 E0.02571
G1 X155.934 Y168.682 E1.32773
G1 X155.328 Y168.682 E0.02571
G1 X133.809 Y147.163 E1.29137
G1 X133.809 Y147.769 E0.02571
G1 X154.722 Y168.682 E1.255
