; generated by SuperSlicer 2.4 on 2022-06-27 at 04:11:33 UTC


;
;

;
;
; 

; external perimeters extrusion width = 0.40mm
; perimeters extrusion width = 0.40mm
; infill extrusion width = 0.72mm
; solid infill extrusion width = 0.56mm
; top infill extrusion width = 0.40mm
; support material extrusion width = 0.40mm
; first layer extrusion width = 0.48mm

; object:{"name":"BunkerWall2","id":"BunkerWall2.stl id:0 copy 0","object_center":[165.000000,165.000000,0.000000],"boundingbox_center":[165.000000,165.000000,3.018173],"boundingbox_size":[214.933491,223.169266,6.036346]}
; plater:{"center":[165.000000,165.000000,0.000000],"boundingbox_center":[165.000000,165.000000,3.018173],"boundingbox_size":[214.933491,223.169266,6.036346]}

M73 P0 R267
;TYPE:Custom
START_PRINT T_BED=60 T_EXTRUDER=200
M107
G21 ; set units to millimeters
G90 ; use absolute coordinates
M83 ; use relative distances for extrusion
; Filament gcode
M109 S200 ; set temperature and wait for it to be reached
M190 S60 ; set bed temperature and wait for it to be reached
M107
;LAYER_CHANGE
;Z:0.24
;HEIGHT:0.24
G1 Z0.24 F9000
G92 E0
M204 S1000
M73 P0 R266
G1 X57.428 Y54.497
;TYPE:Skirt
;WIDTH:0.52
G1 F1800
G1 X56.573 Y55.563 E0.06256
G1 X55.828 Y56.707 E0.06255
G1 X55.199 Y57.919 E0.06256
G1 X54.4 Y60.146 E0.10836
G1 X54.116 Y61.481 E0.06255
G1 X53.964 Y62.838 E0.06255
G1 X53.934 Y195.81 E6.09169
G1 X53.987 Y196.989 E0.05405
G1 X54.168 Y198.335 E0.0622
G1 X54.48 Y199.656 E0.06219
G1 X54.919 Y200.942 E0.06226
G1 X55.993 Y203.083 E0.10972
G1 X57.389 Y204.975 E0.10774
G1 X58.533 Y206.136 E0.07467
G1 X59.918 Y207.228 E0.08079
G1 X61.309 Y208.078 E0.07468
G1 X63.088 Y208.869 E0.0892
G1 X257.615 Y279.409 E9.47945
G1 X259.328 Y279.887 E0.08146
G1 X261.268 Y280.151 E0.08967
G1 X263.314 Y280.134 E0.09374
G1 X264.937 Y279.907 E0.07511
G1 X266.992 Y279.32 E0.09789
G1 X268.614 Y278.602 E0.08126
G1 X270.018 Y277.756 E0.0751
G1 X271.417 Y276.665 E0.08127
G1 X272.515 Y275.571 E0.071
G1 X273.611 Y274.176 E0.08126
G1 X274.329 Y273.015 E0.06257
G1 X274.931 Y271.789 E0.06255
G1 X275.408 Y270.51 E0.06255
G1 X275.758 Y269.19 E0.06256
G1 X275.977 Y267.842 E0.06255
G1 X276.066 Y266.295 E0.071
G1 X276.053 Y133.599 E6.07901
G1 X275.939 Y132.336 E0.05812
G1 X275.692 Y131.001 E0.0622
G1 X275.195 Y129.355 E0.07875
G1 X274.661 Y128.107 E0.06219
G1 X274.007 Y126.917 E0.0622
G1 X272.611 Y125.025 E0.10774
G1 X271.398 Y123.806 E0.07875
G1 X270.01 Y122.719 E0.08079
G1 X268.611 Y121.883 E0.07468
G1 X266.913 Y121.131 E0.08505
G1 X72.557 Y50.649 E9.47117
G1 X70.494 Y50.076 E0.09807
G1 X68.37 Y49.83 E0.09796
G1 X67.005 Y49.843 E0.06255
G1 X65.647 Y49.99 E0.06255
G1 X64.311 Y50.27 E0.06255
G1 X63.008 Y50.68 E0.06257
G1 X61.752 Y51.216 E0.06255
G1 X60.555 Y51.872 E0.06256
G1 X59.428 Y52.643 E0.06255
G1 X58.382 Y53.521 E0.06256
G1 X57.428 Y54.497 E0.06255
G1 X57.788 Y54.794 F9000
G1 F1800
G1 X56.961 Y55.823 E0.06046
G1 X56.239 Y56.927 E0.06045
G1 X55.63 Y58.098 E0.06046
G1 X54.847 Y60.281 E0.10626
G1 X54.573 Y61.572 E0.06045
G1 X54.428 Y62.884 E0.06045
G1 X54.4 Y195.811 E6.0896
G1 X54.453 Y196.966 E0.053
G1 X54.629 Y198.267 E0.06012
G1 X54.932 Y199.543 E0.0601
G1 X55.358 Y200.785 E0.06017
G1 X56.381 Y202.825 E0.10451
G1 X57.751 Y204.68 E0.10565
G1 X58.839 Y205.784 E0.07102
G1 X60.197 Y206.855 E0.07923
G1 X61.521 Y207.662 E0.07103
G1 X63.247 Y208.431 E0.08658
G1 X257.602 Y278.913 E9.47112
G1 X259.432 Y279.433 E0.08715
G1 X261.315 Y279.687 E0.08705
G1 X263.292 Y279.669 E0.09059
G1 X264.836 Y279.451 E0.07143
G1 X266.814 Y278.889 E0.09422
G1 X268.405 Y278.185 E0.07969
G1 X269.741 Y277.381 E0.07142
G1 X271.113 Y276.311 E0.0797
G1 X272.162 Y275.266 E0.06785
G1 X273.236 Y273.898 E0.07968
G1 X273.93 Y272.775 E0.06047
G1 X274.509 Y271.589 E0.06045
G1 X274.969 Y270.353 E0.06045
G1 X275.306 Y269.076 E0.06046
G1 X275.515 Y267.774 E0.06045
G1 X275.6 Y266.295 E0.06785
G1 X275.599 Y134.109 E6.05567
G1 X275.429 Y132.069 E0.0938
G1 X275.158 Y130.785 E0.06011
G1 X274.764 Y129.533 E0.06011
G1 X274.249 Y128.326 E0.06011
G1 X273.619 Y127.175 E0.06011
G1 X272.249 Y125.32 E0.10565
G1 X271.102 Y124.166 E0.07457
G1 X269.74 Y123.099 E0.07922
G1 X268.409 Y122.303 E0.07103
G1 X266.754 Y121.57 E0.08296
G1 X72.398 Y51.087 E9.47117
G1 X70.413 Y50.536 E0.09439
G1 X68.369 Y50.296 E0.09429
G1 X67.049 Y50.307 E0.06045
G1 X65.737 Y50.448 E0.06045
G1 X64.445 Y50.717 E0.06045
G1 X63.185 Y51.111 E0.06047
G1 X61.971 Y51.627 E0.06045
G1 X60.813 Y52.26 E0.06046
G1 X59.723 Y53.004 E0.06045
G1 X58.711 Y53.851 E0.06046
G1 X57.788 Y54.794 E0.06045
G1 E-0.8 F3000
; printing object BunkerWall2.stl id:0 copy 0
G1 X61.096 Y57.588 F9000
G1 E0.8 F1800
;TYPE:Internal perimeter
;WIDTH:0.48
G1 X61.729 Y56.957 E0.03746
G1 X62.422 Y56.391 E0.03746
G1 X63.166 Y55.896 E0.03745
G1 X63.955 Y55.477 E0.03746
G1 X64.782 Y55.137 E0.03746
G1 X65.638 Y54.88 E0.03745
G1 X66.516 Y54.708 E0.03746
G1 X67.405 Y54.623 E0.03746
G1 X67.684 Y54.624 E0.01166
G1 X68.299 Y54.626 E0.02579
G1 X69.19 Y54.717 E0.03751
G1 X70.064 Y54.895 E0.03735
G1 X70.947 Y55.167 E0.03874
G1 X265.265 Y125.636 E8.66083
M73 P0 R265
G1 X265.679 Y125.798 E0.01863
G1 X266.494 Y126.187 E0.03786
G1 X267.267 Y126.655 E0.03786
G1 X267.606 Y126.895 E0.0174
G1 X268.303 Y127.47 E0.03786
G1 X268.93 Y128.1 E0.03724
G1 X269.492 Y128.789 E0.03724
G1 X269.984 Y129.529 E0.03724
G1 X270.402 Y130.313 E0.03724
G1 X270.741 Y131.135 E0.03724
G1 X270.998 Y131.986 E0.03724
G1 X271.171 Y132.858 E0.03724
G1 X271.259 Y133.757 E0.03786
G1 X271.27 Y134.201 E0.01863
G1 X271.27 Y266.268 E5.53364
G1 X271.224 Y267.19 E0.03869
G1 X271.093 Y268.074 E0.03746
G1 X270.875 Y268.942 E0.03746
G1 X270.573 Y269.783 E0.03745
G1 X270.19 Y270.591 E0.03746
G1 X269.73 Y271.357 E0.03746
G1 X269.188 Y272.086 E0.03807
G1 X268.914 Y272.402 E0.0175
G1 X268.26 Y273.054 E0.03869
G1 X267.943 Y273.326 E0.0175
G1 X267.212 Y273.866 E0.03807
G1 X266.432 Y274.331 E0.03808
G1 X266.058 Y274.518 E0.0175
G1 X265.218 Y274.863 E0.03807
G1 X264.348 Y275.125 E0.03807
G1 X263.94 Y275.215 E0.0175
G1 X263.041 Y275.345 E0.03807
G1 X262.133 Y275.387 E0.03807
G1 X261.715 Y275.375 E0.0175
G1 X260.797 Y275.281 E0.03869
G1 X260.371 Y275.206 E0.01812
G1 X259.949 Y275.109 E0.01812
G1 X259.053 Y274.833 E0.03931
G1 X64.749 Y204.369 E8.66022
G1 X63.889 Y204.008 E0.03908
G1 X63.518 Y203.82 E0.0174
G1 X62.745 Y203.353 E0.03786
G1 X62.021 Y202.812 E0.03786
G1 X61.708 Y202.54 E0.0174
G1 X61.07 Y201.9 E0.03785
G1 X60.508 Y201.211 E0.03724
G1 X60.016 Y200.471 E0.03724
G1 X59.591 Y199.674 E0.03785
G1 X59.424 Y199.294 E0.0174
G1 X59.12 Y198.443 E0.03786
G1 X58.905 Y197.58 E0.03724
G1 X58.775 Y196.701 E0.03724
G1 X58.73 Y195.784 E0.03847
G1 X58.743 Y63.256 E5.55299
G1 X58.83 Y62.366 E0.03746
G1 X59.005 Y61.489 E0.03746
G1 X59.265 Y60.634 E0.03746
G1 X59.608 Y59.808 E0.03745
G1 X60.03 Y59.021 E0.03746
G1 X60.528 Y58.278 E0.03746
G1 X61.096 Y57.588 E0.03746
G1 X60.779 Y57.299 F9000
G1 F1800
G1 X61.442 Y56.638 E0.03922
G1 X62.167 Y56.046 E0.03922
G1 X62.946 Y55.528 E0.03922
G1 X63.773 Y55.088 E0.03923
G1 X64.639 Y54.732 E0.03922
G1 X65.535 Y54.463 E0.03922
G1 X66.454 Y54.283 E0.03922
G1 X67.386 Y54.195 E0.03923
G1 X67.685 Y54.196 E0.01255
G1 X68.322 Y54.198 E0.02668
G1 X69.254 Y54.293 E0.03928
G1 X70.169 Y54.479 E0.03912
G1 X71.083 Y54.76 E0.04007
G1 X265.416 Y125.235 E8.6615
G1 X265.849 Y125.404 E0.01951
G1 X266.698 Y125.81 E0.03939
G1 X267.502 Y126.296 E0.03939
G1 X267.867 Y126.554 E0.01872
G1 X268.592 Y127.153 E0.0394
G1 X269.248 Y127.813 E0.039
G1 X269.837 Y128.534 E0.039
G1 X270.352 Y129.309 E0.039
G1 X270.79 Y130.131 E0.039
G1 X271.145 Y130.991 E0.039
G1 X271.414 Y131.882 E0.039
G1 X271.595 Y132.795 E0.039
G1 X271.687 Y133.731 E0.03939
G1 X271.698 Y134.196 E0.01951
G1 X271.698 Y266.279 E5.5343
G1 X271.651 Y267.232 E0.04002
G1 X271.514 Y268.158 E0.03922
G1 X271.286 Y269.066 E0.03923
G1 X270.97 Y269.947 E0.03922
G1 X270.569 Y270.793 E0.03922
G1 X270.086 Y271.596 E0.03923
G1 X269.522 Y272.354 E0.03962
G1 X269.228 Y272.694 E0.01883
G1 X268.551 Y273.368 E0.04002
G1 X268.211 Y273.661 E0.01883
G1 X267.45 Y274.223 E0.03962
G1 X266.638 Y274.707 E0.03962
G1 X266.236 Y274.908 E0.01883
G1 X265.361 Y275.268 E0.03962
G1 X264.456 Y275.54 E0.03962
G1 X264.017 Y275.637 E0.01883
G1 X263.081 Y275.772 E0.03962
G1 X262.137 Y275.816 E0.03962
G1 X261.687 Y275.803 E0.01883
G1 X260.737 Y275.706 E0.04002
G1 X260.286 Y275.626 E0.01923
G1 X259.838 Y275.523 E0.01922
G1 X258.917 Y275.24 E0.04041
G1 X64.593 Y204.768 E8.6611
G1 X63.709 Y204.398 E0.04018
G1 X63.31 Y204.195 E0.01872
G1 X62.506 Y203.709 E0.03939
G1 X61.752 Y203.146 E0.03939
G1 X61.415 Y202.853 E0.01872
G1 X60.752 Y202.187 E0.03939
G1 X60.163 Y201.466 E0.039
G1 X59.648 Y200.691 E0.039
G1 X59.206 Y199.861 E0.03939
G1 X59.025 Y199.452 E0.01872
G1 X58.71 Y198.567 E0.03939
G1 X58.484 Y197.664 E0.039
G1 X58.348 Y196.743 E0.039
G1 X58.302 Y195.795 E0.03979
G1 X58.314 Y63.235 E5.55431
G1 X58.406 Y62.303 E0.03923
G1 X58.589 Y61.385 E0.03923
G1 X58.861 Y60.489 E0.03922
G1 X59.22 Y59.625 E0.03922
G1 X59.663 Y58.8 E0.03923
G1 X60.184 Y58.022 E0.03922
G1 X60.779 Y57.299 E0.03922
G1 X60.461 Y57.011 F9000
;TYPE:External perimeter
G1 F1800
G1 X61.154 Y56.32 E0.04099
G1 X61.912 Y55.701 E0.04099
G1 X62.726 Y55.159 E0.04099
G1 X63.59 Y54.7 E0.04099
G1 X64.495 Y54.328 E0.04099
G1 X65.432 Y54.047 E0.04099
G1 X66.392 Y53.859 E0.04099
G1 X67.366 Y53.766 E0.04099
G1 X67.687 Y53.767 E0.01343
G1 X68.345 Y53.769 E0.02756
G1 X69.319 Y53.869 E0.04104
G1 X70.275 Y54.063 E0.04089
G1 X71.22 Y54.354 E0.04139
G1 X265.567 Y124.834 E8.66216
G1 X266.02 Y125.011 E0.02039
G1 X266.901 Y125.432 E0.04093
G1 X267.738 Y125.937 E0.04093
G1 X268.128 Y126.214 E0.02004
G1 X268.881 Y126.836 E0.04093
G1 X269.567 Y127.526 E0.04076
G1 X270.182 Y128.279 E0.04076
G1 X270.721 Y129.089 E0.04076
G1 X271.178 Y129.948 E0.04076
G1 X271.549 Y130.847 E0.04076
G1 X271.83 Y131.778 E0.04076
G1 X272.019 Y132.732 E0.04076
G1 X272.115 Y133.705 E0.04093
G1 X272.127 Y134.191 E0.02038
G1 X272.127 Y266.289 E5.53496
G1 X272.078 Y267.275 E0.04134
G1 X271.934 Y268.242 E0.04099
G1 X271.696 Y269.191 E0.04099
G1 X271.366 Y270.112 E0.04099
G1 X270.947 Y270.996 E0.04099
G1 X270.443 Y271.835 E0.04099
G1 X269.856 Y272.623 E0.04117
G1 X269.542 Y272.986 E0.02015
G1 X268.843 Y273.683 E0.04135
G1 X268.478 Y273.996 E0.02015
G1 X267.687 Y274.58 E0.04117
G1 X266.844 Y275.083 E0.04117
G1 X266.413 Y275.298 E0.02015
G1 X265.505 Y275.672 E0.04117
G1 X264.564 Y275.954 E0.04117
G1 X264.094 Y276.058 E0.02015
G1 X263.122 Y276.2 E0.04117
G1 X262.14 Y276.244 E0.04117
G1 X261.66 Y276.231 E0.02015
G1 X260.678 Y276.13 E0.04134
G1 X260.2 Y276.046 E0.02033
G1 X259.727 Y275.938 E0.02033
G1 X258.78 Y275.646 E0.04152
G1 X64.437 Y205.167 E8.66198
M73 P0 R264
G1 X63.528 Y204.787 E0.04128
G1 X63.102 Y204.57 E0.02004
G1 X62.266 Y204.065 E0.04093
G1 X61.483 Y203.48 E0.04093
G1 X61.122 Y203.167 E0.02004
G1 X60.433 Y202.474 E0.04093
G1 X59.818 Y201.721 E0.04076
G1 X59.279 Y200.911 E0.04076
G1 X58.82 Y200.049 E0.04093
G1 X58.627 Y199.611 E0.02004
G1 X58.299 Y198.691 E0.04093
G1 X58.063 Y197.747 E0.04076
G1 X57.921 Y196.785 E0.04076
G1 X57.873 Y195.805 E0.04111
G1 X57.886 Y63.213 E5.55563
G1 X57.982 Y62.24 E0.04099
G1 X58.173 Y61.28 E0.04099
G1 X58.458 Y60.344 E0.04099
G1 X58.833 Y59.441 E0.04099
G1 X59.295 Y58.579 E0.04099
G1 X59.84 Y57.766 E0.04099
G1 X60.461 Y57.011 E0.04099
;WIPE_START
M204 S3000
G1 X60.851 Y57.102 F9000
;WIPE_END
M204 S1000
G1 X267.113 Y126.648
;TYPE:Solid infill
;WIDTH:0.479205
G1 F2400
G1 X268.751 Y128.286 E0.09687
G1 X269.648 Y129.789 E0.07322
G1 X266.301 Y126.442 E0.19801
G1 X265.166 Y125.864 E0.05327
G1 X265.09 Y125.837 E0.00337
G1 X270.509 Y131.256 E0.3206
G1 X270.636 Y131.989 E0.03109
G1 X264.139 Y125.492 E0.38432
G1 X263.188 Y125.147 E0.04231
G1 X270.762 Y132.721 E0.44804
G1 X270.889 Y133.453 E0.03109
G1 X262.238 Y124.803 E0.51177
G1 X261.287 Y124.458 E0.04231
G1 X271.015 Y134.186 E0.57549
G1 X271.021 Y134.223 E0.00157
G1 X271.021 Y134.798 E0.02407
G1 X260.336 Y124.113 E0.63211
G1 X259.385 Y123.768 E0.04231
G1 X271.021 Y135.404 E0.68836
G1 X271.021 Y136.01 E0.02535
G1 X258.435 Y123.423 E0.7446
G1 X257.484 Y123.079 E0.04231
G1 X271.021 Y136.616 E0.80085
G1 X271.021 Y137.222 E0.02535
G1 X256.533 Y122.734 E0.8571
G1 X255.582 Y122.389 E0.04231
G1 X271.021 Y137.828 E0.91334
G1 X271.021 Y138.434 E0.02535
G1 X254.631 Y122.044 E0.96959
G1 X253.681 Y121.699 E0.04231
G1 X271.021 Y139.04 E1.02583
G1 X271.021 Y139.646 E0.02535
G1 X252.73 Y121.355 E1.08208
G1 X251.779 Y121.01 E0.04231
G1 X271.021 Y140.252 E1.13833
G1 X271.021 Y140.858 E0.02535
G1 X250.828 Y120.665 E1.19457
G1 X249.877 Y120.32 E0.04231
G1 X271.021 Y141.464 E1.25082
G1 X271.021 Y142.07 E0.02535
G1 X248.927 Y119.975 E1.30707
G1 X247.976 Y119.631 E0.04231
G1 X271.021 Y142.676 E1.36331
G1 X271.021 Y143.282 E0.02535
G1 X247.025 Y119.286 E1.41956
G1 X246.074 Y118.941 E0.04231
G1 X271.021 Y143.888 E1.47581
G1 X271.021 Y144.494 E0.02535
G1 X245.124 Y118.596 E1.53205
M73 P1 R264
G1 X244.173 Y118.251 E0.04231
G1 X271.021 Y145.1 E1.5883
G1 X271.021 Y145.706 E0.02535
G1 X243.222 Y117.907 E1.64454
G1 X242.271 Y117.562 E0.04231
G1 X271.021 Y146.312 E1.70079
G1 X271.021 Y146.918 E0.02535
G1 X241.32 Y117.217 E1.75704
G1 X240.37 Y116.872 E0.04231
G1 X271.021 Y147.524 E1.81328
G1 X271.021 Y148.13 E0.02535
G1 X239.419 Y116.527 E1.86953
G1 X238.468 Y116.183 E0.04231
G1 X271.021 Y148.736 E1.92578
G1 X271.021 Y149.342 E0.02535
G1 X237.517 Y115.838 E1.98202
G1 X236.566 Y115.493 E0.04231
G1 X271.021 Y149.948 E2.03827
G1 X271.021 Y150.554 E0.02535
G1 X235.616 Y115.148 E2.09452
G1 X234.665 Y114.803 E0.04231
G1 X271.021 Y151.16 E2.15076
G1 X271.021 Y151.766 E0.02535
G1 X233.714 Y114.459 E2.20701
G1 X232.763 Y114.114 E0.04231
G1 X271.021 Y152.372 E2.26326
G1 X271.021 Y152.978 E0.02535
G1 X231.813 Y113.769 E2.3195
G1 X230.862 Y113.424 E0.04231
G1 X271.021 Y153.584 E2.37575
G1 X271.021 Y154.19 E0.02535
G1 X229.911 Y113.079 E2.43199
G1 X228.96 Y112.735 E0.04231
G1 X271.021 Y154.796 E2.48824
G1 X271.021 Y155.402 E0.02535
G1 X228.009 Y112.39 E2.54449
G1 X227.059 Y112.045 E0.04231
G1 X271.021 Y156.008 E2.60073
G1 X271.021 Y156.613 E0.02535
G1 X226.108 Y111.7 E2.65698
G1 X225.157 Y111.355 E0.04231
G1 X271.021 Y157.219 E2.71323
G1 X271.021 Y157.825 E0.02535
G1 X224.206 Y111.011 E2.76947
G1 X223.256 Y110.666 E0.04231
G1 X271.021 Y158.431 E2.82572
G1 X271.021 Y159.037 E0.02535
G1 X222.305 Y110.321 E2.88197
G1 X221.354 Y109.976 E0.04231
G1 X271.021 Y159.643 E2.93821
M73 P1 R263
G1 X271.021 Y160.249 E0.02535
G1 X220.403 Y109.631 E2.99446
G1 X219.452 Y109.286 E0.04231
G1 X271.021 Y160.855 E3.05071
G1 X271.021 Y161.461 E0.02535
G1 X218.502 Y108.942 E3.10695
G1 X217.551 Y108.597 E0.04231
G1 X271.021 Y162.067 E3.1632
G1 X271.021 Y162.673 E0.02535
G1 X216.6 Y108.252 E3.21944
G1 X215.649 Y107.907 E0.04231
G1 X271.021 Y163.279 E3.27569
G1 X271.021 Y163.885 E0.02535
G1 X214.698 Y107.562 E3.33194
G1 X213.748 Y107.218 E0.04231
G1 X271.021 Y164.491 E3.38818
G1 X271.021 Y165.097 E0.02535
G1 X212.797 Y106.873 E3.44443
G1 X211.846 Y106.528 E0.04231
G1 X271.021 Y165.703 E3.50068
G1 X271.021 Y166.309 E0.02535
G1 X210.895 Y106.183 E3.55692
G1 X209.945 Y105.838 E0.04231
G1 X271.021 Y166.915 E3.61317
G1 X271.021 Y167.521 E0.02535
G1 X208.994 Y105.494 E3.66942
G1 X208.043 Y105.149 E0.04231
G1 X271.021 Y168.127 E3.72566
G1 X271.021 Y168.733 E0.02535
G1 X207.092 Y104.804 E3.78191
G1 X206.141 Y104.459 E0.04231
G1 X271.021 Y169.339 E3.83815
G1 X271.021 Y169.945 E0.02535
G1 X205.191 Y104.114 E3.8944
G1 X204.24 Y103.77 E0.04231
G1 X271.021 Y170.551 E3.95065
G1 X271.021 Y171.157 E0.02535
G1 X203.289 Y103.425 E4.00689
G1 X202.338 Y103.08 E0.04231
G1 X271.021 Y171.763 E4.06314
G1 X271.021 Y172.369 E0.02535
G1 X201.387 Y102.735 E4.11939
G1 X200.437 Y102.39 E0.04231
G1 X271.021 Y172.975 E4.17563
G1 X271.021 Y173.581 E0.02535
G1 X199.486 Y102.046 E4.23188
G1 X198.535 Y101.701 E0.04231
G1 X271.021 Y174.187 E4.28813
G1 X271.021 Y174.793 E0.02535
G1 X197.584 Y101.356 E4.34437
G1 X196.634 Y101.011 E0.04231
G1 X271.021 Y175.399 E4.40062
G1 X271.021 Y176.005 E0.02535
G1 X195.683 Y100.666 E4.45687
M73 P1 R262
