; generated by SuperSlicer 2.4 on 2022-06-27 at 17:00:58 UTC


;
;

;
;
; 

; external perimeters extrusion width = 0.40mm
; perimeters extrusion width = 0.40mm
; infill extrusion width = 0.72mm
; solid infill extrusion width = 0.56mm
; top infill extrusion width = 0.40mm
; support material extrusion width = 0.40mm
; first layer extrusion width = 0.48mm

; object:{"name":"BunkerRTop","id":"BunkerRTop.stl id:0 copy 0","object_center":[152.500000,150.000000,0.000000],"boundingbox_center":[152.500000,150.000000,47.366272],"boundingbox_size":[100.212662,215.860931,94.732544]}
; plater:{"center":[152.500000,150.000000,0.000000],"boundingbox_center":[152.500000,150.000000,47.366272],"boundingbox_size":[100.212662,215.860931,94.732544]}

M73 P0 R518
;TYPE:Custom
START_PRINT T_BED=60 T_EXTRUDER=200
M107
G21 ; set units to millimeters
G90 ; use absolute coordinates
M83 ; use relative distances for extrusion
; Filament gcode
M104 S200 ; set temperature
M109 S200 ; set temperature and wait for it to be reached
M190 S60 ; set bed temperature and wait for it to be reached
M107
;LAYER_CHANGE
;Z:0.24
;HEIGHT:0.24
G1 Z0.24 F9000
G92 E0
G1 E-0.8 F3000
M204 S1000
G1 X133.875 Y41.22 F9000
G1 E0.8 F1800
;TYPE:Skirt
;WIDTH:0.52
G1 X99.03 Y165.097 E5.89524
G1 X98.799 Y166.661 E0.07243
G1 X98.794 Y174.422 E0.35557
G1 X98.897 Y175.592 E0.05381
G1 X99.041 Y176.223 E0.02963
G1 X99.355 Y177.102 E0.0428
G1 X99.802 Y177.949 E0.04384
G1 X122.961 Y213.722 E1.95228
G1 X124.389 Y215.545 E0.10608
G1 X142.99 Y236.687 E1.2901
G1 X144.351 Y237.661 E0.07663
G1 X201.089 Y261.195 E2.81402
G1 X203.142 Y261.423 E0.09461
G1 X204.712 Y260.749 E0.07828
G1 X205.811 Y259.441 E0.07828
G1 X206.206 Y257.778 E0.07828
G1 X206.206 Y70.402 E8.58401
M73 P0 R517
G1 X205.345 Y68.03 E0.1156
G1 X203.977 Y67.008 E0.07828
G1 X138.906 Y38.827 E3.24853
G1 X137.812 Y38.541 E0.05184
G1 X136.118 Y38.765 E0.07828
G1 X134.705 Y39.726 E0.07828
G1 X133.875 Y41.22 E0.07828
G1 X134.324 Y41.346 F9000
G1 F1800
G1 X99.483 Y165.21 E5.89462
G1 X99.31 Y166.08 E0.04062
G1 X99.26 Y166.842 E0.035
G1 X99.26 Y174.422 E0.34725
G1 X99.355 Y175.501 E0.04962
G1 X99.487 Y176.087 E0.02754
G1 X99.786 Y176.924 E0.0407
G1 X100.194 Y177.695 E0.03996
G1 X123.334 Y213.442 E1.9508
G1 X124.739 Y215.237 E0.10441
G1 X143.341 Y236.379 E1.2901
G1 X144.529 Y237.23 E0.06697
G1 X201.268 Y260.765 E2.81402
G1 X202.747 Y261.002 E0.06866
G1 X204.26 Y260.494 E0.07311
G1 X205.346 Y259.325 E0.07311
G1 X205.74 Y257.778 E0.07311
G1 X205.74 Y70.402 E8.58401
G1 X205.054 Y68.412 E0.09647
G1 X203.791 Y67.436 E0.07311
G1 X138.721 Y39.255 E3.24853
G1 X136.483 Y39.132 E0.10267
G1 X135.122 Y39.964 E0.07311
G1 X134.324 Y41.346 E0.07311
G1 E-0.8 F3000
; printing object BunkerRTop.stl id:0 copy 0
G1 X135.366 Y189.26 F9000
G1 E0.8 F1800
;TYPE:Support material
;WIDTH:0.48
G1 X135.687 Y189.428 E0.01519
G1 X136.089 Y189.638 E0.01902
G1 X136.382 Y189.792 E0.01385
G1 X136.382 Y196.366 E0.27547
G1 X135.366 Y196.366 E0.04257
G1 X135.366 Y196.026 E0.01426
G1 X135.366 Y195.531 E0.02073
G1 X135.366 Y195.037 E0.02073
G1 X135.366 Y194.542 E0.02073
G1 X135.366 Y194.047 E0.02073
G1 X135.366 Y193.553 E0.02073
G1 X135.366 Y193.058 E0.02073
G1 X135.366 Y192.563 E0.02073
G1 X135.366 Y192.069 E0.02073
G1 X135.366 Y191.574 E0.02073
G1 X135.366 Y191.079 E0.02073
G1 X135.366 Y190.585 E0.02073
G1 X135.366 Y190.09 E0.02073
G1 X135.366 Y189.26 E0.03478
G1 X135.836 Y196.259 F9000
G1 F1800
G1 X135.836 Y189.627 E0.27788
G1 E-0.8 F3000
G1 X134.498 Y186.286 F9000
G1 E0.8 F1800
;TYPE:Internal perimeter
G1 X133.214 Y185.549 E0.06202
G1 X133.214 Y188.111 E0.10735
G1 X133.215 Y200.49 E0.51869
G1 X133.226 Y201.051 E0.02349
G1 X133.264 Y201.514 E0.01946
G1 X133.352 Y202.112 E0.02532
G1 X133.576 Y203.029 E0.03957
G1 X133.746 Y203.532 E0.02226
G1 X134.078 Y204.297 E0.03492
G1 X134.339 Y204.782 E0.02308
G1 X134.612 Y205.221 E0.02168
G1 X135.197 Y206 E0.04082
G1 X135.811 Y206.647 E0.03736
G1 X136.233 Y207.019 E0.02358
G1 X137.191 Y207.764 E0.05086
G1 X138.533 Y207.108 E0.0626
G1 X138.533 Y188.49 E0.7801
G1 X136.303 Y187.322 E0.10548
G1 X134.498 Y186.286 E0.08719
G1 X134.285 Y186.658 F9000
G1 F1800
G1 X133.643 Y186.289 E0.03101
G1 X133.643 Y188.111 E0.07634
G1 X133.643 Y200.486 E0.5185
G1 X133.654 Y201.029 E0.02276
G1 X133.69 Y201.465 E0.01835
G1 X133.773 Y202.03 E0.0239
G1 X133.987 Y202.909 E0.03793
G1 X134.146 Y203.378 E0.02074
G1 X134.464 Y204.11 E0.03342
G1 X134.71 Y204.567 E0.02177
G1 X134.966 Y204.979 E0.02032
G1 X135.525 Y205.723 E0.03899
G1 X136.108 Y206.338 E0.03552
G1 X136.506 Y206.689 E0.02221
G1 X137.243 Y207.262 E0.03911
G1 X138.105 Y206.84 E0.04019
G1 X138.105 Y188.749 E0.75803
G1 X136.097 Y187.698 E0.09496
G1 X134.285 Y186.658 E0.08754
G1 X134.071 Y187.029 F9000
;TYPE:External perimeter
G1 F1800
G1 X134.071 Y188.111 E0.04533
G1 X134.072 Y200.481 E0.51832
G1 X134.083 Y201.007 E0.02202
G1 X134.116 Y201.417 E0.01723
G1 X134.194 Y201.948 E0.02249
G1 X134.399 Y202.789 E0.0363
G1 X134.547 Y203.224 E0.01921
G1 X134.85 Y203.923 E0.03193
G1 X135.081 Y204.352 E0.02046
G1 X135.32 Y204.737 E0.01897
G1 X135.853 Y205.446 E0.03717
G1 X136.406 Y206.03 E0.03369
G1 X136.78 Y206.359 E0.02085
G1 X137.295 Y206.759 E0.02736
G1 X137.676 Y206.573 E0.01778
G1 X137.676 Y189.008 E0.73596
G1 X135.891 Y188.074 E0.08444
G1 X134.071 Y187.029 E0.08789
;WIPE_START
M204 S3000
G1 X133.677 Y186.96 F9000
;WIPE_END
M204 S1000
G1 X114.518 Y163.977
;TYPE:Internal perimeter
G1 F1800
G1 X114.374 Y163.342 E0.02732
G1 X113.997 Y159.898 E0.14516
G1 X113.667 Y156.01 E0.16349
G1 X113.424 Y151.999 E0.16837
G1 X113.372 Y150.838 E0.04868
G1 X113.606 Y147.083 E0.15767
G1 X113.897 Y143.865 E0.13539
G1 X114.038 Y142.618 E0.05257
G1 X115.784 Y142.618 E0.07315
G1 X116.501 Y139.853 E0.11966
G1 X117.062 Y138.036 E0.07969
G1 X117.707 Y136.247 E0.0797
G1 X118.434 Y134.489 E0.0797
G1 X119.092 Y133.082 E0.06508
G1 X119.24 Y132.766 E0.01461
G1 X120.125 Y131.082 E0.07971
G1 X121.087 Y129.441 E0.0797
G1 X121.276 Y129.149 E0.01457
G1 X122.133 Y127.83 E0.06592
G1 X123.231 Y126.3 E0.07889
G1 X124.41 Y124.807 E0.07971
G1 X125.655 Y123.37 E0.07969
G1 X127.064 Y121.889 E0.08565
G1 X127.72 Y120.863 E0.051
G1 X128.057 Y120.389 E0.02435
G1 X128.806 Y119.446 E0.05048
G1 X129.614 Y118.566 E0.05007
G1 X130.025 Y118.163 E0.02412
G1 X130.802 Y117.473 E0.04355
G1 X131.754 Y116.735 E0.05044
G1 X132.753 Y116.069 E0.05032
G1 X133.792 Y115.478 E0.05007
G1 X134.872 Y114.961 E0.05018
G1 X135.404 Y114.741 E0.02412
G1 X136.544 Y114.339 E0.05065
G1 X138.533 Y113.788 E0.08648
G1 X138.533 Y43.892 E2.92866
G1 X201.409 Y71.123 E2.87099
G1 X201.409 Y256.108 E7.75093
G1 X162.223 Y239.137 E1.7893
G1 X162.223 Y236.332 E0.11751
G1 X146.364 Y233.242 E0.67697
G1 X144.229 Y230.651 E0.14068
G1 X144.229 Y219.71 E0.45845
G1 X138.533 Y219.71 E0.23866
G1 X138.533 Y218.342 E0.05733
G1 X136.99 Y217.962 E0.06657
G1 X136.137 Y217.713 E0.03724
G1 X135.3 Y217.424 E0.03711
G1 X134.477 Y217.095 E0.03715
G1 X133.67 Y216.726 E0.03718
G1 X132.831 Y216.29 E0.0396
G1 X132.069 Y215.844 E0.037
G1 X131.351 Y215.375 E0.03594
G1 X130.659 Y214.876 E0.03573
G1 X130.131 Y214.459 E0.02822
G1 X129.358 Y213.786 E0.04292
G1 X128.558 Y213.001 E0.04698
G1 X127.993 Y212.38 E0.03516
G1 X127.568 Y211.87 E0.02782
G1 X126.822 Y210.876 E0.05209
G1 X126.1 Y209.754 E0.05589
G1 X125.445 Y208.548 E0.05751
G1 X125.155 Y207.93 E0.02862
G1 X124.892 Y207.312 E0.02812
G1 X124.43 Y206.025 E0.05729
G1 X124.195 Y205.221 E0.03511
G1 X124.006 Y204.44 E0.03367
G1 X123.875 Y203.782 E0.0281
G1 X123.745 Y202.946 E0.03544
G1 X123.654 Y202.104 E0.03548
G1 X123.61 Y201.433 E0.02818
G1 X123.59 Y200.554 E0.03686
G1 X123.59 Y176.463 E1.00941
G1 X122.189 Y174.564 E0.0989
G1 X120.475 Y175.127 E0.07558
G1 X120.475 Y176.257 E0.04736
G1 X105.228 Y176.245 E0.63885
G1 X104.88 Y176.176 E0.0149
G1 X104.555 Y176.042 E0.01471
G1 X104.323 Y175.895 E0.0115
G1 X104.063 Y175.659 E0.01471
G1 X103.851 Y175.373 E0.0149
G1 X103.7 Y175.052 E0.01489
G1 X103.614 Y174.713 E0.01465
G1 X103.591 Y174.383 E0.01385
G1 X103.602 Y166.662 E0.32352
G1 X103.671 Y166.317 E0.01473
G1 X103.768 Y166.065 E0.01134
G1 X103.901 Y165.829 E0.01134
G1 X104.121 Y165.561 E0.01454
G1 X104.33 Y165.382 E0.01152
G1 X104.627 Y165.203 E0.01454
G1 X104.884 Y165.104 E0.01151
G1 X105.228 Y165.036 E0.01473
G1 X114.755 Y165.023 E0.39917
G1 X114.518 Y163.977 E0.04492
G1 X114.1 Y164.072 F9000
G1 F1800
G1 X113.951 Y163.413 E0.02834
G1 X113.57 Y159.939 E0.1464
G1 X113.24 Y156.041 E0.16392
G1 X112.996 Y152.022 E0.16873
G1 X112.943 Y150.835 E0.04978
G1 X113.178 Y147.05 E0.15888
G1 X113.471 Y143.821 E0.13585
G1 X113.656 Y142.189 E0.06881
G1 X115.453 Y142.189 E0.07529
G1 X116.089 Y139.736 E0.10618
G1 X116.656 Y137.9 E0.08052
G1 X117.307 Y136.092 E0.08053
G1 X118.041 Y134.316 E0.08053
G1 X118.704 Y132.9 E0.0655
G1 X118.856 Y132.576 E0.01502
G1 X119.75 Y130.874 E0.08053
G1 X120.722 Y129.216 E0.08053
G1 X120.917 Y128.916 E0.01499
G1 X121.78 Y127.589 E0.06633
G1 X122.889 Y126.043 E0.07972
G1 X124.079 Y124.534 E0.08054
G1 X125.338 Y123.082 E0.08052
G1 X126.725 Y121.623 E0.08434
G1 X127.364 Y120.623 E0.04972
G1 X127.714 Y120.132 E0.02527
G1 X128.48 Y119.168 E0.05159
G1 X129.306 Y118.268 E0.05119
G1 X129.733 Y117.849 E0.02504
G1 X130.529 Y117.143 E0.04459
G1 X131.503 Y116.387 E0.05168
G1 X132.528 Y115.704 E0.0516
G1 X133.593 Y115.098 E0.05135
G1 X134.698 Y114.57 E0.0513
G1 X135.251 Y114.341 E0.02509
G1 X136.416 Y113.93 E0.05175
G1 X138.105 Y113.462 E0.07344
G1 X138.105 Y43.24 E2.94235
G1 X201.838 Y70.841 E2.91012
M73 P0 R516
G1 X201.838 Y256.76 E7.79006
G1 X161.794 Y239.418 E1.82843
G1 X161.794 Y236.685 E0.11451
G1 X146.131 Y233.634 E0.66862
G1 X143.801 Y230.805 E0.15357
G1 X143.801 Y220.138 E0.44694
G1 X138.105 Y220.138 E0.23866
G1 X138.105 Y218.677 E0.06121
G1 X136.879 Y218.376 E0.05288
G1 X136.007 Y218.122 E0.03806
G1 X135.15 Y217.826 E0.03798
G1 X134.308 Y217.489 E0.03802
G1 X133.482 Y217.111 E0.03807
G1 X132.624 Y216.665 E0.0405
G1 X131.844 Y216.208 E0.03789
G1 X131.108 Y215.728 E0.0368
G1 X130.401 Y215.218 E0.03653
G1 X129.857 Y214.789 E0.02904
G1 X129.067 Y214.101 E0.04389
G1 X128.25 Y213.298 E0.04802
G1 X127.67 Y212.662 E0.03605
G1 X127.232 Y212.136 E0.02867
G1 X126.47 Y211.12 E0.0532
G1 X125.731 Y209.972 E0.05721
G1 X125.063 Y208.741 E0.0587
G1 X124.764 Y208.105 E0.02947
G1 X124.493 Y207.469 E0.02896
G1 X124.022 Y206.158 E0.05836
G1 X123.781 Y205.331 E0.03607
G1 X123.588 Y204.532 E0.03445
G1 X123.453 Y203.857 E0.02885
G1 X123.32 Y203.002 E0.03625
G1 X123.227 Y202.141 E0.03629
G1 X123.182 Y201.452 E0.02894
G1 X123.162 Y200.559 E0.03744
G1 X123.161 Y176.604 E1.0037
G1 X122.028 Y175.067 E0.08
G1 X120.904 Y175.437 E0.04959
G1 X120.904 Y176.686 E0.05234
G1 X105.425 Y176.685 E0.64857
G1 X105.186 Y176.674 E0.01002
G1 X104.968 Y176.641 E0.00922
G1 X104.755 Y176.588 E0.00922
G1 X104.548 Y176.514 E0.00922
G1 X104.357 Y176.424 E0.00883
G1 X104.063 Y176.237 E0.01461
G1 X103.9 Y176.104 E0.00882
G1 X103.744 Y175.948 E0.00922
G1 X103.604 Y175.778 E0.00923
G1 X103.482 Y175.595 E0.00922
G1 X103.378 Y175.401 E0.00922
G1 X103.294 Y175.197 E0.00922
G1 X103.23 Y174.987 E0.00922
G1 X103.189 Y174.781 E0.00879
G1 X103.162 Y174.398 E0.01608
G1 X103.162 Y166.859 E0.31592
G1 X103.174 Y166.62 E0.01001
G1 X103.206 Y166.402 E0.00922
G1 X103.257 Y166.198 E0.00883
G1 X103.379 Y165.881 E0.01422
G1 X103.547 Y165.586 E0.01422
G1 X103.672 Y165.417 E0.00883
G1 X103.814 Y165.261 E0.00883
G1 X104.078 Y165.033 E0.01461
G1 X104.253 Y164.916 E0.00883
G1 X104.439 Y164.817 E0.00883
G1 X104.764 Y164.691 E0.01461
G1 X104.968 Y164.64 E0.00883
G1 X105.186 Y164.608 E0.00922
G1 X105.425 Y164.596 E0.01002
G1 X114.219 Y164.595 E0.36846
G1 X114.1 Y164.072 E0.02248
G1 X113.682 Y164.167 F9000
;TYPE:External perimeter
G1 F1800
G1 X113.527 Y163.483 E0.02936
G1 X113.144 Y159.981 E0.14764
G1 X112.812 Y156.072 E0.16436
G1 X112.568 Y152.044 E0.16909
G1 X112.514 Y150.831 E0.05088
G1 X112.751 Y147.017 E0.16009
G1 X113.044 Y143.778 E0.1363
G1 X113.273 Y141.761 E0.08505
G1 X115.121 Y141.761 E0.07743
G1 X115.676 Y139.619 E0.0927
G1 X116.25 Y137.764 E0.08135
G1 X116.908 Y135.938 E0.08136
G1 X117.649 Y134.143 E0.08135
G1 X118.316 Y132.718 E0.06592
G1 X118.472 Y132.385 E0.01543
G1 X119.376 Y130.666 E0.08135
G1 X120.357 Y128.991 E0.08135
G1 X120.558 Y128.682 E0.01542
G1 X121.426 Y127.347 E0.06674
G1 X122.546 Y125.785 E0.08054
G1 X123.749 Y124.261 E0.08136
G1 X125.021 Y122.794 E0.08134
G1 X126.386 Y121.358 E0.08303
G1 X127.009 Y120.384 E0.04844
G1 X127.371 Y119.874 E0.02619
G1 X128.154 Y118.889 E0.05271
G1 X128.998 Y117.969 E0.05231
G1 X129.441 Y117.536 E0.02596
G1 X130.255 Y116.813 E0.04563
G1 X131.253 Y116.039 E0.05292
G1 X132.303 Y115.339 E0.05287
G1 X133.394 Y114.718 E0.05263
G1 X134.523 Y114.178 E0.05242
G1 X135.097 Y113.94 E0.02605
G1 X136.287 Y113.521 E0.05285
G1 X137.676 Y113.136 E0.0604
G1 X137.676 Y42.587 E2.95603
G1 X202.266 Y70.56 E2.94925
G1 X202.266 Y257.413 E7.82919
G1 X161.366 Y239.699 E1.86757
G1 X161.366 Y237.038 E0.1115
G1 X145.898 Y234.025 E0.66027
G1 X143.372 Y230.959 E0.16646
G1 X143.372 Y220.567 E0.43543
G1 X137.676 Y220.567 E0.23866
G1 X137.676 Y219.013 E0.06509
G1 X136.768 Y218.79 E0.03919
G1 X135.877 Y218.53 E0.03888
G1 X135.001 Y218.228 E0.03885
G1 X134.139 Y217.883 E0.03889
G1 X133.294 Y217.496 E0.03895
G1 X132.417 Y217.04 E0.0414
G1 X131.618 Y216.573 E0.03877
G1 X130.866 Y216.082 E0.03766
G1 X130.143 Y215.56 E0.03734
G1 X129.584 Y215.119 E0.02986
G1 X128.776 Y214.416 E0.04486
G1 X127.941 Y213.595 E0.04906
G1 X127.347 Y212.943 E0.03693
G1 X126.896 Y212.402 E0.02953
G1 X126.118 Y211.365 E0.05432
G1 X125.362 Y210.191 E0.05852
G1 X124.68 Y208.935 E0.0599
G1 X124.373 Y208.28 E0.03032
G1 X124.094 Y207.625 E0.02981
G1 X123.614 Y206.29 E0.05943
G1 X123.367 Y205.442 E0.03704
G1 X123.169 Y204.625 E0.03522
G1 X123.031 Y203.932 E0.02959
G1 X122.895 Y203.058 E0.03706
G1 X122.8 Y202.178 E0.0371
G1 X122.754 Y201.471 E0.0297
G1 X122.733 Y200.563 E0.03802
G1 X122.733 Y176.745 E0.998
G1 X121.867 Y175.571 E0.0611
G1 X121.332 Y175.747 E0.0236
G1 X121.332 Y177.115 E0.0573
G1 X105.414 Y177.114 E0.66697
G1 X105.144 Y177.101 E0.01134
G1 X104.885 Y177.062 E0.01098
G1 X104.63 Y176.999 E0.01099
G1 X104.383 Y176.91 E0.01099
G1 X104.15 Y176.8 E0.01081
G1 X103.811 Y176.585 E0.01682
G1 X103.612 Y176.421 E0.01081
G1 X103.426 Y176.236 E0.01099
G1 X103.26 Y176.033 E0.01099
G1 X103.114 Y175.815 E0.01098
G1 X102.991 Y175.584 E0.01099
G1 X102.89 Y175.342 E0.01099
G1 X102.814 Y175.091 E0.01099
G1 X102.764 Y174.838 E0.01079
G1 X102.734 Y174.413 E0.01784
G1 X102.734 Y166.848 E0.317
G1 X102.747 Y166.578 E0.01134
G1 X102.785 Y166.318 E0.01099
G1 X102.848 Y166.068 E0.01081
G1 X102.991 Y165.698 E0.01664
G1 X103.187 Y165.352 E0.01664
G1 X103.341 Y165.145 E0.01081
G1 X103.514 Y164.953 E0.01081
G1 X103.818 Y164.691 E0.01682
G1 X104.032 Y164.548 E0.01081
G1 X104.26 Y164.426 E0.01081
G1 X104.634 Y164.282 E0.01682
G1 X104.885 Y164.219 E0.01081
G1 X105.144 Y164.181 E0.01098
G1 X105.414 Y164.167 E0.01134
G1 X113.682 Y164.167 E0.34643
;WIPE_START
M204 S3000
G1 X114.078 Y164.108 F9000
;WIPE_END
M204 S1000
G1 X201.345 Y72.039
;TYPE:Solid infill
;WIDTH:0.478373
G1 F2400
G1 X200.158 Y70.852 E0.07008
G1 X199.089 Y70.389 E0.04864
G1 X201.161 Y72.46 E0.12232
G1 X201.161 Y73.066 E0.0253
G1 X198.021 Y69.926 E0.18545
G1 X196.952 Y69.463 E0.04864
G1 X201.161 Y73.672 E0.24857
G1 X201.161 Y74.278 E0.0253
G1 X195.883 Y69 E0.3117
G1 X194.814 Y68.537 E0.04864
G1 X201.161 Y74.884 E0.37482
G1 X201.161 Y75.49 E0.0253
G1 X193.745 Y68.074 E0.43795
G1 X192.676 Y67.611 E0.04864
G1 X201.161 Y76.096 E0.50107
G1 X201.161 Y76.702 E0.0253
G1 X191.607 Y67.149 E0.5642
G1 X190.538 Y66.686 E0.04864
G1 X201.161 Y77.308 E0.62732
G1 X201.161 Y77.914 E0.0253
G1 X189.469 Y66.223 E0.69044
G1 X188.4 Y65.76 E0.04864
G1 X201.161 Y78.52 E0.75357
G1 X201.161 Y79.126 E0.0253
G1 X187.332 Y65.297 E0.81669
G1 X186.263 Y64.834 E0.04864
G1 X201.161 Y79.732 E0.87982
G1 X201.161 Y80.338 E0.0253
G1 X185.194 Y64.371 E0.94294
G1 X184.125 Y63.908 E0.04864
G1 X201.161 Y80.944 E1.00607
G1 X201.161 Y81.55 E0.0253
G1 X183.056 Y63.445 E1.06919
G1 X181.987 Y62.982 E0.04864
G1 X201.161 Y82.156 E1.13232
