; generated by SuperSlicer 2.4 on 2022-06-27 at 13:55:17 UTC


;
;

;
;
; 

; external perimeters extrusion width = 0.40mm
; perimeters extrusion width = 0.40mm
; infill extrusion width = 0.72mm
; solid infill extrusion width = 0.56mm
; top infill extrusion width = 0.40mm
; support material extrusion width = 0.40mm
; first layer extrusion width = 0.48mm

; object:{"name":"BunkerComputer","id":"BunkerComputer.stl id:0 copy 0","object_center":[152.500001,150.000000,0.000000],"boundingbox_center":[152.500001,150.000000,3.566154],"boundingbox_size":[59.160945,151.270875,7.132307]}
; plater:{"center":[152.500001,150.000000,0.000000],"boundingbox_center":[152.500001,150.000000,3.566154],"boundingbox_size":[59.160945,151.270875,7.132307]}

M73 P0 R100
;TYPE:Custom
START_PRINT T_BED=60 T_EXTRUDER=200
M107
G21 ; set units to millimeters
G90 ; use absolute coordinates
M83 ; use relative distances for extrusion
; Filament gcode
M104 S200 ; set temperature
M109 S200 ; set temperature and wait for it to be reached
M190 S60 ; set bed temperature and wait for it to be reached
M107
;LAYER_CHANGE
;Z:0.24
;HEIGHT:0.24
G1 Z0.24 F9000
G92 E0
G1 E-0.8 F3000
M204 S1000
G1 X120.777 Y74.367 F9000
G1 E0.8 F1800
;TYPE:Skirt
;WIDTH:0.52
G1 X120.167 Y75.408 E0.05529
G1 X119.74 Y76.442 E0.05123
G1 X119.439 Y77.65 E0.05703
G1 X119.32 Y79.038 E0.06384
G1 X119.466 Y221.03 E6.50488
G1 X119.606 Y222.506 E0.06791
G1 X119.911 Y223.674 E0.05532
G1 X120.384 Y224.784 E0.05528
G1 X120.96 Y225.743 E0.05124
G1 X121.75 Y226.704 E0.05698
G1 X123.017 Y227.778 E0.0761
G1 X124.058 Y228.388 E0.05529
G1 X125.178 Y228.84 E0.05529
G1 X126.263 Y229.11 E0.05123
G1 X127.687 Y229.235 E0.0655
G1 X178.149 Y229.15 E2.31174
G1 X179.342 Y228.961 E0.05536
G1 X180.494 Y228.599 E0.0553
G1 X181.58 Y228.073 E0.05529
G1 X182.578 Y227.392 E0.05532
G1 X183.464 Y226.574 E0.05526
G1 X184.22 Y225.633 E0.05531
G1 X184.831 Y224.591 E0.05531
G1 X185.257 Y223.558 E0.05119
G1 X185.559 Y222.351 E0.05701
G1 X185.677 Y220.962 E0.06388
G1 X185.526 Y78.747 E6.51513
G1 X185.332 Y77.186 E0.07204
G1 X184.83 Y75.66 E0.07361
G1 X184.039 Y74.259 E0.07369
G1 X183.246 Y73.295 E0.05718
G1 X182.025 Y72.249 E0.07367
G1 X181.022 Y71.649 E0.0535
G1 X179.522 Y71.068 E0.07372
G1 X177.986 Y70.798 E0.07142
G1 X126.849 Y70.851 E2.34271
G1 X125.655 Y71.039 E0.05535
G1 X124.503 Y71.401 E0.0553
G1 X123.418 Y71.927 E0.05528
G1 X122.42 Y72.608 E0.05531
G1 X121.534 Y73.427 E0.05532
G1 X120.777 Y74.367 E0.05528
G1 X121.171 Y74.616 F9000
G1 F1800
G1 X120.593 Y75.597 E0.05215
G1 X120.187 Y76.577 E0.04861
G1 X119.896 Y77.74 E0.05493
G1 X119.786 Y79.038 E0.05965
G1 X119.932 Y221.029 E6.50488
G1 X120.061 Y222.403 E0.0632
G1 X120.346 Y223.506 E0.05217
G1 X120.789 Y224.554 E0.05214
G1 X121.334 Y225.465 E0.04862
G1 X122.095 Y226.39 E0.05489
G1 X123.266 Y227.384 E0.07034
G1 X124.247 Y227.962 E0.05215
G1 X125.302 Y228.39 E0.05215
G1 X126.331 Y228.648 E0.04861
G1 X127.687 Y228.769 E0.06236
G1 X178.091 Y228.687 E2.30913
G1 X179.218 Y228.512 E0.05222
G1 X180.305 Y228.173 E0.05216
G1 X181.33 Y227.679 E0.05215
G1 X182.273 Y227.039 E0.05218
G1 X183.11 Y226.269 E0.05213
G1 X183.826 Y225.384 E0.05217
G1 X184.405 Y224.403 E0.05217
G1 X184.811 Y223.424 E0.04858
G1 X185.101 Y222.26 E0.05492
G1 X185.211 Y220.962 E0.05969
G1 X185.06 Y78.747 E6.51513
M73 P0 R99
G1 X184.879 Y77.3 E0.06681
G1 X184.408 Y75.86 E0.06943
G1 X183.664 Y74.537 E0.06951
G1 X182.901 Y73.609 E0.05508
G1 X181.747 Y72.624 E0.06949
G1 X180.823 Y72.071 E0.04931
G1 X179.409 Y71.521 E0.06954
G1 X177.93 Y71.261 E0.0688
G1 X126.906 Y71.313 E2.33748
G1 X125.78 Y71.489 E0.05221
G1 X124.693 Y71.827 E0.05216
G1 X123.667 Y72.321 E0.05214
G1 X122.725 Y72.96 E0.05217
G1 X121.887 Y73.731 E0.05217
G1 X121.171 Y74.616 E0.05214
G1 E-0.8 F3000
; printing object BunkerComputer.stl id:0 copy 0
G1 X147.061 Y146.737 F9000
G1 E0.8 F1800
;TYPE:Internal perimeter
;WIDTH:0.48
G1 X146.906 Y147.486 E0.03206
G1 X146.848 Y148.03 E0.02291
G1 X146.844 Y148.576 E0.0229
G1 X146.895 Y149.121 E0.02291
G1 X146.998 Y149.658 E0.02291
G1 X147.154 Y150.182 E0.02291
G1 X147.361 Y150.687 E0.0229
G1 X147.617 Y151.171 E0.02291
G1 X147.919 Y151.626 E0.02291
G1 X148.264 Y152.05 E0.0229
G1 X148.65 Y152.438 E0.02291
G1 X149.072 Y152.785 E0.02291
G1 X149.526 Y153.09 E0.0229
G1 X150.007 Y153.348 E0.0229
G1 X150.512 Y153.558 E0.02291
G1 X151.036 Y153.716 E0.02291
G1 X151.572 Y153.823 E0.0229
G1 X152.116 Y153.876 E0.02291
G1 X152.663 Y153.875 E0.0229
G1 X153.207 Y153.821 E0.02291
G1 X153.743 Y153.713 E0.0229
G1 X154.265 Y153.553 E0.02291
G1 X154.77 Y153.342 E0.02291
G1 X155.251 Y153.082 E0.02291
G1 X155.704 Y152.776 E0.02291
G1 X156.125 Y152.428 E0.02291
G1 X156.509 Y152.039 E0.02291
G1 X156.854 Y151.614 E0.02291
G1 X157.155 Y151.158 E0.02291
G1 X157.409 Y150.674 E0.0229
G1 X157.614 Y150.167 E0.02291
G1 X157.769 Y149.643 E0.02291
G1 X157.874 Y149.091 E0.02352
G1 X157.926 Y148.288 E0.03373
G1 X157.859 Y147.486 E0.03373
G1 X157.557 Y146.044 E0.06174
G1 X156.089 Y146.045 E0.0615
G1 X147.202 Y146.054 E0.37235
G1 X147.061 Y146.737 E0.0292
G1 X147.48 Y146.824 F9000
G1 F1800
G1 X147.329 Y147.552 E0.03117
G1 X147.276 Y148.054 E0.02114
G1 X147.273 Y148.558 E0.02113
G1 X147.319 Y149.06 E0.02113
G1 X147.415 Y149.556 E0.02113
G1 X147.559 Y150.039 E0.02114
G1 X147.75 Y150.506 E0.02113
G1 X147.986 Y150.952 E0.02113
G1 X148.264 Y151.372 E0.02114
G1 X148.583 Y151.763 E0.02113
G1 X148.939 Y152.12 E0.02113
G1 X149.328 Y152.441 E0.02114
G1 X149.747 Y152.722 E0.02113
G1 X150.191 Y152.96 E0.02113
G1 X150.657 Y153.154 E0.02114
G1 X151.14 Y153.3 E0.02114
G1 X151.635 Y153.399 E0.02113
G1 X152.137 Y153.448 E0.02114
G1 X152.641 Y153.447 E0.02113
G1 X153.143 Y153.396 E0.02114
G1 X153.637 Y153.297 E0.02113
G1 X154.119 Y153.149 E0.02113
G1 X154.585 Y152.955 E0.02113
G1 X155.029 Y152.715 E0.02113
G1 X155.447 Y152.433 E0.02113
G1 X155.835 Y152.111 E0.02114
G1 X156.19 Y151.753 E0.02113
G1 X156.508 Y151.361 E0.02114
G1 X156.785 Y150.94 E0.02113
G1 X157.02 Y150.493 E0.02113
G1 X157.209 Y150.026 E0.02114
G1 X157.352 Y149.542 E0.02114
G1 X157.448 Y149.037 E0.02153
G1 X157.496 Y148.292 E0.03129
G1 X157.434 Y147.548 E0.03129
G1 X157.209 Y146.472 E0.04603
G1 X156.089 Y146.474 E0.0469
G1 X147.551 Y146.482 E0.35775
G1 X147.48 Y146.824 E0.0146
G1 X147.9 Y146.911 F9000
;TYPE:External perimeter
G1 F1800
G1 X147.753 Y147.618 E0.03028
G1 X147.705 Y148.078 E0.01936
G1 X147.702 Y148.54 E0.01936
G1 X147.744 Y149 E0.01936
G1 X147.832 Y149.454 E0.01936
G1 X147.964 Y149.896 E0.01936
G1 X148.138 Y150.324 E0.01936
G1 X148.354 Y150.732 E0.01936
G1 X148.61 Y151.118 E0.01936
G1 X148.902 Y151.476 E0.01936
G1 X149.228 Y151.803 E0.01936
G1 X149.584 Y152.097 E0.01936
G1 X149.968 Y152.355 E0.01936
G1 X150.375 Y152.573 E0.01936
G1 X150.802 Y152.75 E0.01936
G1 X151.244 Y152.884 E0.01936
G1 X151.697 Y152.974 E0.01936
G1 X152.157 Y153.019 E0.01936
G1 X152.619 Y153.018 E0.01936
G1 X153.079 Y152.972 E0.01936
G1 X153.532 Y152.881 E0.01936
G1 X153.974 Y152.746 E0.01936
G1 X154.4 Y152.567 E0.01936
G1 X154.807 Y152.348 E0.01936
G1 X155.19 Y152.09 E0.01936
G1 X155.545 Y151.795 E0.01936
G1 X155.87 Y151.466 E0.01936
G1 X156.161 Y151.107 E0.01936
G1 X156.416 Y150.722 E0.01936
G1 X156.631 Y150.313 E0.01936
G1 X156.804 Y149.884 E0.01936
G1 X156.935 Y149.441 E0.01936
G1 X157.022 Y148.983 E0.01953
G1 X157.067 Y148.296 E0.02885
G1 X157.009 Y147.61 E0.02885
G1 X156.861 Y146.901 E0.03033
G1 X156.09 Y146.902 E0.03231
G1 X147.9 Y146.911 E0.34315
;WIPE_START
M204 S3000
G1 X147.504 Y146.856 F9000
;WIPE_END
M204 S1000
G1 X141.574 Y146.763
;TYPE:Internal perimeter
G1 F1800
G1 X141.445 Y146.06 E0.02994
G1 X139.953 Y146.062 E0.06254
G1 X131.066 Y146.071 E0.37236
G1 X130.769 Y147.502 E0.06125
G1 X130.712 Y148.046 E0.02291
G1 X130.708 Y148.593 E0.0229
G1 X130.758 Y149.137 E0.02291
G1 X130.862 Y149.674 E0.0229
G1 X131.018 Y150.198 E0.02291
G1 X131.225 Y150.704 E0.02291
G1 X131.48 Y151.187 E0.0229
G1 X131.782 Y151.643 E0.02291
G1 X132.128 Y152.067 E0.02291
G1 X132.513 Y152.454 E0.0229
G1 X132.935 Y152.802 E0.02291
G1 X133.389 Y153.106 E0.0229
G1 X133.871 Y153.365 E0.0229
G1 X134.376 Y153.574 E0.0229
G1 X134.899 Y153.733 E0.02291
G1 X135.435 Y153.839 E0.0229
G1 X135.98 Y153.893 E0.02291
G1 X136.526 Y153.892 E0.0229
G1 X137.07 Y153.837 E0.02291
G1 X137.606 Y153.729 E0.0229
G1 X138.129 Y153.569 E0.02291
G1 X138.633 Y153.358 E0.0229
G1 X139.114 Y153.099 E0.0229
G1 X139.568 Y152.793 E0.02291
G1 X139.988 Y152.444 E0.02291
G1 X140.373 Y152.056 E0.0229
G1 X140.717 Y151.631 E0.02291
G1 X141.018 Y151.175 E0.02291
G1 X141.272 Y150.691 E0.0229
G1 X141.478 Y150.184 E0.02291
G1 X141.633 Y149.66 E0.02291
G1 X141.738 Y149.108 E0.02352
G1 X141.789 Y148.32 E0.03312
G1 X141.755 Y147.744 E0.02414
G1 X141.574 Y146.763 E0.04181
G1 X141.153 Y146.84 F9000
G1 F1800
G1 X141.088 Y146.489 E0.01497
G1 X139.953 Y146.49 E0.04757
G1 X131.415 Y146.499 E0.35776
G1 X131.193 Y147.569 E0.04576
G1 X131.14 Y148.07 E0.02114
G1 X131.137 Y148.574 E0.02113
G1 X131.183 Y149.077 E0.02114
G1 X131.279 Y149.572 E0.02113
G1 X131.423 Y150.055 E0.02113
G1 X131.614 Y150.522 E0.02114
G1 X131.849 Y150.968 E0.02113
G1 X132.128 Y151.388 E0.02114
G1 X132.447 Y151.779 E0.02114
G1 X132.802 Y152.137 E0.02113
G1 X133.192 Y152.458 E0.02114
G1 X133.61 Y152.739 E0.02113
G1 X134.055 Y152.977 E0.02113
G1 X134.521 Y153.17 E0.02113
G1 X135.003 Y153.317 E0.02114
G1 X135.498 Y153.415 E0.02113
G1 X136 Y153.464 E0.02114
G1 X136.504 Y153.463 E0.02113
G1 X137.006 Y153.413 E0.02114
G1 X137.501 Y153.314 E0.02113
G1 X137.983 Y153.166 E0.02114
G1 X138.448 Y152.971 E0.02113
G1 X138.892 Y152.732 E0.02113
G1 X139.31 Y152.45 E0.02114
G1 X139.699 Y152.128 E0.02113
G1 X140.053 Y151.769 E0.02113
G1 X140.371 Y151.378 E0.02113
G1 X140.649 Y150.956 E0.02114
G1 X140.883 Y150.51 E0.02113
G1 X141.073 Y150.043 E0.02113
G1 X141.216 Y149.559 E0.02113
G1 X141.312 Y149.054 E0.02153
G1 X141.359 Y148.318 E0.0309
G1 X141.329 Y147.796 E0.02193
G1 X141.153 Y146.84 E0.0407
G1 X140.732 Y146.918 F9000
;TYPE:External perimeter
G1 F1800
G1 X139.953 Y146.919 E0.0326
G1 X131.764 Y146.927 E0.34316
G1 X131.617 Y147.635 E0.03028
G1 X131.569 Y148.094 E0.01936
G1 X131.565 Y148.556 E0.01936
G1 X131.608 Y149.016 E0.01936
G1 X131.695 Y149.47 E0.01936
G1 X131.827 Y149.913 E0.01936
G1 X132.002 Y150.341 E0.01936
G1 X132.218 Y150.749 E0.01936
G1 X132.473 Y151.134 E0.01936
G1 X132.766 Y151.492 E0.01936
G1 X133.091 Y151.82 E0.01936
G1 X133.448 Y152.114 E0.01936
G1 X133.832 Y152.371 E0.01936
G1 X134.239 Y152.589 E0.01936
G1 X134.665 Y152.766 E0.01936
G1 X135.108 Y152.901 E0.01936
G1 X135.561 Y152.991 E0.01936
G1 X136.021 Y153.036 E0.01936
G1 X136.483 Y153.035 E0.01936
G1 X136.943 Y152.989 E0.01936
G1 X137.395 Y152.898 E0.01936
G1 X137.837 Y152.762 E0.01936
G1 X138.263 Y152.584 E0.01936
G1 X138.67 Y152.365 E0.01936
G1 X139.053 Y152.106 E0.01936
G1 X139.409 Y151.811 E0.01936
G1 X139.734 Y151.483 E0.01936
G1 X140.025 Y151.124 E0.01936
G1 X140.279 Y150.738 E0.01936
G1 X140.494 Y150.329 E0.01936
G1 X140.668 Y149.901 E0.01936
G1 X140.799 Y149.458 E0.01936
G1 X140.886 Y149 E0.01954
G1 X140.93 Y148.317 E0.02868
G1 X140.902 Y147.847 E0.01971
G1 X140.732 Y146.918 E0.0396
;WIPE_START
M204 S3000
G1 X140.707 Y146.519 F9000
;WIPE_END
M204 S1000
G1 X137.942 Y127.599
;TYPE:Internal perimeter
G1 F1800
G1 X138.365 Y127.535 E0.01796
G1 X138.77 Y127.398 E0.01789
G1 X139.221 Y127.151 E0.02155
G1 X139.626 Y126.81 E0.02218
G1 X139.955 Y126.396 E0.02217
G1 X140.196 Y125.924 E0.02218
G1 X140.339 Y125.414 E0.02219
G1 X140.377 Y124.887 E0.02217
G1 X140.31 Y124.362 E0.02218
G1 X140.141 Y123.86 E0.02219
G1 X139.875 Y123.402 E0.02218
G1 X139.524 Y123.006 E0.02217
G1 X139.102 Y122.687 E0.02217
G1 X138.625 Y122.458 E0.02218
G1 X138.111 Y122.328 E0.02218
G1 X137.583 Y122.303 E0.02218
G1 X137.06 Y122.383 E0.02218
G1 X136.562 Y122.565 E0.02218
G1 X136.124 Y122.834 E0.02156
G1 X135.804 Y123.117 E0.01788
G1 X135.485 Y123.519 E0.02154
G1 X135.244 Y123.991 E0.02218
G1 X135.101 Y124.501 E0.02219
G1 X135.063 Y125.029 E0.02219
G1 X135.13 Y125.553 E0.02217
G1 X135.299 Y126.055 E0.02218
G1 X135.565 Y126.513 E0.02219
G1 X135.915 Y126.909 E0.02217
G1 X136.338 Y127.228 E0.02218
G1 X136.815 Y127.457 E0.02218
G1 X137.328 Y127.587 E0.02218
G1 X137.857 Y127.612 E0.02217
G1 X137.942 Y127.599 E0.00359
G1 X137.877 Y127.176 F9000
G1 F1800
G1 X138.264 Y127.117 E0.01639
G1 X138.597 Y127.004 E0.01475
G1 X138.978 Y126.796 E0.01818
G1 X139.317 Y126.51 E0.01859
G1 X139.593 Y126.163 E0.01858
G1 X139.795 Y125.768 E0.01859
G1 X139.914 Y125.34 E0.01859
G1 X139.947 Y124.898 E0.01858
G1 X139.891 Y124.458 E0.01858
G1 X139.749 Y124.038 E0.01859
G1 X139.526 Y123.654 E0.01859
G1 X139.232 Y123.322 E0.01858
G1 X138.878 Y123.055 E0.01858
G1 X138.478 Y122.863 E0.01859
G1 X138.048 Y122.754 E0.01859
G1 X137.605 Y122.733 E0.01858
G1 X137.167 Y122.8 E0.01858
G1 X136.75 Y122.952 E0.01859
G1 X136.38 Y123.179 E0.01819
G1 X136.117 Y123.413 E0.01474
G1 X135.847 Y123.752 E0.01818
G1 X135.645 Y124.147 E0.01858
G1 X135.526 Y124.575 E0.01859
G1 X135.493 Y125.017 E0.01859
G1 X135.549 Y125.457 E0.01858
G1 X135.691 Y125.877 E0.01859
G1 X135.914 Y126.261 E0.01859
G1 X136.208 Y126.593 E0.01858
G1 X136.562 Y126.86 E0.01859
G1 X136.962 Y127.052 E0.01859
G1 X137.392 Y127.161 E0.01859
G1 X137.835 Y127.182 E0.01858
G1 X137.877 Y127.176 E0.0018
G1 X137.813 Y126.752 F9000
;TYPE:External perimeter
G1 F1800
G1 X138.162 Y126.699 E0.01481
G1 X138.425 Y126.61 E0.01161
G1 X138.735 Y126.44 E0.01482
G1 X139.008 Y126.21 E0.01499
G1 X139.231 Y125.93 E0.01499
G1 X139.394 Y125.611 E0.01499
G1 X139.49 Y125.266 E0.015
G1 X139.516 Y124.91 E0.01499
G1 X139.471 Y124.555 E0.01499
G1 X139.356 Y124.216 E0.01499
G1 X139.177 Y123.906 E0.01499
G1 X138.94 Y123.638 E0.01499
G1 X138.654 Y123.423 E0.01499
G1 X138.332 Y123.268 E0.015
G1 X137.985 Y123.18 E0.01499
G1 X137.627 Y123.163 E0.01499
G1 X137.274 Y123.217 E0.01499
G1 X136.937 Y123.34 E0.01499
G1 X136.636 Y123.525 E0.01482
G1 X136.429 Y123.709 E0.0116
G1 X136.209 Y123.985 E0.01481
G1 X136.046 Y124.304 E0.01499
G1 X135.95 Y124.649 E0.015
G1 X135.924 Y125.006 E0.015
G1 X135.969 Y125.36 E0.01499
G1 X136.083 Y125.699 E0.01499
G1 X136.263 Y126.009 E0.015
G1 X136.5 Y126.277 E0.01499
G1 X136.786 Y126.492 E0.01499
G1 X137.108 Y126.647 E0.01499
G1 X137.455 Y126.735 E0.015
G1 X137.813 Y126.752 E0.01499
;WIPE_START
M204 S3000
G1 X138.041 Y127.08 F9000
;WIPE_END
M204 S1000
G1 X174.423 Y146.729
;TYPE:Internal perimeter
G1 F1800
G1 X174.294 Y146.026 E0.02994
G1 X172.801 Y146.028 E0.06254
G1 X163.914 Y146.037 E0.37236
G1 X163.618 Y147.469 E0.06127
G1 X163.561 Y148.013 E0.02291
G1 X163.557 Y148.559 E0.02291
G1 X163.607 Y149.104 E0.02291
G1 X163.711 Y149.64 E0.0229
G1 X163.867 Y150.165 E0.02291
G1 X164.074 Y150.671 E0.02291
G1 X164.329 Y151.154 E0.0229
G1 X164.631 Y151.609 E0.02291
G1 X164.977 Y152.033 E0.02291
G1 X165.363 Y152.421 E0.02291
G1 X165.784 Y152.768 E0.02291
G1 X166.238 Y153.073 E0.02291
G1 X166.72 Y153.331 E0.02291
G1 X167.225 Y153.541 E0.0229
G1 X167.748 Y153.699 E0.02291
G1 X168.285 Y153.806 E0.0229
G1 X168.829 Y153.859 E0.02291
G1 X169.375 Y153.858 E0.0229
G1 X169.919 Y153.804 E0.02291
G1 X170.455 Y153.696 E0.0229
G1 X170.978 Y153.535 E0.02291
G1 X171.482 Y153.324 E0.02291
G1 X171.963 Y153.065 E0.0229
G1 X172.417 Y152.759 E0.02291
G1 X172.838 Y152.41 E0.02292
G1 X173.222 Y152.021 E0.0229
G1 X173.566 Y151.597 E0.0229
G1 X173.867 Y151.14 E0.02291
G1 X174.122 Y150.656 E0.02291
G1 X174.327 Y150.15 E0.0229
M73 P1 R99
G1 X174.482 Y149.625 E0.02291
G1 X174.586 Y149.074 E0.02353
G1 X174.637 Y148.285 E0.03311
G1 X174.603 Y147.71 E0.02414
G1 X174.423 Y146.729 E0.04179
G1 X174.002 Y146.807 F9000
G1 F1800
G1 X173.937 Y146.455 E0.01497
G1 X172.802 Y146.456 E0.04757
G1 X164.263 Y146.465 E0.35776
G1 X164.042 Y147.535 E0.04578
G1 X163.989 Y148.037 E0.02114
G1 X163.986 Y148.541 E0.02114
G1 X164.032 Y149.043 E0.02113
G1 X164.128 Y149.538 E0.02113
G1 X164.271 Y150.022 E0.02114
G1 X164.462 Y150.489 E0.02114
G1 X164.698 Y150.935 E0.02113
G1 X164.977 Y151.355 E0.02113
G1 X165.296 Y151.746 E0.02114
G1 X165.651 Y152.103 E0.02113
G1 X166.041 Y152.424 E0.02113
G1 X166.46 Y152.705 E0.02113
