; generated by SuperSlicer 2.4 on 2022-06-26 at 16:59:55 UTC


;
;

;
;
; 

; external perimeters extrusion width = 0.40mm
; perimeters extrusion width = 0.40mm
; infill extrusion width = 0.72mm
; solid infill extrusion width = 0.56mm
; top infill extrusion width = 0.40mm
; first layer extrusion width = 0.48mm

; object:{"name":"BunkerWall1","id":"BunkerWall1.stl id:0 copy 0","object_center":[152.500000,150.000000,0.000000],"boundingbox_center":[152.500000,150.000000,3.018173],"boundingbox_size":[214.933491,223.169266,6.036346]}
; plater:{"center":[152.500000,150.000000,0.000000],"boundingbox_center":[152.500000,150.000000,3.018173],"boundingbox_size":[214.933491,223.169266,6.036346]}

M73 P0 R284
;TYPE:Custom
START_PRINT T_BED=60 T_EXTRUDER=200
M107
G21 ; set units to millimeters
G90 ; use absolute coordinates
M83 ; use relative distances for extrusion
; Filament gcode
M104 S200 ; set temperature
M109 S200 ; set temperature and wait for it to be reached
M190 S60 ; set bed temperature and wait for it to be reached
M107
;LAYER_CHANGE
;Z:0.24
;HEIGHT:0.24
G1 Z0.24 F9000
G92 E0
G1 E-0.8 F3000
M204 S1000
G1 X49.251 Y106.697 F9000
G1 E0.8 F1800
;TYPE:Skirt
;WIDTH:0.52
G1 X47.718 Y107.57 E0.0808
G1 X46.341 Y108.598 E0.07875
G1 X45.069 Y109.82 E0.0808
G1 X44.259 Y110.796 E0.05811
G1 X43.493 Y111.917 E0.0622
G1 X42.419 Y114.058 E0.10972
G1 X41.98 Y115.344 E0.06226
G1 X41.668 Y116.665 E0.06219
G1 X41.438 Y119.008 E0.10786
G1 X41.434 Y251.295 E6.06028
G1 X41.523 Y252.842 E0.071
G1 X41.721 Y254.103 E0.05846
G1 X42.192 Y255.813 E0.08125
G1 X42.699 Y257.081 E0.06256
G1 X43.328 Y258.293 E0.06256
G1 X44.291 Y259.729 E0.0792
G1 X45.172 Y260.772 E0.06256
G1 X46.152 Y261.723 E0.06255
G1 X47.707 Y262.91 E0.08964
G1 X49.499 Y263.904 E0.09386
G1 X51.154 Y264.541 E0.08127
G1 X52.833 Y264.956 E0.07919
G1 X54.594 Y265.164 E0.08127
G1 X56.641 Y265.12 E0.0938
G1 X58.261 Y264.866 E0.0751
G1 X59.97 Y264.382 E0.08138
G1 X254.413 Y193.869 E9.4754
M73 P0 R283
G1 X256.11 Y193.117 E0.08505
G1 X257.51 Y192.281 E0.07468
G1 X258.898 Y191.194 E0.0808
G1 X260.111 Y189.975 E0.07875
G1 X261.507 Y188.083 E0.10775
G1 X262.161 Y186.893 E0.0622
G1 X262.695 Y185.645 E0.0622
G1 X263.105 Y184.35 E0.0622
G1 X263.386 Y183.022 E0.0622
G1 X263.565 Y180.903 E0.09745
G1 X263.536 Y47.838 E6.09591
G1 X263.384 Y46.481 E0.06256
G1 X263.125 Y45.232 E0.05845
G1 X262.431 Y43.211 E0.09789
G1 X261.829 Y41.985 E0.06256
G1 X261.111 Y40.824 E0.06256
G1 X260.281 Y39.739 E0.06255
G1 X259.35 Y38.741 E0.06256
G1 X257.518 Y37.244 E0.10836
G1 X256.355 Y36.529 E0.06255
G1 X255.126 Y35.932 E0.06256
G1 X253.846 Y35.459 E0.06256
G1 X252.523 Y35.114 E0.06261
G1 X250.495 Y34.843 E0.09373
G1 X249.13 Y34.83 E0.06255
G1 X247.77 Y34.951 E0.06256
G1 X246.428 Y35.205 E0.06256
G1 X244.943 Y35.649 E0.071
G1 X50.588 Y106.131 E9.47112
G1 X49.251 Y106.697 E0.06652
G1 X49.463 Y107.113 F9000
G1 F1800
G1 X47.96 Y107.969 E0.07923
G1 X46.655 Y108.943 E0.07458
G1 X45.408 Y110.141 E0.07924
G1 X44.62 Y111.091 E0.05655
G1 X43.881 Y112.175 E0.06011
G1 X42.858 Y114.214 E0.1045
G1 X42.432 Y115.457 E0.06017
G1 X42.129 Y116.733 E0.0601
G1 X41.904 Y119.031 E0.10577
G1 X41.9 Y251.295 E6.05924
G1 X41.985 Y252.774 E0.06785
G1 X42.176 Y254.001 E0.05689
G1 X42.638 Y255.677 E0.07968
G1 X43.13 Y256.902 E0.06046
G1 X43.739 Y258.073 E0.06046
G1 X44.461 Y259.177 E0.06045
G1 X45.288 Y260.206 E0.06046
G1 X46.211 Y261.149 E0.06045
G1 X47.823 Y262.428 E0.09428
G1 X49.472 Y263.373 E0.08707
G1 X51.31 Y264.102 E0.09058
G1 X52.588 Y264.434 E0.06046
G1 X54.13 Y264.664 E0.07143
G1 X56.108 Y264.694 E0.09065
G1 X57.834 Y264.477 E0.07969
G1 X59.347 Y264.099 E0.07143
G1 X254.254 Y193.43 E9.49783
G1 X255.909 Y192.697 E0.08296
G1 X257.24 Y191.901 E0.07102
G1 X258.602 Y190.834 E0.07923
G1 X259.538 Y189.915 E0.06011
G1 X260.567 Y188.654 E0.07458
G1 X261.281 Y187.553 E0.06011
G1 X261.884 Y186.388 E0.06011
G1 X262.37 Y185.169 E0.06011
G1 X262.735 Y183.909 E0.06011
G1 X262.975 Y182.619 E0.06011
G1 X263.087 Y181.389 E0.05656
G1 X263.072 Y47.884 E6.1161
G1 X262.73 Y45.588 E0.10632
G1 X262.009 Y43.411 E0.1051
G1 X261.43 Y42.225 E0.06046
G1 X260.736 Y41.102 E0.06046
G1 X259.936 Y40.053 E0.06045
G1 X259.037 Y39.087 E0.06046
G1 X258.047 Y38.214 E0.06046
G1 X256.976 Y37.443 E0.06045
G1 X254.928 Y36.354 E0.10626
G1 X253.69 Y35.899 E0.06046
G1 X252.411 Y35.566 E0.06051
G1 X250.451 Y35.307 E0.09058
G1 X249.131 Y35.296 E0.06045
G1 X247.817 Y35.415 E0.06046
G1 X246.521 Y35.662 E0.06046
G1 X245.102 Y36.087 E0.06785
G1 X50.747 Y106.569 E9.47112
G1 X49.463 Y107.113 E0.06391
G1 E-0.8 F3000
; printing object BunkerWall1.stl id:0 copy 0
G1 X51.389 Y110.992 F9000
G1 E0.8 F1800
;TYPE:Internal perimeter
;WIDTH:0.48
G1 X52.249 Y110.631 E0.03908
G1 X246.553 Y40.167 E8.66022
G1 X247.435 Y39.895 E0.03869
G1 X248.311 Y39.717 E0.03745
G1 X249.199 Y39.627 E0.03739
G1 X250.129 Y39.627 E0.03897
G1 X250.999 Y39.709 E0.03662
G1 X251.411 Y39.779 E0.0175
G1 X252.293 Y39.998 E0.03807
G1 X253.135 Y40.296 E0.03746
G1 X253.945 Y40.677 E0.03746
G1 X254.712 Y41.134 E0.03746
G1 X255.431 Y41.665 E0.03746
G1 X256.095 Y42.265 E0.03746
G1 X256.696 Y42.926 E0.03746
G1 X257.23 Y43.643 E0.03746
G1 X257.69 Y44.409 E0.03745
G1 X258.073 Y45.217 E0.03746
G1 X258.38 Y46.072 E0.03807
G1 X258.492 Y46.475 E0.0175
G1 X258.669 Y47.366 E0.03807
G1 X258.757 Y48.256 E0.03746
G1 X258.77 Y180.799 E5.5536
G1 X258.759 Y181.243 E0.01863
G1 X258.671 Y182.142 E0.03786
G1 X258.498 Y183.014 E0.03724
G1 X258.241 Y183.865 E0.03724
G1 X257.902 Y184.687 E0.03724
G1 X257.484 Y185.471 E0.03724
G1 X256.992 Y186.211 E0.03724
G1 X256.43 Y186.9 E0.03724
G1 X255.803 Y187.53 E0.03724
G1 X255.106 Y188.105 E0.03786
G1 X254.767 Y188.345 E0.0174
G1 X253.994 Y188.813 E0.03786
G1 X253.179 Y189.202 E0.03786
G1 X252.765 Y189.364 E0.01863
G1 X58.433 Y259.838 E8.66145
M73 P0 R282
G1 X58.009 Y259.98 E0.01874
G1 X57.129 Y260.205 E0.03807
G1 X56.231 Y260.341 E0.03807
G1 X55.814 Y260.374 E0.0175
G1 X54.891 Y260.377 E0.03869
G1 X54.474 Y260.348 E0.0175
G1 X53.575 Y260.217 E0.03808
G1 X52.707 Y260.002 E0.03746
G1 X51.851 Y259.699 E0.03807
G1 X51.468 Y259.53 E0.0175
G1 X50.653 Y259.097 E0.03869
G1 X50.287 Y258.867 E0.01812
G1 X49.933 Y258.618 E0.01812
G1 X49.229 Y258.043 E0.03807
G1 X48.596 Y257.412 E0.03746
G1 X48.028 Y256.722 E0.03746
G1 X47.53 Y255.979 E0.03746
G1 X47.108 Y255.192 E0.03746
G1 X46.765 Y254.366 E0.03745
G1 X46.501 Y253.497 E0.03807
G1 X46.409 Y253.089 E0.0175
G1 X46.276 Y252.19 E0.03807
G1 X46.23 Y251.268 E0.03869
G1 X46.23 Y119.216 E5.53303
G1 X46.275 Y118.299 E0.03847
G1 X46.405 Y117.42 E0.03724
G1 X46.62 Y116.557 E0.03724
G1 X46.924 Y115.706 E0.03786
G1 X47.091 Y115.326 E0.0174
G1 X47.516 Y114.529 E0.03786
G1 X48.008 Y113.789 E0.03724
G1 X48.58 Y113.089 E0.03786
G1 X48.865 Y112.787 E0.0174
G1 X49.533 Y112.179 E0.03785
G1 X50.245 Y111.647 E0.03724
G1 X51.018 Y111.18 E0.03786
G1 X51.389 Y110.992 E0.0174
G1 X51.208 Y110.602 F9000
G1 F1800
G1 X52.093 Y110.232 E0.04018
G1 X246.417 Y39.761 E8.6611
G1 X247.329 Y39.479 E0.04002
G1 X248.247 Y39.293 E0.03922
G1 X249.177 Y39.198 E0.03919
G1 X250.149 Y39.198 E0.04074
G1 X251.055 Y39.284 E0.03813
G1 X251.498 Y39.36 E0.01883
G1 X252.416 Y39.587 E0.03962
G1 X253.299 Y39.9 E0.03922
G1 X254.146 Y40.298 E0.03922
G1 X254.95 Y40.777 E0.03922
G1 X255.703 Y41.333 E0.03922
G1 X256.398 Y41.961 E0.03922
G1 X257.028 Y42.653 E0.03922
G1 X257.586 Y43.404 E0.03922
G1 X258.069 Y44.207 E0.03922
G1 X258.47 Y45.053 E0.03922
G1 X258.789 Y45.943 E0.03962
G1 X258.909 Y46.376 E0.01883
G1 X259.094 Y47.303 E0.03962
G1 X259.186 Y48.235 E0.03923
G1 X259.198 Y180.804 E5.5547
G1 X259.187 Y181.269 E0.0195
G1 X259.095 Y182.205 E0.03939
G1 X258.914 Y183.118 E0.039
G1 X258.645 Y184.009 E0.039
G1 X258.29 Y184.869 E0.039
G1 X257.852 Y185.691 E0.039
G1 X257.337 Y186.466 E0.039
G1 X256.748 Y187.187 E0.039
G1 X256.092 Y187.847 E0.039
G1 X255.367 Y188.446 E0.03939
G1 X255.002 Y188.704 E0.01872
G1 X254.198 Y189.19 E0.03939
G1 X253.349 Y189.596 E0.03939
G1 X252.916 Y189.765 E0.01951
G1 X58.575 Y260.243 E8.66189
G1 X58.131 Y260.391 E0.01962
G1 X57.214 Y260.625 E0.03962
G1 X56.279 Y260.767 E0.03962
G1 X55.831 Y260.802 E0.01883
G1 X54.876 Y260.805 E0.04002
G1 X54.428 Y260.774 E0.01882
G1 X53.492 Y260.638 E0.03962
G1 X52.584 Y260.413 E0.03922
G1 X51.692 Y260.097 E0.03962
G1 X51.281 Y259.916 E0.01882
G1 X50.438 Y259.468 E0.04002
G1 X50.05 Y259.223 E0.01922
G1 X49.674 Y258.96 E0.01923
G1 X48.942 Y258.362 E0.03962
G1 X48.279 Y257.701 E0.03922
G1 X47.684 Y256.978 E0.03922
G1 X47.163 Y256.2 E0.03923
G1 X46.72 Y255.375 E0.03923
G1 X46.361 Y254.511 E0.03922
G1 X46.086 Y253.606 E0.03962
G1 X45.988 Y253.168 E0.01883
G1 X45.849 Y252.232 E0.03962
G1 X45.802 Y251.279 E0.04002
G1 X45.802 Y119.205 E5.53391
G1 X45.848 Y118.257 E0.03979
G1 X45.984 Y117.336 E0.039
G1 X46.21 Y116.433 E0.039
G1 X46.525 Y115.548 E0.03939
G1 X46.706 Y115.139 E0.01872
G1 X47.148 Y114.309 E0.0394
G1 X47.663 Y113.534 E0.039
G1 X48.258 Y112.806 E0.0394
G1 X48.565 Y112.481 E0.01872
G1 X49.26 Y111.848 E0.03939
G1 X50.006 Y111.291 E0.039
G1 X50.81 Y110.805 E0.03939
G1 X51.208 Y110.602 E0.01872
G1 X51.028 Y110.213 F9000
;TYPE:External perimeter
G1 F1800
G1 X51.937 Y109.833 E0.04128
G1 X246.28 Y39.354 E8.66198
G1 X247.223 Y39.064 E0.04134
G1 X248.182 Y38.869 E0.04099
G1 X249.155 Y38.77 E0.04099
G1 X250.17 Y38.77 E0.0425
G1 X251.112 Y38.859 E0.03965
G1 X251.586 Y38.94 E0.02015
G1 X252.54 Y39.176 E0.04117
G1 X253.462 Y39.503 E0.04099
G1 X254.347 Y39.919 E0.04099
G1 X255.187 Y40.42 E0.04099
G1 X255.974 Y41.001 E0.04099
G1 X256.701 Y41.657 E0.04099
G1 X257.359 Y42.381 E0.04099
G1 X257.943 Y43.165 E0.04099
G1 X258.447 Y44.004 E0.04099
G1 X258.866 Y44.888 E0.04099
G1 X259.198 Y45.813 E0.04117
G1 X259.326 Y46.276 E0.02015
G1 X259.518 Y47.24 E0.04117
G1 X259.614 Y48.213 E0.04099
G1 X259.627 Y180.809 E5.55581
G1 X259.615 Y181.295 E0.02038
G1 X259.519 Y182.268 E0.04093
G1 X259.33 Y183.222 E0.04076
G1 X259.049 Y184.153 E0.04076
G1 X258.678 Y185.052 E0.04076
G1 X258.221 Y185.911 E0.04076
G1 X257.682 Y186.721 E0.04076
G1 X257.067 Y187.474 E0.04076
G1 X256.381 Y188.164 E0.04076
G1 X255.628 Y188.786 E0.04093
G1 X255.238 Y189.063 E0.02004
G1 X254.401 Y189.568 E0.04093
G1 X253.52 Y189.989 E0.04093
G1 X253.067 Y190.166 E0.02038
G1 X58.716 Y260.647 E8.66234
G1 X58.252 Y260.803 E0.0205
G1 X57.3 Y261.045 E0.04117
G1 X56.328 Y261.193 E0.04117
G1 X55.849 Y261.23 E0.02015
G1 X54.862 Y261.234 E0.04134
G1 X54.382 Y261.2 E0.02015
G1 X53.41 Y261.059 E0.04117
G1 X52.46 Y260.824 E0.04099
G1 X51.534 Y260.496 E0.04117
G1 X51.094 Y260.302 E0.02015
G1 X50.223 Y259.839 E0.04134
G1 X49.812 Y259.58 E0.02033
G1 X49.415 Y259.302 E0.02033
G1 X48.654 Y258.68 E0.04117
G1 X47.961 Y257.989 E0.04099
G1 X47.34 Y257.234 E0.04099
G1 X46.795 Y256.421 E0.04099
G1 X46.333 Y255.559 E0.04099
G1 X45.958 Y254.656 E0.04099
G1 X45.672 Y253.716 E0.04117
G1 X45.566 Y253.246 E0.02015
G1 X45.422 Y252.275 E0.04117
G1 X45.373 Y251.289 E0.04134
G1 X45.373 Y119.195 E5.53479
G1 X45.421 Y118.215 E0.0411
G1 X45.563 Y117.253 E0.04076
G1 X45.799 Y116.309 E0.04076
G1 X46.127 Y115.389 E0.04093
G1 X46.32 Y114.951 E0.02004
G1 X46.779 Y114.089 E0.04093
G1 X47.318 Y113.279 E0.04076
G1 X47.936 Y112.523 E0.04093
G1 X48.265 Y112.175 E0.02004
G1 X48.987 Y111.517 E0.04093
G1 X49.766 Y110.935 E0.04076
G1 X50.602 Y110.43 E0.04093
G1 X51.028 Y110.213 E0.02004
;WIPE_START
M204 S3000
G1 X51.353 Y110.448 F9000
;WIPE_END
M204 S1000
G1 X255.156 Y41.749
;TYPE:Solid infill
;WIDTH:0.479194
G1 F2400
G1 X256.519 Y43.112 E0.08063
G1 X257.431 Y44.631 E0.07413
G1 X253.637 Y40.837 E0.22444
G1 X252.735 Y40.541 E0.03973
G1 X257.937 Y45.743 E0.30773
G1 X258.113 Y46.525 E0.03353
G1 X251.833 Y40.245 E0.37152
G1 X250.96 Y39.958 E0.03844
G1 X250.94 Y39.958 E0.00082
G1 X258.289 Y47.307 E0.43473
G1 X258.465 Y48.089 E0.03353
G1 X250.336 Y39.96 E0.48089
G1 X249.732 Y39.962 E0.02527
G1 X258.509 Y48.739 E0.51922
M73 P0 R281
G1 X258.509 Y49.345 E0.02535
G1 X249.128 Y39.963 E0.55496
G1 X248.523 Y39.965 E0.02527
G1 X258.509 Y49.951 E0.59071
G1 X258.509 Y50.557 E0.02535
G1 X248.005 Y40.052 E0.62141
G1 X247.522 Y40.176 E0.02084
G1 X258.509 Y51.163 E0.64996
G1 X258.509 Y51.769 E0.02535
G1 X247.039 Y40.299 E0.67851
G1 X246.626 Y40.405 E0.01784
G1 X246.562 Y40.428 E0.00284
G1 X258.509 Y52.375 E0.70675
G1 X258.509 Y52.981 E0.02535
G1 X246.117 Y40.589 E0.73306
G1 X245.673 Y40.75 E0.01979
G1 X258.509 Y53.587 E0.75937
G1 X258.509 Y54.193 E0.02535
G1 X245.228 Y40.912 E0.78568
G1 X244.783 Y41.073 E0.01979
G1 X258.509 Y54.799 E0.81199
G1 X258.509 Y55.405 E0.02535
G1 X244.339 Y41.234 E0.8383
G1 X243.894 Y41.395 E0.01979
G1 X258.51 Y56.011 E0.86461
G1 X258.51 Y56.617 E0.02535
G1 X243.449 Y41.557 E0.89092
G1 X243.004 Y41.718 E0.01979
G1 X258.51 Y57.223 E0.91723
G1 X258.51 Y57.829 E0.02535
G1 X242.56 Y41.879 E0.94354
G1 X242.115 Y42.041 E0.01979
G1 X258.51 Y58.435 E0.96985
G1 X258.51 Y59.041 E0.02535
G1 X241.67 Y42.202 E0.99616
G1 X241.226 Y42.363 E0.01979
G1 X258.51 Y59.647 E1.02248
G1 X258.51 Y60.253 E0.02535
G1 X240.781 Y42.524 E1.04879
G1 X240.336 Y42.686 E0.01979
G1 X258.51 Y60.859 E1.0751
G1 X258.51 Y61.465 E0.02535
G1 X239.892 Y42.847 E1.10141
G1 X239.447 Y43.008 E0.01979
G1 X258.51 Y62.072 E1.12772
G1 X258.51 Y62.678 E0.02535
G1 X239.002 Y43.17 E1.15403
G1 X238.557 Y43.331 E0.01979
G1 X258.51 Y63.284 E1.18034
G1 X258.51 Y63.89 E0.02535
G1 X238.113 Y43.492 E1.20665
G1 X237.668 Y43.653 E0.01979
G1 X258.51 Y64.496 E1.23296
G1 X258.51 Y65.102 E0.02535
G1 X237.223 Y43.815 E1.25927
G1 X236.779 Y43.976 E0.01979
G1 X258.51 Y65.708 E1.28558
G1 X258.511 Y66.314 E0.02535
G1 X236.334 Y44.137 E1.31189
G1 X235.889 Y44.298 E0.01979
G1 X258.511 Y66.92 E1.33821
G1 X258.511 Y67.526 E0.02535
G1 X235.444 Y44.46 E1.36452
G1 X235 Y44.621 E0.01979
G1 X258.511 Y68.132 E1.39083
G1 X258.511 Y68.738 E0.02535
G1 X234.555 Y44.782 E1.41714
M73 P1 R281
G1 X234.11 Y44.944 E0.01979
G1 X258.511 Y69.344 E1.44345
G1 X258.511 Y69.95 E0.02535
G1 X233.666 Y45.105 E1.46976
G1 X233.221 Y45.266 E0.01979
G1 X258.511 Y70.556 E1.49607
G1 X258.511 Y71.162 E0.02535
G1 X232.776 Y45.427 E1.52238
G1 X232.331 Y45.589 E0.01979
G1 X258.511 Y71.768 E1.54869
G1 X258.511 Y72.374 E0.02535
G1 X231.887 Y45.75 E1.575
G1 X231.442 Y45.911 E0.01979
G1 X258.511 Y72.98 E1.60131
G1 X258.511 Y73.586 E0.02535
G1 X230.997 Y46.072 E1.62762
G1 X230.553 Y46.234 E0.01979
G1 X258.511 Y74.192 E1.65394
G1 X258.511 Y74.798 E0.02535
G1 X230.108 Y46.395 E1.68025
G1 X229.663 Y46.556 E0.01979
G1 X258.511 Y75.404 E1.70656
G1 X258.511 Y76.01 E0.02535
G1 X229.218 Y46.718 E1.73287
G1 X228.774 Y46.879 E0.01979
G1 X258.511 Y76.617 E1.75918
G1 X258.512 Y77.223 E0.02535
G1 X228.329 Y47.04 E1.78549
G1 X227.884 Y47.201 E0.01979
G1 X258.512 Y77.829 E1.8118
G1 X258.512 Y78.435 E0.02535
G1 X227.44 Y47.363 E1.83811
G1 X226.995 Y47.524 E0.01979
G1 X258.512 Y79.041 E1.86442
G1 X258.512 Y79.647 E0.02535
G1 X226.55 Y47.685 E1.89073
G1 X226.106 Y47.846 E0.01979
G1 X258.512 Y80.253 E1.91704
G1 X258.512 Y80.859 E0.02535
G1 X225.661 Y48.008 E1.94335
G1 X225.216 Y48.169 E0.01979
G1 X258.512 Y81.465 E1.96967
G1 X258.512 Y82.071 E0.02535
G1 X224.771 Y48.33 E1.99598
G1 X224.327 Y48.492 E0.01979
G1 X258.512 Y82.677 E2.02229
G1 X258.512 Y83.283 E0.02535
G1 X223.882 Y48.653 E2.0486
G1 X223.437 Y48.814 E0.01979
G1 X258.512 Y83.889 E2.07491
G1 X258.512 Y84.495 E0.02535
G1 X222.993 Y48.975 E2.10122
G1 X222.548 Y49.137 E0.01979
G1 X258.512 Y85.101 E2.12753
G1 X258.512 Y85.707 E0.02535
G1 X222.103 Y49.298 E2.15384
G1 X221.658 Y49.459 E0.01979
G1 X258.512 Y86.313 E2.18015
G1 X258.512 Y86.919 E0.02535
G1 X221.214 Y49.62 E2.20646
G1 X220.769 Y49.782 E0.01979
G1 X258.512 Y87.525 E2.23277
G1 X258.513 Y88.131 E0.02535
G1 X220.324 Y49.943 E2.25908
G1 X219.88 Y50.104 E0.01979
G1 X258.513 Y88.737 E2.2854
M73 P1 R280
G1 X258.513 Y89.343 E0.02535
G1 X219.435 Y50.266 E2.31171
G1 X218.99 Y50.427 E0.01979
G1 X258.513 Y89.949 E2.33802
G1 X258.513 Y90.555 E0.02535
G1 X218.545 Y50.588 E2.36433
G1 X218.101 Y50.749 E0.01979
G1 X258.513 Y91.161 E2.39064
G1 X258.513 Y91.768 E0.02535
G1 X217.656 Y50.911 E2.41695
G1 X217.211 Y51.072 E0.01979
G1 X258.513 Y92.374 E2.44326
G1 X258.513 Y92.98 E0.02535
