; generated by SuperSlicer 2.4 on 2022-10-29 at 21:35:12 UTC


;
;

;
;
; 

; external perimeters extrusion width = 0.40mm
; perimeters extrusion width = 0.46mm
; infill extrusion width = 0.64mm
; solid infill extrusion width = 0.56mm
; top infill extrusion width = 0.40mm
; first layer extrusion width = 0.50mm

; external perimeters extrusion width = 0.40mm
; perimeters extrusion width = 0.46mm
; infill extrusion width = 0.64mm
; solid infill extrusion width = 0.56mm
; top infill extrusion width = 0.40mm
; first layer extrusion width = 0.50mm

; external perimeters extrusion width = 0.40mm
; perimeters extrusion width = 0.46mm
; infill extrusion width = 0.64mm
; solid infill extrusion width = 0.56mm
; top infill extrusion width = 0.40mm
; first layer extrusion width = 0.50mm

; external perimeters extrusion width = 0.40mm
; perimeters extrusion width = 0.46mm
; infill extrusion width = 0.64mm
; solid infill extrusion width = 0.56mm
; top infill extrusion width = 0.40mm
; first layer extrusion width = 0.50mm

; external perimeters extrusion width = 0.40mm
; perimeters extrusion width = 0.46mm
; infill extrusion width = 0.64mm
; solid infill extrusion width = 0.56mm
; top infill extrusion width = 0.40mm
; first layer extrusion width = 0.50mm

; external perimeters extrusion width = 0.40mm
; perimeters extrusion width = 0.46mm
; infill extrusion width = 0.64mm
; solid infill extrusion width = 0.56mm
; top infill extrusion width = 0.40mm
; first layer extrusion width = 0.50mm

; object:{"name":"cable_tie_long","id":"cable_tie_long.stl id:0 copy 0","object_center":[152.500001,159.881353,0.000000],"boundingbox_center":[152.500001,159.881353,1.249977],"boundingbox_size":[182.379997,13.999984,2.499953]}
; object:{"name":"cable_tie_short","id":"cable_tie_short.stl id:1 copy 0","object_center":[151.445632,121.129677,0.000000],"boundingbox_center":[151.445632,121.129677,1.250000],"boundingbox_size":[92.379997,13.996547,2.500000]}
; object:{"name":"cable_tie_short","id":"cable_tie_short.stl id:2 copy 0","object_center":[151.445742,198.633032,0.000000],"boundingbox_center":[151.445742,198.633032,1.250000],"boundingbox_size":[92.379997,13.996547,2.500000]}
; object:{"name":"cable_tie_long","id":"cable_tie_long.stl id:3 copy 0","object_center":[152.500001,179.881521,0.000000],"boundingbox_center":[152.500001,179.881521,1.249977],"boundingbox_size":[182.379997,13.999984,2.499953]}
; object:{"name":"cable_tie_long","id":"cable_tie_long.stl id:4 copy 0","object_center":[152.500001,139.881185,0.000000],"boundingbox_center":[152.500001,139.881185,1.249977],"boundingbox_size":[182.379997,13.999984,2.499953]}
; object:{"name":"cable_tie_short","id":"cable_tie_short.stl id:5 copy 0","object_center":[156.002415,101.366969,0.000000],"boundingbox_center":[156.002415,101.366969,1.250000],"boundingbox_size":[92.379997,13.996547,2.500000]}
; plater:{"center":[152.500001,150.000000,0.000000],"boundingbox_center":[152.500001,150.000000,1.250000],"boundingbox_size":[182.379997,111.262610,2.500000]}

M73 P0 R58
;TYPE:Custom
START_PRINT T_BED=60 T_EXTRUDER=220
M107
G21 ; set units to millimeters
G90 ; use absolute coordinates
M83 ; use relative distances for extrusion
; Filament gcode
;_TOOLCHANGE 0
M109 S220 ; set temperature and wait for it to be reached
M190 S60 ; set bed temperature and wait for it to be reached
M107
;LAYER_CHANGE
;Z:0.2
;HEIGHT:0.2
G1 Z0.2 F9000
G92 E0
M204 S1000
G1 X89.114 Y112.224
;TYPE:Skirt
;WIDTH:0.52
G1 F1800
G1 X59.099 Y136.057 E1.45955
G1 X58.089 Y137.301 E0.06102
G1 X57.694 Y138.967 E0.06521
G1 X57.694 Y180.795 E1.59292
G1 X57.799 Y181.669 E0.03351
G1 X58.574 Y183.196 E0.06521
G1 X59.952 Y184.213 E0.06521
G1 X103.898 Y202.964 E1.81955
G1 X104.805 Y203.221 E0.0359
G1 X115.041 Y204.742 E0.39412
G1 X190.261 Y209.24 E2.86966
G1 X191.451 Y209.217 E0.04534
G1 X192.634 Y209.056 E0.04547
G1 X194.644 Y208.463 E0.0798
G1 X240.57 Y189.761 E1.88844
G1 X241.732 Y189.222 E0.04877
G1 X242.635 Y188.675 E0.04024
G1 X243.651 Y187.895 E0.04877
G1 X244.565 Y186.998 E0.04876
G1 X245.118 Y186.334 E0.03293
G1 X245.834 Y185.272 E0.04876
G1 X246.417 Y184.131 E0.04877
G1 X246.791 Y183.143 E0.04024
G1 X247.11 Y181.903 E0.04876
G1 X247.278 Y180.634 E0.04876
G1 X247.304 Y139.769 E1.55623
G1 X247.24 Y138.714 E0.04024
G1 X247.023 Y137.452 E0.04877
G1 X246.655 Y136.226 E0.04876
G1 X246.325 Y135.427 E0.03293
G1 X245.365 Y133.765 E0.07309
G1 X244.122 Y132.302 E0.07309
G1 X202.197 Y93.393 E2.17827
M73 P0 R57
G1 X200.648 Y92.263 E0.07299
G1 X198.91 Y91.426 E0.07348
G1 X197.192 Y90.944 E0.06794
G1 X195.354 Y90.753 E0.07037
G1 X119.598 Y95.258 E2.89008
G1 X109.361 Y96.779 E0.39412
G1 X107.602 Y97.543 E0.07306
G1 X89.114 Y112.224 E0.89906
G1 X89.41 Y112.598 F9000
G1 F1800
G1 X59.396 Y136.431 E1.45955
G1 X58.565 Y137.419 E0.04917
G1 X58.171 Y138.967 E0.06082
G1 X58.171 Y180.795 E1.59292
G1 X58.87 Y182.804 E0.081
G1 X60.139 Y183.774 E0.06082
G1 X104.085 Y202.526 E1.81955
G1 X104.875 Y202.75 E0.03129
G1 X115.07 Y204.266 E0.3925
G1 X190.289 Y208.764 E2.86966
G1 X191.407 Y208.742 E0.0426
G1 X192.558 Y208.585 E0.04423
G1 X194.464 Y208.021 E0.07569
G1 X240.387 Y189.321 E1.88831
G1 X241.497 Y188.807 E0.04658
G1 X242.376 Y188.274 E0.03914
G1 X243.345 Y187.528 E0.04657
G1 X244.218 Y186.671 E0.04657
G1 X245.418 Y185.038 E0.07722
G1 X245.976 Y183.949 E0.04658
G1 X246.34 Y182.988 E0.03914
G1 X246.644 Y181.803 E0.04657
G1 X246.803 Y180.591 E0.04657
G1 X246.827 Y139.784 E1.55404
M73 P1 R57
G1 X246.765 Y138.758 E0.03915
G1 X246.556 Y137.552 E0.04658
G1 X245.896 Y135.636 E0.07722
G1 X244.981 Y134.047 E0.06981
G1 X243.794 Y132.65 E0.06981
G1 X201.872 Y93.743 E2.17812
G1 X200.391 Y92.665 E0.06975
G1 X198.729 Y91.868 E0.07018
G1 X197.116 Y91.415 E0.06382
G1 X195.354 Y91.23 E0.06748
G1 X119.627 Y95.734 E2.88898
G1 X109.432 Y97.25 E0.3925
G1 X107.899 Y97.917 E0.06368
G1 X89.41 Y112.598 E0.89906
; printing object cable_tie_long.stl id:0 copy 0
G1 X238.604 Y155.617 F9000
;TYPE:Internal perimeter
;WIDTH:0.5
G1 F1800
G1 X234.776 Y155.617 E0.13968
G1 X234.776 Y164.146 E0.31116
G1 X238.604 Y164.146 E0.13968
G1 X238.604 Y155.617 E0.31116
G1 X238.147 Y156.074 F9000
G1 F1800
G1 X235.233 Y156.074 E0.10633
G1 X235.233 Y163.688 E0.27781
G1 X238.147 Y163.688 E0.10633
G1 X238.147 Y156.074 E0.27781
G1 X237.69 Y156.531 F9000
;TYPE:External perimeter
G1 F1800
G1 X235.69 Y156.531 E0.07297
G1 X235.69 Y163.231 E0.24446
G1 X237.69 Y163.231 E0.07297
G1 X237.69 Y156.531 E0.24446
;WIPE_START
M204 S3000
G1 X237.69 Y156.131 F9000
;WIPE_END
M204 S1000
G1 X230.994 Y161.117
;TYPE:Internal perimeter
G1 F1800
G1 X71.404 Y161.117 E5.8228
G1 X64.215 Y160.039 E0.26524
G1 X64.215 Y159.724 E0.01149
G1 X71.404 Y158.646 E0.26524
G1 X230.994 Y158.646 E5.8228
M73 P1 R57
G1 X231.466 Y157.514 E0.04475
G1 X231.613 Y157.215 E0.01212
G1 X231.983 Y156.606 E0.026
G1 X232.402 Y156.074 E0.02474
G1 X232.897 Y155.581 E0.02549
G1 X233.443 Y155.155 E0.02524
G1 X234.035 Y154.799 E0.02524
G1 X234.679 Y154.51 E0.02574
G1 X234.981 Y154.407 E0.01162
G1 X235.666 Y154.24 E0.02574
G1 X236.356 Y154.157 E0.02534
G1 X236.937 Y154.154 E0.02122
G1 X237.382 Y154.189 E0.01628
G1 X238.083 Y154.318 E0.026
G1 X238.39 Y154.404 E0.01162
G1 X239.049 Y154.655 E0.02574
G1 X239.661 Y154.977 E0.02524
G1 X240.23 Y155.371 E0.02524
G1 X240.758 Y155.839 E0.02574
G1 X240.976 Y156.071 E0.01162
G1 X241.411 Y156.627 E0.02574
G1 X241.776 Y157.231 E0.02574
G1 X241.915 Y157.517 E0.01162
G1 X242.165 Y158.177 E0.02574
G1 X242.33 Y158.849 E0.02524
G1 X242.414 Y159.535 E0.02524
G1 X242.414 Y160.227 E0.02524
G1 X242.329 Y160.928 E0.02574
G1 X242.262 Y161.239 E0.01162
G1 X242.048 Y161.926 E0.02625
G1 X241.926 Y162.22 E0.01162
G1 X241.599 Y162.845 E0.02574
G1 X241.198 Y163.426 E0.02574
G1 X240.994 Y163.671 E0.01162
G1 X240.486 Y164.18 E0.02625
G1 X240.242 Y164.384 E0.01162
G1 X239.65 Y164.793 E0.02625
G1 X239.361 Y164.957 E0.01213
G1 X239.062 Y165.103 E0.01212
G1 X238.403 Y165.354 E0.02574
G1 X237.731 Y165.52 E0.02524
G1 X237.045 Y165.604 E0.02524
G1 X236.339 Y165.605 E0.02575
G1 X236.022 Y165.577 E0.01162
G1 X235.328 Y165.451 E0.02574
G1 X234.654 Y165.242 E0.02574
G1 X234.359 Y165.121 E0.01162
G1 X233.721 Y164.788 E0.02625
G1 X233.454 Y164.616 E0.01162
G1 X232.897 Y164.182 E0.02574
G1 X232.402 Y163.689 E0.02549
G1 X231.983 Y163.156 E0.02474
G1 X231.613 Y162.547 E0.026
G1 X231.466 Y162.249 E0.01212
G1 X230.994 Y161.117 E0.04475
G1 X230.689 Y161.574 F9000
G1 F1800
G1 X71.37 Y161.574 E5.81293
G1 X62.117 Y160.186 E0.34139
G1 X62.117 Y159.576 E0.02225
G1 X71.37 Y158.188 E0.34139
G1 X230.689 Y158.188 E5.81293
G1 X231.05 Y157.325 E0.03414
G1 X231.211 Y156.995 E0.01338
G1 X231.606 Y156.345 E0.02776
G1 X231.825 Y156.05 E0.01338
G1 X232.06 Y155.769 E0.01338
G1 X232.594 Y155.237 E0.02751
G1 X233.183 Y154.778 E0.02726
G1 X233.823 Y154.393 E0.02725
G1 X234.512 Y154.085 E0.02751
G1 X234.852 Y153.968 E0.01313
G1 X235.584 Y153.789 E0.02751
G1 X236.327 Y153.7 E0.0273
G1 X236.954 Y153.697 E0.02286
G1 X237.442 Y153.735 E0.01784
G1 X238.186 Y153.873 E0.02764
G1 X238.533 Y153.97 E0.01313
G1 X239.238 Y154.238 E0.02751
G1 X239.899 Y154.586 E0.02726
G1 X240.513 Y155.011 E0.02725
G1 X241.077 Y155.511 E0.02751
G1 X241.323 Y155.773 E0.01313
G1 X241.788 Y156.367 E0.02751
G1 X242.178 Y157.012 E0.02751
G1 X242.335 Y157.336 E0.01313
G1 X242.602 Y158.041 E0.02751
G1 X242.781 Y158.766 E0.02725
G1 X242.871 Y159.508 E0.02725
G1 X242.871 Y160.255 E0.02726
G1 X242.78 Y161.003 E0.02751
G1 X242.704 Y161.355 E0.01313
G1 X242.478 Y162.082 E0.02776
G1 X242.341 Y162.414 E0.01313
G1 X241.991 Y163.082 E0.02751
G1 X241.563 Y163.703 E0.02751
G1 X241.333 Y163.979 E0.01313
G1 X240.795 Y164.518 E0.02776
G1 X240.519 Y164.748 E0.01313
G1 X239.893 Y165.181 E0.02776
G1 X239.574 Y165.362 E0.01338
G1 X239.244 Y165.522 E0.01338
G1 X238.539 Y165.791 E0.02751
G1 X237.814 Y165.97 E0.02726
G1 X237.073 Y166.061 E0.02725
G1 X236.319 Y166.063 E0.02751
G1 X235.961 Y166.031 E0.01313
G1 X235.219 Y165.896 E0.02751
G1 X234.499 Y165.673 E0.02751
G1 X234.166 Y165.536 E0.01313
G1 X233.491 Y165.184 E0.02776
G1 X233.189 Y164.989 E0.01313
G1 X232.594 Y164.525 E0.02751
G1 X232.06 Y163.993 E0.02751
G1 X231.825 Y163.712 E0.01338
G1 X231.606 Y163.417 E0.01338
G1 X231.211 Y162.767 E0.02776
G1 X231.05 Y162.438 E0.01338
G1 X230.689 Y161.574 E0.03414
G1 X230.385 Y162.031 F9000
;TYPE:External perimeter
G1 F1800
G1 X71.336 Y162.031 E5.80306
G1 X61.66 Y160.58 E0.35699
G1 X61.66 Y159.183 E0.05098
G1 X71.336 Y157.731 E0.35699
G1 X230.385 Y157.731 E5.80306
G1 X230.633 Y157.136 E0.02354
G1 X230.81 Y156.776 E0.01464
G1 X231.227 Y156.09 E0.02927
G1 X231.465 Y155.768 E0.01464
G1 X231.723 Y155.46 E0.01464
G1 X232.292 Y154.894 E0.02927
G1 X232.924 Y154.401 E0.02927
G1 X233.611 Y153.987 E0.02927
G1 X234.344 Y153.659 E0.02927
G1 X234.723 Y153.529 E0.01464
G1 X235.503 Y153.338 E0.02927
G1 X235.899 Y153.279 E0.01464
G1 X236.299 Y153.243 E0.01464
G1 X236.971 Y153.24 E0.0245
G1 X237.501 Y153.281 E0.0194
G1 X238.29 Y153.427 E0.02927
G1 X238.676 Y153.535 E0.01464
G1 X239.426 Y153.82 E0.02927
G1 X240.136 Y154.194 E0.02927
G1 X240.473 Y154.412 E0.01464
G1 X240.796 Y154.65 E0.01464
G1 X241.396 Y155.183 E0.02927
G1 X241.671 Y155.475 E0.01464
G1 X242.165 Y156.107 E0.02927
G1 X242.58 Y156.794 E0.02927
G1 X242.755 Y157.155 E0.01464
G1 X243.039 Y157.905 E0.02927
G1 X243.231 Y158.684 E0.02927
G1 X243.328 Y159.48 E0.02927
G1 X243.34 Y159.881 E0.01464
G1 X243.328 Y160.282 E0.01464
G1 X243.231 Y161.079 E0.02927
G1 X243.147 Y161.471 E0.01464
G1 X242.909 Y162.237 E0.02927
G1 X242.755 Y162.608 E0.01464
G1 X242.383 Y163.319 E0.02927
G1 X241.927 Y163.979 E0.02927
G1 X241.671 Y164.287 E0.01464
G1 X241.104 Y164.855 E0.02927
G1 X240.796 Y165.112 E0.01464
G1 X240.136 Y165.569 E0.02927
G1 X239.787 Y165.766 E0.01464
G1 X239.426 Y165.942 E0.01464
G1 X238.676 Y166.228 E0.02927
G1 X237.898 Y166.421 E0.02927
G1 X237.101 Y166.518 E0.02927
G1 X236.299 Y166.52 E0.02927
G1 X235.899 Y166.484 E0.01464
G1 X235.11 Y166.341 E0.02927
G1 X234.344 Y166.104 E0.02927
G1 X233.973 Y165.951 E0.01464
G1 X233.262 Y165.579 E0.02927
G1 X232.924 Y165.362 E0.01464
G1 X232.292 Y164.869 E0.02927
G1 X231.723 Y164.303 E0.02927
G1 X231.465 Y163.995 E0.01464
G1 X231.227 Y163.672 E0.01464
G1 X230.81 Y162.987 E0.02927
G1 X230.633 Y162.627 E0.01464
G1 X230.385 Y162.031 E0.02354
;WIPE_START
M204 S3000
G1 X230.332 Y161.635 F9000
;WIPE_END
M204 S1000
G1 X234.757 Y164.356
;TYPE:Gap fill
;WIDTH:0.524328
G1 F1800
G1 X234.754 Y164.467 E0.00426
;WIDTH:0.48565
G1 X234.751 Y164.577 E0.00391
G1 X234.741 Y164.703 E0.00444
;WIDTH:0.437119
G1 X234.732 Y164.888 E0.00584
;WIDTH:0.354608
G1 X234.738 Y165.048 E0.00399
G1 X237.412 Y164.214 F9000
;TYPE:Solid infill
;WIDTH:0.511052
G1 F1800
G1 X238.242 Y165.044 E0.04377
G1 X238.25 Y165.112 E0.00256
G1 X237.755 Y165.204 E0.01878
G1 X236.962 Y164.411 E0.04182
G1 X236.316 Y164.411 E0.02411
G1 X237.21 Y165.304 E0.04714
G1 X237.024 Y165.339 E0.00705
G1 X236.586 Y165.327 E0.01634
G1 X235.67 Y164.411 E0.04833
G1 X235.222 Y164.411 E0.0167
G1 X235.196 Y164.583 E0.0065
G1 X236.124 Y165.511 E0.04896
G1 X235.396 Y165.182 F9000
;TYPE:Gap fill
;WIDTH:0.14292
G1 F1800
G1 X235.328 Y165.14 E0.00064
;WIDTH:0.209542
G1 X235.192 Y165.055 E0.00213
;WIDTH:0.298371
G1 X235.055 Y164.97 E0.00327
;WIDTH:0.347351
G1 X234.927 Y164.891 E0.00366
G1 X238.645 Y165.036 F9000
;WIDTH:0.366858
G1 F1800
G1 X238.644 Y164.926 E0.00286
;WIDTH:0.456914
G1 X238.644 Y164.815 E0.00365
G1 X238.636 Y164.696 E0.00393
;WIDTH:0.485816
G1 X238.629 Y164.577 E0.00421
G1 X238.627 Y164.467 E0.00392
;WIDTH:0.516975
G1 X238.624 Y164.356 E0.00419
G1 X238.636 Y155.407 F9000
;WIDTH:0.49461
G1 F1800
G1 X238.639 Y155.302 E0.00377
;WIDTH:0.461428
G1 X238.641 Y155.197 E0.0035
G1 X238.65 Y155.067 E0.00436
;WIDTH:0.425788
G1 X238.659 Y154.937 E0.00399
G1 X238.661 Y154.835 E0.00311
;WIDTH:0.339723
G1 X238.662 Y154.733 E0.00241
G1 X239.564 Y155.047 F9000
;TYPE:Solid infill
;WIDTH:0.470221
G1 F1800
G1 X240.801 Y156.284 E0.06
G1 X241.541 Y157.358 E0.04476
G1 X241.76 Y157.889 E0.01972
G1 X239.063 Y155.193 E0.13086
G1 X239.077 Y155.629 E0.01499
G1 X238.869 Y155.626 E0.00714
G1 X238.869 Y155.645 E0.00065
G1 X242.006 Y158.782 E0.15222
G1 X242.149 Y159.56 E0.02712
G1 X242.149 Y159.571 E0.00039
G1 X238.869 Y156.292 E0.15913
G1 X238.869 Y156.938 E0.02218
G1 X242.147 Y160.216 E0.15907
G1 X242.063 Y160.778 E0.0195
G1 X238.869 Y157.584 E0.15498
G1 X238.869 Y158.231 E0.02218
G1 X241.959 Y161.32 E0.14993
G1 X241.805 Y161.813 E0.01772
G1 X238.869 Y158.877 E0.14248
G1 X238.869 Y159.524 E0.02218
G1 X241.595 Y162.249 E0.13227
G1 X241.383 Y162.683 E0.01658
G1 X238.869 Y160.17 E0.12197
G1 X238.869 Y160.816 E0.02218
G1 X241.113 Y163.06 E0.10888
G1 X240.84 Y163.433 E0.01587
G1 X238.869 Y161.463 E0.09562
G1 X238.869 Y162.109 E0.02218
G1 X240.518 Y163.758 E0.07999
G1 X240.186 Y164.072 E0.01569
G1 X238.869 Y162.756 E0.06388
G1 X238.869 Y163.402 E0.02218
G1 X239.814 Y164.346 E0.04582
G1 X239.422 Y164.601 E0.01603
G1 X238.673 Y163.852 E0.03635
G1 X234.755 Y155.407 F9000
;TYPE:Gap fill
;WIDTH:0.514647
G1 F1800
G1 X234.752 Y155.296 E0.00415
;WIDTH:0.484004
G1 X234.75 Y155.186 E0.00388
G1 X234.743 Y155.064 E0.00431
;WIDTH:0.45466
G1 X234.735 Y154.942 E0.00402
;WIDTH:0.413849
G1 X234.737 Y154.851 E0.0027
;WIDTH:0.354903
G1 X234.745 Y154.712 E0.00346
G1 X233.941 Y154.936 F9000
;TYPE:Solid infill
;WIDTH:0.465607
G1 F1800
G1 X234.31 Y155.305 E0.01775
G1 X234.31 Y155.629 E0.01099
G1 X234.511 Y155.626 E0.00682
G1 X234.511 Y156.152 E0.01788
G1 X233.68 Y155.322 E0.03991
G1 X233.593 Y155.374 E0.00345
G1 X233.308 Y155.596 E0.01227
G1 X234.511 Y156.799 E0.05778
G1 X234.511 Y157.445 E0.02196
G1 X232.967 Y155.901 E0.07419
G1 X232.662 Y156.243 E0.01556
G1 X234.511 Y158.092 E0.08883
G1 X234.511 Y158.738 E0.02196
G1 X232.357 Y156.585 E0.10347
G1 X232.199 Y156.762 E0.00807
G1 X232.086 Y156.96 E0.00775
G1 X234.511 Y159.384 E0.11649
G1 X234.511 Y160.031 E0.02196
G1 X231.852 Y157.372 E0.12776
G1 X231.705 Y157.631 E0.01011
G1 X231.634 Y157.8 E0.00625
G1 X234.511 Y160.677 E0.13824
G1 X234.511 Y161.324 E0.02196
G1 X231.443 Y158.256 E0.14738
G1 X231.253 Y158.713 E0.01679
