; generated by SuperSlicer 2.4 on 2022-08-25 at 04:08:30 UTC


;
;

;
;
; 

; external perimeters extrusion width = 0.40mm
; perimeters extrusion width = 0.45mm
; infill extrusion width = 0.72mm
; solid infill extrusion width = 0.56mm
; top infill extrusion width = 0.40mm
; support material extrusion width = 0.42mm
; first layer extrusion width = 0.48mm

; object:{"name":"CableTiev6v1SMALL8COUNT(1)","id":"CableTiev6v1SMALL8COUNT(1).stl id:0 copy 0","object_center":[152.500000,150.000000,0.000000],"boundingbox_center":[152.500000,150.000000,0.394471],"boundingbox_size":[100.595535,91.204231,0.788941]}
; plater:{"center":[152.500000,150.000000,0.000000],"boundingbox_center":[152.500000,150.000000,0.394471],"boundingbox_size":[100.595535,91.204231,0.788941]}

M73 P0 R41
;TYPE:Custom
START_PRINT T_BED=60 T_EXTRUDER=220
M107
G21 ; set units to millimeters
G90 ; use absolute coordinates
M83 ; use relative distances for extrusion
; Filament gcode
M104 S220 ; set temperature
M109 S220 ; set temperature and wait for it to be reached
M190 S60 ; set bed temperature and wait for it to be reached
M107
;LAYER_CHANGE
;Z:0.2
;HEIGHT:0.2
G1 Z0.2 F9000
G92 E0
M204 S1000
G1 X102.539 Y101.773
;TYPE:Skirt
;WIDTH:0.52
G1 F1800
G1 X101.4 Y103.051 E0.06793
G1 X100.955 Y104.705 E0.06793
G1 X98.587 Y182.922 E3.10427
G1 X98.587 Y188.245 E0.21114
M73 P0 R41
G1 X98.777 Y189.42 E0.04722
G1 X101.144 Y196.521 E0.29691
G1 X101.684 Y197.559 E0.04643
G1 X102.994 Y198.662 E0.06793
G1 X104.659 Y199.061 E0.06793
G1 X175.569 Y199.217 E2.81293
G1 X200.398 Y198.767 E0.98514
G1 X202.461 Y198.096 E0.08603
G1 X203.6 Y196.818 E0.06793
G1 X204.045 Y195.164 E0.06793
G1 X206.412 Y117.059 E3.0998
G1 X206.413 Y111.624 E0.21561
G1 X206.223 Y110.449 E0.04722
G1 X203.856 Y103.349 E0.29691
G1 X203.314 Y102.309 E0.04651
G1 X202.004 Y101.206 E0.06793
G1 X200.339 Y100.808 E0.06793
G1 X187.989 Y100.782 E0.48991
G1 X104.653 Y101.102 E3.3059
G1 X102.539 Y101.773 E0.08797
G1 X102.906 Y102.134 F9000
G1 F1800
G1 X101.873 Y103.184 E0.05845
G1 X101.432 Y104.719 E0.06336
G1 X99.065 Y182.824 E3.0998
G1 X99.064 Y188.245 E0.21503
G1 X99.23 Y189.269 E0.04116
G1 X101.597 Y196.37 E0.29691
G1 X101.945 Y197.097 E0.03201
G1 X103.114 Y198.186 E0.06336
G1 X104.661 Y198.584 E0.06336
G1 X175.56 Y198.74 E2.81254
G1 X200.39 Y198.29 E0.98514
G1 X202.007 Y197.823 E0.06677
G1 X203.127 Y196.685 E0.06336
G1 X203.568 Y195.15 E0.06336
G1 X205.935 Y117.045 E3.0998
G1 X205.936 Y111.624 E0.21504
G1 X205.77 Y110.6 E0.04116
G1 X203.403 Y103.499 E0.29691
G1 X203.054 Y102.77 E0.03208
G1 X201.885 Y101.682 E0.06336
G1 X200.338 Y101.285 E0.06336
G1 X187.988 Y101.259 E0.48991
G1 X104.655 Y101.579 E3.30578
G1 X102.993 Y102.046 E0.06848
G1 X102.906 Y102.134 E0.0049
; printing object CableTiev6v1SMALL8COUNT(1).stl id:0 copy 0
G1 X167.372 Y149.504 F9000
;TYPE:External perimeter
;WIDTH:0.48
M73 P1 R40
G1 F1800
G1 X167.372 Y151.761 E0.08206
G1 X174.363 Y151.761 E0.2541
G1 X174.363 Y149.504 E0.08206
G1 X167.372 Y149.504 E0.2541
;WIPE_START
M204 S3000
G1 X166.972 Y149.504 F9000
;WIPE_END
M204 S1000
G1 X167.372 Y152.659
G1 F1800
G1 X167.372 Y154.917 E0.08206
G1 X174.363 Y154.917 E0.2541
G1 X174.363 Y152.659 E0.08206
G1 X167.372 Y152.659 E0.2541
;WIPE_START
M204 S3000
G1 X166.972 Y152.659 F9000
;WIPE_END
M204 S1000
G1 X167.372 Y155.815
G1 F1800
G1 X167.372 Y158.073 E0.08206
G1 X174.363 Y158.073 E0.2541
G1 X174.363 Y155.815 E0.08206
G1 X167.372 Y155.815 E0.2541
;WIPE_START
M204 S3000
G1 X166.972 Y155.815 F9000
;WIPE_END
M204 S1000
G1 X167.372 Y158.971
G1 F1800
G1 X167.372 Y161.229 E0.08206
G1 X174.363 Y161.229 E0.2541
G1 X174.363 Y158.971 E0.08206
G1 X167.372 Y158.971 E0.2541
;WIPE_START
M204 S3000
G1 X166.972 Y158.971 F9000
;WIPE_END
M204 S1000
G1 X167.372 Y162.127
G1 F1800
G1 X167.372 Y164.384 E0.08206
G1 X174.363 Y164.384 E0.2541
G1 X174.363 Y162.127 E0.08206
G1 X167.372 Y162.127 E0.2541
;WIPE_START
M204 S3000
G1 X166.972 Y162.127 F9000
;WIPE_END
M204 S1000
G1 X167.372 Y165.282
G1 F1800
G1 X167.372 Y167.54 E0.08206
G1 X174.363 Y167.54 E0.2541
G1 X174.363 Y165.282 E0.08206
G1 X167.372 Y165.282 E0.2541
;WIPE_START
M204 S3000
G1 X166.972 Y165.282 F9000
;WIPE_END
M204 S1000
G1 X167.372 Y168.438
G1 F1800
G1 X167.372 Y170.696 E0.08206
G1 X174.363 Y170.696 E0.2541
G1 X174.363 Y168.438 E0.08206
G1 X167.372 Y168.438 E0.2541
;WIPE_START
M204 S3000
G1 X166.972 Y168.438 F9000
;WIPE_END
M204 S1000
G1 X167.372 Y171.594
G1 F1800
G1 X167.372 Y173.852 E0.08206
G1 X174.363 Y173.852 E0.2541
G1 X174.363 Y171.594 E0.08206
G1 X167.372 Y171.594 E0.2541
;WIPE_START
M204 S3000
G1 X166.972 Y171.594 F9000
;WIPE_END
M204 S1000
G1 X167.372 Y174.75
G1 F1800
G1 X167.372 Y177.008 E0.08206
G1 X174.363 Y177.008 E0.2541
G1 X174.363 Y174.75 E0.08206
G1 X167.372 Y174.75 E0.2541
;WIPE_START
M204 S3000
G1 X166.972 Y174.75 F9000
;WIPE_END
M204 S1000
G1 X167.372 Y177.905
G1 F1800
G1 X167.372 Y180.163 E0.08206
G1 X174.363 Y180.163 E0.2541
G1 X174.363 Y177.905 E0.08206
G1 X167.372 Y177.905 E0.2541
;WIPE_START
M204 S3000
G1 X166.972 Y177.905 F9000
;WIPE_END
M204 S1000
G1 X167.372 Y181.061
G1 F1800
G1 X167.372 Y183.319 E0.08206
G1 X174.363 Y183.319 E0.2541
G1 X174.363 Y181.061 E0.08206
G1 X167.372 Y181.061 E0.2541
;WIPE_START
M204 S3000
G1 X166.972 Y181.061 F9000
;WIPE_END
M204 S1000
G1 X167.372 Y184.217
G1 F1800
G1 X167.372 Y186.475 E0.08206
G1 X174.363 Y186.475 E0.2541
G1 X174.363 Y184.217 E0.08206
G1 X167.372 Y184.217 E0.2541
;WIPE_START
M204 S3000
G1 X166.972 Y184.217 F9000
;WIPE_END
M204 S1000
G1 X167.372 Y148.606
G1 F1800
G1 X174.363 Y148.606 E0.2541
G1 X174.363 Y146.348 E0.08206
G1 X167.372 Y146.348 E0.2541
G1 X167.372 Y148.606 E0.08206
;WIPE_START
M204 S3000
G1 X167.372 Y149.006 F9000
;WIPE_END
M204 S1000
G1 X167.372 Y145.45
G1 F1800
G1 X174.363 Y145.45 E0.2541
M73 P2 R40
G1 X174.363 Y143.192 E0.08206
G1 X167.372 Y143.192 E0.2541
G1 X167.372 Y145.45 E0.08206
;WIPE_START
M204 S3000
G1 X167.372 Y145.85 F9000
;WIPE_END
M204 S1000
G1 X167.372 Y142.294
G1 F1800
G1 X174.363 Y142.294 E0.2541
G1 X174.363 Y140.036 E0.08206
G1 X167.372 Y140.036 E0.2541
G1 X167.372 Y142.294 E0.08206
;WIPE_START
M204 S3000
G1 X167.372 Y142.694 F9000
;WIPE_END
M204 S1000
G1 X167.372 Y139.138
G1 F1800
G1 X174.363 Y139.138 E0.2541
G1 X174.363 Y136.88 E0.08206
G1 X167.372 Y136.88 E0.2541
G1 X167.372 Y139.138 E0.08206
;WIPE_START
M204 S3000
G1 X167.372 Y139.538 F9000
;WIPE_END
M204 S1000
G1 X167.372 Y135.983
G1 F1800
G1 X174.363 Y135.983 E0.2541
G1 X174.363 Y133.725 E0.08206
G1 X167.372 Y133.725 E0.2541
G1 X167.372 Y135.983 E0.08206
;WIPE_START
M204 S3000
G1 X167.372 Y136.383 F9000
;WIPE_END
M204 S1000
G1 X167.372 Y132.827
G1 F1800
G1 X174.363 Y132.827 E0.2541
G1 X174.363 Y130.569 E0.08206
G1 X167.372 Y130.569 E0.2541
G1 X167.372 Y132.827 E0.08206
;WIPE_START
M204 S3000
G1 X167.372 Y133.227 F9000
;WIPE_END
M204 S1000
G1 X167.372 Y129.671
G1 F1800
G1 X174.363 Y129.671 E0.2541
G1 X174.363 Y127.413 E0.08206
G1 X167.372 Y127.413 E0.2541
G1 X167.372 Y129.671 E0.08206
;WIPE_START
M204 S3000
G1 X167.372 Y130.071 F9000
;WIPE_END
M204 S1000
G1 X167.372 Y126.515
G1 F1800
G1 X174.363 Y126.515 E0.2541
G1 X174.363 Y124.257 E0.08206
G1 X167.372 Y124.257 E0.2541
G1 X167.372 Y126.515 E0.08206
;WIPE_START
M204 S3000
G1 X167.372 Y126.915 F9000
;WIPE_END
M204 S1000
G1 X167.372 Y123.36
G1 F1800
G1 X174.363 Y123.36 E0.2541
G1 X174.363 Y121.102 E0.08206
G1 X167.372 Y121.102 E0.2541
G1 X167.372 Y123.36 E0.08206
;WIPE_START
M204 S3000
G1 X167.372 Y123.76 F9000
;WIPE_END
M204 S1000
G1 X167.372 Y120.641
;TYPE:Internal perimeter
G1 F1800
G1 X174.801 Y120.641 E0.26998
G1 X174.801 Y117.946 E0.09794
G1 X174.824 Y117.946 E0.00086
G1 X174.824 Y189.631 E2.60526
G1 X174.801 Y189.631 E0.00086
G1 X174.801 Y186.936 E0.09794
G1 X166.935 Y186.936 E0.28587
G1 X166.935 Y189.631 E0.09794
G1 X166.911 Y189.631 E0.00086
G1 X166.911 Y117.946 E2.60526
G1 X166.935 Y117.946 E0.00086
G1 X166.935 Y120.641 E0.09794
G1 X167.372 Y120.641 E0.01588
G1 X165.357 Y113.212 F9000
G1 F1800
G1 X165.357 Y116.72 E0.12748
G1 X164.544 Y116.72 E0.02954
G1 X164.544 Y112.751 E0.14423
G1 X165.357 Y112.751 E0.02954
G1 X165.357 Y113.212 E0.01675
G1 X169.715 Y116.344 F9000
G1 F1800
G1 X172.02 Y116.344 E0.08378
G1 X172.02 Y117.072 E0.02644
G1 X169.715 Y117.072 E0.08378
M73 P2 R40
G1 X169.715 Y116.344 E0.02644
G1 X167.372 Y117.509 F9000
G1 F1800
G1 X166.911 Y117.509 E0.01675
G1 X166.911 Y116.696 E0.02954
G1 X169.278 Y116.696 E0.08602
G1 X169.278 Y115.907 E0.02867
G1 X172.457 Y115.907 E0.11555
G1 X172.457 Y116.696 E0.02867
G1 X174.824 Y116.696 E0.08602
G1 X174.824 Y117.509 E0.02954
G1 X167.372 Y117.509 E0.27084
G1 X169.715 Y113.212 F9000
G1 F1800
G1 X169.715 Y112.338 E0.03177
G1 X167.348 Y112.338 E0.08602
G1 X167.348 Y106.088 E0.22715
G1 X174.387 Y106.088 E0.25582
G1 X174.387 Y112.338 E0.22715
G1 X172.02 Y112.338 E0.08602
G1 X172.02 Y113.521 E0.04301
G1 X169.715 Y113.521 E0.08378
G1 X169.715 Y113.212 E0.01124
G1 X169.278 Y113.212 F9000
G1 F1800
G1 X169.278 Y112.775 E0.01588
G1 X166.911 Y112.775 E0.08602
G1 X166.911 Y105.651 E0.25892
G1 X174.824 Y105.651 E0.28759
G1 X174.824 Y112.775 E0.25892
G1 X172.457 Y112.775 E0.08602
G1 X172.457 Y113.959 E0.04301
G1 X169.278 Y113.959 E0.11555
G1 X169.278 Y113.212 E0.02712
G1 X176.378 Y112.751 F9000
G1 F1800
G1 X177.191 Y112.751 E0.02954
G1 X177.191 Y116.72 E0.14423
G1 X176.378 Y116.72 E0.02954
G1 X176.378 Y112.751 E0.14423
G1 X174.363 Y190.505 F9000
G1 F1800
G1 X174.387 Y190.505 E0.00086
G1 X174.387 Y194.388 E0.14113
G1 X167.348 Y194.388 E0.25582
G1 X167.348 Y190.505 E0.14113
G1 X174.363 Y190.505 E0.25496
G1 X174.363 Y190.068 F9000
G1 F1800
G1 X174.824 Y190.068 E0.01675
G1 X174.824 Y194.825 E0.1729
G1 X166.911 Y194.825 E0.28759
G1 X166.911 Y190.068 E0.1729
G1 X174.363 Y190.068 E0.27084
G1 X174.363 Y120.204 F9000
;TYPE:External perimeter
G1 F1800
G1 X174.363 Y117.946 E0.08206
G1 X167.372 Y117.946 E0.2541
G1 X167.372 Y120.204 E0.08206
G1 X174.363 Y120.204 E0.2541
;WIPE_START
M204 S3000
G1 X174.763 Y120.204 F9000
;WIPE_END
M204 S1000
G1 X168.841 Y113.212
G1 F1800
G1 X165.794 Y113.212 E0.11073
G1 X165.794 Y116.259 E0.11073
G1 X168.841 Y116.259 E0.11073
G1 X168.841 Y115.47 E0.02867
G1 X172.895 Y115.47 E0.14732
G1 X172.895 Y116.259 E0.02867
G1 X175.941 Y116.259 E0.11073
G1 X175.941 Y113.212 E0.11073
G1 X172.895 Y113.212 E0.11073
G1 X172.895 Y114.396 E0.04301
G1 X168.841 Y114.396 E0.14732
G1 X168.841 Y113.212 E0.04301
;WIPE_START
M204 S3000
G1 X168.841 Y112.812 F9000
;WIPE_END
M204 S1000
G1 X174.363 Y187.373
G1 F1800
G1 X167.372 Y187.373 E0.2541
G1 X167.372 Y189.631 E0.08206
G1 X174.363 Y189.631 E0.2541
G1 X174.363 Y187.373 E0.08206
;WIPE_START
M204 S3000
G1 X174.363 Y186.973 F9000
;WIPE_END
M204 S1000
G1 X175.261 Y112.314
G1 F1800
G1 X177.628 Y112.314 E0.08602
G1 X177.628 Y117.157 E0.176
G1 X175.261 Y117.157 E0.08602
G1 X175.261 Y195.262 E2.8386
G1 X166.474 Y195.262 E0.31936
G1 X166.474 Y117.157 E2.8386
G1 X164.107 Y117.157 E0.08602
G1 X164.107 Y112.314 E0.176
G1 X166.474 Y112.314 E0.08602
G1 X166.474 Y105.214 E0.25805
G1 X175.261 Y105.214 E0.31936
G1 X175.261 Y112.314 E0.25805
;WIPE_START
M204 S3000
G1 X175.261 Y112.714 F9000
;WIPE_END
M204 S1000
G1 X175.026 Y112.763
;TYPE:Gap fill
;WIDTH:0.538287
G1 F1800
G1 X175.149 Y112.763 E0.0051
G1 X175.273 Y112.763 E0.0051
G1 X175.929 Y112.763 E0.02703
G1 X176.053 Y112.763 E0.0051
G1 X176.177 Y112.763 E0.0051
G1 X176.785 Y112.953 F9000
;WIDTH:0.453069
G1 F1800
G1 X176.785 Y116.314 E0.11462
G1 X176.785 Y116.416 E0.0035
G1 X176.785 Y116.519 E0.0035
G1 X176.177 Y116.708 F9000
;WIDTH:0.538285
G1 F1800
G1 X176.053 Y116.708 E0.0051
G1 X175.929 Y116.708 E0.0051
G1 X175.273 Y116.708 E0.02703
G1 X175.149 Y116.708 E0.0051
G1 X175.026 Y116.708 E0.0051
G1 X174.623 Y117.102 F9000
;WIDTH:0.453069
G1 F1800
G1 X172.222 Y117.102 E0.0819
G1 X171.819 Y116.708 F9000
;WIDTH:0.36786
G1 F1800
G1 X169.916 Y116.708 E0.05141
G1 X169.514 Y117.102 F9000
;WIDTH:0.453069
G1 F1800
G1 X167.112 Y117.102 E0.0819
G1 X166.71 Y116.708 F9000
;WIDTH:0.538285
G1 F1800
G1 X165.558 Y116.708 E0.04743
G1 X164.951 Y116.519 F9000
;WIDTH:0.453068
G1 F1800
G1 X164.951 Y112.953 E0.12161
G1 X165.558 Y112.763 F9000
;WIDTH:0.538285
G1 F1800
G1 X165.806 Y112.763 E0.0102
G1 X166.462 Y112.763 E0.02703
G1 X166.586 Y112.763 E0.0051
G1 X166.71 Y112.763 E0.0051
G1 X173.438 Y106.154 F9000
;TYPE:Solid infill
;WIDTH:0.457793
G1 F1800
G1 X174.134 Y106.849 E0.0341
G1 X174.134 Y107.467 E0.02143
G1 X173.008 Y106.342 E0.05519
G1 X172.39 Y106.342 E0.02143
G1 X174.134 Y108.085 E0.08549
G1 X174.134 Y108.704 E0.02143
G1 X171.772 Y106.342 E0.11579
G1 X171.154 Y106.342 E0.02143
G1 X174.134 Y109.322 E0.14609
G1 X174.134 Y109.94 E0.02143
G1 X170.535 Y106.342 E0.17638
G1 X169.917 Y106.342 E0.02143
G1 X174.134 Y110.558 E0.20668
G1 X174.134 Y111.176 E0.02143
G1 X169.299 Y106.342 E0.23698
G1 X168.681 Y106.342 E0.02143
G1 X174.134 Y111.794 E0.26728
G1 X174.134 Y112.085 E0.01007
G1 X173.806 Y112.085 E0.01136
G1 X168.063 Y106.342 E0.28152
G1 X167.602 Y106.342 E0.01599
G1 X167.602 Y106.498 E0.00544
G1 X173.188 Y112.085 E0.27383
G1 X172.57 Y112.085 E0.02143
G1 X167.602 Y107.116 E0.24353
G1 X167.602 Y107.735 E0.02143
G1 X171.952 Y112.085 E0.21323
G1 X171.767 Y112.085 E0.0064
G1 X171.767 Y112.518 E0.01502
G1 X167.602 Y108.353 E0.20418
G1 X167.602 Y108.971 E0.02143
G1 X171.767 Y113.136 E0.20418
G1 X171.767 Y113.268 E0.00457
G1 X171.281 Y113.268 E0.01685
G1 X167.602 Y109.589 E0.18034
G1 X167.602 Y110.207 E0.02143
G1 X169.479 Y112.085 E0.09203
G1 X169.969 Y112.085 E0.01696
G1 X169.969 Y112.574 E0.01696
G1 X170.663 Y113.268 E0.03402
G1 X170.044 Y113.268 E0.02143
G1 X169.781 Y113.004 E0.01294
G1 X169.049 Y112.273 F9000
G1 F1800
G1 X167.602 Y110.825 E0.07095
G1 X167.602 Y111.443 E0.02143
G1 X168.243 Y112.085 E0.03143
G1 X167.625 Y112.085 E0.02143
G1 X167.414 Y111.874 E0.01035
G1 X167.112 Y123.808 F9000
;TYPE:Gap fill
;WIDTH:0.538281
G1 F1800
G1 X167.236 Y123.808 E0.0051
G1 X167.36 Y123.808 E0.0051
G1 X174.375 Y123.808 E0.28895
G1 X174.499 Y123.808 E0.0051
G1 X174.623 Y123.808 E0.0051
M73 P3 R40
G1 X174.623 Y126.964 F9000
;WIDTH:0.538279
G1 F1800
G1 X167.36 Y126.964 E0.29916
G1 X167.236 Y126.964 E0.0051
G1 X167.112 Y126.964 E0.0051
G1 X167.112 Y130.12 F9000
;WIDTH:0.538285
G1 F1800
G1 X167.36 Y130.12 E0.0102
G1 X174.623 Y130.12 E0.29916
G1 X174.623 Y133.276 F9000
;WIDTH:0.538284
G1 F1800
G1 X167.112 Y133.276 E0.30936
G1 X167.112 Y136.432 F9000
;WIDTH:0.538283
G1 F1800
G1 X167.236 Y136.432 E0.0051
G1 X167.36 Y136.432 E0.0051
G1 X174.375 Y136.432 E0.28896
G1 X174.499 Y136.432 E0.0051
G1 X174.623 Y136.432 E0.0051
G1 X174.623 Y139.587 F9000
;WIDTH:0.538282
G1 F1800
G1 X174.375 Y139.587 E0.0102
G1 X167.112 Y139.587 E0.29916
G1 X167.112 Y142.743 F9000
;WIDTH:0.538284
G1 F1800
G1 X174.623 Y142.743 E0.30936
G1 X174.623 Y145.899 F9000
;WIDTH:0.538281
G1 F1800
G1 X174.499 Y145.899 E0.0051
G1 X167.36 Y145.899 E0.29406
G1 X167.236 Y145.899 E0.0051
G1 X167.112 Y145.899 E0.0051
G1 X167.112 Y149.055 F9000
G1 F1800
G1 X167.236 Y149.055 E0.0051
G1 X167.36 Y149.055 E0.0051
G1 X174.375 Y149.055 E0.28895
G1 X174.499 Y149.055 E0.0051
G1 X174.623 Y149.055 E0.0051
G1 X174.623 Y152.21 F9000
;WIDTH:0.538284
G1 F1800
G1 X167.112 Y152.21 E0.30936
G1 X167.112 Y155.366 F9000
;WIDTH:0.538282
G1 F1800
G1 X167.36 Y155.366 E0.0102
G1 X174.623 Y155.366 E0.29916
G1 X174.623 Y158.522 F9000
;WIDTH:0.538284
G1 F1800
G1 X167.112 Y158.522 E0.30936
G1 X167.112 Y161.678 F9000
;WIDTH:0.538283
G1 F1800
G1 X167.36 Y161.678 E0.0102
G1 X174.623 Y161.678 E0.29916
G1 X174.623 Y164.833 F9000
;WIDTH:0.538285
G1 F1800
G1 X174.499 Y164.833 E0.0051
G1 X174.375 Y164.833 E0.0051
G1 X167.112 Y164.833 E0.29916
G1 X167.112 Y167.989 F9000
;WIDTH:0.538281
G1 F1800
G1 X167.236 Y167.989 E0.0051
G1 X167.36 Y167.989 E0.0051
G1 X174.623 Y167.989 E0.29916
G1 X174.623 Y171.145 F9000
G1 F1800
G1 X174.375 Y171.145 E0.0102
G1 X170.868 Y171.145 E0.14448
G1 X167.36 Y171.145 E0.14448
G1 X167.236 Y171.145 E0.0051
G1 X167.112 Y171.145 E0.0051
G1 X167.112 Y174.301 F9000
G1 F1800
G1 X167.236 Y174.301 E0.0051
G1 X167.36 Y174.301 E0.0051
G1 X174.375 Y174.301 E0.28895
G1 X174.499 Y174.301 E0.0051
G1 X174.623 Y174.301 E0.0051
