; generated by SuperSlicer 2.4 on 2022-11-15 at 21:58:57 UTC


;
;

;
;
; 

; external perimeters extrusion width = 0.40mm
; perimeters extrusion width = 0.46mm
; infill extrusion width = 0.64mm
; solid infill extrusion width = 0.56mm
; top infill extrusion width = 0.40mm
; support material extrusion width = 0.46mm
; first layer extrusion width = 0.50mm


M73 P0 R50
;TYPE:Custom
START_PRINT T_BED=60 T_EXTRUDER=200
M107
G21 ; set units to millimeters
G90 ; use absolute coordinates
M83 ; use relative distances for extrusion
; Filament gcode
;_TOOLCHANGE 0
M109 S200 ; set temperature and wait for it to be reached
M190 S60 ; set bed temperature and wait for it to be reached
M107
;LAYER_CHANGE
;Z:0.2
;HEIGHT:0.2
G1 Z0.2 F9000
G92 E0
M73 P0 R50
G1 E-0.8 F3000
M204 S1000
G1 X109.42 Y142.784 F9000
G1 E0.8 F1800
;TYPE:Skirt
;WIDTH:0.52
G1 X108.237 Y143.768 E0.05983
G1 X107.573 Y144.544 E0.03968
G1 X107.028 Y145.388 E0.03908
G1 X106.381 Y146.919 E0.0646
G1 X106.181 Y147.793 E0.03485
G1 X106.077 Y148.806 E0.03961
G1 X106.157 Y150.22 E0.05506
G1 X107.97 Y160.637 E0.41105
G1 X108.382 Y161.803 E0.04807
G1 X109.535 Y163.069 E0.06657
G1 X111.134 Y163.682 E0.06657
G1 X133.741 Y166.697 E0.88664
G1 X189.48 Y166.697 E2.16689
G1 X191.564 Y166.057 E0.08477
G1 X195.963 Y163.076 E0.20657
G1 X196.969 Y162.062 E0.05554
G1 X197.565 Y160.457 E0.06657
G1 X198.899 Y149.689 E0.42181
G1 X198.855 Y148.128 E0.0607
G1 X198.614 Y147.123 E0.04018
G1 X198.283 Y146.305 E0.0343
G1 X197.951 Y145.726 E0.02594
G1 X197.324 Y144.902 E0.04026
G1 X196.235 Y143.946 E0.05635
G1 X194.768 Y143.198 E0.06402
G1 X193.768 Y142.937 E0.04018
G1 X193.033 Y142.848 E0.02875
G1 X141.338 Y140.142 E2.01245
G1 X135.879 Y140.144 E0.21223
G1 X113.241 Y141.502 E0.88168
G1 X112.348 Y141.601 E0.03491
G1 X111.232 Y141.888 E0.0448
G1 X110.289 Y142.279 E0.03968
G1 X109.42 Y142.784 E0.03908
G1 X109.698 Y143.184 F9000
G1 F1800
G1 X109.277 Y143.476 E0.01992
G1 X108.566 Y144.114 E0.03712
G1 X107.616 Y145.323 E0.05979
G1 X107.08 Y146.369 E0.04572
G1 X106.836 Y147.062 E0.02855
G1 X106.648 Y147.889 E0.03298
G1 X106.553 Y148.84 E0.03712
M73 P0 R49
G1 X106.627 Y150.139 E0.05059
G1 X108.44 Y160.555 E0.41105
G1 X108.701 Y161.38 E0.03362
G1 X109.716 Y162.612 E0.06209
G1 X111.198 Y163.209 E0.06209
G1 X133.741 Y166.22 E0.88417
G1 X189.48 Y166.22 E2.16689
G1 X191.297 Y165.662 E0.07389
G1 X195.695 Y162.681 E0.20657
G1 X196.511 Y161.886 E0.04429
G1 X197.092 Y160.398 E0.06209
G1 X198.425 Y149.63 E0.42181
G1 X198.386 Y148.216 E0.05499
G1 X198.166 Y147.287 E0.0371
G1 X197.859 Y146.524 E0.03199
G1 X196.981 Y145.233 E0.0607
G1 X195.951 Y144.329 E0.05327
G1 X194.624 Y143.653 E0.05789
G1 X193.702 Y143.409 E0.0371
G1 X193.009 Y143.325 E0.02714
G1 X141.313 Y140.619 E2.01245
G1 X135.908 Y140.62 E0.21015
G1 X113.283 Y141.978 E0.88114
G1 X112.438 Y142.07 E0.03304
G1 X111.369 Y142.345 E0.04293
G1 X109.973 Y142.992 E0.05979
G1 X109.698 Y143.184 E0.01305
G1 E-0.8 F3000
G1 X183.273 Y150.879 F9000
G1 E0.8 F1800
;TYPE:Support material interface
;WIDTH:0.5

G1 X186.65 Y150.879 E0.12578
G1 X186.65 Y153.397 E0.09381
G1 X183.273 Y153.397 E0.12578
G1 X183.273 Y150.879 E0.09381
G1 E-0.8 F3000
G1 X186.536 Y151.524 F9000
G1 E0.8 F1800

G1 X183.584 Y151.524 E0.10995
G1 X183.584 Y152.031 E0.01892
G1 X186.34 Y152.031 E0.10263
G1 X186.34 Y152.539 E0.01892
G1 X183.584 Y152.539 E0.10263
G1 X183.584 Y153.047 E0.01892
G1 X186.536 Y153.047 E0.10995
G1 E-0.8 F3000
G1 X142.229 Y153.047 F9000
G1 E0.8 F1800

G1 X142.229 Y153.397 E0.01303
G1 X138.851 Y153.397 E0.12578
G1 X138.851 Y150.879 E0.09381
G1 X142.229 Y150.879 E0.12578
G1 X142.229 Y153.047 E0.08078
G1 X142.114 Y151.524 F9000
G1 F1800
G1 X139.162 Y151.524 E0.10995
G1 X139.162 Y152.031 E0.01892
G1 X141.918 Y152.031 E0.10263
G1 X141.918 Y152.539 E0.01892
G1 X139.162 Y152.539 E0.10263
G1 X139.162 Y153.047 E0.01892
G1 X142.114 Y153.047 E0.10995
G1 E-0.8 F3000
G1 X183.273 Y147.321 F9000
G1 E0.8 F1800

G1 X183.273 Y146.603 E0.02676
G1 X186.65 Y146.603 E0.12578
G1 X186.65 Y147.321 E0.02676
G1 X183.273 Y147.321 E0.12578
G1 E-0.8 F3000
G1 X186.536 Y146.953 F9000
G1 E0.8 F1800

G1 X183.388 Y146.953 E0.11727
G1 E-0.8 F3000
G1 X142.228 Y146.953 F9000
G1 E0.8 F1800

G1 X142.228 Y147.271 E0.01187
G1 X138.851 Y147.271 E0.12578
G1 X138.851 Y146.603 E0.0249
G1 X142.228 Y146.603 E0.12578
G1 X142.228 Y146.953 E0.01303
G1 X142.114 Y146.953 F9000
G1 F1800
G1 X138.966 Y146.953 E0.11727
G1 E-0.8 F3000
G1 X180.523 Y151.079 F9000
G1 E0.8 F1800
;TYPE:Support material
G1 X182.566 Y151.079 E0.07609
G1 X182.566 Y154.104 E0.1127
G1 X187.358 Y154.104 E0.17846
G1 X187.358 Y151.079 E0.1127
G1 X189.715 Y151.079 E0.08782
G1 X189.818 Y151.227 E0.0067
G1 X189.85 Y151.268 E0.00195
G1 X189.858 Y151.278 E0.00048
G1 X190.174 Y151.634 E0.01772
G1 X190.221 Y151.68 E0.00243
G1 X190.419 Y151.855 E0.00986
G1 X190.471 Y151.895 E0.00244
G1 X190.667 Y152.03 E0.0089
G1 X190.863 Y152.165 E0.00883
G1 X190.919 Y152.198 E0.00244
G1 X190.999 Y152.247 E0.00351
G1 X190.999 Y157.121 E0.18156
G1 X183.435 Y157.121 E0.28176
G1 X182.803 Y157.753 E0.03328
G1 X182.803 Y160.447 E0.10032
G1 X183.435 Y161.079 E0.03328
G1 X187.577 Y161.079 E0.15429
G1 X189.48 Y162.981 E0.10022
G1 X180.523 Y162.981 E0.33358
G1 X180.523 Y151.079 E0.44333
G1 E-0.8 F3000
G1 X190.59 Y157.007 F9000
G1 E0.8 F1800
G1 X190.59 Y152.354 E0.17331
G1 X190.491 Y152.287 E0.00444
G1 X190.287 Y152.146 E0.00925
G1 X190.22 Y152.094 E0.00314
G1 X190.082 Y151.972 E0.00689
G1 X190.082 Y156.811 E0.18023
G1 X189.574 Y156.811 E0.01892
G1 X189.574 Y151.419 E0.20081
G1 X189.553 Y151.389 E0.00137
G1 X189.066 Y151.389 E0.01812
G1 X189.066 Y156.811 E0.20192
G1 X188.558 Y156.811 E0.01892
G1 X188.558 Y151.389 E0.20192
G1 X188.05 Y151.389 E0.01892
G1 X188.05 Y156.811 E0.20192
G1 X187.542 Y156.811 E0.01892
G1 X187.542 Y154.415 E0.08923
G1 X187.035 Y154.415 E0.01892
G1 X187.035 Y156.811 E0.08923
G1 X186.527 Y156.811 E0.01892
G1 X186.527 Y154.415 E0.08923
G1 X186.019 Y154.415 E0.01892
G1 X186.019 Y156.811 E0.08923
G1 X185.511 Y156.811 E0.01892
G1 X185.511 Y154.415 E0.08923
G1 X185.003 Y154.415 E0.01892
G1 X185.003 Y156.811 E0.08923
G1 X184.495 Y156.811 E0.01892
G1 X184.495 Y154.415 E0.08923
G1 X183.987 Y154.415 E0.01892
G1 X183.987 Y156.811 E0.08923
G1 X183.48 Y156.811 E0.01892
G1 X183.48 Y154.415 E0.08923
G1 X182.972 Y154.415 E0.01892
G1 X182.972 Y157.145 E0.10167
G1 X182.492 Y157.625 E0.02527
G1 X182.492 Y160.575 E0.10991
G1 X182.972 Y161.055 E0.02527
G1 X182.972 Y162.67 E0.06015
G1 X183.48 Y162.67 E0.01892
G1 X183.48 Y161.389 E0.04771
G1 X183.987 Y161.389 E0.01892
G1 X183.987 Y162.67 E0.04771
G1 X184.495 Y162.67 E0.01892
G1 X184.495 Y161.389 E0.04771
G1 X185.003 Y161.389 E0.01892
G1 X185.003 Y162.67 E0.04771
G1 X185.511 Y162.67 E0.01892
G1 X185.511 Y161.389 E0.04771
G1 X186.019 Y161.389 E0.01892
G1 X186.019 Y162.67 E0.04771
G1 X186.527 Y162.67 E0.01892
G1 X186.527 Y161.389 E0.04771
G1 X187.035 Y161.389 E0.01892
G1 X187.035 Y162.67 E0.04771
G1 X187.542 Y162.67 E0.01892
G1 X187.542 Y161.484 E0.0442
G1 X188.05 Y161.991 E0.02675
G1 X188.05 Y162.67 E0.02529
G1 X188.558 Y162.67 E0.01892
G1 X188.558 Y162.221 E0.01672
G1 X182.464 Y162.867 F9000
G1 F1800
G1 X182.464 Y154.415 E0.3148
G1 X182.255 Y154.415 E0.00776
G1 X182.255 Y151.389 E0.1127
G1 X181.956 Y151.389 E0.01115
G1 X181.956 Y162.67 E0.42017
G1 X181.448 Y162.67 E0.01892
G1 X181.448 Y151.389 E0.42017
G1 X180.94 Y151.389 E0.01892
G1 X180.94 Y162.867 E0.42749
G1 E-0.8 F3000
G1 X144.978 Y162.867 F9000
G1 E0.8 F1800
G1 X144.978 Y162.981 E0.00426
G1 X133.741 Y162.981 E0.41855
G1 X135.644 Y161.079 E0.10022
G1 X139.786 Y161.079 E0.15429
G1 X140.418 Y160.447 E0.03328
G1 X140.418 Y157.753 E0.10032
G1 X139.786 Y157.121 E0.03328
G1 X115.599 Y157.121 E0.90087
G1 X115.599 Y153.626 E0.1302
G1 X115.785 Y153.539 E0.00766
G1 X116.044 Y153.396 E0.011
G1 X116.236 Y153.289 E0.00819
G1 X116.296 Y153.257 E0.00253
G1 X116.342 Y153.228 E0.00202
G1 X116.597 Y153.051 E0.01155
G1 X116.64 Y153.018 E0.00202
G1 X116.859 Y152.832 E0.01072
G1 X117.083 Y152.64 E0.011
G1 X117.135 Y152.59 E0.00269
G1 X117.332 Y152.37 E0.011
G1 X117.524 Y152.155 E0.01072
G1 X117.558 Y152.113 E0.00202
G1 X117.741 Y151.863 E0.01155
G1 X117.771 Y151.817 E0.00202
G1 X117.829 Y151.719 E0.00425
G1 X117.916 Y151.569 E0.00647
G1 X117.991 Y151.441 E0.0055
G1 X118.066 Y151.314 E0.0055
G1 X118.098 Y151.249 E0.00269
G1 X118.169 Y151.079 E0.0069
G1 X138.144 Y151.079 E0.744
G1 X138.144 Y154.104 E0.1127
G1 X142.936 Y154.104 E0.17846
G1 X142.936 Y151.104 E0.11174
G1 X144.978 Y151.104 E0.07608
G1 X144.978 Y162.867 E0.43811
G1 X144.374 Y162.867 F9000
G1 F1800
G1 X144.374 Y151.415 E0.42653
G1 X143.866 Y151.415 E0.01892
G1 X143.866 Y162.67 E0.41921
G1 X143.358 Y162.67 E0.01892
G1 X143.358 Y151.415 E0.41921
G1 X143.246 Y151.415 E0.00416
G1 X143.246 Y154.415 E0.11174
G1 X142.85 Y154.415 E0.01476
G1 X142.85 Y162.67 E0.30748
G1 X142.342 Y162.67 E0.01892
G1 X142.342 Y154.415 E0.30748
G1 X141.835 Y154.415 E0.01892
G1 X141.835 Y162.67 E0.30748
G1 X141.327 Y162.67 E0.01892
G1 X141.327 Y154.415 E0.30748
G1 X140.819 Y154.415 E0.01892
G1 X140.819 Y162.67 E0.30748
G1 X140.311 Y162.67 E0.01892
G1 X140.311 Y160.993 E0.06247
G1 X139.915 Y161.389 E0.02087
G1 X139.803 Y161.389 E0.00416
G1 X139.803 Y162.67 E0.04771
G1 X139.295 Y162.67 E0.01892
G1 X139.295 Y161.389 E0.04771
G1 X138.787 Y161.389 E0.01892
G1 X138.787 Y162.67 E0.04771
G1 X138.279 Y162.67 E0.01892
G1 X138.279 Y161.389 E0.04771
G1 X137.772 Y161.389 E0.01892
G1 X137.772 Y162.67 E0.04771
G1 X137.264 Y162.67 E0.01892
M73 P1 R49
G1 X137.264 Y161.389 E0.04771
G1 X136.756 Y161.389 E0.01892
G1 X136.756 Y162.67 E0.04771
G1 X136.248 Y162.67 E0.01892
G1 X136.248 Y161.389 E0.04771
G1 X135.772 Y161.389 E0.01772
G1 X135.74 Y161.421 E0.00169
G1 X135.74 Y162.67 E0.04651
G1 X135.232 Y162.67 E0.01892
G1 X135.232 Y161.929 E0.0276
G1 X134.724 Y162.437 E0.02675
G1 X134.724 Y162.867 E0.016
G1 E-0.8 F3000
G1 X140.311 Y157.485 F9000
G1 E0.8 F1800
G1 X140.311 Y154.415 E0.11433
G1 X139.803 Y154.415 E0.01892
G1 X139.803 Y156.811 E0.08923
G1 X139.295 Y156.811 E0.01892
G1 X139.295 Y154.415 E0.08923
G1 X138.787 Y154.415 E0.01892
G1 X138.787 Y156.811 E0.08923
G1 X138.279 Y156.811 E0.01892
G1 X138.279 Y154.415 E0.08923
G1 X137.833 Y154.415 E0.01661
G1 X137.833 Y151.389 E0.1127
G1 X137.772 Y151.389 E0.0023
G1 X137.772 Y156.811 E0.20192
G1 X137.264 Y156.811 E0.01892
G1 X137.264 Y151.389 E0.20192
G1 X136.756 Y151.389 E0.01892
G1 X136.756 Y156.811 E0.20192
G1 X136.248 Y156.811 E0.01892
G1 X136.248 Y151.389 E0.20192
G1 X135.74 Y151.389 E0.01892
G1 X135.74 Y156.811 E0.20192
G1 X135.232 Y156.811 E0.01892
G1 X135.232 Y151.389 E0.20192
G1 X134.724 Y151.389 E0.01892
G1 X134.724 Y156.811 E0.20192
G1 X134.217 Y156.811 E0.01892
G1 X134.217 Y151.389 E0.20192
G1 X133.709 Y151.389 E0.01892
G1 X133.709 Y156.811 E0.20192
G1 X133.201 Y156.811 E0.01892
G1 X133.201 Y151.389 E0.20192
G1 X132.693 Y151.389 E0.01892
G1 X132.693 Y156.811 E0.20192
G1 X132.185 Y156.811 E0.01892
G1 X132.185 Y151.389 E0.20192
G1 X131.677 Y151.389 E0.01892
G1 X131.677 Y156.811 E0.20192
G1 X131.169 Y156.811 E0.01892
G1 X131.169 Y151.389 E0.20192
G1 X130.661 Y151.389 E0.01892
G1 X130.661 Y156.811 E0.20192
G1 X130.154 Y156.811 E0.01892
G1 X130.154 Y151.389 E0.20192
G1 X129.646 Y151.389 E0.01892
G1 X129.646 Y156.811 E0.20192
G1 X129.138 Y156.811 E0.01892
G1 X129.138 Y151.389 E0.20192
G1 X128.63 Y151.389 E0.01892
G1 X128.63 Y156.811 E0.20192
G1 X128.122 Y156.811 E0.01892
G1 X128.122 Y151.389 E0.20192
G1 X127.614 Y151.389 E0.01892
G1 X127.614 Y156.811 E0.20192
G1 X127.106 Y156.811 E0.01892
G1 X127.106 Y151.389 E0.20192
G1 X126.599 Y151.389 E0.01892
G1 X126.599 Y156.811 E0.20192
G1 X126.091 Y156.811 E0.01892
G1 X126.091 Y151.389 E0.20192
G1 X125.583 Y151.389 E0.01892
G1 X125.583 Y156.811 E0.20192
G1 X125.075 Y156.811 E0.01892
G1 X125.075 Y151.389 E0.20192
G1 X124.567 Y151.389 E0.01892
G1 X124.567 Y156.811 E0.20192
G1 X124.059 Y156.811 E0.01892
G1 X124.059 Y151.389 E0.20192
G1 X123.551 Y151.389 E0.01892
G1 X123.551 Y156.811 E0.20192
G1 X123.044 Y156.811 E0.01892
G1 X123.044 Y151.389 E0.20192
G1 X122.536 Y151.389 E0.01892
G1 X122.536 Y156.811 E0.20192
G1 X122.028 Y156.811 E0.01892
G1 X122.028 Y151.389 E0.20192
G1 X121.52 Y151.389 E0.01892
G1 X121.52 Y156.811 E0.20192
G1 X121.012 Y156.811 E0.01892
G1 X121.012 Y151.389 E0.20192
G1 X120.504 Y151.389 E0.01892
G1 X120.504 Y156.811 E0.20192
G1 X119.996 Y156.811 E0.01892
G1 X119.996 Y151.389 E0.20192
G1 X119.488 Y151.389 E0.01892
G1 X119.488 Y156.811 E0.20192
G1 X118.981 Y156.811 E0.01892
G1 X118.981 Y151.389 E0.20192
G1 X118.473 Y151.389 E0.01892
G1 X118.473 Y156.811 E0.20192
G1 X117.965 Y156.811 E0.01892
G1 X117.965 Y152.083 E0.17607
G1 X117.805 Y152.303 E0.01011
G1 X117.761 Y152.357 E0.0026
G1 X117.564 Y152.577 E0.01101
G1 X117.457 Y152.696 E0.00595
G1 X117.457 Y156.811 E0.15325
G1 X116.949 Y156.811 E0.01892
G1 X116.949 Y153.163 E0.13586
G1 X116.835 Y153.26 E0.00557
G1 X116.78 Y153.303 E0.0026
G1 X116.512 Y153.488 E0.01213
G1 X116.453 Y153.525 E0.0026
G1 X116.441 Y153.531 E0.00049
G1 X116.441 Y156.811 E0.12215
G1 X115.933 Y156.811 E0.01892
G1 X115.933 Y153.587 E0.12006
G1 E-0.8 F3000
G1 X136.101 Y147.121 F9000
G1 E0.8 F1800
G1 X136.101 Y143.853 E0.12174
G1 X141.144 Y143.853 E0.18782
G1 X141.144 Y144.979 E0.04193
G1 X144.978 Y144.979 E0.14281
G1 X144.978 Y147.121 E0.07981
G1 X142.936 Y147.121 E0.07608
G1 X142.936 Y145.896 E0.04565
G1 X138.144 Y145.896 E0.17846
G1 X138.144 Y147.121 E0.04565
G1 X136.101 Y147.121 E0.07608
G1 E-0.8 F3000
G1 X144.374 Y147.007 F9000
G1 E0.8 F1800
G1 X144.374 Y145.289 E0.06398
G1 X143.866 Y145.289 E0.01892
G1 X143.866 Y146.811 E0.05666
G1 X143.358 Y146.811 E0.01892
G1 X143.358 Y145.289 E0.05666
G1 X142.85 Y145.289 E0.01892
G1 X142.85 Y145.585 E0.011
G1 X142.342 Y145.585 E0.01892
G1 X142.342 Y145.289 E0.011
G1 X141.835 Y145.289 E0.01892
G1 X141.835 Y145.585 E0.011
G1 X141.327 Y145.585 E0.01892
G1 X141.327 Y145.289 E0.011
G1 X140.833 Y145.289 E0.01838
G1 X140.833 Y144.164 E0.04193
G1 X140.819 Y144.164 E0.00054
G1 X140.819 Y145.585 E0.05293
G1 X140.311 Y145.585 E0.01892
G1 X140.311 Y144.164 E0.05293
G1 X139.803 Y144.164 E0.01892
G1 X139.803 Y145.585 E0.05293
G1 X139.295 Y145.585 E0.01892
G1 X139.295 Y144.164 E0.05293
G1 X138.787 Y144.164 E0.01892
G1 X138.787 Y145.585 E0.05293
G1 X138.279 Y145.585 E0.01892
G1 X138.279 Y144.164 E0.05293
G1 X137.772 Y144.164 E0.01892
G1 X137.772 Y146.811 E0.09858
G1 X137.264 Y146.811 E0.01892
G1 X137.264 Y144.164 E0.09858
G1 X136.756 Y144.164 E0.01892
G1 X136.756 Y147.007 E0.1059
G1 E-0.8 F3000
G1 X192.875 Y150.576 F9000
G1 E0.8 F1800
;TYPE:Internal perimeter
G1 X192.118 Y150.292 E0.0301
G1 X191.838 Y150.112 E0.01242
G1 X191.599 Y149.86 E0.01292
G1 X191.57 Y149.818 E0.00189
G1 X191.199 Y149.112 E0.02971
G1 X191.478 Y148.492 E0.02533
G1 X191.608 Y148.278 E0.00932
G1 X191.754 Y148.108 E0.00834
G1 X191.927 Y147.965 E0.00834
G1 X192.121 Y147.853 E0.00834
G1 X192.33 Y147.774 E0.00834
G1 X192.55 Y147.731 E0.00834
G1 X192.774 Y147.725 E0.00834
G1 X192.885 Y147.741 E0.00417
G1 X192.996 Y147.756 E0.00417
G1 X193.209 Y147.823 E0.00834
G1 X193.409 Y147.925 E0.00834
G1 X193.589 Y148.058 E0.00834
G1 X193.739 Y148.214 E0.00805
G1 X193.921 Y148.499 E0.01258
G1 X194 Y148.714 E0.00854
G1 X194.041 Y148.934 E0.00834
G1 X194.046 Y149.158 E0.00834
G1 X194.013 Y149.38 E0.00834
G1 X193.939 Y149.609 E0.00897
G1 X193.851 Y149.778 E0.0071
G1 X193.706 Y149.971 E0.00897
G1 X193.544 Y150.125 E0.00834
G1 X192.875 Y150.576 E0.03006
G1 E-0.8 F3000
G1 X192.785 Y158.907 F9000
G1 E0.8 F1800
G1 X192.785 Y151.031 E0.29336
G1 X191.912 Y150.703 E0.03473
G1 X191.812 Y150.65 E0.00423
G1 X191.544 Y150.466 E0.01209
G1 X191.459 Y150.391 E0.00423
G1 X191.243 Y150.148 E0.01209
G1 X191.179 Y150.055 E0.00423
G1 X190.778 Y149.293 E0.03207
G1 X184.452 Y149.293 E0.23564
G1 X184.452 Y148.907 E0.01437
G1 X190.79 Y148.907 E0.23609
G1 X191.073 Y148.278 E0.02567
G1 X191.237 Y148.008 E0.0118
G1 X191.434 Y147.781 E0.01118
G1 X191.665 Y147.589 E0.01118
G1 X191.924 Y147.439 E0.01118
G1 X192.205 Y147.333 E0.01118
G1 X192.5 Y147.275 E0.01118
G1 X192.8 Y147.267 E0.01118
G1 X192.948 Y147.288 E0.00559
