; generated by SuperSlicer 2.3.55 on 2021-05-08 at 17:26:01 UTC

; 

; external perimeters extrusion width = 0.40mm
; perimeters extrusion width = 0.40mm
; infill extrusion width = 0.40mm
; solid infill extrusion width = 0.40mm
; top infill extrusion width = 0.40mm
; support material extrusion width = 0.40mm
; first layer extrusion width = 0.40mm


M140 S70 ; set bed temperature
M104 S245 ; set temperature
;TYPE:Custom
START_PRINT T_BED=70 T_EXTRUDER=245
M107
G21 ; set units to millimeters
G90 ; use absolute coordinates
M82 ; use absolute distances for extrusion
G92 E0
; Filament gcode
M109 S245 ; set temperature and wait for it to be reached
M190 S70 ; set bed temperature and wait for it to be reached
M107
;LAYER_CHANGE
;Z:0.24
;HEIGHT:0.24
G1 Z0.240000 F9000.000
G1 E-1.00000 F2100.000
G1 X120.656 Y118.514 F9000.000
G1 E0.00000 F2100.000
;TYPE:Skirt
;WIDTH:0.4
G1 F900.000
M204 P500
G1 X121.241 Y117.971 E0.02778
G1 X122.010 Y117.415 E0.06077
G1 X123.496 Y116.715 E0.11787
G1 X125.069 Y116.383 E0.17378
G1 X157.829 Y116.352 E1.31295
G1 X159.258 Y116.500 E1.36292
G1 X160.620 Y116.933 E1.41261
G1 X161.880 Y117.643 E1.46290
G1 X162.928 Y118.553 E1.51117
G1 X188.347 Y147.822 E2.85917
G1 X188.851 Y148.491 E2.88830
G1 X189.281 Y149.235 E2.91816
G1 X189.832 Y150.755 E2.97438
G1 X190.021 Y152.227 E3.02599
G1 X190.023 Y176.661 E3.87563
G1 X189.963 Y177.533 E3.90604
G1 X189.766 Y178.503 E3.94045
G1 X189.478 Y179.336 E3.97111
G1 X189.075 Y180.146 E4.00258
G1 X188.543 Y180.936 E4.03566
G1 X187.972 Y181.584 E4.06573
G1 X187.325 Y182.157 E4.09579
G1 X186.532 Y182.694 E4.12907
G1 X185.749 Y183.087 E4.15954
G1 X184.951 Y183.371 E4.18900
G1 X184.141 Y183.553 E4.21785
G1 X183.198 Y183.644 E4.25081
G1 X121.919 Y183.647 E6.38167
G1 X121.068 Y183.584 E6.41134
G1 X120.099 Y183.385 E6.44573
G1 X119.273 Y183.097 E6.47614
G1 X118.476 Y182.698 E6.50716
G1 X117.145 Y181.699 E6.56501
G1 X116.128 Y180.477 E6.62031
G1 X115.419 Y179.073 E6.67500
G1 X115.156 Y178.197 E6.70677
G1 X115.021 Y177.404 E6.73477
G1 X114.978 Y152.271 E7.60873
G1 X118.765 Y122.429 E8.65472
G1 X119.079 Y121.102 E8.70215
G1 X119.673 Y119.809 E8.75164
G1 X120.619 Y118.562 E8.80606
G1 X120.896 Y118.773 F9000.000
G1 F900.000
G1 X121.590 Y118.136 E8.83881
G1 X122.213 Y117.700 E8.86527
G1 X123.619 Y117.041 E8.91925
G1 X125.123 Y116.728 E8.97267
G1 X157.829 Y116.701 E10.10996
G1 X159.190 Y116.842 E10.15755
G1 X160.488 Y117.256 E10.20494
G1 X161.685 Y117.932 E10.25271
G1 X162.683 Y118.801 E10.29874
G1 X188.083 Y148.050 E11.64579
G1 X188.974 Y149.401 E11.70208
G1 X189.495 Y150.844 E11.75543
G1 X189.672 Y152.240 E11.80434
G1 X189.674 Y176.671 E12.65388
G1 X189.613 Y177.517 E12.68338
G1 X189.411 Y178.480 E12.71761
G1 X189.120 Y179.288 E12.74746
G1 X188.692 Y180.108 E12.77961
G1 X188.209 Y180.797 E12.80887
G1 X187.663 Y181.400 E12.83715
G1 X187.065 Y181.917 E12.86466
G1 X186.295 Y182.429 E12.89681
G1 X184.823 Y183.045 E12.95231
G1 X184.072 Y183.211 E12.97903
G1 X183.166 Y183.297 E13.01068
G1 X121.927 Y183.299 E15.14015
G1 X121.113 Y183.239 E15.16855
G1 X120.188 Y183.048 E15.20138
G1 X119.405 Y182.774 E15.23021
G1 X118.644 Y182.393 E15.25981
G1 X117.378 Y181.439 E15.31493
G1 X116.411 Y180.273 E15.36762
G1 X116.027 Y179.602 E15.39449
G1 X115.691 Y178.798 E15.42479
G1 X115.364 Y177.336 E15.47689
G1 X115.327 Y152.263 E16.34877
G1 X119.110 Y122.482 E17.39265
G1 X119.408 Y121.215 E17.43792
G1 X119.981 Y119.972 E17.48550
G1 X120.859 Y118.821 E17.53586
G92 E0
G1 E-1.00000 F2100.000
G1 X156.328 Y151.703 F9000.000
G1 E0.00000 F2100.000
;TYPE:Perimeter
G1 F900.000
G1 X156.636 Y151.496 E0.01290
G1 X157.013 Y151.423 E0.02626
G1 X182.987 Y151.424 E0.92946
G1 X183.364 Y151.496 E0.94280
G1 X183.672 Y151.703 E0.95570
G1 X183.879 Y152.011 E0.96860
G1 X183.951 Y152.388 E0.98193
G1 X183.952 Y176.612 E1.82430
G1 X183.879 Y176.989 E1.83764
G1 X183.672 Y177.297 E1.85054
G1 X183.364 Y177.504 E1.86344
G1 X182.986 Y177.577 E1.87681
G1 X157.013 Y177.577 E2.77999
G1 X156.636 Y177.504 E2.79334
G1 X156.328 Y177.297 E2.80624
G1 X156.121 Y176.989 E2.81914
G1 X156.048 Y176.611 E2.83251
G1 X156.049 Y152.388 E3.67485
G1 X156.121 Y152.011 E3.68818
G1 X156.287 Y151.747 E3.69902
G1 X156.029 Y151.513 F9000.000
;TYPE:External perimeter
G1 F900.000
G1 X156.503 Y151.174 E3.71927
G1 X157.005 Y151.075 E3.73707
G1 X182.996 Y151.075 E4.64086
G1 X183.497 Y151.174 E4.65864
G1 X183.919 Y151.456 E4.67627
G1 X184.201 Y151.878 E4.69391
G1 X184.300 Y152.379 E4.71168
G1 X184.300 Y176.621 E5.55464
G1 X184.201 Y177.122 E5.57243
G1 X183.919 Y177.544 E5.59006
G1 X183.497 Y177.826 E5.60769
G1 X182.995 Y177.925 E5.62550
G1 X157.004 Y177.925 E6.52928
G1 X156.503 Y177.826 E6.54706
G1 X156.081 Y177.544 E6.56470
G1 X155.799 Y177.122 E6.58233
G1 X155.700 Y176.620 E6.60014
G1 X155.700 Y152.379 E7.44307
G1 X155.756 Y151.998 E7.45648
G1 X155.990 Y151.558 E7.47378
G1 X156.105 Y151.528 F9000.000
G92 E0
G1 E-1.00000 F2100.000
G1 X183.830 Y152.748 F9000.000
G1 E0.00000 F2100.000
;TYPE:Solid infill
;WIDTH:0.402514
G1 F1800.000
G1 X182.784 Y151.702 E0.05173
G1 X182.291 Y151.702 E0.06897
G1 X183.673 Y153.084 E0.13733
G1 X183.673 Y153.576 E0.15458
G1 X181.799 Y151.702 E0.24732
G1 X181.306 Y151.702 E0.26457
G1 X183.673 Y154.069 E0.38170
G1 X183.673 Y154.562 E0.39895
G1 X180.813 Y151.702 E0.54047
G1 X180.320 Y151.702 E0.55772
G1 X183.673 Y155.055 E0.72363
G1 X183.673 Y155.548 E0.74087
G1 X179.827 Y151.702 E0.93117
G1 X179.334 Y151.702 E0.94842
G1 X183.673 Y156.041 E1.16311
G1 X183.673 Y156.534 E1.18035
G1 X178.841 Y151.702 E1.41943
G1 X178.349 Y151.702 E1.43668
G1 X183.673 Y157.026 E1.70014
G1 X183.673 Y157.519 E1.71739
G1 X177.856 Y151.702 E2.00524
G1 X177.363 Y151.702 E2.02249
G1 X183.673 Y158.012 E2.33473
G1 X183.673 Y158.505 E2.35198
G1 X176.870 Y151.702 E2.68861
G1 X176.377 Y151.702 E2.70586
G1 X183.673 Y158.998 E3.06688
G1 X183.673 Y159.491 E3.08413
G1 X175.884 Y151.702 E3.46954
G1 X175.392 Y151.702 E3.48678
G1 X183.673 Y159.983 E3.89658
G1 X183.673 Y160.476 E3.91383
G1 X174.899 Y151.702 E4.34801
G1 X174.406 Y151.702 E4.36526
G1 X183.673 Y160.969 E4.82384
G1 X183.673 Y161.462 E4.84108
G1 X173.913 Y151.702 E5.32405
G1 X173.420 Y151.702 E5.34129
G1 X183.673 Y161.955 E5.84865
G1 X183.673 Y162.448 E5.86589
G1 X172.927 Y151.702 E6.39764
G1 X172.434 Y151.702 E6.41488
G1 X183.673 Y162.941 E6.97101
G1 X183.673 Y163.433 E6.98826
G1 X171.942 Y151.702 E7.56878
G1 X171.449 Y151.702 E7.58603
G1 X183.673 Y163.926 E8.19094
G1 X183.673 Y164.419 E8.20818
G1 X170.956 Y151.702 E8.83748
G1 X170.463 Y151.702 E8.85472
G1 X183.673 Y164.912 E9.50841
G1 X183.673 Y165.405 E9.52566
G1 X169.970 Y151.702 E10.20373
G1 X169.477 Y151.702 E10.22098
G1 X183.673 Y165.898 E10.92344
G1 X183.673 Y166.390 E10.94069
G1 X168.985 Y151.702 E11.66754
G1 X168.492 Y151.702 E11.68479
G1 X183.673 Y166.883 E12.43603
G1 X183.673 Y167.376 E12.45327
G1 X167.999 Y151.702 E13.22891
G1 X167.506 Y151.702 E13.24615
G1 X183.673 Y167.869 E14.04617
G1 X183.673 Y168.362 E14.06342
G1 X167.013 Y151.702 E14.88782
G1 X166.520 Y151.702 E14.90507
G1 X183.673 Y168.855 E15.75387
G1 X183.673 Y169.348 E15.77111
G1 X166.027 Y151.702 E16.64430
G1 X165.535 Y151.702 E16.66154
G1 X183.673 Y169.840 E17.55912
G1 X183.673 Y170.333 E17.57636
G1 X165.042 Y151.702 E18.49833
G1 X164.549 Y151.702 E18.51557
G1 X183.673 Y170.826 E19.46193
G1 X183.673 Y171.319 E19.47917
G1 X164.056 Y151.702 E20.44991
G1 X163.563 Y151.702 E20.46716
G1 X183.673 Y171.812 E21.46229
G1 X183.673 Y172.305 E21.47953
G1 X163.070 Y151.702 E22.49905
G1 X162.578 Y151.702 E22.51630
G1 X183.673 Y172.797 E23.56020
G1 X183.673 Y173.290 E23.57745
G1 X162.085 Y151.702 E24.64574
G1 X161.592 Y151.702 E24.66299
G1 X183.673 Y173.783 E25.75568
G1 X183.673 Y174.276 E25.77292
G1 X161.099 Y151.702 E26.88999
G1 X160.606 Y151.702 E26.90724
G1 X183.673 Y174.769 E28.04870
G1 X183.673 Y175.262 E28.06595
G1 X160.113 Y151.702 E29.23180
G1 X159.620 Y151.702 E29.24904
G1 X183.673 Y175.755 E30.43928
G1 X183.673 Y176.247 E30.45653
G1 X159.128 Y151.702 E31.67116
G1 X158.635 Y151.702 E31.68840
G1 X183.660 Y176.728 E32.92681
G1 X183.503 Y177.064 E32.93979
G1 X158.142 Y151.702 E34.19481
G1 X157.649 Y151.702 E34.21206
G1 X183.207 Y177.260 E35.47679
G1 X182.752 Y177.298 E35.49277
G1 X157.156 Y151.702 E36.75937
G1 X156.726 Y151.765 E36.77459
G1 X182.259 Y177.298 E38.03811
G1 X181.766 Y177.298 E38.05535
G1 X156.455 Y151.987 E39.30788
G1 X156.332 Y152.356 E39.32151
G1 X181.273 Y177.298 E40.55575
G1 X180.780 Y177.298 E40.57300
G1 X156.327 Y152.845 E41.78306
G1 X156.327 Y153.338 E41.80031
G1 X180.287 Y177.298 E42.98599
G1 X179.795 Y177.298 E43.00323
G1 X156.327 Y153.830 E44.16452
G1 X156.327 Y154.323 E44.18177
G1 X179.302 Y177.298 E45.31867
G1 X178.809 Y177.298 E45.33592
G1 X156.327 Y154.816 E46.44843
G1 X156.327 Y155.309 E46.46567
G1 X178.316 Y177.298 E47.55380
G1 X177.823 Y177.298 E47.57104
G1 X156.327 Y155.802 E48.63478
G1 X156.327 Y156.295 E48.65202
G1 X177.330 Y177.298 E49.69137
G1 X176.837 Y177.298 E49.70862
G1 X156.327 Y156.788 E50.72357
G1 X156.327 Y157.280 E50.74082
G1 X176.345 Y177.298 E51.73139
G1 X175.852 Y177.298 E51.74863
G1 X156.327 Y157.773 E52.71481
G1 X156.327 Y158.266 E52.73206
G1 X175.359 Y177.298 E53.67385
G1 X174.866 Y177.298 E53.69109
G1 X156.327 Y158.759 E54.60850
G1 X156.327 Y159.252 E54.62574
G1 X174.373 Y177.298 E55.51876
G1 X173.880 Y177.298 E55.53600
G1 X156.327 Y159.745 E56.40463
G1 X156.327 Y160.237 E56.42187
G1 X173.388 Y177.298 E57.26611
G1 X172.895 Y177.298 E57.28335
G1 X156.327 Y160.730 E58.10320
G1 X156.327 Y161.223 E58.12045
G1 X172.402 Y177.298 E58.91590
G1 X171.909 Y177.298 E58.93315
G1 X156.327 Y161.716 E59.70422
G1 X156.327 Y162.209 E59.72147
G1 X171.416 Y177.298 E60.46815
G1 X170.923 Y177.298 E60.48539
G1 X156.327 Y162.702 E61.20768
G1 X156.327 Y163.195 E61.22493
G1 X170.430 Y177.298 E61.92283
G1 X169.938 Y177.298 E61.94008
G1 X156.327 Y163.687 E62.61359
G1 X156.327 Y164.180 E62.63084
G1 X169.445 Y177.298 E63.27997
G1 X168.952 Y177.298 E63.29721
G1 X156.327 Y164.673 E63.92195
G1 X156.327 Y165.166 E63.93919
G1 X168.459 Y177.298 E64.53954
G1 X167.966 Y177.298 E64.55679
G1 X156.327 Y165.659 E65.13275
G1 X156.327 Y166.152 E65.14999
G1 X167.473 Y177.298 E65.70156
G1 X166.981 Y177.298 E65.71881
G1 X156.327 Y166.644 E66.24599
G1 X156.327 Y167.137 E66.26324
G1 X166.488 Y177.298 E66.76603
G1 X165.995 Y177.298 E66.78328
G1 X156.327 Y167.630 E67.26168
G1 X156.327 Y168.123 E67.27893
G1 X165.502 Y177.298 E67.73294
G1 X165.009 Y177.298 E67.75019
G1 X156.327 Y168.616 E68.17982
G1 X156.327 Y169.109 E68.19706
G1 X164.516 Y177.298 E68.60230
G1 X164.023 Y177.298 E68.61955
G1 X156.327 Y169.602 E69.00040
G1 X156.327 Y170.094 E69.01764
G1 X163.531 Y177.298 E69.37410
G1 X163.038 Y177.298 E69.39135
G1 X156.327 Y170.587 E69.72342
G1 X156.327 Y171.080 E69.74066
G1 X162.545 Y177.298 E70.04835
G1 X162.052 Y177.298 E70.06559
G1 X156.327 Y171.573 E70.34889
G1 X156.327 Y172.066 E70.36613
G1 X161.559 Y177.298 E70.62504
G1 X161.066 Y177.298 E70.64229
G1 X156.327 Y172.559 E70.87680
G1 X156.327 Y173.051 E70.89405
G1 X160.574 Y177.298 E71.10418
G1 X160.081 Y177.298 E71.12142
G1 X156.327 Y173.544 E71.30716
G1 X156.327 Y174.037 E71.32441
G1 X159.588 Y177.298 E71.48576
G1 X159.095 Y177.298 E71.50300
G1 X156.327 Y174.530 E71.63997
G1 X156.327 Y175.023 E71.65721
G1 X158.602 Y177.298 E71.76979
G1 X158.109 Y177.298 E71.78703
G1 X156.327 Y175.516 E71.87522
G1 X156.327 Y176.009 E71.89246
G1 X157.616 Y177.298 E71.95626
G1 X157.124 Y177.298 E71.97350
G1 X156.170 Y176.345 E72.02067
G92 E0
G1 E-1.00000 F2100.000
G1 X183.029 Y151.643 F9000.000
G1 E0.00000 F2100.000
;TYPE:Gap fill
;WIDTH:0.131504
G1 F900.000
G1 X183.083 Y151.668 E0.00047
;WIDTH:0.211353
G1 X183.195 Y151.728 E0.00250
;WIDTH:0.277799
G1 X183.305 Y151.802 E0.00550
;WIDTH:0.315743
G1 X183.573 Y152.070 E0.01549
;WIDTH:0.277801
G1 X183.647 Y152.180 E0.01849
;WIDTH:0.211346
G1 X183.707 Y152.292 E0.02051
;WIDTH:0.131504
G1 X183.732 Y152.346 E0.02099
G92 E0
G1 E-1.00000 F2100.000
G1 X147.410 Y159.575 F9000.000
G1 E0.00000 F2100.000
;TYPE:Perimeter
;WIDTH:0.4
G1 F900.000
G1 X147.293 Y159.191 E0.01397
G1 X146.984 Y158.675 E0.03488
G1 X146.538 Y158.271 E0.05579
G1 X146.184 Y158.082 E0.06976
G1 X145.601 Y157.936 E0.09067
G1 X143.307 Y157.921 E0.17044
G1 X143.036 Y157.853 E0.18014
G1 X142.728 Y157.647 E0.19305
G1 X142.561 Y157.423 E0.20275
G1 X142.454 Y157.068 E0.21565
G1 X142.439 Y154.774 E0.29542
G1 X142.293 Y154.191 E0.31633
G1 X142.104 Y153.837 E0.33030
G1 X141.849 Y153.526 E0.34427
G1 X141.538 Y153.271 E0.35824
G1 X140.995 Y153.014 E0.37915
G1 X140.413 Y152.927 E0.39959
G1 X129.587 Y152.927 E0.77608
G1 X129.200 Y152.965 E0.78958
G1 X128.816 Y153.082 E0.80355
G1 X128.462 Y153.271 E0.81752
G1 X128.151 Y153.526 E0.83148
G1 X127.793 Y154.009 E0.85239
G1 X127.639 Y154.380 E0.86636
G1 X127.552 Y154.962 E0.88681
G1 X127.546 Y157.068 E0.96006
G1 X127.439 Y157.423 E0.97296
G1 X127.272 Y157.647 E0.98267
G1 X127.048 Y157.814 E0.99237
G1 X126.693 Y157.921 E1.00527
G1 X124.587 Y157.927 E1.07853
G1 X124.005 Y158.014 E1.09897
G1 X123.634 Y158.168 E1.11294
G1 X123.151 Y158.526 E1.13385
G1 X122.896 Y158.837 E1.14782
G1 X122.707 Y159.191 E1.16179
G1 X122.590 Y159.575 E1.17575
G1 X122.552 Y159.962 E1.18925
G1 X122.552 Y169.038 E1.50489
G1 X122.590 Y169.425 E1.51839
G1 X122.707 Y169.809 E1.53236
G1 X122.896 Y170.163 E1.54632
G1 X123.300 Y170.609 E1.56723
G1 X123.634 Y170.832 E1.58120
G1 X124.005 Y170.986 E1.59517
G1 X124.587 Y171.073 E1.61562
G1 X126.693 Y171.079 E1.68887
G1 X127.048 Y171.186 E1.70177
G1 X127.272 Y171.353 E1.71148
G1 X127.478 Y171.661 E1.72438
G1 X127.546 Y171.932 E1.73408
G1 X127.561 Y174.226 E1.81385
G1 X127.707 Y174.809 E1.83476
G1 X127.896 Y175.163 E1.84873
G1 X128.300 Y175.609 E1.86964
G1 X128.634 Y175.832 E1.88361
G1 X129.005 Y175.986 E1.89758
G1 X129.587 Y176.073 E1.91802
G1 X140.413 Y176.073 E2.29451
G1 X140.800 Y176.035 E2.30801
G1 X141.184 Y175.918 E2.32198
G1 X141.538 Y175.729 E2.33595
G1 X141.984 Y175.325 E2.35686
G1 X142.207 Y174.991 E2.37082
G1 X142.361 Y174.620 E2.38479
G1 X142.448 Y174.038 E2.40524
G1 X142.454 Y171.932 E2.47849
G1 X142.561 Y171.577 E2.49139
G1 X142.728 Y171.353 E2.50110
G1 X143.036 Y171.147 E2.51400
G1 X143.307 Y171.079 E2.52370
G1 X145.413 Y171.073 E2.59696
G1 X145.995 Y170.986 E2.61740
G1 X146.366 Y170.832 E2.63137
G1 X146.700 Y170.609 E2.64534
G1 X147.104 Y170.163 E2.66625
G1 X147.293 Y169.809 E2.68022
G1 X147.410 Y169.425 E2.69418
G1 X147.448 Y169.038 E2.70768
G1 X147.419 Y159.635 E3.03469
G1 X147.074 Y159.686 F9000.000
;TYPE:External perimeter
G1 F900.000
G1 X146.971 Y159.324 E3.04775
G1 X146.714 Y158.896 E3.06510
G1 X146.345 Y158.561 E3.08245
G1 X146.051 Y158.404 E3.09404
G1 X145.405 Y158.275 E3.11694
G1 X143.273 Y158.268 E3.19109
G1 X142.903 Y158.176 E3.20435
G1 X142.481 Y157.894 E3.22199
G1 X142.199 Y157.472 E3.23962
G1 X142.107 Y157.102 E3.25289
G1 X142.100 Y154.970 E3.32703
G1 X142.027 Y154.481 E3.34421
G1 X141.814 Y154.030 E3.36157
G1 X141.602 Y153.773 E3.37316
G1 X141.345 Y153.561 E3.38475
G1 X140.894 Y153.348 E3.40210
G1 X140.405 Y153.275 E3.41928
G1 X129.595 Y153.275 E3.79517
G1 X128.949 Y153.404 E3.81807
G1 X128.398 Y153.773 E3.84113
G1 X128.101 Y154.174 E3.85848
G1 X127.973 Y154.481 E3.87007
G1 X127.900 Y154.970 E3.88725
G1 X127.894 Y157.102 E3.96140
G1 X127.746 Y157.588 E3.97904
G1 X127.519 Y157.894 E3.99230
G1 X127.213 Y158.121 E4.00556
G1 X126.727 Y158.268 E4.02320
G1 X124.595 Y158.275 E4.09734
G1 X124.106 Y158.348 E4.11452
G1 X123.799 Y158.476 E4.12611
G1 X123.398 Y158.773 E4.14346
G1 X123.029 Y159.324 E4.16653
G1 X122.900 Y159.970 E4.18943
G1 X122.900 Y169.030 E4.50447
G1 X123.029 Y169.676 E4.52737
G1 X123.186 Y169.970 E4.53896
G1 X123.521 Y170.339 E4.55631
G1 X124.106 Y170.652 E4.57938
G1 X124.595 Y170.725 E4.59656
G1 X126.727 Y170.732 E4.67071
G1 X127.097 Y170.824 E4.68397
G1 X127.519 Y171.106 E4.70160
G1 X127.801 Y171.528 E4.71924
G1 X127.894 Y171.898 E4.73250
G1 X127.900 Y174.030 E4.80665
G1 X127.973 Y174.519 E4.82383
G1 X128.186 Y174.970 E4.84118
G1 X128.398 Y175.227 E4.85277
G1 X128.655 Y175.439 E4.86436
G1 X129.106 Y175.652 E4.88171
G1 X129.595 Y175.725 E4.89889
