; generated by SuperSlicer 2.4 on 2022-11-18 at 01:20:53 UTC


;
;

;
;
; 

; external perimeters extrusion width = 0.40mm
; perimeters extrusion width = 0.46mm
; infill extrusion width = 0.64mm
; solid infill extrusion width = 0.56mm
; top infill extrusion width = 0.40mm
; support material extrusion width = 0.46mm
; first layer extrusion width = 0.50mm

; external perimeters extrusion width = 0.40mm
; perimeters extrusion width = 0.46mm
; infill extrusion width = 0.64mm
; solid infill extrusion width = 0.56mm
; top infill extrusion width = 0.40mm
; support material extrusion width = 0.46mm
; first layer extrusion width = 0.50mm

; object:{"name":"business card","id":"business card.stl id:0 copy 0","object_center":[152.500000,181.750000,0.000000],"boundingbox_center":[152.500000,181.750000,30.000000],"boundingbox_size":[56.500008,42.500000,60.000000]}
; object:{"name":"card","id":"card.stl id:1 copy 0","object_center":[152.500000,125.750000,0.000000],"boundingbox_center":[152.500000,125.750000,30.000000],"boundingbox_size":[57.500000,57.500000,60.000000]}
; plater:{"center":[152.500000,150.000000,0.000000],"boundingbox_center":[152.500000,150.000000,30.000000],"boundingbox_size":[57.500000,106.000000,60.000000]}

M73 P0 R299


; Pre-Processed for Cancel-Object support by preprocess_cancellation v0.2.0
; 2 known objects
EXCLUDE_OBJECT_DEFINE NAME=business_card_stl_id_0_copy_0 CENTER=151.142,178.952 POLYGON=[[124.45,155.101],[124.45,202.8],[180.55,202.8],[180.55,155.101]]
EXCLUDE_OBJECT_DEFINE NAME=card_stl_id_1_copy_0 CENTER=151.086,119.055 POLYGON=[[123.95,92.266],[123.95,154.3],[181.05,154.3],[181.05,92.266]]
;TYPE:Custom
START_PRINT T_BED=60 T_EXTRUDER=200
M107
G21 ; set units to millimeters
G90 ; use absolute coordinates
M83 ; use relative distances for extrusion
; Filament gcode
;_TOOLCHANGE 0
M104 S200 ; set temperature
M109 S200 ; set temperature and wait for it to be reached
M190 S60 ; set bed temperature and wait for it to be reached
M107
;LAYER_CHANGE
;Z:0.2
;HEIGHT:0.2
G1 Z0.2 F9000
G92 E0
G1 E-0.8 F3000
M204 S1000
G1 X122.782 Y90.171 F9000
G1 E0.8 F1800
;TYPE:Skirt
;WIDTH:0.52
G1 X122.168 Y91.77 E0.06657
G1 X120.134 Y107.1 E0.6012
G1 X120.135 Y154.438 E1.84032
G1 X120.635 Y202.938 E1.88558
G1 X121.371 Y205.121 E0.08956
G1 X122.684 Y206.221 E0.06657
G1 X124.35 Y206.616 E0.06657
G1 X180.65 Y206.616 E2.18872
G1 X182.84 Y205.902 E0.08956
G1 X183.954 Y204.601 E0.06657
G1 X184.365 Y202.938 E0.06657
G1 X184.865 Y154.438 E1.88558
G1 X184.866 Y107.1 E1.84032
G1 X182.832 Y91.77 E0.6012
G1 X182.128 Y90.045 E0.0724
G1 X180.816 Y88.945 E0.06657
G1 X179.149 Y88.551 E0.06657
G1 X125.851 Y88.551 E2.07204
G1 X124.048 Y89.017 E0.0724
G1 X122.782 Y90.171 E0.06657
G1 X123.237 Y90.355 F9000
G1 F1800
G1 X122.641 Y91.834 E0.06199
G1 X120.611 Y107.1 E0.59872
G1 X120.612 Y154.433 E1.84013
G1 X121.112 Y202.933 E1.88558
G1 X121.631 Y204.659 E0.07006
G1 X122.802 Y205.745 E0.06209
G1 X124.35 Y206.139 E0.06209
G1 X180.65 Y206.139 E2.18872
G1 X182.381 Y205.637 E0.07006
G1 X183.479 Y204.477 E0.06209
G1 X183.888 Y202.933 E0.06209
G1 X184.388 Y154.433 E1.88558
G1 X184.389 Y107.1 E1.84013
G1 X182.359 Y91.834 E0.59872
G1 X181.869 Y90.507 E0.05497
G1 X180.697 Y89.422 E0.06209
G1 X179.149 Y89.028 E0.06209
G1 X125.851 Y89.028 E2.07204
G1 X124.471 Y89.336 E0.05497
G1 X123.237 Y90.355 E0.06218
G1 E-0.8 F3000
; printing object business card.stl id:0 copy 0
EXCLUDE_OBJECT_START NAME=business_card_stl_id_0_copy_0
G1 X125.851 Y155.101 F9000
G1 E0.8 F1800
;TYPE:Support material
;WIDTH:0.5
G1 X138.144 Y155.101 E0.4579
G1 X138.144 Y169.821 E0.5483
M73 P0 R298
G1 X125.851 Y169.821 E0.4579
G1 X125.851 Y155.101 E0.5483
G1 X137.772 Y169.707 F9000
G1 F1800
G1 X137.772 Y155.411 E0.53247
G1 X137.264 Y155.411 E0.01892
G1 X137.264 Y169.511 E0.52515
G1 X136.756 Y169.511 E0.01892
G1 X136.756 Y155.411 E0.52515
G1 X136.248 Y155.411 E0.01892
G1 X136.248 Y169.511 E0.52515
G1 X135.74 Y169.511 E0.01892
G1 X135.74 Y155.411 E0.52515
G1 X135.233 Y155.411 E0.01892
G1 X135.233 Y169.511 E0.52515
G1 X134.725 Y169.511 E0.01892
G1 X134.725 Y155.411 E0.52515
G1 X134.217 Y155.411 E0.01892
G1 X134.217 Y169.511 E0.52515
G1 X133.709 Y169.511 E0.01892
G1 X133.709 Y155.411 E0.52515
G1 X133.201 Y155.411 E0.01892
G1 X133.201 Y169.511 E0.52515
G1 X132.693 Y169.511 E0.01892
G1 X132.693 Y155.411 E0.52515
G1 X132.185 Y155.411 E0.01892
G1 X132.185 Y169.511 E0.52515
G1 X131.677 Y169.511 E0.01892
G1 X131.677 Y155.411 E0.52515
G1 X131.17 Y155.411 E0.01892
G1 X131.17 Y169.511 E0.52515
G1 X130.662 Y169.511 E0.01892
G1 X130.662 Y155.411 E0.52515
G1 X130.154 Y155.411 E0.01892
G1 X130.154 Y169.511 E0.52515
G1 X129.646 Y169.511 E0.01892
G1 X129.646 Y155.411 E0.52515
G1 X129.138 Y155.411 E0.01892
G1 X129.138 Y169.511 E0.52515
G1 X128.63 Y169.511 E0.01892
G1 X128.63 Y155.411 E0.52515
G1 X128.122 Y155.411 E0.01892
G1 X128.122 Y169.511 E0.52515
G1 X127.615 Y169.511 E0.01892
G1 X127.615 Y155.411 E0.52515
G1 X127.107 Y155.411 E0.01892
G1 X127.107 Y169.511 E0.52515
G1 X126.599 Y169.511 E0.01892
G1 X126.599 Y155.215 E0.53247
G1 E-0.8 F3000
G1 X166.855 Y155.215 F9000
G1 E0.8 F1800
G1 X166.855 Y155.101 E0.00426
G1 X179.149 Y155.101 E0.4579
G1 X179.149 Y169.821 E0.5483
G1 X166.855 Y169.821 E0.4579
G1 X166.855 Y155.215 E0.54404
G1 X178.401 Y169.707 F9000
G1 F1800
G1 X178.401 Y155.411 E0.53247
G1 X177.893 Y155.411 E0.01892
G1 X177.893 Y169.511 E0.52515
G1 X177.385 Y169.511 E0.01892
G1 X177.385 Y155.411 E0.52515
G1 X176.878 Y155.411 E0.01892
G1 X176.878 Y169.511 E0.52515
G1 X176.37 Y169.511 E0.01892
G1 X176.37 Y155.411 E0.52515
G1 X175.862 Y155.411 E0.01892
G1 X175.862 Y169.511 E0.52515
G1 X175.354 Y169.511 E0.01892
G1 X175.354 Y155.411 E0.52515
G1 X174.846 Y155.411 E0.01892
G1 X174.846 Y169.511 E0.52515
G1 X174.338 Y169.511 E0.01892
G1 X174.338 Y155.411 E0.52515
G1 X173.83 Y155.411 E0.01892
G1 X173.83 Y169.511 E0.52515
G1 X173.323 Y169.511 E0.01892
G1 X173.323 Y155.411 E0.52515
G1 X172.815 Y155.411 E0.01892
G1 X172.815 Y169.511 E0.52515
G1 X172.307 Y169.511 E0.01892
G1 X172.307 Y155.411 E0.52515
G1 X171.799 Y155.411 E0.01892
G1 X171.799 Y169.511 E0.52515
G1 X171.291 Y169.511 E0.01892
G1 X171.291 Y155.411 E0.52515
G1 X170.783 Y155.411 E0.01892
G1 X170.783 Y169.511 E0.52515
G1 X170.275 Y169.511 E0.01892
G1 X170.275 Y155.411 E0.52515
G1 X169.767 Y155.411 E0.01892
G1 X169.767 Y169.511 E0.52515
G1 X169.26 Y169.511 E0.01892
G1 X169.26 Y155.411 E0.52515
G1 X168.752 Y155.411 E0.01892
G1 X168.752 Y169.511 E0.52515
G1 X168.244 Y169.511 E0.01892
G1 X168.244 Y155.411 E0.52515
G1 X167.736 Y155.411 E0.01892
G1 X167.736 Y169.511 E0.52515
G1 X167.228 Y169.511 E0.01892
G1 X167.228 Y155.215 E0.53247
G1 E-0.8 F3000
G1 X179.486 Y201.736 F9000
G1 E0.8 F1800
;TYPE:Internal perimeter
G1 X125.514 Y201.736 E2.01024
G1 X125.514 Y171.764 E1.11633
G1 X179.486 Y171.764 E2.01024
G1 X179.486 Y201.736 E1.11633
G1 X179.943 Y202.193 F9000
G1 F1800
G1 X125.057 Y202.193 E2.04429
G1 X125.057 Y171.307 E1.15038
G1 X179.943 Y171.307 E2.04429
G1 X179.943 Y202.193 E1.15038
G1 X180.4 Y202.65 F9000
;TYPE:External perimeter
G1 F1800
G1 X124.6 Y202.65 E2.07834
G1 X124.6 Y170.85 E1.18443
G1 X180.4 Y170.85 E2.07834
G1 X180.4 Y202.65 E1.18443
;WIPE_START
M204 S3000
G1 X180.054 Y202.45 F9000
;WIPE_END
G1 E-0.8 F3000
M204 S1000
G1 X178.493 Y171.833 F9000
G1 E0.8 F1800
;TYPE:Solid infill
;WIDTH:0.497304
G1 F2400
G1 X179.417 Y172.757 E0.04841
G1 X179.417 Y173.403 F9000
G1 F2400
G1 X177.847 Y171.833 E0.08227
G1 X177.201 Y171.833 F9000
G1 F2400
G1 X179.417 Y174.049 E0.11614
G1 X179.417 Y174.696 F9000
G1 F2400
G1 X176.554 Y171.833 E0.15
G1 X175.908 Y171.833 F9000
G1 F2400
G1 X179.417 Y175.342 E0.18387
G1 X179.417 Y175.989 F9000
G1 F2400
G1 X175.261 Y171.833 E0.21773
G1 X174.615 Y171.833 F9000
G1 F2400
G1 X179.417 Y176.635 E0.2516
G1 X179.417 Y177.282 F9000
G1 F2400
G1 X173.968 Y171.833 E0.28546
G1 X173.322 Y171.833 F9000
G1 F2400
G1 X179.417 Y177.928 E0.31933
G1 X179.417 Y178.574 F9000
G1 F2400
G1 X172.676 Y171.833 E0.3532
G1 X172.029 Y171.833 F9000
G1 F2400
G1 X179.417 Y179.221 E0.38706
G1 X179.417 Y179.867 F9000
G1 F2400
G1 X171.383 Y171.833 E0.42093
G1 X170.736 Y171.833 F9000
G1 F2400
G1 X179.417 Y180.514 E0.45479
G1 X179.417 Y181.16 F9000
G1 F2400
G1 X170.09 Y171.833 E0.48866
G1 X169.444 Y171.833 F9000
G1 F2400
G1 X179.417 Y181.806 E0.52252
G1 X179.417 Y182.453 F9000
G1 F2400
G1 X168.797 Y171.833 E0.55639
G1 X168.151 Y171.833 F9000
G1 F2400
G1 X179.417 Y183.099 E0.59025
G1 X179.417 Y183.746 F9000
G1 F2400
G1 X167.504 Y171.833 E0.62412
G1 X166.858 Y171.833 F9000
G1 F2400
G1 X179.417 Y184.392 E0.65798
G1 X179.417 Y185.038 F9000
G1 F2400
G1 X166.212 Y171.833 E0.69185
G1 X165.565 Y171.833 F9000
G1 F2400
G1 X179.417 Y185.685 E0.72571
G1 X179.417 Y186.331 F9000
G1 F2400
G1 X164.919 Y171.833 E0.75958
G1 X164.272 Y171.833 F9000
G1 F2400
G1 X179.417 Y186.978 E0.79344
G1 X179.417 Y187.624 F9000
G1 F2400
G1 X163.626 Y171.833 E0.82731
G1 X162.98 Y171.833 F9000
G1 F2400
G1 X179.417 Y188.27 E0.86118
G1 X179.417 Y188.917 F9000
G1 F2400
G1 X162.333 Y171.833 E0.89504
G1 X161.687 Y171.833 F9000
G1 F2400
G1 X179.417 Y189.563 E0.92891
G1 X179.417 Y190.21 F9000
G1 F2400
G1 X161.04 Y171.833 E0.96277
G1 X160.394 Y171.833 F9000
G1 F2400
G1 X179.417 Y190.856 E0.99664
G1 X179.417 Y191.502 F9000
G1 F2400
G1 X159.748 Y171.833 E1.0305
G1 X159.101 Y171.833 F9000
G1 F2400
G1 X179.417 Y192.149 E1.06437
M73 P0 R297
G1 X179.417 Y192.795 F9000
G1 F2400
G1 X158.455 Y171.833 E1.09823
G1 X157.808 Y171.833 F9000
G1 F2400
G1 X179.417 Y193.442 E1.1321
G1 X179.417 Y194.088 F9000
G1 F2400
G1 X157.162 Y171.833 E1.16596
G1 X156.515 Y171.833 F9000
G1 F2400
G1 X179.417 Y194.735 E1.19983
G1 X179.417 Y195.381 F9000
G1 F2400
G1 X155.869 Y171.833 E1.23369
G1 X155.223 Y171.833 F9000
G1 F2400
G1 X179.417 Y196.027 E1.26756
G1 X179.417 Y196.674 F9000
G1 F2400
G1 X154.576 Y171.833 E1.30143
G1 X153.93 Y171.833 F9000
G1 F2400
G1 X179.417 Y197.32 E1.33529
G1 X179.417 Y197.967 F9000
G1 F2400
G1 X153.283 Y171.833 E1.36916
G1 X152.637 Y171.833 F9000
G1 F2400
G1 X179.417 Y198.613 E1.40302
G1 X179.417 Y199.259 F9000
G1 F2400
G1 X151.991 Y171.833 E1.43689
G1 X151.344 Y171.833 F9000
G1 F2400
G1 X179.417 Y199.906 E1.47075
G1 X179.417 Y200.552 F9000
G1 F2400
G1 X150.698 Y171.833 E1.50462
G1 X150.051 Y171.833 F9000
G1 F2400
G1 X179.417 Y201.199 E1.53848
G1 X179.24 Y201.667 F9000
G1 F2400
G1 X149.405 Y171.833 E1.56304
G1 X148.759 Y171.833 F9000
G1 F2400
G1 X178.593 Y201.667 E1.56304
G1 X177.947 Y201.667 F9000
G1 F2400
G1 X148.112 Y171.833 E1.56304
G1 X147.466 Y171.833 F9000
G1 F2400
G1 X177.3 Y201.667 E1.56304
G1 X176.654 Y201.667 F9000
G1 F2400
G1 X146.819 Y171.833 E1.56304
G1 X146.173 Y171.833 F9000
G1 F2400
G1 X176.008 Y201.667 E1.56304
G1 X175.361 Y201.667 F9000
G1 F2400
G1 X145.527 Y171.833 E1.56304
G1 X144.88 Y171.833 F9000
G1 F2400
G1 X174.715 Y201.667 E1.56304
G1 X174.068 Y201.667 F9000
G1 F2400
G1 X144.234 Y171.833 E1.56304
G1 X143.587 Y171.833 F9000
G1 F2400
G1 X173.422 Y201.667 E1.56304
G1 X172.776 Y201.667 F9000
G1 F2400
G1 X142.941 Y171.833 E1.56304
G1 X142.295 Y171.833 F9000
G1 F2400
G1 X172.129 Y201.667 E1.56304
G1 X171.483 Y201.667 F9000
G1 F2400
G1 X141.648 Y171.833 E1.56304
G1 X141.002 Y171.833 F9000
G1 F2400
G1 X170.836 Y201.667 E1.56304
G1 X170.19 Y201.667 F9000
G1 F2400
G1 X140.355 Y171.833 E1.56304
G1 X139.709 Y171.833 F9000
G1 F2400
G1 X169.543 Y201.667 E1.56304
G1 X168.897 Y201.667 F9000
G1 F2400
G1 X139.062 Y171.833 E1.56304
G1 X138.416 Y171.833 F9000
G1 F2400
G1 X168.251 Y201.667 E1.56304
G1 X167.604 Y201.667 F9000
G1 F2400
G1 X137.77 Y171.833 E1.56304
G1 X137.123 Y171.833 F9000
G1 F2400
G1 X166.958 Y201.667 E1.56304
G1 X166.311 Y201.667 F9000
G1 F2400
G1 X136.477 Y171.833 E1.56304
G1 X135.83 Y171.833 F9000
G1 F2400
G1 X165.665 Y201.667 E1.56304
G1 X165.019 Y201.667 F9000
G1 F2400
G1 X135.184 Y171.833 E1.56304
G1 X134.538 Y171.833 F9000
G1 F2400
G1 X164.372 Y201.667 E1.56304
G1 X163.726 Y201.667 F9000
G1 F2400
G1 X133.891 Y171.833 E1.56304
G1 X133.245 Y171.833 F9000
G1 F2400
G1 X163.079 Y201.667 E1.56304
G1 X162.433 Y201.667 F9000
G1 F2400
G1 X132.598 Y171.833 E1.56304
G1 X131.952 Y171.833 F9000
G1 F2400
G1 X161.787 Y201.667 E1.56304
G1 X161.14 Y201.667 F9000
G1 F2400
G1 X131.306 Y171.833 E1.56304
G1 X130.659 Y171.833 F9000
G1 F2400
G1 X160.494 Y201.667 E1.56304
G1 X159.847 Y201.667 F9000
G1 F2400
G1 X130.013 Y171.833 E1.56304
G1 X129.366 Y171.833 F9000
G1 F2400
G1 X159.201 Y201.667 E1.56304
G1 X158.555 Y201.667 F9000
G1 F2400
G1 X128.72 Y171.833 E1.56304
G1 X128.074 Y171.833 F9000
G1 F2400
G1 X157.908 Y201.667 E1.56304
G1 X157.262 Y201.667 F9000
G1 F2400
G1 X127.427 Y171.833 E1.56304
G1 X126.781 Y171.833 F9000
G1 F2400
G1 X156.615 Y201.667 E1.56304
G1 X155.969 Y201.667 F9000
G1 F2400
G1 X126.134 Y171.833 E1.56304
G1 X125.583 Y171.927 F9000
G1 F2400
G1 X155.323 Y201.667 E1.55807
G1 X154.676 Y201.667 F9000
G1 F2400
G1 X125.583 Y172.574 E1.52421
G1 X125.583 Y173.22 F9000
G1 F2400
G1 X154.03 Y201.667 E1.49034
G1 X153.383 Y201.667 F9000
G1 F2400
G1 X125.583 Y173.867 E1.45648
G1 X125.583 Y174.513 F9000
G1 F2400
G1 X152.737 Y201.667 E1.42261
M73 P1 R296
G1 X152.09 Y201.667 F9000
G1 F2400
G1 X125.583 Y175.159 E1.38875
G1 X125.583 Y175.806 F9000
G1 F2400
G1 X151.444 Y201.667 E1.35488
G1 X150.798 Y201.667 F9000
G1 F2400
G1 X125.583 Y176.452 E1.32102
G1 X125.583 Y177.099 F9000
G1 F2400
G1 X150.151 Y201.667 E1.28715
G1 X149.505 Y201.667 F9000
G1 F2400
G1 X125.583 Y177.745 E1.25329
G1 X125.583 Y178.392 F9000
G1 F2400
G1 X148.858 Y201.667 E1.21942
G1 X148.212 Y201.667 F9000
G1 F2400
G1 X125.583 Y179.038 E1.18555
G1 X125.583 Y179.684 F9000
G1 F2400
G1 X147.566 Y201.667 E1.15169
G1 X146.919 Y201.667 F9000
G1 F2400
G1 X125.583 Y180.331 E1.11782
G1 X125.583 Y180.977 F9000
G1 F2400
G1 X146.273 Y201.667 E1.08396
G1 X145.626 Y201.667 F9000
G1 F2400
G1 X125.583 Y181.624 E1.05009
G1 X125.583 Y182.27 F9000
G1 F2400
G1 X144.98 Y201.667 E1.01623
G1 X144.334 Y201.667 F9000
G1 F2400
G1 X125.583 Y182.916 E0.98236
G1 X125.583 Y183.563 F9000
G1 F2400
G1 X143.687 Y201.667 E0.9485
G1 X143.041 Y201.667 F9000
G1 F2400
G1 X125.583 Y184.209 E0.91463
G1 X125.583 Y184.856 F9000
G1 F2400
G1 X142.394 Y201.667 E0.88077
M73 P1 R296
G1 X141.748 Y201.667 F9000
G1 F2400
G1 X125.583 Y185.502 E0.8469
G1 X125.583 Y186.148 F9000
G1 F2400
G1 X141.102 Y201.667 E0.81304
G1 X140.455 Y201.667 F9000
G1 F2400
G1 X125.583 Y186.795 E0.77917
G1 X125.583 Y187.441 F9000
G1 F2400
G1 X139.809 Y201.667 E0.74531
G1 X139.162 Y201.667 F9000
G1 F2400
G1 X125.583 Y188.088 E0.71144
G1 X125.583 Y188.734 F9000
G1 F2400
G1 X138.516 Y201.667 E0.67757
G1 X137.87 Y201.667 F9000
G1 F2400
G1 X125.583 Y189.38 E0.64371
G1 X125.583 Y190.027 F9000
G1 F2400
G1 X137.223 Y201.667 E0.60984
G1 X136.577 Y201.667 F9000
G1 F2400
G1 X125.583 Y190.673 E0.57598
G1 X125.583 Y191.32 F9000
G1 F2400
G1 X135.93 Y201.667 E0.54211
G1 X135.284 Y201.667 F9000
G1 F2400
G1 X125.583 Y191.966 E0.50825
G1 X125.583 Y192.612 F9000
G1 F2400
G1 X134.637 Y201.667 E0.47438
G1 X133.991 Y201.667 F9000
G1 F2400
G1 X125.583 Y193.259 E0.44052
G1 X125.583 Y193.905 F9000
G1 F2400
G1 X133.345 Y201.667 E0.40665
G1 X132.698 Y201.667 F9000
G1 F2400
G1 X125.583 Y194.552 E0.37279
G1 X125.583 Y195.198 F9000
G1 F2400
G1 X132.052 Y201.667 E0.33892
G1 X131.405 Y201.667 F9000
G1 F2400
G1 X125.583 Y195.845 E0.30506
G1 X125.583 Y196.491 F9000
G1 F2400
G1 X130.759 Y201.667 E0.27119
G1 X130.113 Y201.667 F9000
G1 F2400
G1 X125.583 Y197.137 E0.23732
G1 X125.583 Y197.784 F9000
G1 F2400
G1 X129.466 Y201.667 E0.20346
G1 X128.82 Y201.667 F9000
G1 F2400
G1 X125.583 Y198.43 E0.16959
G1 X125.583 Y199.077 F9000
G1 F2400
G1 X128.173 Y201.667 E0.13573
G1 X127.527 Y201.667 F9000
G1 F2400
G1 X125.583 Y199.723 E0.10186
G1 X125.583 Y200.369 F9000
G1 F2400
G1 X126.881 Y201.667 E0.068
G1 X126.234 Y201.667 F9000
G1 F2400
G1 X125.583 Y201.016 E0.03413
G1 E-0.8 F3000
; stop printing object business card.stl id:0 copy 0
EXCLUDE_OBJECT_END NAME=business_card_stl_id_0_copy_0
; printing object card.stl id:1 copy 0
EXCLUDE_OBJECT_START NAME=card_stl_id_1_copy_0
G1 X125.851 Y106.321 F9000
G1 E0.8 F1800
;TYPE:Support material
;WIDTH:0.5
