; generated by SuperSlicer 2.3.57 on 2022-02-27 at 06:51:08 UTC


;
;

;
;
; 

; external perimeters extrusion width = 0.40mm
; perimeters extrusion width = 0.45mm
; infill extrusion width = 0.72mm
; solid infill extrusion width = 0.56mm
; top infill extrusion width = 0.40mm
; support material extrusion width = 0.42mm
; first layer extrusion width = 0.48mm

; external perimeters extrusion width = 0.40mm
; perimeters extrusion width = 0.45mm
; infill extrusion width = 0.72mm
; solid infill extrusion width = 0.56mm
; top infill extrusion width = 0.40mm
; support material extrusion width = 0.42mm
; first layer extrusion width = 0.48mm

; object:{"name":"cleanText","id":"cleanText.STL id:0 copy 0","object_center":[152.500000,150.000000,0.000000],"boundingbox_center":[152.500000,150.000000,0.500000],"boundingbox_size":[25.232011,9.180001,1.000000]}
; plater:{"center":[152.500000,150.000000,0.000000],"boundingbox_center":[152.500000,150.000000,0.500000],"boundingbox_size":[25.232011,9.180001,1.000000]}

;TYPE:Custom
START_PRINT T_BED=60 T_EXTRUDER=200
M107
G21 ; set units to millimeters
G90 ; use absolute coordinates
M83 ; use relative distances for extrusion
; Filament gcode
M104 S200 ; set temperature
M109 S200 ; set temperature and wait for it to be reached
M190 S60 ; set bed temperature and wait for it to be reached
M107
;LAYER_CHANGE
;Z:0.24
;HEIGHT:0.24
G1 Z0.24 F9000
G1 E-0.8 F3000
G1 X137.96 Y143.364 F9000
G1 E0.8 F1800
; External perimeter
;Skirt
SET_VELOCITY_LIMIT ACCEL=300 ACCEL_TO_DECEL=3000 SQUARE_CORNER_VELOCITY=5

; Support material

;TYPE:Skirt
;WIDTH:0.48
G1 X137.24 Y144.223 E0.04791
G1 X136.697 Y145.267 E0.0503
G1 X136.422 Y146.27 E0.04447
G1 X136.341 Y147.163 E0.03833
G1 X136.345 Y154.648 E0.32004
G1 X136.494 Y155.534 E0.03841
G1 X136.856 Y156.356 E0.03841
G1 X137.414 Y157.072 E0.03881
G1 X138.132 Y157.627 E0.03881
G1 X138.961 Y157.986 E0.03861
G1 X139.857 Y158.131 E0.03881
G1 X163.437 Y158.131 E1.00819
G1 X164.116 Y158.075 E0.0291
G1 X164.91 Y157.898 E0.03481
G1 X166.095 Y157.364 E0.05555
G1 X166.841 Y156.813 E0.03966
G1 X167.616 Y155.969 E0.04902
G1 X168.175 Y155.036 E0.04649
G1 X168.554 Y153.874 E0.05227
G1 X168.658 Y152.859 E0.0436
G1 X168.658 Y147.127 E0.24506
G1 X168.571 Y146.221 E0.03894
G1 X168.392 Y145.518 E0.031
G1 X167.938 Y144.518 E0.04698
G1 X167.405 Y143.765 E0.03945
G1 X166.67 Y143.041 E0.04409
G1 X165.716 Y142.424 E0.04855
G1 X164.933 Y142.11 E0.03607
G1 X163.966 Y141.904 E0.04227
G1 X161.139 Y141.867 E0.12091
G1 X141.545 Y141.869 E0.83775
G1 X140.127 Y142.091 E0.06134
G1 X138.911 Y142.63 E0.05687
G1 X138.008 Y143.328 E0.04881
G1 X138.272 Y143.66 F9000
G1 F1800
G1 X137.606 Y144.448 E0.04413
G1 X137.098 Y145.419 E0.04686
G1 X136.846 Y146.333 E0.04052
G1 X136.77 Y147.169 E0.0359
G1 X136.772 Y154.605 E0.31791
G1 X136.895 Y155.377 E0.03344
G1 X137.2 Y156.097 E0.03344
G1 X137.692 Y156.744 E0.03475
G1 X138.331 Y157.247 E0.03475
G1 X139.075 Y157.573 E0.03475
G1 X139.882 Y157.703 E0.03494
G1 X163.414 Y157.703 E1.00612
G1 X164.773 Y157.491 E0.0588
G1 X165.833 Y157.021 E0.04958
G1 X166.536 Y156.511 E0.0371
G1 X167.259 Y155.731 E0.0455
G1 X167.782 Y154.865 E0.04326
G1 X168.136 Y153.78 E0.04879
G1 X168.23 Y152.847 E0.0401
G1 X168.23 Y147.135 E0.24421
G1 X168.148 Y146.292 E0.0362
G1 X167.986 Y145.653 E0.02823
G1 X167.561 Y144.722 E0.04373
G1 X167.07 Y144.033 E0.03616
G1 X166.393 Y143.368 E0.04057
G1 X165.493 Y142.792 E0.04571
G1 X164.792 Y142.515 E0.03223
G1 X163.89 Y142.327 E0.03937
G1 X161.138 Y142.296 E0.11766
G1 X141.572 Y142.297 E0.83657
G1 X140.264 Y142.497 E0.05657
G1 X139.171 Y142.974 E0.05101
G1 X138.32 Y143.623 E0.04576
; INIT printing object cleanText.STL id:0 copy 0
G1 E-0.8 F3000
; printing object cleanText.STL id:0 copy 0
G1 X144.133 Y154.25 F9000
G1 E0.8 F1800
; External perimeter
;ExternalPerimeter
SET_VELOCITY_LIMIT ACCEL=1000 ACCEL_TO_DECEL=1000 SQUARE_CORNER_VELOCITY=5

; Perimeter

;TYPE:External perimeter
G1 X143.285 Y154.25 E0.03628
G1 X143.285 Y154.13 E0.00458
G1 X143.285 Y153.89 E0.00971
G1 X143.285 Y147.157 E0.28786
G1 X143.229 Y146.933 E0.00989
G1 X143.105 Y146.765 E0.00889
G1 X142.941 Y146.65 E0.0086
G1 X142.722 Y146.6 E0.00959
G1 X141.554 Y146.609 E0.04993
G1 X141.397 Y146.661 E0.00708
G1 X141.239 Y146.77 E0.0082
G1 X141.123 Y146.945 E0.00897
G1 X141.079 Y147.113 E0.00743
G1 X141.074 Y154.25 E0.30515
G1 X140.954 Y154.25 E0.0046
G1 X140.714 Y154.25 E0.00973
G1 X140.224 Y154.25 E0.02097
G1 X140.224 Y154.13 E0.00458
G1 X140.224 Y153.89 E0.00971
G1 X140.224 Y147.208 E0.28569
G1 X140.261 Y146.857 E0.0151
G1 X140.304 Y146.708 E0.00662
G1 X140.451 Y146.409 E0.01427
G1 X140.644 Y146.172 E0.01306
G1 X140.903 Y145.964 E0.0142
G1 X141.217 Y145.818 E0.0148
G1 X141.357 Y145.781 E0.0062
G1 X141.68 Y145.75 E0.01385
G1 X142.859 Y145.761 E0.05041
G1 X143.187 Y145.834 E0.0144
G1 X143.329 Y145.894 E0.00661
G1 X143.617 Y146.087 E0.01481
G1 X143.823 Y146.298 E0.0126
G1 X143.926 Y146.443 E0.00758
G1 X144.005 Y146.589 E0.00712
G1 X144.108 Y146.917 E0.01469
G1 X144.133 Y147.205 E0.01238
G1 X144.133 Y154.19 E0.29863
;WIPE_START
G1 X143.787 Y154.05 F9000
;WIPE_END
G1 E-0.8 F3000
G1 X140.649 Y154.053 F9000
G1 E0.8 F1800
; External perimeter
;GapFill
SET_VELOCITY_LIMIT ACCEL=2000 ACCEL_TO_DECEL=2000 SQUARE_CORNER_VELOCITY=5

; Skirt

;TYPE:Gap fill
;WIDTH:0.506276
G1 X140.649 Y153.825 E0.01036
G1 X140.651 Y147.23 E0.29923
G1 X140.659 Y147.087 E0.00651
G1 X140.682 Y146.939 E0.00679
G1 X140.725 Y146.806 E0.00636
G1 X140.813 Y146.641 E0.00847
G1 X140.911 Y146.507 E0.00755
G1 X140.97 Y146.448 E0.00379
G1 X141.13 Y146.328 E0.00905
G1 X141.181 Y146.299 E0.00267
G1 X141.363 Y146.222 E0.009
G1 X141.52 Y146.188 E0.00728
G1 X141.698 Y146.179 E0.00809
G1 X142.742 Y146.18 E0.04736
G1 X142.933 Y146.213 E0.00882
G1 X143.057 Y146.24 E0.00574
G1 X143.127 Y146.267 E0.00344
G1 X143.248 Y146.349 E0.00659
G1 X143.344 Y146.415 E0.00532
G1 X143.373 Y146.439 E0.00169
G1 X143.494 Y146.573 E0.00818
G1 X143.592 Y146.713 E0.00777
G1 X143.657 Y146.897 E0.00885
G1 X143.686 Y147 E0.00487
G1 X143.699 Y147.079 E0.00364
G1 X143.709 Y147.224 E0.00657
G1 X143.709 Y154.053 E0.30989
G1 E-0.8 F3000
G1 X146.923 Y150.086 F9000
G1 E0.8 F1800
; External perimeter
;ExternalPerimeter
SET_VELOCITY_LIMIT ACCEL=1000 ACCEL_TO_DECEL=1000 SQUARE_CORNER_VELOCITY=5

; Perimeter

;TYPE:External perimeter
;WIDTH:0.48
G1 X149.133 Y150.086 E0.0945
G1 X149.133 Y149.966 E0.00458
G1 X149.133 Y149.726 E0.00971
G1 X149.133 Y147.157 E0.10986
G1 X149.074 Y146.919 E0.01048
G1 X148.881 Y146.703 E0.01238
G1 X148.659 Y146.608 E0.01033
G1 X147.486 Y146.6 E0.05015
G1 X147.273 Y146.646 E0.00933
G1 X147.087 Y146.77 E0.00954
G1 X146.954 Y146.988 E0.01095
G1 X146.923 Y147.167 E0.00773
G1 X146.923 Y150.026 E0.12227
;WIPE_START
G1 X146.923 Y150.486 F9000
;WIPE_END
G1 X146.923 Y150.935
G1 F1800
G1 X146.923 Y154.25 E0.14174
G1 X146.803 Y154.25 E0.00458
G1 X146.563 Y154.25 E0.00971
G1 X146.073 Y154.25 E0.02096
G1 X146.073 Y154.13 E0.00458
G1 X146.073 Y153.89 E0.00971
G1 X146.073 Y147.208 E0.28569
G1 X146.109 Y146.857 E0.0151
G1 X146.152 Y146.708 E0.00662
G1 X146.3 Y146.409 E0.01427
G1 X146.493 Y146.172 E0.01306
G1 X146.752 Y145.964 E0.0142
G1 X147.066 Y145.818 E0.0148
G1 X147.206 Y145.781 E0.0062
G1 X147.528 Y145.75 E0.01385
G1 X148.707 Y145.761 E0.05041
G1 X149.036 Y145.834 E0.0144
G1 X149.178 Y145.894 E0.00661
G1 X149.466 Y146.087 E0.01481
G1 X149.672 Y146.298 E0.0126
G1 X149.774 Y146.443 E0.00758
G1 X149.854 Y146.589 E0.00712
G1 X149.957 Y146.917 E0.01469
G1 X149.982 Y147.205 E0.01238
G1 X149.982 Y154.25 E0.30119
G1 X149.862 Y154.25 E0.00458
G1 X149.622 Y154.25 E0.00971
G1 X149.133 Y154.25 E0.02089
G1 X149.133 Y154.13 E0.00458
G1 X149.133 Y153.89 E0.00971
G1 X149.133 Y150.935 E0.12634
G1 X149.013 Y150.935 E0.00458
G1 X148.773 Y150.935 E0.00971
G1 X146.983 Y150.935 E0.07655
;WIPE_START
G1 X146.523 Y150.935 F9000
;WIPE_END
G1 X146.555 Y150.511
; External perimeter
;GapFill
SET_VELOCITY_LIMIT ACCEL=2000 ACCEL_TO_DECEL=2000 SQUARE_CORNER_VELOCITY=5

; Skirt

;TYPE:Gap fill
;WIDTH:0.563795
G1 F1800
G1 X146.726 Y150.511 E0.00877
;WIDTH:0.506276
G1 X149.501 Y150.511 E0.1259
G1 X149.558 Y150.738 E0.01064
G1 X149.558 Y154.053 E0.15042
G1 E-0.8 F3000
G1 X146.498 Y154.053 F9000
G1 E0.8 F1800
G1 X146.498 Y153.825 E0.01035
G1 X146.498 Y152.281 E0.07003
G1 X146.498 Y150.738 E0.07003
G1 X146.555 Y150.511 E0.01063
G1 X146.498 Y150.283 E0.01063
G1 X146.498 Y147.23 E0.13854
G1 X146.506 Y147.112 E0.00537
G1 X146.53 Y146.939 E0.00793
G1 X146.575 Y146.802 E0.00655
G1 X146.663 Y146.642 E0.00829
G1 X146.753 Y146.515 E0.00705
G1 X146.819 Y146.446 E0.00436
G1 X146.979 Y146.329 E0.00898
G1 X147.148 Y146.243 E0.00858
G1 X147.282 Y146.205 E0.00633
G1 X147.418 Y146.184 E0.00627
G1 X147.547 Y146.175 E0.00585
G1 X148.103 Y146.18 E0.02523
G1 X148.659 Y146.184 E0.02523
G1 X148.787 Y146.207 E0.00591
G1 X148.972 Y146.274 E0.00895
G1 X149.085 Y146.336 E0.00584
G1 X149.165 Y146.391 E0.00438
G1 X149.267 Y146.495 E0.00662
G1 X149.341 Y146.574 E0.00493
G1 X149.415 Y146.667 E0.00539
G1 X149.465 Y146.754 E0.00455
G1 X149.502 Y146.885 E0.00619
G1 X149.535 Y147 E0.00544
G1 X149.548 Y147.078 E0.00357
G1 X149.558 Y147.224 E0.00663
G1 X149.558 Y150.283 E0.13883
G1 X149.543 Y150.34 E0.00266
;WIDTH:0.582071
G1 X149.501 Y150.511 E0.00931
G1 E-0.8 F3000
G1 X153.835 Y153.412 F9000
G1 E0.8 F1800
; External perimeter
;ExternalPerimeter
SET_VELOCITY_LIMIT ACCEL=1000 ACCEL_TO_DECEL=1000 SQUARE_CORNER_VELOCITY=5

; Perimeter

;TYPE:External perimeter
;WIDTH:0.48
G1 X153.835 Y150.089 E0.14208
G1 X153.715 Y150.089 E0.00458
G1 X153.475 Y150.089 E0.00971
G1 X151.832 Y150.089 E0.07026
G1 X151.832 Y149.969 E0.00458
G1 X151.832 Y149.729 E0.00971
G1 X151.832 Y149.42 E0.01322
G1 X151.952 Y149.42 E0.00458
G1 X152.192 Y149.42 E0.00971
G1 X153.835 Y149.42 E0.07026
G1 X153.835 Y149.3 E0.00458
G1 X153.835 Y149.06 E0.00971
G1 X153.835 Y146.588 E0.1057
G1 X153.715 Y146.588 E0.00458
G1 X153.475 Y146.588 E0.00971
G1 X151.633 Y146.588 E0.07877
G1 X151.633 Y146.468 E0.00458
G1 X151.633 Y146.228 E0.00971
G1 X151.633 Y145.75 E0.02043
G1 X151.753 Y145.75 E0.00458
G1 X151.993 Y145.75 E0.00971
G1 X154.684 Y145.75 E0.11505
G1 X154.684 Y145.87 E0.00458
G1 X154.684 Y146.11 E0.00971
G1 X154.684 Y154.25 E0.34803
G1 X154.564 Y154.25 E0.00458
G1 X154.324 Y154.25 E0.00971
G1 X151.633 Y154.25 E0.11505
G1 X151.633 Y154.13 E0.00458
G1 X151.633 Y153.89 E0.00971
G1 X151.633 Y153.412 E0.02043
G1 X151.753 Y153.412 E0.00458
G1 X151.993 Y153.412 E0.00971
G1 X153.775 Y153.412 E0.0762
;WIPE_START
G1 X154.235 Y153.412 F9000
;WIPE_END
G1 X151.83 Y153.831
; External perimeter
;GapFill
SET_VELOCITY_LIMIT ACCEL=2000 ACCEL_TO_DECEL=2000 SQUARE_CORNER_VELOCITY=5

; Skirt

;TYPE:Gap fill
;WIDTH:0.495326
G1 F1800
G1 X152.052 Y153.831 E0.00983
G1 X154.032 Y153.831 E0.0877
;WIDTH:0.526929
G1 X154.224 Y153.79 E0.00929
G1 X154.26 Y153.609 E0.00874
G1 X154.26 Y149.892 E0.17633
G1 X154.239 Y149.755 E0.00661
G1 X152.029 Y149.755 F9000
;WIDTH:0.326884
G1 F1800
G1 X154.239 Y149.755 E0.06072
;WIDTH:0.41648
G1 X154.26 Y149.617 E0.00507
;WIDTH:0.506076
G1 X154.26 Y146.391 E0.14632
;WIDTH:0.536593
G1 X154.224 Y146.21 E0.00891
G1 X154.032 Y146.169 E0.00948
;WIDTH:0.495325
G1 X152.052 Y146.169 E0.0877
G1 X151.83 Y146.169 E0.00983
G1 E-0.8 F3000
G1 X156.358 Y154.25 F9000
G1 E0.8 F1800
; External perimeter
;ExternalPerimeter
SET_VELOCITY_LIMIT ACCEL=1000 ACCEL_TO_DECEL=1000 SQUARE_CORNER_VELOCITY=5

; Perimeter

;TYPE:External perimeter
;WIDTH:0.48
G1 X156.358 Y153.461 E0.03375
G1 X156.478 Y153.461 E0.00458
G1 X156.718 Y153.461 E0.00971
G1 X158.198 Y153.461 E0.06326
G1 X158.365 Y153.433 E0.00726
G1 X158.518 Y153.353 E0.00739
G1 X158.661 Y153.211 E0.0086
G1 X158.738 Y153.067 E0.00697
G1 X158.767 Y152.891 E0.00764
G1 X158.767 Y145.75 E0.30532
G1 X158.887 Y145.75 E0.00458
G1 X159.127 Y145.75 E0.00971
G1 X159.61 Y145.75 E0.02066
G1 X159.61 Y145.87 E0.00458
G1 X159.61 Y146.11 E0.00971
G1 X159.61 Y152.79 E0.28561
G1 X159.575 Y153.129 E0.01456
G1 X159.474 Y153.427 E0.01343
G1 X159.406 Y153.55 E0.00603
G1 X159.16 Y153.855 E0.01676
G1 X158.933 Y154.037 E0.01242
G1 X158.799 Y154.113 E0.0066
G1 X158.515 Y154.211 E0.01284
G1 X158.156 Y154.25 E0.01542
G1 X156.418 Y154.25 E0.07431
;WIPE_START
G1 X156.558 Y153.904 F9000
;WIPE_END
G1 E-0.8 F3000
G1 X159.188 Y145.947 F9000
G1 E0.8 F1800
; External perimeter
;GapFill
SET_VELOCITY_LIMIT ACCEL=2000 ACCEL_TO_DECEL=2000 SQUARE_CORNER_VELOCITY=5

; Skirt

;TYPE:Gap fill
;WIDTH:0.5009
G1 X159.188 Y146.172 E0.01007
G1 X159.188 Y152.768 E0.2958
G1 X159.178 Y152.942 E0.0078
G1 X159.165 Y153.039 E0.00441
G1 X159.112 Y153.23 E0.00887
;WIDTH:0.47496
G1 X159.066 Y153.321 E0.0043
G1 X158.961 Y153.471 E0.00772
G1 X158.874 Y153.568 E0.00553
G1 X158.729 Y153.691 E0.00802
G1 X158.633 Y153.746 E0.00468
;WIDTH:0.448299
G1 X158.461 Y153.815 E0.00734
G1 X158.428 Y153.823 E0.00134
G1 X158.246 Y153.848 E0.00728
G1 X158.135 Y153.855 E0.00439
G1 X156.555 Y153.855 E0.06254
G1 E-0.8 F3000
G1 X161.374 Y145.751 F9000
G1 E0.8 F1800
; External perimeter
;ExternalPerimeter
SET_VELOCITY_LIMIT ACCEL=1000 ACCEL_TO_DECEL=1000 SQUARE_CORNER_VELOCITY=5

; Perimeter

;TYPE:External perimeter
;WIDTH:0.48
G1 X163.5 Y145.761 E0.09091
G1 X163.825 Y145.832 E0.01423
G1 X163.966 Y145.891 E0.00653
G1 X164.25 Y146.079 E0.01458
G1 X164.464 Y146.301 E0.01316
G1 X164.557 Y146.428 E0.00674
G1 X164.698 Y146.716 E0.01369
G1 X164.74 Y146.861 E0.00648
G1 X164.776 Y147.208 E0.0149
G1 X164.776 Y152.79 E0.23869
G1 X164.742 Y153.128 E0.01449
G1 X164.633 Y153.442 E0.01421
G1 X164.451 Y153.719 E0.01418
G1 X164.224 Y153.943 E0.01363
G1 X164.104 Y154.03 E0.00635
G1 X163.819 Y154.17 E0.01356
G1 X163.512 Y154.239 E0.01348
G1 X163.323 Y154.25 E0.00807
G1 X161.374 Y154.25 E0.08334
G1 X161.374 Y154.13 E0.00458
G1 X161.374 Y153.89 E0.00971
G1 X161.374 Y153.399 E0.021
G1 X161.494 Y153.399 E0.0046
G1 X161.734 Y153.398 E0.00973
G1 X163.441 Y153.392 E0.07299
G1 X163.596 Y153.342 E0.00698
G1 X163.755 Y153.229 E0.00831
G1 X163.894 Y153.016 E0.0109
G1 X163.927 Y152.833 E0.00794
G1 X163.927 Y147.169 E0.24217
G1 X163.9 Y146.995 E0.00751
G1 X163.775 Y146.788 E0.01033
G1 X163.651 Y146.693 E0.00671
G1 X163.518 Y146.626 E0.00637
G1 X163.358 Y146.6 E0.00693
G1 X161.374 Y146.6 E0.08482
G1 X161.374 Y146.48 E0.00458
G1 X161.374 Y146.24 E0.00971
G1 X161.374 Y145.811 E0.01835
;WIPE_START
G1 X161.72 Y145.952 F9000
;WIPE_END
G1 E-0.8 F3000
G1 X161.571 Y153.824 F9000
G1 E0.8 F1800
; External perimeter
;GapFill
SET_VELOCITY_LIMIT ACCEL=2000 ACCEL_TO_DECEL=2000 SQUARE_CORNER_VELOCITY=5

; Skirt

;TYPE:Gap fill
;WIDTH:0.510288
G1 X161.8 Y153.824 E0.0105
G1 X163.311 Y153.821 E0.06915
G1 X163.473 Y153.815 E0.00745
G1 X163.541 Y153.801 E0.00317
G1 X163.676 Y153.765 E0.0064
G1 X163.815 Y153.703 E0.00696
G1 X163.948 Y153.616 E0.00724
G1 X164.086 Y153.49 E0.00857
G1 X164.12 Y153.449 E0.00245
G1 X164.184 Y153.35 E0.00537
G1 X164.268 Y153.212 E0.00741
G1 X164.323 Y153.035 E0.00849
G1 X164.348 Y152.851 E0.00851
G1 X164.352 Y152.769 E0.00374
G1 X164.352 Y147.23 E0.25358
G1 X164.345 Y147.119 E0.00508
G1 X164.322 Y146.942 E0.00816
G1 X164.279 Y146.812 E0.00628
G1 X164.19 Y146.65 E0.00844
G1 X164.114 Y146.541 E0.0061
G1 X163.977 Y146.408 E0.00875
G1 X163.856 Y146.324 E0.00674
G1 X163.68 Y146.234 E0.00906
G1 X163.615 Y146.216 E0.00309
G1 X163.453 Y146.185 E0.00753
G1 X163.374 Y146.18 E0.00364
G1 X162.586 Y146.178 E0.03607
G1 X161.798 Y146.177 E0.03607
G1 X161.571 Y146.176 E0.01038
; INIT stop printing object cleanText.STL id:0 copy 0
;LAYER_CHANGE
;Z:0.44
;HEIGHT:0.2
; stop printing object cleanText.STL id:0 copy 0
G1 Z0.44 F9000
; INIT printing object cleanText.STL id:0 copy 0
G1 E-0.8 F3000
; printing object cleanText.STL id:0 copy 0
G1 X144.223 Y154.34 F9000
G1 E0.8 F1800
; External perimeter
;ExternalPerimeter
SET_VELOCITY_LIMIT ACCEL=1000 ACCEL_TO_DECEL=1000 SQUARE_CORNER_VELOCITY=5

; Perimeter

;TYPE:External perimeter
;WIDTH:0.4
G1 F3600
G1 X143.195 Y154.34 E0.03054
G1 X143.195 Y154.24 E0.00265
G1 X143.195 Y154.04 E0.00562
G1 X143.195 Y147.166 E0.2041
G1 X143.148 Y146.974 E0.00587
G1 X143.042 Y146.831 E0.00529
G1 X142.901 Y146.732 E0.0051
