; generated by SuperSlicer 2.3.57 on 2022-02-24 at 21:50:00 UTC


;
;

;
;
; 

; external perimeters extrusion width = 0.40mm
; perimeters extrusion width = 0.45mm
; infill extrusion width = 0.72mm
; solid infill extrusion width = 0.56mm
; top infill extrusion width = 0.40mm
; support material extrusion width = 0.42mm
; first layer extrusion width = 0.48mm

; object:{"name":"Universal_1","id":"Universal_1.75mm_Filament_Clip.stl id:0 copy 0","object_center":[152.500000,150.000000,0.000000],"boundingbox_center":[152.500000,150.000000,5.000000],"boundingbox_size":[24.629751,12.949633,10.000000]}
; plater:{"center":[152.500000,150.000000,0.000000],"boundingbox_center":[152.500000,150.000000,5.000000],"boundingbox_size":[24.629751,12.949633,10.000000]}

;TYPE:Custom
START_PRINT T_BED=60 T_EXTRUDER=210
M107
G21 ; set units to millimeters
G90 ; use absolute coordinates
M83 ; use relative distances for extrusion
; Filament gcode
M104 S210 ; set temperature
M109 S210 ; set temperature and wait for it to be reached
M190 S60 ; set bed temperature and wait for it to be reached
M107
;LAYER_CHANGE
;Z:0.24
;HEIGHT:0.24
G1 Z0.24 F9000
G1 E-0.8 F3000
G1 X138.918 Y145.37 F9000
G1 E0.8 F1800
; External perimeter
;Skirt
SET_VELOCITY_LIMIT ACCEL=300 ACCEL_TO_DECEL=3000 SQUARE_CORNER_VELOCITY=5

; Support material

;TYPE:Skirt
;WIDTH:0.48
G1 X138.007 Y146.509 E0.06236
G1 X137.483 Y147.451 E0.04608
G1 X137.066 Y148.581 E0.0515
G1 X136.836 Y149.783 E0.05232
G1 X136.821 Y151.19 E0.06017
G1 X136.975 Y152.206 E0.04395
G1 X137.355 Y153.408 E0.05388
G1 X137.952 Y154.563 E0.05558
G1 X138.795 Y155.756 E0.06245
G1 X139.626 Y156.68 E0.05315
G1 X140.656 Y157.587 E0.05867
G1 X141.543 Y158.212 E0.04642
G1 X142.975 Y158.992 E0.06972
G1 X144.497 Y159.553 E0.06935
G1 X145.599 Y159.82 E0.04846
G1 X146.902 Y159.988 E0.05619
G1 X163.102 Y159.952 E0.69262
G1 X163.775 Y159.842 E0.02919
G1 X164.631 Y159.553 E0.03863
G1 X165.347 Y159.136 E0.03541
G1 X165.862 Y158.71 E0.02859
G1 X166.288 Y158.242 E0.02706
G1 X166.655 Y157.691 E0.02829
G1 X167.099 Y156.592 E0.05067
G1 X168.329 Y148.44 E0.35249
G1 X168.319 Y147.631 E0.0346
G1 X168.12 Y146.74 E0.03906
G1 X167.724 Y145.922 E0.03885
G1 X167.207 Y145.269 E0.03561
G1 X166.525 Y144.697 E0.03807
G1 X164.96 Y143.795 E0.0772
G1 X163.772 Y143.323 E0.05466
G1 X148.383 Y140.039 E0.6728
G1 X147.105 Y139.904 E0.05493
G1 X146.272 Y139.972 E0.03574
G1 X145.388 Y140.185 E0.03888
G1 X144.382 Y140.622 E0.0469
G1 X143.632 Y141.115 E0.03839
G1 X138.963 Y145.33 E0.26893
G1 X139.249 Y145.647 F9000
G1 F1800
G1 X139.23 Y145.664 E0.0011
G1 X138.359 Y146.753 E0.05961
G1 X137.869 Y147.636 E0.04318
G1 X137.478 Y148.698 E0.0484
G1 X137.261 Y149.835 E0.04947
G1 X137.249 Y151.17 E0.0571
G1 X137.398 Y152.131 E0.04156
G1 X137.755 Y153.255 E0.05042
G1 X138.33 Y154.36 E0.05325
G1 X139.139 Y155.5 E0.05975
G1 X139.977 Y156.424 E0.05336
G1 X140.936 Y157.263 E0.05447
G1 X141.797 Y157.866 E0.04496
G1 X143.166 Y158.608 E0.06658
G1 X144.611 Y159.139 E0.06579
G1 X145.68 Y159.399 E0.04704
G1 X146.958 Y159.562 E0.05508
G1 X163.086 Y159.523 E0.6896
G1 X163.714 Y159.415 E0.02723
G1 X164.546 Y159.119 E0.03777
G1 X165.217 Y158.703 E0.03376
G1 X165.732 Y158.231 E0.02986
G1 X166.345 Y157.369 E0.04525
G1 X166.697 Y156.428 E0.04293
G1 X167.908 Y148.335 E0.34986
G1 X167.883 Y147.602 E0.03137
G1 X167.674 Y146.771 E0.03666
G1 X167.284 Y146.03 E0.03578
G1 X166.756 Y145.427 E0.03426
G1 X166.233 Y145.019 E0.02836
G1 X164.705 Y144.143 E0.07531
G1 X163.642 Y143.732 E0.04874
G1 X148.299 Y140.459 E0.67077
G1 X147.105 Y140.332 E0.05134
G1 X146.337 Y140.395 E0.03292
G1 X145.523 Y140.591 E0.03583
G1 X144.583 Y141 E0.0438
G1 X143.888 Y141.459 E0.03565
G1 X139.294 Y145.607 E0.26462
; INIT printing object Universal_1.75mm_Filament_Clip.stl id:0 copy 0
G1 E-0.8 F3000
; printing object Universal_1.75mm_Filament_Clip.stl id:0 copy 0
G1 X145.697 Y146.761 F9000
G1 E0.8 F1800
; External perimeter
;Perimeter
SET_VELOCITY_LIMIT ACCEL=2000 ACCEL_TO_DECEL=2000 SQUARE_CORNER_VELOCITY=5

; Overhang perimeter

;TYPE:Internal perimeter
G1 X145.98 Y147.038 E0.01695
G1 X146.223 Y147.202 E0.01249
G1 X146.637 Y147.378 E0.01927
G1 X146.992 Y147.428 E0.01529
G1 X146.965 Y147.806 E0.01622
G1 X144.719 Y147.806 E0.09602
G1 X144.67 Y147.455 E0.01515
G1 X145.085 Y147.338 E0.01843
G1 X145.411 Y147.12 E0.01674
G1 X145.659 Y146.808 E0.01705
G1 E-0.8 F3000
G1 X148.748 Y145.81 F9000
G1 E0.8 F1800
; External perimeter
;ExternalPerimeter
SET_VELOCITY_LIMIT ACCEL=1000 ACCEL_TO_DECEL=1000 SQUARE_CORNER_VELOCITY=5

; Perimeter

;TYPE:External perimeter
G1 X148.689 Y145.801 E0.00257
G1 X148.6 Y145.752 E0.00433
G1 X148.532 Y145.556 E0.00887
G1 X148.479 Y145.208 E0.01505
G1 X148.383 Y144.963 E0.01124
G1 X148.221 Y144.715 E0.01266
G1 X147.957 Y144.471 E0.01536
G1 X147.649 Y144.304 E0.01498
G1 X147.255 Y144.218 E0.01726
G1 X147.064 Y144.217 E0.00816
G1 X146.831 Y144.251 E0.01006
G1 X146.523 Y144.361 E0.014
G1 X146.301 Y144.501 E0.01121
G1 X146.158 Y144.626 E0.00812
G1 X146.015 Y144.798 E0.00958
G1 X145.914 Y144.963 E0.00827
G1 X145.83 Y145.166 E0.00939
G1 X145.783 Y145.365 E0.00872
G1 X145.774 Y145.774 E0.01752
G1 X145.799 Y145.973 E0.00858
G1 X145.869 Y146.205 E0.01037
G1 X146.077 Y146.534 E0.01661
G1 X146.252 Y146.705 E0.01046
G1 X146.428 Y146.823 E0.00907
G1 X146.753 Y146.961 E0.01511
G1 X147.131 Y147.015 E0.01632
G1 X162.453 Y147.021 E0.65511
G1 X162.772 Y147.076 E0.01382
G1 X163.064 Y147.183 E0.01331
G1 X164.382 Y147.937 E0.06492
G1 X164.433 Y147.986 E0.00302
G1 X164.453 Y148.027 E0.00198
G1 X164.461 Y148.077 E0.00216
G1 X164.455 Y148.118 E0.00177
G1 X164.433 Y148.164 E0.00217
G1 X164.399 Y148.199 E0.00209
G1 X164.357 Y148.222 E0.00203
G1 X164.281 Y148.235 E0.00331
G1 X144.235 Y148.235 E0.85707
G1 X143.946 Y148.255 E0.01239
G1 X143.635 Y148.316 E0.01359
G1 X143.334 Y148.418 E0.01356
G1 X142.948 Y148.627 E0.01878
G1 X142.606 Y148.901 E0.01875
G1 X142.375 Y149.164 E0.01495
G1 X142.142 Y149.539 E0.01886
G1 X142.022 Y149.832 E0.01355
G1 X141.922 Y150.265 E0.01901
G1 X141.905 Y150.73 E0.01992
G1 X141.978 Y151.169 E0.01901
G1 X142.078 Y151.469 E0.01353
G1 X142.223 Y151.761 E0.01392
G1 X142.485 Y152.171 E0.02081
G1 X142.774 Y152.559 E0.02069
G1 X143.087 Y152.917 E0.02032
G1 X143.507 Y153.324 E0.02501
G1 X143.869 Y153.62 E0.01999
G1 X144.177 Y153.841 E0.01622
G1 X144.577 Y154.087 E0.02007
G1 X145.242 Y154.414 E0.03168
G1 X145.873 Y154.642 E0.02871
G1 X146.251 Y154.744 E0.01671
G1 X146.7 Y154.833 E0.01957
G1 X147.088 Y154.883 E0.01674
G1 X147.53 Y154.912 E0.01894
G1 X148.021 Y154.91 E0.02099
G1 X148.547 Y154.879 E0.02256
G1 X149.442 Y154.76 E0.03858
G1 X150.274 Y154.572 E0.03646
G1 X151.117 Y154.3 E0.03791
G1 X151.864 Y153.985 E0.03466
G1 X152.649 Y153.569 E0.03795
G1 X153.37 Y153.099 E0.03682
G1 X154.086 Y152.534 E0.03899
G1 X154.545 Y152.107 E0.02682
G1 X155.06 Y151.556 E0.03224
G1 X155.764 Y150.673 E0.04829
G1 X155.99 Y150.465 E0.01314
G1 X156.196 Y150.322 E0.0107
G1 X156.475 Y150.178 E0.01342
G1 X156.848 Y150.063 E0.0167
G1 X157.219 Y150.017 E0.01597
G1 X157.533 Y150.033 E0.01345
G1 X157.859 Y150.1 E0.01423
G1 X158.114 Y150.192 E0.01161
G1 X158.399 Y150.348 E0.01388
G1 X158.665 Y150.548 E0.01421
G1 X163.17 Y155.032 E0.27178
G1 X163.266 Y155.152 E0.00657
G1 X163.302 Y155.218 E0.00319
G1 X163.355 Y155.419 E0.00888
G1 X163.355 Y155.538 E0.00509
G1 X163.327 Y155.668 E0.0057
G1 X163.297 Y155.741 E0.00339
G1 X163.225 Y155.854 E0.0057
G1 X163.137 Y155.944 E0.00539
G1 X163.033 Y156.012 E0.00533
G1 X162.818 Y156.078 E0.00961
G1 X162.697 Y156.081 E0.00518
G1 X162.57 Y156.057 E0.0055
G1 X162.384 Y155.962 E0.00895
G1 X157.859 Y151.466 E0.27272
G1 X157.715 Y151.356 E0.00775
G1 X157.56 Y151.281 E0.00736
G1 X157.31 Y151.233 E0.01091
G1 X157.138 Y151.246 E0.00734
G1 X156.937 Y151.304 E0.00896
G1 X156.713 Y151.447 E0.01136
G1 X155.982 Y152.36 E0.04998
G1 X155.301 Y153.077 E0.0423
G1 X154.667 Y153.642 E0.03632
G1 X153.854 Y154.251 E0.04341
G1 X152.97 Y154.791 E0.0443
G1 X152.1 Y155.218 E0.04143
G1 X151.209 Y155.562 E0.04084
G1 X150.249 Y155.837 E0.04267
G1 X149.313 Y156.017 E0.04078
G1 X148.652 Y156.094 E0.02844
G1 X148.068 Y156.128 E0.02499
G1 X147.198 Y156.116 E0.03723
G1 X146.748 Y156.072 E0.01933
G1 X146.297 Y156 E0.01951
G1 X145.462 Y155.791 E0.03682
G1 X145.05 Y155.651 E0.01859
G1 X144.583 Y155.458 E0.02162
G1 X144.197 Y155.269 E0.01835
G1 X143.74 Y155.01 E0.02247
G1 X143.076 Y154.551 E0.03454
G1 X142.756 Y154.289 E0.01768
G1 X142.375 Y153.937 E0.02217
G1 X141.835 Y153.34 E0.03443
G1 X141.597 Y153.033 E0.0166
G1 X141.288 Y152.578 E0.02351
G1 X141.104 Y152.264 E0.01555
G1 X140.942 Y151.923 E0.01615
G1 X140.817 Y151.563 E0.0163
G1 X140.759 Y151.334 E0.01011
G1 X140.697 Y150.955 E0.01641
G1 X140.677 Y150.575 E0.01624
G1 X140.697 Y150.194 E0.01633
G1 X140.73 Y149.963 E0.00998
G1 X140.808 Y149.619 E0.01508
G1 X140.929 Y149.26 E0.01622
G1 X141.024 Y149.042 E0.01016
G1 X141.206 Y148.709 E0.01623
G1 X141.529 Y148.267 E0.02338
G1 X141.702 Y148.078 E0.01096
G1 X141.974 Y147.829 E0.01574
G1 X142.405 Y147.525 E0.02257
G1 X142.852 Y147.298 E0.02144
G1 X143.338 Y147.132 E0.02194
G1 X143.631 Y147.069 E0.01282
G1 X143.915 Y147.031 E0.01228
G1 X144.691 Y147.004 E0.03317
G1 X144.903 Y146.944 E0.00944
G1 X145.117 Y146.801 E0.011
G1 X145.288 Y146.587 E0.01171
G1 X145.376 Y146.338 E0.01128
G1 X145.337 Y145.577 E0.03259
G1 X145.35 Y145.377 E0.00855
G1 X145.393 Y145.145 E0.0101
G1 X145.519 Y144.797 E0.01581
G1 X145.725 Y144.472 E0.01644
G1 X145.87 Y144.309 E0.00934
G1 X146.027 Y144.172 E0.00891
G1 X146.213 Y144.046 E0.0096
G1 X146.4 Y143.947 E0.00905
G1 X146.653 Y143.856 E0.01149
G1 X146.894 Y143.805 E0.01054
G1 X147.105 Y143.787 E0.00908
G1 X147.319 Y143.794 E0.00915
G1 X147.589 Y143.841 E0.01171
G1 X147.919 Y143.957 E0.01495
G1 X148.217 Y144.133 E0.01479
G1 X148.469 Y144.353 E0.01432
G1 X148.659 Y144.592 E0.01304
G1 X148.819 Y144.888 E0.01437
G1 X148.911 Y145.179 E0.01306
G1 X148.952 Y145.48 E0.01298
G1 X148.921 Y145.518 E0.0021
G1 X148.892 Y145.726 E0.00896
G1 X148.886 Y145.735 E0.00045
G1 X148.803 Y145.788 E0.00423
;WIPE_START
G1 X148.715 Y145.76 F9000
;WIPE_END
G1 E-0.8 F3000
G1 X147.175 Y147.626 F9000
G1 E0.8 F1800
; External perimeter
;GapFill
SET_VELOCITY_LIMIT ACCEL=2000 ACCEL_TO_DECEL=2000 SQUARE_CORNER_VELOCITY=5

; Skirt

;TYPE:Gap fill
;WIDTH:0.849369
G1 X147.382 Y147.625 E0.01648
;WIDTH:0.877422
G1 X147.589 Y147.625 E0.01706
G1 X154.995 Y147.626 E0.61035
G1 X162.402 Y147.628 E0.61035
G1 X162.51 Y147.637 E0.009
;WIDTH:0.834402
G1 X162.619 Y147.646 E0.00853
G1 X162.725 Y147.665 E0.00838
;WIDTH:0.758948
G1 X162.83 Y147.684 E0.00758
G1 X162.996 Y147.728 E0.01208
;WIDTH:0.640625
G1 X163.161 Y147.772 E0.01006
;WIDTH:0.545966
G1 X163.327 Y147.816 E0.00844
;WIDTH:0.451306
G1 X163.492 Y147.86 E0.00683
;WIDTH:0.356647
G1 X163.658 Y147.904 E0.00521
;WIDTH:0.261988
G1 X163.823 Y147.948 E0.00359
;WIDTH:0.167329
G1 X163.988 Y147.992 E0.00198
;WIDTH:0.133021
G1 X164.033 Y148.004 E0.00037
G1 E-0.8 F3000
G1 X163.123 Y155.646 F9000
G1 E0.8 F1800
;WIDTH:0.673405
G1 X162.837 Y155.512 E0.01965
G1 X162.717 Y155.438 E0.00871
;WIDTH:0.878768
G1 X160.498 Y153.232 E0.2583
G1 X158.279 Y151.025 E0.2583
G1 X158.154 Y150.926 E0.01321
G1 X158.069 Y150.861 E0.00883
G1 X157.997 Y150.819 E0.00683
G1 X157.864 Y150.751 E0.01241
G1 X157.7 Y150.689 E0.01444
G1 X157.574 Y150.664 E0.01058
G1 X157.455 Y150.64 E0.01004
G1 X157.398 Y150.633 E0.00474
G1 X157.241 Y150.628 E0.01295
G1 X157.074 Y150.644 E0.01391
G1 X156.99 Y150.657 E0.007
G1 X156.859 Y150.695 E0.01126
G1 X156.741 Y150.73 E0.01011
G1 X156.634 Y150.778 E0.00976
G1 X156.513 Y150.848 E0.0115
G1 X156.358 Y150.953 E0.01549
G1 X156.214 Y151.092 E0.01648
G1 X155.873 Y151.517 E0.04499
G1 X155.533 Y151.943 E0.04499
G1 X155.512 Y151.968 E0.00269
G1 X154.985 Y152.527 E0.06345
G1 X154.875 Y152.637 E0.01285
G1 X154.493 Y152.984 E0.04256
G1 X154.373 Y153.086 E0.01298
G1 X154.277 Y153.166 E0.0103
G1 X154.008 Y153.373 E0.02804
G1 X153.739 Y153.58 E0.02804
G1 X153.609 Y153.672 E0.01316
G1 X153.509 Y153.742 E0.01005
G1 X152.971 Y154.081 E0.05249
G1 X152.807 Y154.176 E0.01569
G1 X152.673 Y154.252 E0.01266
G1 X152.14 Y154.524 E0.04942
G1 X151.981 Y154.597 E0.01448
G1 X151.854 Y154.655 E0.01153
G1 X151.599 Y154.758 E0.02265
G1 X151.345 Y154.861 E0.02265
G1 X151.162 Y154.926 E0.01601
G1 X151.013 Y154.979 E0.01305
G1 X150.451 Y155.15 E0.04854
G1 X150.261 Y155.199 E0.01617
G1 X150.106 Y155.239 E0.01319
G1 X149.837 Y155.296 E0.02274
G1 X149.567 Y155.352 E0.02274
G1 X149.375 Y155.384 E0.0161
G1 X149.219 Y155.41 E0.01301
G1 X148.92 Y155.447 E0.0249
G1 X148.62 Y155.484 E0.0249
G1 X148.59 Y155.487 E0.00247
G1 X148.322 Y155.503 E0.02215
G1 X148.055 Y155.519 E0.02215
G1 X148.029 Y155.519 E0.00213
G1 X147.526 Y155.516 E0.04153
G1 X147.365 Y155.511 E0.01331
G1 X147.232 Y155.505 E0.01097
G1 X147.042 Y155.49 E0.0157
G1 X147.016 Y155.487 E0.00217
G1 X146.826 Y155.466 E0.01579
G1 X146.72 Y155.451 E0.0088
G1 X146.615 Y155.435 E0.0088
G1 X146.42 Y155.401 E0.01634
G1 X146.273 Y155.368 E0.01242
G1 X146.126 Y155.335 E0.01242
G1 X146.1 Y155.329 E0.00224
G1 X145.904 Y155.278 E0.01674
G1 X145.707 Y155.227 E0.01674
G1 X145.635 Y155.205 E0.00627
G1 X145.451 Y155.141 E0.01608
G1 X145.267 Y155.076 E0.01608
G1 X145.025 Y154.983 E0.0214
G1 X144.983 Y154.965 E0.00377
G1 X144.835 Y154.898 E0.01339
G1 X144.484 Y154.726 E0.03228
G1 X144.392 Y154.677 E0.0086
G1 X144.3 Y154.628 E0.0086
G1 X144.166 Y154.55 E0.01281
G1 X144.066 Y154.491 E0.00958
G1 X143.96 Y154.422 E0.01046
G1 X143.854 Y154.352 E0.01046
G1 X143.831 Y154.337 E0.00229
G1 X143.67 Y154.224 E0.0162
G1 X143.51 Y154.111 E0.0162
G1 X143.444 Y154.062 E0.0068
G1 X143.157 Y153.827 E0.03056
G1 X143.089 Y153.767 E0.0075
G1 X142.95 Y153.636 E0.01576
G1 X142.812 Y153.505 E0.01576
G1 X142.735 Y153.426 E0.00907
G1 X142.659 Y153.347 E0.00907
G1 X142.635 Y153.321 E0.00289
G1 X142.309 Y152.954 E0.04052
G1 X142.192 Y152.802 E0.01588
G1 X142.094 Y152.673 E0.01336
G1 X141.992 Y152.53 E0.01443
G1 X141.891 Y152.377 E0.01517
G1 X141.807 Y152.25 E0.0126
G1 X141.703 Y152.08 E0.01644
G1 X141.646 Y151.977 E0.0097
G1 X141.586 Y151.853 E0.01138
G1 X141.525 Y151.729 E0.01138
G1 X141.508 Y151.691 E0.00343
G1 X141.453 Y151.53 E0.01401
G1 X141.404 Y151.386 E0.01257
G1 X141.361 Y151.208 E0.0151
G1 X141.309 Y150.889 E0.02674
G1 X141.295 Y150.729 E0.01327
G1 X141.294 Y150.575 E0.01264
G1 X141.301 Y150.415 E0.01329
G1 X141.308 Y150.254 E0.01329
G1 X141.335 Y150.074 E0.01499
G1 X141.368 Y149.93 E0.01221
G1 X141.401 Y149.786 E0.01221
G1 X141.452 Y149.614 E0.01478
G1 X141.502 Y149.481 E0.01173
G1 X141.574 Y149.312 E0.01522
G1 X141.584 Y149.291 E0.00189
G1 X141.672 Y149.135 E0.01478
G1 X141.728 Y149.039 E0.00914
G1 X141.798 Y148.935 E0.01041
G1 X141.869 Y148.83 E0.01041
G1 X141.908 Y148.777 E0.00548
G1 X142.004 Y148.656 E0.01274
G1 X142.134 Y148.511 E0.01608
G1 X142.211 Y148.437 E0.00879
G1 X142.36 Y148.31 E0.01614
G1 X142.471 Y148.226 E0.01149
G1 X142.582 Y148.143 E0.01149
G1 X142.722 Y148.052 E0.0138
G1 X142.891 Y147.963 E0.01571
G1 X143.06 Y147.875 E0.01571
G1 X143.124 Y147.847 E0.00579
G1 X143.288 Y147.792 E0.01431
G1 X143.453 Y147.736 E0.01431
G1 X143.62 Y147.696 E0.01421
G1 X143.736 Y147.672 E0.0098
G1 X143.892 Y147.648 E0.01298
G1 X144.08 Y147.635 E0.01557
;WIDTH:0.805204
G1 X144.202 Y147.497 E0.01384
;WIDTH:0.614665
G1 X144.325 Y147.36 E0.01034
;WIDTH:0.517094
G1 X144.397 Y147.315 E0.00396
;WIDTH:0.473769
G1 X144.541 Y147.285 E0.00619
G1 X145.135 Y147.573 F9000
;WIDTH:0.147981
G1 F1800
G1 X145.261 Y147.54 E0.00125
;WIDTH:0.21937
G1 X145.39 Y147.501 E0.00227
;WIDTH:0.310782
G1 X145.52 Y147.462 E0.0035
;WIDTH:0.402195
G1 X145.649 Y147.423 E0.00473
;WIDTH:0.449192
G1 X145.711 Y147.399 E0.00262
;WIDTH:0.482164
G1 X145.898 Y147.433 E0.00819
;WIDTH:0.346086
G1 X146.057 Y147.482 E0.00487
;WIDTH:0.296709
G1 X146.155 Y147.503 E0.00246
;WIDTH:0.238427
G1 X146.304 Y147.533 E0.00283
;WIDTH:0.143864
G1 X146.452 Y147.563 E0.0014
G1 X146.498 Y147.572 E0.00042
; INIT stop printing object Universal_1.75mm_Filament_Clip.stl id:0 copy 0
;LAYER_CHANGE
;Z:0.44
;HEIGHT:0.2
; stop printing object Universal_1.75mm_Filament_Clip.stl id:0 copy 0
