; generated by SuperSlicer 2.3.57 on 2021-12-31 at 20:09:44 UTC


;
;

;
;
; 

; external perimeters extrusion width = 0.40mm
; perimeters extrusion width = 0.40mm
; infill extrusion width = 0.40mm
; solid infill extrusion width = 0.40mm
; top infill extrusion width = 0.40mm
; support material extrusion width = 0.40mm
; first layer extrusion width = 0.48mm


;TYPE:Custom
START_PRINT T_BED=70 T_EXTRUDER=235
M107
G21 ; set units to millimeters
G90 ; use absolute coordinates
M83 ; use relative distances for extrusion
M104 S235 ; set temperature
M109 S235 ; set temperature and wait for it to be reached
M190 S70 ; set bed temperature and wait for it to be reached
;LAYER_CHANGE
;Z:0.24
;HEIGHT:0.24
G1 Z0.24 F6000
G1 E-1.5 F3000
G1 X96.734 Y108.266 F6000
G1 E1.5 F1800
;TYPE:Skirt
;WIDTH:0.48
G1 F1200
G1 X95.876 Y109.34 E0.05877
G1 X95.349 Y110.314 E0.04735
G1 X94.903 Y111.594 E0.05799
G1 X94.71 Y113.086 E0.0643
G1 X94.707 Y178.761 E2.80797
G1 X94.891 Y180.353 E0.06851
G1 X95.353 Y181.696 E0.06073
G1 X95.922 Y182.727 E0.05034
G1 X96.866 Y183.866 E0.06326
G1 X97.94 Y184.724 E0.05877
G1 X98.919 Y185.253 E0.0476
G1 X100.2 Y185.699 E0.05799
G1 X101.697 Y185.891 E0.06455
G1 X172.161 Y185.893 E3.0127
G1 X173.753 Y185.709 E0.06851
G1 X175.096 Y185.247 E0.06073
G1 X176.127 Y184.678 E0.05034
G1 X177.266 Y183.734 E0.06325
G1 X178.124 Y182.66 E0.05877
G1 X178.653 Y181.681 E0.0476
G1 X179.099 Y180.4 E0.05798
G1 X179.291 Y178.908 E0.06431
G1 X179.281 Y112.881 E2.82302
G1 X179.064 Y111.459 E0.06151
G1 X178.583 Y110.159 E0.05926
G1 X178.027 Y109.201 E0.04735
G1 X177.1 Y108.102 E0.06149
G1 X175.893 Y107.167 E0.06527
G1 X174.65 Y106.569 E0.05899
G1 X173.565 Y106.252 E0.04835
G1 X172.156 Y106.107 E0.06055
G1 X101.687 Y106.11 E3.01295
G1 X100.167 Y106.309 E0.06552
G1 X98.845 Y106.778 E0.05999
G1 X97.849 Y107.339 E0.04884
G1 X96.78 Y108.227 E0.05944
G1 X97.055 Y108.55 F6000
G1 F1200
G1 X96.239 Y109.568 E0.05575
G1 X95.744 Y110.479 E0.04431
G1 X95.321 Y111.687 E0.05477
G1 X95.138 Y113.109 E0.06128
G1 X95.136 Y178.756 E2.80675
G1 X95.308 Y180.258 E0.06464
G1 X95.744 Y181.521 E0.05716
G1 X96.268 Y182.474 E0.04647
G1 X97.15 Y183.545 E0.05935
G1 X98.168 Y184.361 E0.05575
G1 X99.079 Y184.855 E0.04431
G1 X100.293 Y185.28 E0.05501
G1 X101.715 Y185.462 E0.06128
G1 X172.156 Y185.464 E3.01173
G1 X173.658 Y185.292 E0.06464
G1 X174.921 Y184.856 E0.05716
G1 X175.874 Y184.332 E0.04647
G1 X176.945 Y183.45 E0.05935
G1 X177.761 Y182.432 E0.05576
G1 X178.256 Y181.521 E0.04431
G1 X178.679 Y180.313 E0.05476
G1 X178.862 Y178.891 E0.06129
G1 X178.854 Y112.923 E2.82049
G1 X178.651 Y111.572 E0.0584
G1 X178.197 Y110.344 E0.05599
G1 X177.68 Y109.453 E0.04407
G1 X176.809 Y108.416 E0.0579
G1 X175.667 Y107.531 E0.06177
G1 X174.492 Y106.967 E0.05573
G1 X173.486 Y106.674 E0.04479
G1 X172.156 Y106.536 E0.05719
G1 X101.709 Y106.538 E3.01197
G1 X100.271 Y106.725 E0.06201
G1 X99.032 Y107.164 E0.05621
G1 X98.108 Y107.681 E0.04527
G1 X97.101 Y108.512 E0.05582
G1 E-1.5 F3000
G1 X159.53 Y161.515 F6000
G1 E1.5 F1800
;TYPE:Internal perimeter
G1 F1200
G1 X159.407 Y161.664 E0.00826
G1 X159.073 Y162.124 E0.02433
G1 X158.982 Y162.294 E0.00825
G1 X158.773 Y162.824 E0.02433
G1 X158.716 Y163.008 E0.00825
G1 X158.645 Y163.573 E0.02433
G1 X158.628 Y163.75 E0.00761
G1 X158.645 Y163.927 E0.00761
G1 X158.716 Y164.492 E0.02433
G1 X158.773 Y164.676 E0.00825
G1 X158.982 Y165.206 E0.02433
G1 X159.073 Y165.376 E0.00825
G1 X159.407 Y165.836 E0.02433
G1 X159.53 Y165.985 E0.00826
G1 X159.968 Y166.348 E0.02434
G1 X160.096 Y166.453 E0.00706
G1 X160.265 Y166.543 E0.00816
G1 X160.779 Y166.785 E0.02433
G1 X160.964 Y166.841 E0.00825
G1 X161.523 Y166.948 E0.02433
G1 X161.715 Y166.967 E0.00825
G1 X162.283 Y166.931 E0.02433
G1 X162.464 Y166.913 E0.0078
G1 X162.631 Y166.863 E0.00743
G1 X163.172 Y166.687 E0.02434
G1 X163.342 Y166.596 E0.00825
G1 X163.823 Y166.291 E0.02433
G1 X163.972 Y166.169 E0.00825
G1 X164.361 Y165.754 E0.02433
G1 X164.484 Y165.605 E0.00825
G1 X164.758 Y165.106 E0.02434
G1 X164.838 Y164.956 E0.00724
G1 X164.892 Y164.778 E0.00798
G1 X165.034 Y164.227 E0.02433
G1 X165.052 Y164.035 E0.00825
G1 X165.052 Y163.465 E0.02433
G1 X165.034 Y163.273 E0.00825
G1 X164.892 Y162.722 E0.02433
G1 X164.838 Y162.544 E0.00798
G1 X164.758 Y162.394 E0.00724
G1 X164.484 Y161.895 E0.02434
G1 X164.361 Y161.746 E0.00825
G1 X163.972 Y161.331 E0.02433
G1 X163.823 Y161.209 E0.00825
G1 X163.342 Y160.904 E0.02433
G1 X163.172 Y160.813 E0.00825
G1 X162.631 Y160.637 E0.02434
G1 X162.464 Y160.587 E0.00743
G1 X162.283 Y160.569 E0.0078
G1 X161.715 Y160.533 E0.02433
G1 X161.523 Y160.552 E0.00825
G1 X160.964 Y160.659 E0.02433
G1 X160.779 Y160.715 E0.00825
G1 X160.265 Y160.957 E0.02433
G1 X160.096 Y161.047 E0.00816
G1 X159.968 Y161.152 E0.00706
G1 X159.576 Y161.476 E0.02177
G1 X159.849 Y161.807 F6000
G1 F1200
G1 X159.835 Y161.818 E0.0008
G1 X159.747 Y161.926 E0.00595
G1 X159.437 Y162.352 E0.02253
G1 X159.371 Y162.475 E0.00594
G1 X159.177 Y162.965 E0.02253
G1 X159.137 Y163.098 E0.00594
G1 X159.071 Y163.621 E0.02253
G1 X159.058 Y163.75 E0.00555
G1 X159.071 Y163.879 E0.00555
G1 X159.137 Y164.402 E0.02253
G1 X159.177 Y164.535 E0.00594
G1 X159.371 Y165.025 E0.02253
G1 X159.437 Y165.148 E0.00594
G1 X159.747 Y165.574 E0.02253
G1 X159.835 Y165.682 E0.00595
G1 X160.241 Y166.017 E0.02253
G1 X160.335 Y166.095 E0.00522
G1 X160.457 Y166.16 E0.00589
G1 X160.934 Y166.384 E0.02253
G1 X161.067 Y166.425 E0.00594
G1 X161.584 Y166.523 E0.02253
G1 X161.723 Y166.537 E0.00594
G1 X162.249 Y166.504 E0.02253
G1 X162.38 Y166.491 E0.00567
G1 X162.502 Y166.454 E0.00544
G1 X163.003 Y166.291 E0.02253
G1 X163.126 Y166.225 E0.00595
G1 X163.571 Y165.943 E0.02253
G1 X163.678 Y165.855 E0.00594
G1 X164.039 Y165.471 E0.02253
G1 X164.127 Y165.363 E0.00595
G1 X164.381 Y164.902 E0.02253
G1 X164.44 Y164.792 E0.00533
G1 X164.479 Y164.662 E0.00578
G1 X164.61 Y164.152 E0.02253
G1 X164.624 Y164.013 E0.00594
G1 X164.624 Y163.487 E0.02253
G1 X164.61 Y163.348 E0.00594
G1 X164.479 Y162.838 E0.02253
G1 X164.44 Y162.708 E0.00578
G1 X164.381 Y162.598 E0.00533
G1 X164.127 Y162.137 E0.02253
G1 X164.039 Y162.029 E0.00595
G1 X163.678 Y161.645 E0.02253
G1 X163.571 Y161.557 E0.00594
G1 X163.126 Y161.275 E0.02253
G1 X163.003 Y161.209 E0.00595
G1 X162.502 Y161.046 E0.02253
G1 X162.38 Y161.009 E0.00544
G1 X162.249 Y160.996 E0.00567
G1 X161.723 Y160.963 E0.02253
G1 X161.584 Y160.977 E0.00594
G1 X161.067 Y161.075 E0.02253
G1 X160.934 Y161.116 E0.00594
G1 X160.457 Y161.34 E0.02253
G1 X160.335 Y161.405 E0.00589
G1 X160.241 Y161.483 E0.00522
G1 X159.895 Y161.768 E0.01917
G1 X160.169 Y162.099 F6000
;TYPE:External perimeter
G1 F1200
G1 X160.14 Y162.122 E0.00159
G1 X160.086 Y162.188 E0.00364
G1 X159.801 Y162.58 E0.02073
G1 X159.761 Y162.655 E0.00364
G1 X159.582 Y163.106 E0.02073
G1 X159.558 Y163.188 E0.00364
G1 X159.497 Y163.669 E0.02073
G1 X159.489 Y163.75 E0.0035
G1 X159.497 Y163.831 E0.0035
G1 X159.558 Y164.312 E0.02073
G1 X159.582 Y164.394 E0.00364
G1 X159.761 Y164.845 E0.02073
G1 X159.801 Y164.92 E0.00364
G1 X160.086 Y165.312 E0.02073
G1 X160.14 Y165.378 E0.00364
G1 X160.513 Y165.687 E0.02073
G1 X160.575 Y165.737 E0.00338
G1 X160.649 Y165.777 E0.00362
G1 X161.088 Y165.983 E0.02073
G1 X161.169 Y166.008 E0.00364
G1 X161.646 Y166.099 E0.02073
G1 X161.73 Y166.107 E0.00364
G1 X162.214 Y166.077 E0.02073
G1 X162.296 Y166.069 E0.00354
G1 X162.374 Y166.045 E0.00346
G1 X162.835 Y165.895 E0.02073
G1 X162.91 Y165.855 E0.00364
G1 X163.319 Y165.595 E0.02073
G1 X163.385 Y165.541 E0.00364
G1 X163.717 Y165.188 E0.02073
G1 X163.771 Y165.122 E0.00364
G1 X164.005 Y164.697 E0.02073
G1 X164.042 Y164.627 E0.00342
G1 X164.067 Y164.547 E0.00358
G1 X164.187 Y164.077 E0.02073
G1 X164.195 Y163.992 E0.00364
G1 X164.195 Y163.508 E0.02073
G1 X164.187 Y163.423 E0.00364
G1 X164.067 Y162.953 E0.02073
G1 X164.042 Y162.873 E0.00358
G1 X164.005 Y162.803 E0.00342
G1 X163.771 Y162.378 E0.02073
G1 X163.717 Y162.312 E0.00364
G1 X163.385 Y161.959 E0.02073
G1 X163.319 Y161.905 E0.00364
G1 X162.91 Y161.645 E0.02073
G1 X162.835 Y161.605 E0.00364
G1 X162.374 Y161.455 E0.02073
G1 X162.296 Y161.431 E0.00346
G1 X162.214 Y161.423 E0.00354
G1 X161.73 Y161.393 E0.02073
G1 X161.646 Y161.401 E0.00364
G1 X161.169 Y161.492 E0.02073
G1 X161.088 Y161.517 E0.00364
G1 X160.649 Y161.723 E0.02073
G1 X160.575 Y161.763 E0.00362
G1 X160.513 Y161.813 E0.00338
G1 X160.215 Y162.06 E0.01657
G1 X160.134 Y162.086 F6000
G1 E-1.5 F3000
G1 X161.715 Y131.467 F6000
G1 E1.5 F1800
;TYPE:Internal perimeter
G1 F1200
G1 X162.283 Y131.431 E0.02433
G1 X162.464 Y131.413 E0.0078
G1 X162.631 Y131.363 E0.00743
G1 X163.172 Y131.187 E0.02434
G1 X163.342 Y131.096 E0.00825
G1 X163.823 Y130.791 E0.02433
G1 X163.972 Y130.669 E0.00825
G1 X164.361 Y130.254 E0.02433
G1 X164.484 Y130.105 E0.00825
G1 X164.758 Y129.606 E0.02434
G1 X164.838 Y129.456 E0.00724
G1 X164.892 Y129.278 E0.00798
G1 X165.034 Y128.727 E0.02433
G1 X165.052 Y128.535 E0.00825
G1 X165.052 Y127.965 E0.02433
G1 X165.034 Y127.773 E0.00825
G1 X164.892 Y127.222 E0.02433
G1 X164.838 Y127.044 E0.00798
G1 X164.758 Y126.894 E0.00724
G1 X164.484 Y126.395 E0.02434
G1 X164.361 Y126.246 E0.00825
G1 X163.972 Y125.831 E0.02433
G1 X163.823 Y125.709 E0.00825
G1 X163.342 Y125.404 E0.02433
G1 X163.172 Y125.313 E0.00825
G1 X162.631 Y125.137 E0.02434
G1 X162.464 Y125.087 E0.00743
G1 X162.283 Y125.069 E0.0078
G1 X161.715 Y125.033 E0.02433
G1 X161.523 Y125.052 E0.00825
G1 X160.964 Y125.159 E0.02433
G1 X160.779 Y125.215 E0.00825
G1 X160.265 Y125.457 E0.02433
G1 X160.096 Y125.547 E0.00816
G1 X159.968 Y125.652 E0.00706
G1 X159.53 Y126.015 E0.02434
G1 X159.407 Y126.164 E0.00826
G1 X159.073 Y126.624 E0.02433
G1 X158.982 Y126.794 E0.00825
G1 X158.773 Y127.324 E0.02433
G1 X158.716 Y127.508 E0.00825
G1 X158.645 Y128.073 E0.02433
G1 X158.628 Y128.25 E0.00761
G1 X158.645 Y128.427 E0.00761
G1 X158.716 Y128.992 E0.02433
G1 X158.773 Y129.176 E0.00825
G1 X158.982 Y129.706 E0.02433
G1 X159.073 Y129.876 E0.00825
G1 X159.407 Y130.336 E0.02433
G1 X159.53 Y130.485 E0.00826
G1 X159.968 Y130.848 E0.02434
G1 X160.096 Y130.953 E0.00706
G1 X160.265 Y131.043 E0.00816
G1 X160.779 Y131.285 E0.02433
G1 X160.964 Y131.341 E0.00825
G1 X161.523 Y131.448 E0.02433
G1 X161.655 Y131.461 E0.00568
G1 X161.697 Y131.034 F6000
G1 F1200
G1 X161.723 Y131.037 E0.00109
G1 X162.249 Y131.004 E0.02253
G1 X162.38 Y130.991 E0.00567
G1 X162.502 Y130.954 E0.00544
G1 X163.003 Y130.791 E0.02253
G1 X163.126 Y130.725 E0.00595
G1 X163.571 Y130.443 E0.02253
G1 X163.678 Y130.355 E0.00594
G1 X164.039 Y129.971 E0.02253
G1 X164.127 Y129.863 E0.00595
G1 X164.381 Y129.402 E0.02253
G1 X164.44 Y129.292 E0.00533
G1 X164.479 Y129.162 E0.00578
G1 X164.61 Y128.652 E0.02253
G1 X164.624 Y128.513 E0.00594
G1 X164.624 Y127.987 E0.02253
G1 X164.61 Y127.848 E0.00594
G1 X164.479 Y127.338 E0.02253
G1 X164.44 Y127.208 E0.00578
G1 X164.381 Y127.098 E0.00533
G1 X164.127 Y126.637 E0.02253
G1 X164.039 Y126.529 E0.00595
G1 X163.678 Y126.145 E0.02253
G1 X163.571 Y126.057 E0.00594
G1 X163.126 Y125.775 E0.02253
G1 X163.003 Y125.709 E0.00595
G1 X162.502 Y125.546 E0.02253
G1 X162.38 Y125.509 E0.00544
G1 X162.249 Y125.496 E0.00567
G1 X161.723 Y125.463 E0.02253
G1 X161.584 Y125.477 E0.00594
G1 X161.067 Y125.575 E0.02253
G1 X160.934 Y125.616 E0.00594
G1 X160.457 Y125.84 E0.02253
G1 X160.335 Y125.905 E0.00589
G1 X160.241 Y125.983 E0.00522
G1 X159.835 Y126.318 E0.02253
G1 X159.747 Y126.426 E0.00595
G1 X159.437 Y126.852 E0.02253
G1 X159.371 Y126.975 E0.00594
G1 X159.177 Y127.465 E0.02253
G1 X159.137 Y127.598 E0.00594
G1 X159.071 Y128.121 E0.02253
G1 X159.058 Y128.25 E0.00555
G1 X159.071 Y128.379 E0.00555
G1 X159.137 Y128.902 E0.02253
G1 X159.177 Y129.035 E0.00594
G1 X159.371 Y129.525 E0.02253
G1 X159.437 Y129.648 E0.00594
G1 X159.747 Y130.074 E0.02253
G1 X159.835 Y130.182 E0.00595
G1 X160.241 Y130.517 E0.02253
G1 X160.335 Y130.595 E0.00522
G1 X160.457 Y130.66 E0.00589
G1 X160.934 Y130.884 E0.02253
G1 X161.067 Y130.925 E0.00594
G1 X161.584 Y131.023 E0.02253
G1 X161.638 Y131.029 E0.00229
G1 X161.68 Y130.602 F6000
;TYPE:External perimeter
G1 F1200
G1 X161.73 Y130.607 E0.00217
G1 X162.214 Y130.577 E0.02073
G1 X162.296 Y130.569 E0.00354
G1 X162.374 Y130.545 E0.00346
G1 X162.835 Y130.395 E0.02073
G1 X162.91 Y130.355 E0.00364
G1 X163.319 Y130.095 E0.02073
G1 X163.385 Y130.041 E0.00364
G1 X163.717 Y129.688 E0.02073
G1 X163.771 Y129.622 E0.00364
G1 X164.005 Y129.197 E0.02073
G1 X164.042 Y129.127 E0.00342
G1 X164.067 Y129.047 E0.00358
G1 X164.187 Y128.577 E0.02073
G1 X164.195 Y128.492 E0.00364
G1 X164.195 Y128.008 E0.02073
G1 X164.187 Y127.923 E0.00364
G1 X164.067 Y127.453 E0.02073
G1 X164.042 Y127.373 E0.00358
G1 X164.005 Y127.303 E0.00342
G1 X163.771 Y126.878 E0.02073
G1 X163.717 Y126.812 E0.00364
G1 X163.385 Y126.459 E0.02073
G1 X163.319 Y126.405 E0.00364
G1 X162.91 Y126.145 E0.02073
G1 X162.835 Y126.105 E0.00364
G1 X162.374 Y125.955 E0.02073
G1 X162.296 Y125.931 E0.00346
G1 X162.214 Y125.923 E0.00354
G1 X161.73 Y125.893 E0.02073
G1 X161.646 Y125.901 E0.00364
G1 X161.169 Y125.992 E0.02073
G1 X161.088 Y126.017 E0.00364
G1 X160.649 Y126.223 E0.02073
G1 X160.575 Y126.263 E0.00362
G1 X160.513 Y126.313 E0.00338
G1 X160.14 Y126.622 E0.02073
G1 X160.086 Y126.688 E0.00364
G1 X159.801 Y127.08 E0.02073
G1 X159.761 Y127.155 E0.00364
G1 X159.582 Y127.606 E0.02073
G1 X159.558 Y127.688 E0.00364
G1 X159.497 Y128.169 E0.02073
G1 X159.489 Y128.25 E0.0035
G1 X159.497 Y128.331 E0.0035
G1 X159.558 Y128.812 E0.02073
G1 X159.582 Y128.894 E0.00364
G1 X159.761 Y129.345 E0.02073
G1 X159.801 Y129.42 E0.00364
G1 X160.086 Y129.812 E0.02073
G1 X160.14 Y129.878 E0.00364
G1 X160.513 Y130.187 E0.02073
G1 X160.575 Y130.237 E0.00338
G1 X160.649 Y130.277 E0.00362
G1 X161.088 Y130.483 E0.02073
G1 X161.169 Y130.508 E0.00364
G1 X161.62 Y130.594 E0.01963
G1 X161.699 Y130.649 F6000
G1 E-1.5 F3000
G1 X172.491 Y113.053 F6000
G1 E1.5 F1800
;TYPE:Internal perimeter
G1 F1200
G1 X172.53 Y113.148 E0.00439
G1 X172.553 Y113.322 E0.00749
G1 X172.553 Y178.678 E2.79433
G1 X172.53 Y178.852 E0.00749
G1 X172.491 Y178.947 E0.00439
G1 X172.428 Y179.028 E0.00439
G1 X172.347 Y179.091 E0.00439
G1 X172.252 Y179.13 E0.00439
G1 X172.078 Y179.153 E0.00749
G1 X101.922 Y179.153 E2.99956
G1 X101.748 Y179.13 E0.00749
G1 X101.653 Y179.091 E0.00439
G1 X101.572 Y179.028 E0.00439
G1 X101.509 Y178.947 E0.00439
G1 X101.47 Y178.852 E0.00439
G1 X101.447 Y178.678 E0.00749
G1 X101.447 Y113.322 E2.79433
G1 X101.47 Y113.148 E0.00749
G1 X101.509 Y113.053 E0.00439
G1 X101.572 Y112.972 E0.00439
G1 X101.653 Y112.909 E0.00439
G1 X101.748 Y112.87 E0.00439
G1 X101.922 Y112.847 E0.00749
G1 X172.078 Y112.847 E2.99956
G1 X172.252 Y112.87 E0.00749
G1 X172.347 Y112.909 E0.00439
G1 X172.428 Y112.972 E0.00439
G1 X172.454 Y113.006 E0.00183
G1 X172.794 Y112.745 F6000
G1 F1200
G1 X172.865 Y112.837 E0.00498
G1 X172.948 Y113.036 E0.00922
G1 X172.982 Y113.294 E0.01111
G1 X172.982 Y178.706 E2.79674
G1 X172.948 Y178.964 E0.01111
G1 X172.865 Y179.163 E0.00922
G1 X172.734 Y179.334 E0.00922
G1 X172.563 Y179.465 E0.00922
G1 X172.364 Y179.548 E0.00922
G1 X172.106 Y179.582 E0.01111
G1 X101.894 Y179.582 E3.00196
G1 X101.636 Y179.548 E0.01111
G1 X101.437 Y179.465 E0.00922
G1 X101.266 Y179.334 E0.00922
G1 X101.135 Y179.163 E0.00922
G1 X101.052 Y178.964 E0.00922
G1 X101.018 Y178.706 E0.01111
G1 X101.018 Y113.294 E2.79674
G1 X101.052 Y113.036 E0.01111
G1 X101.135 Y112.837 E0.00922
G1 X101.266 Y112.666 E0.00922
G1 X101.437 Y112.535 E0.00922
G1 X101.636 Y112.452 E0.00922
G1 X101.894 Y112.418 E0.01111
G1 X172.106 Y112.418 E3.00196
G1 X172.364 Y112.452 E0.01111
G1 X172.563 Y112.535 E0.00922
G1 X172.734 Y112.666 E0.00922
G1 X172.758 Y112.697 E0.00167
G1 X173.098 Y112.436 F6000
;TYPE:External perimeter
G1 F1200
G1 X173.239 Y112.621 E0.00995
G1 X173.365 Y112.924 E0.01404
G1 X173.41 Y113.266 E0.01472
G1 X173.41 Y178.734 E2.79914
G1 X173.365 Y179.076 E0.01472
G1 X173.239 Y179.379 E0.01404
G1 X173.039 Y179.639 E0.01404
G1 X172.779 Y179.839 E0.01404
G1 X172.476 Y179.965 E0.01404
G1 X172.134 Y180.01 E0.01472
G1 X101.866 Y180.01 E3.00436
G1 X101.524 Y179.965 E0.01472
G1 X101.221 Y179.839 E0.01404
G1 X100.961 Y179.639 E0.01404
