; generated by SuperSlicer 2.3.55 on 2021-05-06 at 06:30:38 UTC

; 

; external perimeters extrusion width = 0.40mm
; perimeters extrusion width = 0.40mm
; infill extrusion width = 0.40mm
; solid infill extrusion width = 0.40mm
; top infill extrusion width = 0.40mm
; support material extrusion width = 0.40mm
; first layer extrusion width = 0.40mm


M140 S70 ; set bed temperature
M104 S245 ; set temperature
;TYPE:Custom
START_PRINT T_BED=70 T_EXTRUDER=245
M107
G21 ; set units to millimeters
G90 ; use absolute coordinates
M82 ; use absolute distances for extrusion
G92 E0
; Filament gcode
M109 S245 ; set temperature and wait for it to be reached
M190 S70 ; set bed temperature and wait for it to be reached
;LAYER_CHANGE
;Z:0.24
;HEIGHT:0.24
G1 Z0.240000 F9000.000
G1 E-0.80000 F2100.000
G1 X121.646 Y116.611 F9000.000
G1 E0.00000 F2100.000
;TYPE:Skirt
;WIDTH:0.4
G1 F900.000
G1 X122.463 Y115.759 E0.04107
G1 X123.488 Y115.082 E0.08378
G1 X124.637 Y114.648 E0.12649
G1 X125.848 Y114.479 E0.16900
G1 X199.006 Y114.477 E2.71292
G1 X200.876 Y114.646 E2.77821
G1 X202.770 Y115.177 E2.84661
G1 X204.453 Y116.003 E2.91179
G1 X205.225 Y116.519 E2.94411
G1 X206.267 Y117.393 E2.99137
G1 X207.571 Y118.896 E3.06057
G1 X208.508 Y120.493 E3.12496
G1 X209.160 Y122.262 E3.19055
G1 X209.483 Y124.086 E3.25493
G1 X209.521 Y205.128 E6.07301
G1 X209.363 Y206.824 E6.13226
G1 X208.937 Y208.459 E6.19101
G1 X208.218 Y210.071 E6.25237
G1 X207.484 Y211.221 E6.29980
G1 X206.572 Y212.305 E6.34908
G1 X205.766 Y213.059 E6.38746
G1 X204.884 Y213.722 E6.42583
G1 X203.658 Y214.433 E6.47511
G1 X202.629 Y214.877 E6.51408
G1 X201.603 Y215.195 E6.55145
G1 X200.606 Y215.397 E6.58679
G1 X199.206 Y215.519 E6.63567
G1 X125.919 Y215.522 E9.18409
G1 X125.041 Y215.439 E9.21475
G1 X124.193 Y215.219 E9.24520
G1 X123.386 Y214.865 E9.27586
G1 X122.645 Y214.387 E9.30651
G1 X121.744 Y213.519 E9.35002
G1 X121.061 Y212.471 E9.39354
G1 X120.631 Y211.295 E9.43705
G1 X120.478 Y210.059 E9.48037
G1 X120.478 Y119.930 E12.61442
G1 X120.559 Y119.053 E12.64507
G1 X120.781 Y118.193 E12.67593
G1 X121.135 Y117.386 E12.70658
G1 X121.606 Y116.656 E12.73680
G1 X121.893 Y116.853 F9000.000
G1 F900.000
G1 X122.689 Y116.024 E12.77677
G1 X123.649 Y115.391 E12.81675
G1 X124.725 Y114.985 E12.85673
G1 X125.864 Y114.828 E12.89671
G1 X199.006 Y114.826 E15.44008
G1 X200.816 Y114.989 E15.50327
G1 X202.642 Y115.501 E15.56922
G1 X204.269 Y116.299 E15.63224
G1 X205.018 Y116.799 E15.66355
G1 X206.035 Y117.653 E15.70975
G1 X207.291 Y119.104 E15.77647
G1 X208.197 Y120.648 E15.83872
G1 X208.824 Y122.355 E15.90195
G1 X209.136 Y124.123 E15.96440
G1 X209.173 Y205.118 E18.78082
G1 X209.020 Y206.766 E18.83837
G1 X208.605 Y208.352 E18.89536
G1 X207.909 Y209.909 E18.95469
G1 X207.201 Y211.018 E19.00044
G1 X206.312 Y212.072 E19.04839
G1 X205.536 Y212.797 E19.08531
G1 X204.687 Y213.434 E19.12222
G1 X203.492 Y214.126 E19.17024
G1 X202.507 Y214.551 E19.20754
G1 X201.514 Y214.858 E19.24368
G1 X200.557 Y215.052 E19.27766
G1 X199.186 Y215.171 E19.32549
G1 X125.927 Y215.174 E21.87294
G1 X125.100 Y215.095 E21.90183
G1 X124.301 Y214.887 E21.93053
G1 X123.546 Y214.555 E21.95922
G1 X122.853 Y214.107 E21.98792
G1 X122.013 Y213.298 E22.02848
G1 X121.373 Y212.316 E22.06923
G1 X120.970 Y211.215 E22.10998
G1 X120.826 Y210.052 E22.15074
G1 X120.826 Y119.938 E25.28427
G1 X120.903 Y119.111 E25.31316
G1 X121.111 Y118.307 E25.34205
G1 X121.442 Y117.551 E25.37075
G1 X121.860 Y116.903 E25.39755
G92 E0
G1 E-0.80000 F2100.000
G1 X154.645 Y169.915 F9000.000
G1 E0.00000 F2100.000
;TYPE:Perimeter
G1 F900.000
G1 X154.044 Y170.388 E0.02660
G1 X153.738 Y170.756 E0.04324
G1 X153.378 Y171.431 E0.06983
G1 X153.245 Y171.887 E0.08635
G1 X153.188 Y172.347 E0.10246
G1 X153.245 Y173.113 E0.12917
G1 X153.378 Y173.569 E0.14569
G1 X153.738 Y174.244 E0.17229
G1 X154.044 Y174.612 E0.18892
G1 X154.645 Y175.085 E0.21552
G1 X155.060 Y175.295 E0.23170
G1 X155.511 Y175.437 E0.24815
G1 X156.272 Y175.517 E0.27475
G1 X156.748 Y175.468 E0.29139
G1 X157.476 Y175.233 E0.31798
G1 X157.884 Y175.005 E0.33423
G1 X158.252 Y174.711 E0.35062
G1 X158.743 Y174.125 E0.37721
G1 X158.968 Y173.702 E0.39385
G1 X159.180 Y172.968 E0.42045
G1 X159.218 Y172.500 E0.43676
G1 X159.180 Y172.032 E0.45308
G1 X158.968 Y171.298 E0.47967
G1 X158.743 Y170.875 E0.49631
G1 X158.252 Y170.289 E0.52291
G1 X157.884 Y169.995 E0.53929
G1 X157.476 Y169.767 E0.55554
G1 X156.748 Y169.532 E0.58213
G1 X156.272 Y169.483 E0.59877
G1 X155.813 Y169.509 E0.61476
G1 X155.136 Y169.678 E0.63901
G1 X154.696 Y169.884 E0.65590
G1 X154.885 Y170.178 F9000.000
G1 F900.000
G1 X154.543 Y170.408 E0.67026
G1 X154.063 Y170.903 E0.69423
G1 X153.681 Y171.619 E0.72245
G1 X153.539 Y172.294 E0.74642
G1 X153.539 Y172.706 E0.76077
G1 X153.681 Y173.381 E0.78474
G1 X153.844 Y173.755 E0.79891
G1 X154.063 Y174.097 E0.81305
G1 X154.543 Y174.592 E0.83701
G1 X154.885 Y174.822 E0.85137
G1 X155.524 Y175.081 E0.87534
G1 X156.331 Y175.165 E0.90356
G1 X157.010 Y175.043 E0.92753
G1 X157.392 Y174.888 E0.94188
G1 X157.964 Y174.503 E0.96585
G1 X158.250 Y174.209 E0.98011
G1 X158.484 Y173.879 E0.99416
G1 X158.762 Y173.247 E1.01818
G1 X158.846 Y172.845 E1.03248
G1 X158.846 Y172.155 E1.05645
G1 X158.619 Y171.376 E1.08467
G1 X158.250 Y170.791 E1.10873
G1 X157.964 Y170.497 E1.12299
G1 X157.392 Y170.112 E1.14696
G1 X157.010 Y169.957 E1.16131
G1 X156.331 Y169.835 E1.18528
G1 X155.926 Y169.845 E1.19937
G1 X155.524 Y169.919 E1.21359
G1 X154.939 Y170.151 E1.23548
G1 X155.092 Y170.465 F9000.000
;TYPE:External perimeter
G1 F900.000
G1 X154.511 Y170.910 E1.26093
G1 X154.170 Y171.380 E1.28111
G1 X154.013 Y171.726 E1.29433
G1 X153.886 Y172.326 E1.31567
G1 X153.886 Y172.674 E1.32774
G1 X154.013 Y173.274 E1.34908
G1 X154.152 Y173.590 E1.36108
G1 X154.336 Y173.881 E1.37307
G1 X154.764 Y174.322 E1.39441
G1 X155.051 Y174.516 E1.40648
G1 X155.620 Y174.746 E1.42782
G1 X156.305 Y174.817 E1.45174
G1 X156.909 Y174.709 E1.47308
G1 X157.230 Y174.579 E1.48515
G1 X157.739 Y174.236 E1.50649
G1 X157.980 Y173.988 E1.51852
G1 X158.180 Y173.708 E1.53048
G1 X158.428 Y173.146 E1.55184
G1 X158.500 Y172.807 E1.56389
G1 X158.500 Y172.193 E1.58523
G1 X158.308 Y171.532 E1.60915
G1 X158.001 Y171.040 E1.62933
G1 X157.739 Y170.764 E1.64255
G1 X157.230 Y170.421 E1.66389
G1 X156.909 Y170.291 E1.67596
G1 X156.305 Y170.183 E1.69730
G1 X155.960 Y170.192 E1.70927
G1 X155.620 Y170.254 E1.72129
G1 X155.146 Y170.438 E1.73899
G1 X155.055 Y170.439 F9000.000
G92 E0
G1 E-0.80000 F2100.000
G1 X155.892 Y162.002 F9000.000
G1 E0.00000 F2100.000
;TYPE:Perimeter
G1 F900.000
G1 X156.358 Y162.012 E0.01621
G1 X157.111 Y161.877 E0.04281
G1 X157.554 Y161.697 E0.05945
G1 X158.188 Y161.269 E0.08604
G1 X158.520 Y160.930 E0.10253
G1 X158.787 Y160.551 E0.11867
G1 X159.096 Y159.849 E0.14535
G1 X159.193 Y159.382 E0.16191
G1 X159.193 Y158.618 E0.18850
G1 X159.096 Y158.151 E0.20506
G1 X158.787 Y157.449 E0.23174
G1 X158.520 Y157.070 E0.24788
G1 X158.188 Y156.731 E0.26437
G1 X157.554 Y156.303 E0.29096
G1 X157.111 Y156.123 E0.30760
G1 X156.663 Y156.020 E0.32359
G1 X155.892 Y155.998 E0.35041
G1 X155.428 Y156.084 E0.36682
G1 X154.719 Y156.371 E0.39342
G1 X154.322 Y156.638 E0.41006
G1 X153.789 Y157.187 E0.43665
G1 X153.536 Y157.581 E0.45293
G1 X153.349 Y158.012 E0.46928
G1 X153.192 Y158.761 E0.49588
G1 X153.192 Y159.239 E0.51252
G1 X153.349 Y159.988 E0.53911
G1 X153.536 Y160.419 E0.55546
G1 X153.789 Y160.813 E0.57175
G1 X154.322 Y161.362 E0.59834
G1 X154.719 Y161.629 E0.61498
G1 X155.136 Y161.822 E0.63097
G1 X155.833 Y161.993 E0.65590
G1 X155.869 Y161.647 F9000.000
G1 F900.000
G1 X156.331 Y161.665 E0.67200
G1 X157.010 Y161.543 E0.69597
G1 X157.736 Y161.181 E0.72419
G1 X158.210 Y160.753 E0.74641
G1 X158.452 Y160.432 E0.76036
G1 X158.646 Y160.068 E0.77471
G1 X158.837 Y159.406 E0.79868
G1 X158.837 Y158.594 E0.82690
G1 X158.646 Y157.932 E0.85087
G1 X158.452 Y157.568 E0.86523
G1 X158.010 Y157.039 E0.88919
G1 X157.690 Y156.785 E0.90339
G1 X157.336 Y156.586 E0.91750
G1 X156.680 Y156.375 E0.94147
G1 X156.270 Y156.332 E0.95583
G1 X155.584 Y156.404 E0.97979
G1 X154.832 Y156.709 E1.00802
G1 X154.290 Y157.135 E1.03199
G1 X154.026 Y157.452 E1.04634
G1 X153.702 Y158.061 E1.07031
G1 X153.587 Y158.455 E1.08459
G1 X153.536 Y158.855 E1.09862
G1 X153.587 Y159.545 E1.12266
G1 X153.702 Y159.939 E1.13694
G1 X154.026 Y160.548 E1.16090
G1 X154.290 Y160.865 E1.17526
G1 X154.832 Y161.291 E1.19923
G1 X155.249 Y161.492 E1.21532
G1 X155.810 Y161.636 E1.23546
G1 X155.870 Y161.293 F9000.000
;TYPE:External perimeter
G1 F900.000
G1 X156.612 Y161.283 E1.26126
G1 X157.196 Y161.095 E1.28260
G1 X157.525 Y160.903 E1.29582
G1 X157.956 Y160.515 E1.31600
G1 X158.161 Y160.240 E1.32792
G1 X158.324 Y159.934 E1.33999
G1 X158.494 Y159.344 E1.36133
G1 X158.494 Y158.656 E1.38525
G1 X158.324 Y158.066 E1.40659
G1 X158.161 Y157.760 E1.41866
G1 X157.767 Y157.289 E1.44000
G1 X157.496 Y157.075 E1.45201
G1 X157.196 Y156.905 E1.46399
G1 X156.612 Y156.717 E1.48533
G1 X156.267 Y156.681 E1.49740
G1 X155.657 Y156.745 E1.51874
G1 X155.019 Y157.004 E1.54266
G1 X154.537 Y157.383 E1.56400
G1 X154.314 Y157.649 E1.57607
G1 X154.026 Y158.191 E1.59741
G1 X153.929 Y158.523 E1.60945
G1 X153.885 Y158.864 E1.62140
G1 X153.929 Y159.477 E1.64277
G1 X154.026 Y159.809 E1.65481
G1 X154.314 Y160.351 E1.67615
G1 X154.537 Y160.617 E1.68822
G1 X155.019 Y160.996 E1.70956
G1 X155.327 Y161.150 E1.72152
G1 X155.811 Y161.283 E1.73897
G1 X155.889 Y161.345 F9000.000
G92 E0
G1 E-0.80000 F2100.000
G1 X161.103 Y161.283 F9000.000
G1 E0.00000 F2100.000
;TYPE:Perimeter
G1 F900.000
G1 X161.087 Y173.358 E0.41989
G1 X160.962 Y174.062 E0.44475
G1 X160.718 Y174.734 E0.46961
G1 X160.142 Y175.637 E0.50685
G1 X159.637 Y176.142 E0.53172
G1 X159.051 Y176.553 E0.55658
G1 X158.062 Y176.962 E0.59382
G1 X157.358 Y177.087 E0.61868
G1 X147.897 Y177.103 E0.94766
G1 X147.897 Y152.897 E1.78937
G1 X157.358 Y152.913 E2.11834
G1 X158.062 Y153.038 E2.14321
G1 X159.051 Y153.447 E2.18045
G1 X159.637 Y153.858 E2.20531
G1 X160.360 Y154.647 E2.24255
G1 X160.718 Y155.266 E2.26741
G1 X160.962 Y155.938 E2.29228
G1 X161.103 Y157.020 E2.33019
G1 X161.103 Y161.223 E2.47634
G1 X161.452 Y161.223 F9000.000
G1 F900.000
G1 X161.434 Y173.388 E2.89937
G1 X161.299 Y174.152 E2.92635
G1 X161.034 Y174.881 E2.95333
G1 X160.410 Y175.861 E2.99373
G1 X159.861 Y176.410 E3.02071
G1 X159.225 Y176.855 E3.04769
G1 X158.152 Y177.299 E3.08810
G1 X157.388 Y177.434 E3.11507
G1 X147.548 Y177.452 E3.45722
G1 X147.548 Y152.548 E4.32317
G1 X157.388 Y152.566 E4.66532
G1 X158.152 Y152.701 E4.69230
G1 X159.225 Y153.145 E4.73271
G1 X160.147 Y153.853 E4.77311
G1 X160.646 Y154.447 E4.80009
G1 X161.034 Y155.119 E4.82707
G1 X161.299 Y155.848 E4.85405
G1 X161.452 Y157.012 E4.89487
G1 X161.452 Y161.163 E5.03919
G1 X161.800 Y161.163 F9000.000
;TYPE:External perimeter
G1 F900.000
G1 X161.782 Y173.418 E5.46536
G1 X161.636 Y174.242 E5.49446
G1 X161.350 Y175.028 E5.52355
G1 X160.932 Y175.753 E5.55264
G1 X160.677 Y176.085 E5.56721
G1 X160.085 Y176.677 E5.59630
G1 X159.400 Y177.157 E5.62539
G1 X158.642 Y177.510 E5.65448
G1 X158.242 Y177.636 E5.66905
G1 X157.418 Y177.782 E5.69814
G1 X147.200 Y177.800 E6.05346
G1 X147.200 Y152.200 E6.94365
G1 X157.418 Y152.218 E7.29897
G1 X158.242 Y152.364 E7.32807
G1 X159.028 Y152.650 E7.35716
G1 X159.400 Y152.843 E7.37172
G1 X160.085 Y153.323 E7.40081
G1 X160.394 Y153.606 E7.41537
G1 X160.932 Y154.247 E7.44447
G1 X161.350 Y154.972 E7.47356
G1 X161.636 Y155.758 E7.50265
G1 X161.782 Y156.582 E7.53175
G1 X161.800 Y157.004 E7.54646
G1 X161.800 Y161.103 E7.68897
G1 X161.454 Y161.363 F9000.000
G92 E0
G1 E-0.80000 F2100.000
G1 X160.826 Y155.912 F9000.000
G1 E0.00000 F2100.000
;TYPE:Solid infill
;WIDTH:0.408636
G1 F1800.000
G1 X158.331 Y153.417 E0.12535
G1 X157.655 Y153.234 E0.15024
G1 X160.766 Y156.345 E0.30654
G1 X160.818 Y156.890 E0.32599
G1 X157.110 Y153.182 E0.51229
G1 X156.611 Y153.176 E0.53001
G1 X160.824 Y157.389 E0.74166
G1 X160.824 Y157.882 E0.75917
G1 X156.118 Y153.176 E0.99558
G1 X155.626 Y153.176 E1.01309
G1 X160.824 Y158.374 E1.27426
G1 X160.824 Y158.867 E1.29177
G1 X155.133 Y153.176 E1.57770
G1 X154.640 Y153.176 E1.59521
G1 X157.406 Y155.942 E1.73419
G1 X156.717 Y155.746 E1.75963
G1 X154.147 Y153.176 E1.88876
G1 X153.654 Y153.176 E1.90627
G1 X156.186 Y155.707 E2.03345
G1 X155.733 Y155.747 E2.04961
G1 X153.161 Y153.176 E2.17879
G1 X152.668 Y153.176 E2.19630
G1 X155.324 Y155.831 E2.32972
G1 X154.955 Y155.956 E2.34354
G1 X152.176 Y153.176 E2.48319
G1 X151.683 Y153.176 E2.50070
G1 X154.617 Y156.110 E2.64813
G1 X154.316 Y156.302 E2.66081
G1 X151.190 Y153.176 E2.81787
G1 X150.697 Y153.176 E2.83537
G1 X154.045 Y156.523 E3.00356
G1 X153.786 Y156.757 E3.01595
G1 X150.204 Y153.176 E3.19588
G1 X149.711 Y153.176 E3.21339
G1 X153.564 Y157.028 E3.40693
G1 X153.367 Y157.324 E3.41955
G1 X149.219 Y153.176 E3.62795
G1 X148.726 Y153.176 E3.64545
G1 X153.205 Y157.656 E3.87051
G1 X153.062 Y158.005 E3.88393
G1 X148.233 Y153.176 E4.12654
G1 X148.176 Y153.176 E4.12857
G1 X148.176 Y153.612 E4.14405
G1 X152.962 Y158.398 E4.38449
G1 X152.913 Y158.842 E4.40036
G1 X148.176 Y154.104 E4.63835
G1 X148.176 Y154.597 E4.65586
G1 X152.926 Y159.347 E4.89448
G1 X153.055 Y159.969 E4.91705
G1 X148.019 Y154.933 E5.17004
G92 E0
G1 E-0.80000 F2100.000
G1 X160.981 Y159.517 F9000.000
G1 E0.00000 F2100.000
G1 F1800.000
G1 X159.263 Y157.799 E0.08632
G1 X159.450 Y158.478 E0.11135
G1 X160.824 Y159.853 E0.18041
G1 X160.824 Y160.346 E0.19792
G1 X159.489 Y159.011 E0.26498
G1 X159.458 Y159.473 E0.28143
G1 X160.824 Y160.839 E0.35005
G1 X160.824 Y161.332 E0.36756
G1 X159.367 Y159.875 E0.44074
G1 X159.248 Y160.248 E0.45467
G1 X160.824 Y161.824 E0.53386
G1 X160.824 Y162.317 E0.55136
G1 X159.086 Y160.579 E0.63867
G1 X158.893 Y160.879 E0.65133
G1 X160.824 Y162.810 E0.74836
G1 X160.824 Y163.303 E0.76587
G1 X158.684 Y161.163 E0.87337
G1 X158.440 Y161.412 E0.88575
G1 X160.824 Y163.796 E1.00553
G1 X160.824 Y164.289 E1.02304
G1 X158.172 Y161.636 E1.15630
G1 X157.872 Y161.829 E1.16896
G1 X160.824 Y164.781 E1.31726
G1 X160.824 Y165.274 E1.33477
G1 X157.549 Y161.999 E1.49929
G1 X157.199 Y162.142 E1.51272
G1 X160.824 Y165.767 E1.69483
G1 X160.824 Y166.260 E1.71234
G1 X156.805 Y162.241 E1.91426
G1 X156.363 Y162.291 E1.93007
G1 X160.824 Y166.753 E2.15421
G1 X160.824 Y167.246 E2.17172
G1 X155.858 Y162.280 E2.42121
G1 X155.230 Y162.145 E2.44402
G1 X160.824 Y167.739 E2.72504
G1 X160.824 Y168.231 E2.74255
G1 X148.176 Y155.583 E3.37798
G1 X148.176 Y156.076 E3.39549
G1 X160.824 Y168.724 E4.03093
G1 X160.824 Y169.217 E4.04843
G1 X148.176 Y156.569 E4.68387
G1 X148.176 Y157.061 E4.70138
G1 X160.824 Y169.710 E5.33681
G1 X160.824 Y170.203 E5.35432
G1 X148.176 Y157.554 E5.98976
G1 X148.176 Y158.047 E6.00727
G1 X160.824 Y170.696 E6.64270
G1 X160.824 Y171.188 E6.66021
G1 X148.176 Y158.540 E7.29565
G1 X148.176 Y159.033 E7.31315
G1 X160.824 Y171.681 E7.94859
G1 X160.824 Y172.174 E7.96610
G1 X148.176 Y159.526 E8.60153
G1 X148.176 Y160.019 E8.61904
G1 X160.824 Y172.667 E9.25448
G1 X160.816 Y173.152 E9.27171
G1 X159.402 Y171.737 E9.34279
G1 X159.486 Y172.315 E9.36351
G1 X160.773 Y173.602 E9.42817
G1 X160.765 Y173.664 E9.43040
G1 X160.687 Y174.008 E9.44294
G1 X159.476 Y172.797 E9.50378
G1 X159.403 Y173.217 E9.51892
G1 X160.564 Y174.378 E9.57722
G1 X160.411 Y174.718 E9.59047
G1 X159.299 Y173.606 E9.64634
G1 X159.152 Y173.952 E9.65969
G1 X160.233 Y175.033 E9.71400
G1 X160.031 Y175.324 E9.72657
G1 X158.974 Y174.267 E9.77966
G1 X158.766 Y174.552 E9.79219
G1 X159.806 Y175.591 E9.84443
G1 X159.558 Y175.836 E9.85681
G1 X158.536 Y174.815 E9.90814
G1 X158.280 Y175.051 E9.92053
G1 X159.288 Y176.059 E9.97115
G1 X159.193 Y176.132 E9.97540
G1 X158.994 Y176.258 E9.98376
G1 X157.992 Y175.256 E10.03409
G1 X157.686 Y175.443 E10.04684
G1 X158.676 Y176.433 E10.09660
G1 X158.616 Y176.465 E10.09903
G1 X158.332 Y176.582 E10.10993
G1 X157.337 Y175.586 E10.15996
G1 X156.960 Y175.702 E10.17397
G1 X157.957 Y176.700 E10.22409
G1 X157.545 Y176.781 E10.23901
G1 X156.537 Y175.772 E10.28966
G1 X156.056 Y175.785 E10.30674
G1 X157.091 Y176.819 E10.35871
G1 X156.603 Y176.824 E10.37603
G1 X155.490 Y175.712 E10.43193
G1 X154.730 Y175.444 E10.46055
