; generated by SuperSlicer 2.3.56 on 2021-10-10 at 00:03:29 UTC


;
;

;
;
; 

; external perimeters extrusion width = 0.40mm
; perimeters extrusion width = 0.40mm
; infill extrusion width = 0.40mm
; solid infill extrusion width = 0.40mm
; top infill extrusion width = 0.40mm
; support material extrusion width = 0.40mm
; first layer extrusion width = 0.48mm


;TYPE:Custom
START_PRINT T_BED=70 T_EXTRUDER=235
M107
G21 ; set units to millimeters
G90 ; use absolute coordinates
M83 ; use relative distances for extrusion
M109 S235 ; set temperature and wait for it to be reached
M190 S70 ; set bed temperature and wait for it to be reached
;LAYER_CHANGE
;Z:0.24
;HEIGHT:0.24
G1 Z0.240000 F6000.000
G1 E-1.50000 F3000.000
G1 X121.450 Y87.777 F6000.000
G1 E1.50000 F1800.000
;TYPE:Skirt
;WIDTH:0.48
G1 F1200.000
G1 X122.223 Y86.725 E0.05582
G1 X123.506 Y85.354 E0.08028
G1 X124.980 Y84.173 E0.08074
G1 X126.073 Y83.486 E0.05520
G1 X127.135 Y82.949 E0.05088
G1 X128.741 Y82.336 E0.07347
G1 X129.903 Y82.023 E0.05149
G1 X131.071 Y81.815 E0.05069
G1 X132.924 Y81.684 E0.07945
G1 X141.006 Y81.683 E0.34553
G1 X142.207 Y81.736 E0.05140
G1 X143.888 Y81.980 E0.07261
G1 X146.064 Y82.613 E0.09692
G1 X148.116 Y83.596 E0.09726
G1 X149.523 Y84.540 E0.07241
G1 X150.357 Y85.231 E0.04634
G1 X151.199 Y86.057 E0.05043
G1 X151.910 Y86.888 E0.04674
G1 X152.546 Y87.772 E0.04657
G1 X153.151 Y88.791 E0.05067
G1 X153.628 Y89.787 E0.04723
G1 X154.178 Y91.351 E0.07085
G1 X154.447 Y92.518 E0.05121
G1 X154.580 Y93.485 E0.04175
G1 X154.643 Y94.718 E0.05278
G1 X154.604 Y198.260 E4.42698
G1 X154.423 Y199.601 E0.05785
G1 X153.942 Y201.409 E0.08000
G1 X153.447 Y202.616 E0.05576
G1 X152.537 Y204.243 E0.07972
G1 X151.765 Y205.289 E0.05561
G1 X150.472 Y206.666 E0.08074
G1 X148.996 Y207.844 E0.08074
G1 X147.829 Y208.567 E0.05871
G1 X146.251 Y209.312 E0.07459
G1 X145.108 Y209.712 E0.05177
G1 X143.924 Y210.013 E0.05224
G1 X142.235 Y210.261 E0.07298
G1 X141.011 Y210.317 E0.05240
G1 X131.974 Y210.280 E0.38638
G1 X129.740 Y209.938 E0.09664
G1 X128.707 Y209.653 E0.04580
G1 X127.135 Y209.050 E0.07198
G1 X125.175 Y207.962 E0.09585
G1 X123.477 Y206.619 E0.09255
G1 X122.733 Y205.870 E0.04516
G1 X121.973 Y204.958 E0.05075
G1 X121.357 Y204.074 E0.04606
G1 X120.560 Y202.630 E0.07053
G1 X120.094 Y201.511 E0.05183
G1 X119.782 Y200.508 E0.04489
G1 X119.415 Y198.468 E0.08863
G1 X119.357 Y197.282 E0.05077
G1 X119.396 Y93.740 E4.42698
G1 X119.577 Y92.399 E0.05784
G1 X120.056 Y90.597 E0.07975
G1 X120.550 Y89.390 E0.05576
G1 X121.421 Y87.829 E0.07640
G1 X121.794 Y88.038 F6000.000
G1 F1200.000
G1 X121.813 Y88.005 E0.00161
G1 X122.553 Y86.998 E0.05344
G1 X123.799 Y85.666 E0.07797
G1 X125.237 Y84.516 E0.07871
G1 X126.305 Y83.848 E0.05388
G1 X127.308 Y83.342 E0.04805
G1 X128.883 Y82.740 E0.07207
G1 X129.999 Y82.441 E0.04938
G1 X131.135 Y82.239 E0.04935
G1 X132.935 Y82.112 E0.07715
G1 X141.006 Y82.112 E0.34507
G1 X142.166 Y82.162 E0.04965
G1 X143.810 Y82.402 E0.07105
G1 X145.914 Y83.015 E0.09368
G1 X147.896 Y83.964 E0.09397
G1 X149.270 Y84.886 E0.07075
G1 X150.078 Y85.556 E0.04485
G1 X151.575 Y87.155 E0.09365
G1 X152.190 Y88.010 E0.04504
G1 X152.771 Y88.990 E0.04871
G1 X153.230 Y89.947 E0.04540
G1 X153.768 Y91.476 E0.06927
G1 X154.156 Y93.548 E0.09017
G1 X154.214 Y94.718 E0.05007
G1 X154.177 Y198.230 E4.42570
G1 X154.004 Y199.512 E0.05533
G1 X153.536 Y201.271 E0.07780
G1 X153.061 Y202.430 E0.05358
G1 X152.175 Y204.014 E0.07758
G1 X151.439 Y205.011 E0.05299
G1 X150.180 Y206.353 E0.07865
G1 X148.740 Y207.500 E0.07871
G1 X147.601 Y208.203 E0.05725
G1 X146.079 Y208.919 E0.07192
G1 X144.977 Y209.304 E0.04989
G1 X143.841 Y209.592 E0.05010
G1 X142.178 Y209.836 E0.07189
G1 X141.009 Y209.888 E0.05004
G1 X132.009 Y209.853 E0.38481
G1 X129.848 Y209.523 E0.09343
G1 X128.845 Y209.248 E0.04447
G1 X127.304 Y208.657 E0.07059
G1 X125.411 Y207.605 E0.09258
G1 X123.772 Y206.308 E0.08936
G1 X122.316 Y204.701 E0.09269
G1 X121.720 Y203.847 E0.04456
G1 X120.941 Y202.434 E0.06900
G1 X120.495 Y201.357 E0.04981
G1 X120.192 Y200.383 E0.04361
G1 X119.839 Y198.407 E0.08585
G1 X119.786 Y197.282 E0.04814
G1 X119.823 Y93.770 E4.42570
G1 X119.996 Y92.488 E0.05532
G1 X120.462 Y90.735 E0.07756
G1 X120.937 Y89.575 E0.05358
G1 X121.765 Y88.090 E0.07268
G1 E-1.50000 F3000.000
G1 X136.247 Y193.479 F6000.000
G1 E1.50000 F1800.000
;TYPE:Internal perimeter
G1 F1200.000
G1 X135.374 Y193.840 E0.04038
G1 X134.625 Y194.415 E0.04038
G1 X134.050 Y195.164 E0.04038
G1 X133.689 Y196.037 E0.04037
G1 X133.566 Y196.973 E0.04038
G1 X133.689 Y197.909 E0.04038
G1 X134.050 Y198.782 E0.04037
G1 X134.635 Y199.543 E0.04104
G1 X135.462 Y200.142 E0.04364
G1 X136.247 Y200.467 E0.03634
G1 X137.194 Y200.592 E0.04084
G1 X138.178 Y200.443 E0.04255
G1 X138.992 Y200.106 E0.03767
G1 X139.741 Y199.531 E0.04038
G1 X140.316 Y198.782 E0.04038
G1 X140.677 Y197.909 E0.04037
G1 X140.801 Y196.973 E0.04038
G1 X140.677 Y196.037 E0.04038
G1 X140.316 Y195.164 E0.04037
G1 X139.741 Y194.415 E0.04038
G1 X138.992 Y193.840 E0.04038
G1 X138.119 Y193.479 E0.04038
G1 X137.183 Y193.356 E0.04038
G1 X136.306 Y193.471 E0.03781
G1 X136.362 Y193.896 F6000.000
G1 F1200.000
G1 X136.359 Y193.897 E0.00015
G1 X135.591 Y194.215 E0.03555
G1 X134.931 Y194.721 E0.03555
G1 X134.425 Y195.381 E0.03555
G1 X134.106 Y196.149 E0.03555
G1 X133.998 Y196.973 E0.03555
G1 X134.106 Y197.797 E0.03555
G1 X134.425 Y198.566 E0.03555
G1 X134.937 Y199.233 E0.03596
G1 X135.672 Y199.765 E0.03882
G1 X136.359 Y200.050 E0.03178
G1 X137.190 Y200.159 E0.03584
G1 X138.062 Y200.027 E0.03772
G1 X138.776 Y199.731 E0.03303
G1 X139.436 Y199.225 E0.03555
G1 X139.942 Y198.566 E0.03555
G1 X140.260 Y197.797 E0.03555
G1 X140.369 Y196.973 E0.03555
G1 X140.260 Y196.149 E0.03555
G1 X139.942 Y195.381 E0.03555
G1 X139.436 Y194.721 E0.03555
G1 X138.776 Y194.215 E0.03555
G1 X138.008 Y193.897 E0.03555
G1 X137.183 Y193.788 E0.03555
G1 X136.422 Y193.888 E0.03283
G1 X136.478 Y194.313 F6000.000
;TYPE:External perimeter
G1 F1200.000
G1 X136.471 Y194.314 E0.00031
G1 X135.807 Y194.589 E0.03073
G1 X135.236 Y195.027 E0.03073
G1 X134.799 Y195.597 E0.03073
G1 X134.524 Y196.261 E0.03073
G1 X134.430 Y196.973 E0.03073
G1 X134.524 Y197.686 E0.03073
G1 X134.799 Y198.350 E0.03073
G1 X135.238 Y198.922 E0.03087
G1 X135.883 Y199.389 E0.03399
G1 X136.471 Y199.632 E0.02721
G1 X137.186 Y199.726 E0.03083
G1 X137.946 Y199.611 E0.03290
G1 X138.560 Y199.357 E0.02839
G1 X139.130 Y198.920 E0.03073
G1 X139.567 Y198.350 E0.03073
G1 X139.843 Y197.686 E0.03073
G1 X139.936 Y196.973 E0.03073
G1 X139.843 Y196.261 E0.03073
G1 X139.567 Y195.597 E0.03073
G1 X139.130 Y195.027 E0.03073
G1 X138.560 Y194.589 E0.03073
G1 X137.896 Y194.314 E0.03073
G1 X137.183 Y194.220 E0.03073
G1 X136.537 Y194.305 E0.02786
G1 X136.473 Y194.307 F6000.000
G1 E-1.50000 F3000.000
G1 X137.385 Y98.618 F6000.000
G1 E1.50000 F1800.000
;TYPE:Internal perimeter
G1 F1200.000
G1 X138.321 Y98.495 E0.04038
G1 X139.193 Y98.134 E0.04038
G1 X139.943 Y97.559 E0.04038
G1 X140.518 Y96.810 E0.04038
G1 X140.879 Y95.937 E0.04038
G1 X141.002 Y95.001 E0.04038
G1 X140.879 Y94.065 E0.04038
G1 X140.518 Y93.192 E0.04038
G1 X139.943 Y92.443 E0.04038
G1 X139.193 Y91.868 E0.04038
G1 X138.321 Y91.507 E0.04038
G1 X137.385 Y91.384 E0.04038
G1 X136.448 Y91.507 E0.04038
G1 X135.576 Y91.868 E0.04038
G1 X134.827 Y92.443 E0.04038
G1 X134.252 Y93.192 E0.04038
G1 X133.890 Y94.065 E0.04037
G1 X133.767 Y95.001 E0.04038
G1 X133.890 Y95.937 E0.04038
G1 X134.252 Y96.810 E0.04037
G1 X134.827 Y97.559 E0.04038
G1 X135.576 Y98.134 E0.04038
G1 X136.448 Y98.495 E0.04038
G1 X137.325 Y98.610 E0.03781
G1 X137.381 Y98.186 F6000.000
G1 F1200.000
G1 X137.385 Y98.186 E0.00015
G1 X138.209 Y98.077 E0.03555
G1 X138.977 Y97.759 E0.03555
G1 X139.637 Y97.253 E0.03555
G1 X140.143 Y96.594 E0.03555
G1 X140.461 Y95.825 E0.03555
G1 X140.570 Y95.001 E0.03555
G1 X140.461 Y94.177 E0.03555
G1 X140.143 Y93.408 E0.03555
G1 X139.637 Y92.749 E0.03555
G1 X138.977 Y92.243 E0.03555
G1 X138.209 Y91.924 E0.03555
G1 X137.385 Y91.816 E0.03555
G1 X136.560 Y91.924 E0.03555
G1 X135.792 Y92.243 E0.03555
G1 X135.132 Y92.749 E0.03555
G1 X134.626 Y93.408 E0.03555
G1 X134.308 Y94.177 E0.03555
G1 X134.199 Y95.001 E0.03555
G1 X134.308 Y95.825 E0.03555
G1 X134.626 Y96.594 E0.03555
G1 X135.132 Y97.253 E0.03555
G1 X135.792 Y97.759 E0.03555
G1 X136.560 Y98.077 E0.03555
G1 X137.322 Y98.178 E0.03283
G1 X137.377 Y97.753 F6000.000
;TYPE:External perimeter
G1 F1200.000
G1 X137.385 Y97.754 E0.00031
G1 X138.097 Y97.660 E0.03073
G1 X138.761 Y97.385 E0.03073
G1 X139.331 Y96.948 E0.03073
G1 X139.769 Y96.377 E0.03073
G1 X140.044 Y95.713 E0.03073
G1 X140.138 Y95.001 E0.03073
G1 X140.044 Y94.288 E0.03073
G1 X139.769 Y93.625 E0.03073
G1 X139.331 Y93.054 E0.03073
G1 X138.761 Y92.617 E0.03073
G1 X138.097 Y92.342 E0.03073
G1 X137.385 Y92.248 E0.03073
G1 X136.672 Y92.342 E0.03073
G1 X136.008 Y92.617 E0.03073
G1 X135.438 Y93.054 E0.03073
G1 X135.000 Y93.625 E0.03073
G1 X134.725 Y94.288 E0.03073
G1 X134.631 Y95.001 E0.03073
G1 X134.725 Y95.713 E0.03073
G1 X135.000 Y96.377 E0.03073
G1 X135.438 Y96.948 E0.03073
G1 X136.008 Y97.385 E0.03073
G1 X136.672 Y97.660 E0.03073
G1 X137.318 Y97.745 E0.02786
G1 X137.380 Y97.760 F6000.000
G1 E-1.50000 F3000.000
G1 X137.318 Y88.423 F6000.000
G1 E1.50000 F1800.000
;TYPE:Internal perimeter
G1 F1200.000
G1 X140.980 Y88.423 E0.15657
G1 X141.548 Y88.444 E0.02430
G1 X142.092 Y88.503 E0.02342
G1 X142.630 Y88.602 E0.02336
G1 X143.156 Y88.739 E0.02327
G1 X143.669 Y88.914 E0.02315
G1 X144.164 Y89.125 E0.02302
G1 X144.639 Y89.370 E0.02285
G1 X145.090 Y89.649 E0.02268
G1 X145.515 Y89.959 E0.02249
G1 X145.912 Y90.297 E0.02228
G1 X146.277 Y90.662 E0.02208
G1 X146.609 Y91.052 E0.02187
G1 X146.906 Y91.462 E0.02168
G1 X147.167 Y91.892 E0.02149
G1 X147.389 Y92.338 E0.02131
G1 X147.573 Y92.798 E0.02116
G1 X147.716 Y93.268 E0.02103
G1 X147.819 Y93.747 E0.02093
G1 X147.881 Y94.231 E0.02087
G1 X147.903 Y94.741 E0.02183
G1 X147.903 Y106.701 E0.51134
G1 X147.881 Y107.220 E0.02220
G1 X147.816 Y107.712 E0.02122
G1 X147.710 Y108.198 E0.02129
G1 X147.561 Y108.676 E0.02140
G1 X147.372 Y109.143 E0.02153
G1 X147.142 Y109.595 E0.02169
G1 X146.873 Y110.030 E0.02187
G1 X146.566 Y110.445 E0.02207
G1 X146.209 Y110.854 E0.02322
G1 X143.168 Y114.066 E0.18911
G1 X142.723 Y114.575 E0.02893
G1 X142.309 Y115.135 E0.02976
G1 X141.944 Y115.725 E0.02965
G1 X141.631 Y116.341 E0.02956
G1 X141.371 Y116.980 E0.02947
G1 X141.167 Y117.637 E0.02940
G1 X141.020 Y118.307 E0.02935
G1 X140.932 Y118.987 E0.02931
G1 X140.903 Y119.648 E0.02828
G1 X140.903 Y172.352 E2.25341
G1 X140.932 Y173.013 E0.02828
G1 X141.020 Y173.693 E0.02931
G1 X141.167 Y174.363 E0.02935
G1 X141.371 Y175.020 E0.02940
G1 X141.631 Y175.659 E0.02947
G1 X141.944 Y176.275 E0.02956
G1 X142.309 Y176.865 E0.02965
G1 X142.723 Y177.425 E0.02976
G1 X143.168 Y177.934 E0.02893
G1 X146.209 Y181.146 E0.18911
G1 X146.566 Y181.555 E0.02322
G1 X146.873 Y181.970 E0.02207
G1 X147.142 Y182.405 E0.02187
G1 X147.372 Y182.857 E0.02169
G1 X147.561 Y183.324 E0.02153
G1 X147.710 Y183.802 E0.02140
G1 X147.816 Y184.288 E0.02129
G1 X147.881 Y184.780 E0.02122
G1 X147.903 Y185.299 E0.02220
G1 X147.903 Y197.259 E0.51134
G1 X147.881 Y197.769 E0.02183
G1 X147.819 Y198.253 E0.02087
G1 X147.716 Y198.732 E0.02093
G1 X147.573 Y199.202 E0.02103
G1 X147.389 Y199.662 E0.02116
G1 X147.167 Y200.108 E0.02131
G1 X146.906 Y200.538 E0.02149
G1 X146.609 Y200.948 E0.02168
G1 X146.277 Y201.338 E0.02187
G1 X145.912 Y201.703 E0.02208
G1 X145.515 Y202.041 E0.02228
G1 X145.090 Y202.351 E0.02249
G1 X144.639 Y202.630 E0.02268
G1 X144.164 Y202.875 E0.02285
G1 X143.669 Y203.086 E0.02302
G1 X143.156 Y203.261 E0.02315
G1 X142.630 Y203.398 E0.02327
G1 X142.092 Y203.497 E0.02336
G1 X141.548 Y203.556 E0.02342
G1 X140.980 Y203.577 E0.02430
G1 X133.020 Y203.577 E0.34034
G1 X132.452 Y203.556 E0.02430
G1 X131.908 Y203.497 E0.02342
G1 X131.370 Y203.398 E0.02336
G1 X130.844 Y203.261 E0.02327
G1 X130.331 Y203.086 E0.02315
G1 X129.836 Y202.875 E0.02302
G1 X129.361 Y202.630 E0.02285
G1 X128.910 Y202.351 E0.02268
G1 X128.485 Y202.041 E0.02249
G1 X128.088 Y201.703 E0.02228
G1 X127.723 Y201.338 E0.02208
G1 X127.391 Y200.948 E0.02187
G1 X127.094 Y200.538 E0.02168
G1 X126.833 Y200.108 E0.02149
G1 X126.611 Y199.662 E0.02131
G1 X126.427 Y199.202 E0.02116
G1 X126.284 Y198.732 E0.02103
G1 X126.181 Y198.253 E0.02093
G1 X126.119 Y197.769 E0.02087
G1 X126.097 Y197.259 E0.02183
G1 X126.097 Y185.206 E0.51530
G1 X126.116 Y184.734 E0.02022
G1 X126.169 Y184.285 E0.01932
G1 X126.257 Y183.841 E0.01938
G1 X126.381 Y183.403 E0.01946
G1 X126.538 Y182.973 E0.01956
G1 X126.730 Y182.555 E0.01968
G1 X126.955 Y182.149 E0.01982
G1 X127.211 Y181.759 E0.01998
G1 X127.498 Y181.385 E0.02014
G1 X127.829 Y181.016 E0.02117
G1 X130.779 Y177.954 E0.18180
G1 X131.190 Y177.495 E0.02637
G1 X131.577 Y176.992 E0.02713
G1 X131.925 Y176.463 E0.02704
G1 X132.230 Y175.912 E0.02696
G1 X132.492 Y175.340 E0.02688
G1 X132.708 Y174.751 E0.02682
G1 X132.878 Y174.149 E0.02676
G1 X133.000 Y173.536 E0.02672
G1 X133.073 Y172.916 E0.02669
G1 X133.097 Y172.314 E0.02576
G1 X133.097 Y119.648 E2.25176
G1 X133.068 Y118.987 E0.02828
G1 X132.980 Y118.307 E0.02931
G1 X132.833 Y117.637 E0.02935
G1 X132.629 Y116.980 E0.02940
G1 X132.369 Y116.341 E0.02947
G1 X132.056 Y115.725 E0.02956
G1 X131.691 Y115.135 E0.02965
G1 X131.277 Y114.575 E0.02976
G1 X130.832 Y114.066 E0.02893
G1 X127.791 Y110.854 E0.18911
G1 X127.434 Y110.445 E0.02322
G1 X127.127 Y110.030 E0.02207
G1 X126.858 Y109.595 E0.02187
G1 X126.628 Y109.143 E0.02169
G1 X126.439 Y108.676 E0.02153
G1 X126.290 Y108.198 E0.02140
G1 X126.184 Y107.712 E0.02129
G1 X126.119 Y107.220 E0.02122
G1 X126.097 Y106.701 E0.02220
G1 X126.097 Y94.741 E0.51134
G1 X126.119 Y94.231 E0.02183
G1 X126.181 Y93.747 E0.02087
G1 X126.284 Y93.268 E0.02093
G1 X126.427 Y92.798 E0.02103
G1 X126.611 Y92.338 E0.02116
G1 X126.833 Y91.892 E0.02131
G1 X127.094 Y91.462 E0.02149
G1 X127.391 Y91.052 E0.02168
G1 X127.723 Y90.662 E0.02187
G1 X128.088 Y90.297 E0.02208
G1 X128.485 Y89.959 E0.02228
G1 X128.910 Y89.649 E0.02249
G1 X129.361 Y89.370 E0.02268
G1 X129.836 Y89.125 E0.02285
G1 X130.331 Y88.914 E0.02302
G1 X130.844 Y88.739 E0.02315
G1 X131.370 Y88.602 E0.02327
G1 X131.908 Y88.503 E0.02336
G1 X132.452 Y88.444 E0.02342
G1 X133.020 Y88.423 E0.02430
G1 X137.258 Y88.423 E0.18120
G1 X137.258 Y87.994 F6000.000
G1 F1200.000
G1 X140.988 Y87.994 E0.15947
G1 X141.579 Y88.016 E0.02530
G1 X142.155 Y88.079 E0.02475
G1 X142.723 Y88.183 E0.02470
G1 X143.280 Y88.328 E0.02461
G1 X143.822 Y88.513 E0.02451
G1 X144.347 Y88.737 E0.02438
G1 X144.850 Y88.997 E0.02423
G1 X145.329 Y89.293 E0.02407
G1 X145.781 Y89.622 E0.02390
G1 X146.203 Y89.982 E0.02371
G1 X146.592 Y90.371 E0.02352
G1 X146.946 Y90.787 E0.02334
G1 X147.264 Y91.225 E0.02315
G1 X147.542 Y91.685 E0.02298
G1 X147.780 Y92.163 E0.02283
G1 X147.977 Y92.656 E0.02269
G1 X148.131 Y93.161 E0.02257
G1 X148.242 Y93.675 E0.02248
G1 X148.309 Y94.195 E0.02242
G1 X148.332 Y94.732 E0.02300
G1 X148.332 Y106.710 E0.51212
G1 X148.308 Y107.257 E0.02339
G1 X148.239 Y107.785 E0.02280
G1 X148.125 Y108.308 E0.02287
G1 X147.965 Y108.821 E0.02296
G1 X147.762 Y109.321 E0.02308
G1 X147.516 Y109.805 E0.02323
G1 X147.228 Y110.270 E0.02339
G1 X146.900 Y110.714 E0.02357
G1 X146.526 Y111.142 E0.02433
G1 X143.485 Y114.354 E0.18911
G1 X143.057 Y114.844 E0.02782
G1 X142.664 Y115.376 E0.02826
G1 X142.318 Y115.935 E0.02813
G1 X142.021 Y116.519 E0.02802
G1 X141.775 Y117.124 E0.02792
G1 X141.582 Y117.746 E0.02784
G1 X141.443 Y118.381 E0.02778
G1 X141.359 Y119.024 E0.02773
G1 X141.332 Y119.657 E0.02709
G1 X141.332 Y172.343 E2.25262
G1 X141.359 Y172.976 E0.02709
G1 X141.443 Y173.619 E0.02773
G1 X141.582 Y174.254 E0.02778
G1 X141.775 Y174.876 E0.02784
G1 X142.021 Y175.481 E0.02792
G1 X142.318 Y176.065 E0.02802
G1 X142.664 Y176.624 E0.02813
G1 X143.057 Y177.156 E0.02826
G1 X143.485 Y177.646 E0.02782
G1 X146.526 Y180.858 E0.18911
G1 X146.900 Y181.286 E0.02433
G1 X147.228 Y181.730 E0.02357
G1 X147.516 Y182.195 E0.02339
G1 X147.762 Y182.679 E0.02323
G1 X147.965 Y183.179 E0.02308
G1 X148.125 Y183.692 E0.02296
G1 X148.239 Y184.215 E0.02287
G1 X148.308 Y184.743 E0.02280
