; generated by SuperSlicer 2.3.57 on 2022-01-24 at 20:03:54 UTC


;
;

;
;
; 

; external perimeters extrusion width = 0.40mm
; perimeters extrusion width = 0.40mm
; infill extrusion width = 0.40mm
; solid infill extrusion width = 0.40mm
; top infill extrusion width = 0.40mm
; first layer extrusion width = 0.48mm


;TYPE:Custom
START_PRINT T_BED=70 T_EXTRUDER=230
M107
G21 ; set units to millimeters
G90 ; use absolute coordinates
M83 ; use relative distances for extrusion
; Filament gcode
M104 S230 ; set temperature
M109 S230 ; set temperature and wait for it to be reached
M190 S70 ; set bed temperature and wait for it to be reached
;LAYER_CHANGE
;Z:0.24
;HEIGHT:0.24
G1 Z0.24 F9000
G1 E-1.2 F3000
M204 S1000
G1 X40.889 Y51.693 F9000
G1 E1.2 F1800
;TYPE:Skirt
;WIDTH:0.48
G1 F900
G1 X40.206 Y52.322 E0.03892
G1 X39.265 Y53.482 E0.06258
G1 X38.572 Y54.784 E0.06179
G1 X38.182 Y56.052 E0.05561
G1 X38.018 Y57.495 E0.06086
G1 X38.017 Y209.35 E6.36277
G1 X38.189 Y210.918 E0.06608
G1 X38.61 Y212.254 E0.0587
G1 X39.351 Y213.621 E0.06515
G1 X40.426 Y214.909 E0.0703
G1 X41.362 Y215.721 E0.05191
G1 X42.431 Y216.435 E0.05386
G1 X98.405 Y249.215 E2.71791
G1 X100.253 Y250.077 E0.08545
G1 X101.377 Y250.439 E0.04949
G1 X102.562 Y250.712 E0.05096
G1 X103.621 Y250.866 E0.04481
G1 X104.694 Y250.916 E0.04503
G1 X200.833 Y250.855 E4.02827
G1 X202.061 Y250.76 E0.05159
G1 X203.231 Y250.572 E0.04967
G1 X204.382 Y250.287 E0.04969
G1 X205.461 Y249.909 E0.0479
G1 X206.522 Y249.419 E0.04893
G1 X207.279 Y248.976 E0.03677
G1 X208.191 Y248.307 E0.04738
G1 X208.874 Y247.678 E0.03892
G1 X265.203 Y181.727 E3.63411
G1 X265.9 Y180.756 E0.05007
G1 X266.525 Y179.473 E0.05982
G1 X266.84 Y178.334 E0.04949
G1 X266.983 Y176.96 E0.05791
G1 X266.977 Y90.415 E3.62623
G1 X266.896 Y89.53 E0.03726
G1 X266.675 Y88.548 E0.04217
G1 X266.259 Y87.453 E0.04908
G1 X265.808 Y86.626 E0.03948
G1 X265.248 Y85.834 E0.04061
G1 X264.624 Y85.14 E0.03911
G1 X263.749 Y84.365 E0.04897
G1 X262.946 Y83.795 E0.04128
G1 X206.513 Y50.739 E2.74034
G1 X205.294 Y50.139 E0.05695
G1 X203.583 Y49.55 E0.07581
G1 X201.897 Y49.195 E0.0722
G1 X200.306 Y49.084 E0.06683
G1 X48.299 Y49.143 E6.36912
G1 X47.031 Y49.238 E0.05331
G1 X45.86 Y49.426 E0.04967
G1 X44.703 Y49.712 E0.04993
G1 X43.63 Y50.087 E0.04766
G1 X42.564 Y50.578 E0.04918
G1 X41.801 Y51.024 E0.03702
G1 X40.938 Y51.658 E0.04487
G1 X41.064 Y51.83 F9000
M204 S500
G1 X41.19 Y52.002
G1 F900
G1 X41.166 Y52.021 E0.00128
G1 X40.519 Y52.615 E0.03681
G1 X39.623 Y53.717 E0.05949
G1 X38.967 Y54.949 E0.05849
G1 X38.602 Y56.135 E0.05199
G1 X38.446 Y57.504 E0.05774
G1 X38.446 Y209.348 E6.36234
G1 X38.608 Y210.832 E0.06253
G1 X39.003 Y212.082 E0.05491
G1 X39.705 Y213.379 E0.06179
G1 X40.719 Y214.596 E0.0664
G1 X41.621 Y215.38 E0.05008
G1 X42.649 Y216.066 E0.05175
G1 X98.619 Y248.844 E2.71774
G1 X100.4 Y249.675 E0.08238
G1 X101.492 Y250.027 E0.04807
G1 X102.64 Y250.291 E0.04937
G1 X103.661 Y250.439 E0.04322
G1 X104.694 Y250.487 E0.04335
G1 X200.813 Y250.427 E4.02742
G1 X202.013 Y250.334 E0.0504
G1 X203.142 Y250.153 E0.04793
G1 X204.254 Y249.878 E0.048
G1 X205.293 Y249.515 E0.0461
G1 X207.037 Y248.622 E0.08212
G1 X207.914 Y247.979 E0.04555
G1 X208.561 Y247.385 E0.03681
G1 X264.873 Y181.455 E3.63298
G1 X265.529 Y180.541 E0.04714
G1 X266.122 Y179.327 E0.0566
G1 X266.419 Y178.256 E0.04657
G1 X266.554 Y176.958 E0.05468
G1 X266.55 Y90.443 E3.62503
G1 X266.474 Y89.605 E0.03524
G1 X266.264 Y88.671 E0.04012
G1 X265.867 Y87.626 E0.04686
G1 X265.439 Y86.844 E0.03734
G1 X264.91 Y86.098 E0.03832
G1 X264.318 Y85.439 E0.03713
G1 X263.477 Y84.696 E0.04701
G1 X262.711 Y84.154 E0.0393
G1 X206.308 Y51.114 E2.73895
G1 X205.133 Y50.536 E0.05486
G1 X203.475 Y49.965 E0.07348
G1 X201.842 Y49.62 E0.06995
G1 X200.306 Y49.513 E0.06452
G1 X48.306 Y49.572 E6.36883
G1 X47.079 Y49.664 E0.05158
G1 X45.949 Y49.845 E0.04793
G1 X44.826 Y50.122 E0.04848
G1 X43.798 Y50.481 E0.04562
G1 X42.043 Y51.378 E0.08259
G1 X41.239 Y51.967 E0.04175
G1 E-1.2 F3000
M204 S1000
G1 X75.193 Y88.099 F9000
M204 S500
G1 X109.147 Y124.23
G1 E1.2 F1800
;TYPE:Internal perimeter
G1 F900
G1 X124.508 Y124.23 E0.64365
G1 X124.508 Y124.248 E0.00074
G1 X139.933 Y124.248 E0.64632
G1 X139.933 Y123.439 E0.03388
G1 X139.934 Y123.412 E0.00115
G1 X139.943 Y123.27 E0.00595
G1 X139.971 Y123.129 E0.00605
G1 X140.02 Y122.976 E0.0067
G1 X140.083 Y122.832 E0.00661
G1 X140.175 Y122.681 E0.00739
G1 X140.291 Y122.521 E0.00828
G1 X140.43 Y122.366 E0.00875
G1 X140.596 Y122.206 E0.00966
G1 X140.789 Y122.05 E0.01037
G1 X141.003 Y121.897 E0.01102
G1 X141.241 Y121.751 E0.01171
G1 X141.504 Y121.61 E0.0125
G1 X141.784 Y121.477 E0.01298
G1 X142.083 Y121.356 E0.01352
G1 X142.4 Y121.246 E0.01406
G1 X142.737 Y121.144 E0.01475
G1 X143.084 Y121.056 E0.01501
G1 X143.449 Y120.982 E0.01558
G1 X143.678 Y120.942 E0.00974
G1 X143.904 Y120.915 E0.00954
G1 X144.141 Y120.9 E0.00996
G1 X144.38 Y120.894 E0.01003
G1 X144.625 Y120.9 E0.01027
G1 X144.861 Y120.915 E0.00991
G1 X145.088 Y120.942 E0.00958
G1 X145.316 Y120.982 E0.00969
G1 X145.682 Y121.056 E0.01564
G1 X146.027 Y121.144 E0.01492
G1 X146.359 Y121.246 E0.01454
G1 X146.684 Y121.357 E0.01439
G1 X146.982 Y121.477 E0.01347
G1 X147.261 Y121.609 E0.01292
G1 X147.524 Y121.751 E0.01252
G1 X147.762 Y121.897 E0.01171
G1 X147.976 Y122.05 E0.01102
G1 X148.169 Y122.207 E0.01041
G1 X148.336 Y122.367 E0.00969
G1 X148.475 Y122.521 E0.00871
G1 X148.591 Y122.68 E0.00822
G1 X148.682 Y122.832 E0.00743
G1 X148.747 Y122.978 E0.00669
G1 X148.794 Y123.127 E0.00656
G1 X148.822 Y123.269 E0.00604
G1 X148.832 Y123.428 E0.00667
G1 X148.832 Y123.935 E0.02125
G1 X142.442 Y127.686 E0.31046
G1 X142.369 Y127.726 E0.00347
G1 X142.293 Y127.771 E0.00368
G1 X142.087 Y127.884 E0.00987
G1 X141.949 Y127.96 E0.00662
G1 X141.832 Y128.093 E0.0074
G1 X141.736 Y128.21 E0.00634
G1 X141.651 Y128.433 E0.01001
G1 X141.617 Y128.661 E0.00967
G1 X141.662 Y128.86 E0.00854
G1 X141.699 Y128.985 E0.00547
G1 X141.817 Y129.174 E0.00934
G1 X141.947 Y129.277 E0.00696
G1 X142.128 Y129.416 E0.00953
G1 X142.299 Y129.483 E0.00772
G1 X142.441 Y129.541 E0.00643
G1 X142.598 Y129.577 E0.00675
G1 X142.717 Y129.6 E0.00508
G1 X142.878 Y129.608 E0.00672
G1 X142.936 Y129.607 E0.00247
G1 X143.012 Y129.605 E0.00315
G1 X143.17 Y129.583 E0.00668
G1 X143.302 Y129.553 E0.0057
G1 X143.468 Y129.489 E0.00744
G1 X143.53 Y129.461 E0.00287
G1 X143.565 Y129.443 E0.00163
G1 X147.287 Y127.292 E0.18013
G1 X147.389 Y127.242 E0.00478
G1 X147.501 Y127.198 E0.00503
G1 X147.622 Y127.163 E0.00527
G1 X147.761 Y127.135 E0.00595
G1 X147.911 Y127.117 E0.00633
G1 X148.07 Y127.11 E0.00668
G1 X148.223 Y127.112 E0.00641
G1 X148.367 Y127.127 E0.00606
G1 X148.516 Y127.154 E0.00634
G1 X148.649 Y127.186 E0.00571
G1 X148.832 Y127.251 E0.00814
G1 X148.832 Y140.338 E0.54836
G1 X148.561 Y140.362 E0.01137
G1 X148.442 Y140.364 E0.00501
G1 X148.31 Y140.357 E0.00554
G1 X148.098 Y140.327 E0.00897
G1 X147.933 Y140.289 E0.00708
G1 X147.821 Y140.257 E0.00489
G1 X147.798 Y140.249 E0.00103
G1 X147.609 Y140.185 E0.00832
G1 X147.59 Y140.178 E0.00088
G1 X147.424 Y140.109 E0.00751
G1 X143.726 Y137.823 E0.18218
G1 X143.649 Y137.788 E0.00352
G1 X143.477 Y137.714 E0.00786
G1 X143.352 Y137.681 E0.00542
G1 X143.258 Y137.659 E0.00407
G1 X143.048 Y137.633 E0.00884
G1 X142.936 Y137.629 E0.00469
G1 X142.724 Y137.639 E0.00891
G1 X142.611 Y137.655 E0.0048
G1 X142.408 Y137.702 E0.0087
G1 X142.325 Y137.733 E0.00373
G1 X142.134 Y137.811 E0.00866
G1 X142.021 Y137.918 E0.00651
G1 X141.853 Y138.081 E0.0098
G1 X141.773 Y138.26 E0.00821
G1 X141.71 Y138.453 E0.00852
G1 X141.71 Y138.695 E0.01012
G1 X141.744 Y138.841 E0.0063
G1 X141.811 Y139.019 E0.00796
G1 X141.974 Y139.226 E0.01102
G1 X142.073 Y139.299 E0.00516
G1 X142.114 Y139.34 E0.00243
G1 X142.195 Y139.393 E0.00409
G1 X148.832 Y143.202 E0.32059
G1 X148.832 Y144.064 E0.03613
G1 X148.816 Y144.301 E0.00996
G1 X148.796 Y144.426 E0.0053
G1 X148.764 Y144.533 E0.00466
G1 X148.708 Y144.654 E0.0056
G1 X148.635 Y144.781 E0.00614
G1 X148.538 Y144.909 E0.00675
G1 X148.418 Y145.042 E0.00748
G1 X148.27 Y145.179 E0.00844
G1 X148.105 Y145.311 E0.00886
G1 X147.915 Y145.44 E0.00961
G1 X147.701 Y145.567 E0.01045
G1 X147.47 Y145.685 E0.01084
G1 X147.216 Y145.794 E0.01159
G1 X146.943 Y145.897 E0.01223
G1 X146.662 Y145.99 E0.01243
G1 X146.362 Y146.071 E0.013
G1 X146.048 Y146.141 E0.01346
G1 X145.724 Y146.201 E0.01381
G1 X145.403 Y146.245 E0.01361
G1 X145.061 Y146.277 E0.01438
G1 X144.722 Y146.3 E0.01425
G1 X144.382 Y146.306 E0.01421
G1 X144.023 Y146.297 E0.01507
G1 X143.67 Y146.277 E0.01479
G1 X143.324 Y146.242 E0.01457
G1 X142.983 Y146.191 E0.01446
G1 X142.653 Y146.128 E0.01411
G1 X142.326 Y146.051 E0.01405
G1 X142.018 Y145.967 E0.0134
G1 X141.729 Y145.87 E0.01275
G1 X141.457 Y145.759 E0.01232
G1 X141.198 Y145.639 E0.01194
G1 X140.962 Y145.515 E0.01119
G1 X140.756 Y145.384 E0.0102
G1 X140.568 Y145.245 E0.00978
G1 X140.404 Y145.107 E0.00899
G1 X140.27 Y144.971 E0.008
G1 X140.158 Y144.832 E0.00749
G1 X140.071 Y144.7 E0.00662
G1 X140.012 Y144.579 E0.00563
G1 X139.968 Y144.45 E0.00572
G1 X139.942 Y144.332 E0.00507
G1 X139.933 Y144.2 E0.00553
G1 X139.933 Y143.021 E0.04941
G1 X124.571 Y143.021 E0.6437
G1 X124.571 Y143.003 E0.00074
G1 X109.147 Y143.003 E0.64626
G1 X109.147 Y143.811 E0.03388
G1 X109.146 Y143.839 E0.00115
G1 X109.137 Y143.981 E0.00595
G1 X109.109 Y144.122 E0.00605
G1 X109.06 Y144.275 E0.0067
G1 X108.997 Y144.419 E0.00661
G1 X108.905 Y144.57 E0.00739
G1 X108.789 Y144.73 E0.00828
G1 X108.65 Y144.885 E0.00875
G1 X108.484 Y145.045 E0.00966
G1 X108.291 Y145.2 E0.01037
G1 X108.077 Y145.354 E0.01102
G1 X107.839 Y145.5 E0.01171
G1 X107.576 Y145.641 E0.0125
G1 X107.296 Y145.774 E0.01298
G1 X106.997 Y145.894 E0.01352
G1 X106.68 Y146.005 E0.01406
G1 X106.343 Y146.107 E0.01475
G1 X105.996 Y146.195 E0.01501
G1 X105.631 Y146.269 E0.01558
G1 X105.402 Y146.309 E0.00974
G1 X105.176 Y146.336 E0.00954
G1 X104.939 Y146.351 E0.00996
G1 X104.7 Y146.357 E0.01003
G1 X104.455 Y146.351 E0.01027
G1 X104.219 Y146.336 E0.00991
G1 X103.992 Y146.309 E0.00958
G1 X103.764 Y146.269 E0.00969
G1 X103.398 Y146.195 E0.01564
G1 X103.053 Y146.107 E0.01492
G1 X102.721 Y146.005 E0.01454
G1 X102.396 Y145.894 E0.01439
G1 X102.098 Y145.774 E0.01347
G1 X101.819 Y145.642 E0.01292
G1 X101.556 Y145.5 E0.01252
G1 X101.318 Y145.354 E0.01171
G1 X101.104 Y145.2 E0.01102
G1 X100.911 Y145.044 E0.01041
G1 X100.744 Y144.884 E0.00969
G1 X100.605 Y144.73 E0.00871
G1 X100.489 Y144.571 E0.00822
G1 X100.398 Y144.419 E0.00743
G1 X100.333 Y144.273 E0.00669
G1 X100.286 Y144.124 E0.00656
G1 X100.258 Y143.982 E0.00604
G1 X100.248 Y143.823 E0.00667
G1 X100.248 Y123.187 E0.86468
G1 X100.264 Y122.95 E0.00996
G1 X100.284 Y122.825 E0.0053
G1 X100.316 Y122.718 E0.00466
G1 X100.372 Y122.597 E0.0056
G1 X100.445 Y122.47 E0.00614
G1 X100.542 Y122.341 E0.00675
G1 X100.662 Y122.209 E0.00748
G1 X100.81 Y122.072 E0.00844
G1 X100.975 Y121.939 E0.00886
G1 X101.165 Y121.811 E0.0096
G1 X101.379 Y121.684 E0.01045
G1 X101.61 Y121.566 E0.01084
G1 X101.864 Y121.457 E0.01159
G1 X102.137 Y121.354 E0.01223
G1 X102.418 Y121.261 E0.01243
G1 X102.718 Y121.18 E0.013
G1 X103.032 Y121.11 E0.01346
G1 X103.356 Y121.05 E0.01381
G1 X103.677 Y121.006 E0.01361
G1 X104.019 Y120.974 E0.01438
G1 X104.358 Y120.951 E0.01425
G1 X104.698 Y120.945 E0.01421
G1 X105.057 Y120.954 E0.01507
G1 X105.41 Y120.974 E0.01479
G1 X105.756 Y121.008 E0.01457
G1 X106.097 Y121.06 E0.01446
G1 X106.427 Y121.123 E0.01411
G1 X106.754 Y121.2 E0.01405
G1 X107.062 Y121.284 E0.0134
G1 X107.351 Y121.381 E0.01275
G1 X107.623 Y121.492 E0.01232
G1 X107.882 Y121.612 E0.01194
G1 X108.118 Y121.736 E0.01119
G1 X108.324 Y121.867 E0.0102
G1 X108.512 Y122.006 E0.00978
G1 X108.676 Y122.144 E0.00899
G1 X108.81 Y122.28 E0.008
G1 X108.922 Y122.419 E0.00749
G1 X109.009 Y122.551 E0.00662
G1 X109.068 Y122.672 E0.00563
G1 X109.112 Y122.801 E0.00572
G1 X109.138 Y122.919 E0.00507
G1 X109.147 Y123.051 E0.00553
G1 X109.147 Y124.17 E0.0469
M204 S1000
G1 X109.361 Y123.986 F9000
M204 S500
G1 X109.575 Y123.802
;TYPE:External perimeter
G1 F900
G1 X124.937 Y123.802 E0.64365
G1 X124.937 Y123.819 E0.00074
G1 X139.505 Y123.819 E0.61041
G1 X139.505 Y123.432 E0.01623
G1 X139.506 Y123.392 E0.00169
G1 X139.517 Y123.215 E0.00743
G1 X139.556 Y123.021 E0.0083
G1 X139.618 Y122.825 E0.00862
G1 X139.702 Y122.634 E0.00873
G1 X139.817 Y122.443 E0.00934
G1 X139.957 Y122.251 E0.00997
G1 X140.122 Y122.068 E0.01032
G1 X140.313 Y121.884 E0.01108
G1 X140.529 Y121.709 E0.01166
G1 X140.766 Y121.54 E0.0122
G1 X141.027 Y121.38 E0.01286
G1 X141.31 Y121.227 E0.01347
G1 X141.612 Y121.085 E0.01398
G1 X141.932 Y120.955 E0.01447
G1 X142.267 Y120.838 E0.01487
G1 X142.622 Y120.731 E0.01553
G1 X142.989 Y120.638 E0.01583
G1 X143.369 Y120.561 E0.01626
G1 X143.616 Y120.518 E0.01049
G1 X143.864 Y120.488 E0.0105
G1 X144.122 Y120.471 E0.01081
G1 X144.38 Y120.466 E0.01082
G1 X144.644 Y120.471 E0.01107
G1 X144.9 Y120.488 E0.01076
G1 X145.15 Y120.518 E0.01054
G1 X145.396 Y120.561 E0.01044
G1 X145.777 Y120.638 E0.01632
G1 X146.143 Y120.731 E0.0158
G1 X146.491 Y120.838 E0.01527
G1 X146.833 Y120.955 E0.01514
G1 X147.154 Y121.085 E0.01449
G1 X147.454 Y121.227 E0.01393
G1 X147.737 Y121.38 E0.01348
G1 X147.999 Y121.54 E0.01286
G1 X148.236 Y121.709 E0.0122
G1 X148.452 Y121.885 E0.01168
G1 X148.644 Y122.068 E0.01112
G1 X148.809 Y122.251 E0.01031
G1 X148.948 Y122.443 E0.00995
G1 X149.063 Y122.634 E0.00933
G1 X149.148 Y122.825 E0.00877
G1 X149.21 Y123.02 E0.00857
G1 X149.248 Y123.214 E0.00829
G1 X149.26 Y123.415 E0.00841
G1 X149.26 Y124.18 E0.03207
G1 X142.655 Y128.058 E0.32094
G1 X142.582 Y128.098 E0.00349
G1 X142.505 Y128.144 E0.00375
G1 X142.294 Y128.259 E0.01008
G1 X142.221 Y128.299 E0.00348
G1 X142.158 Y128.37 E0.00396
G1 X142.112 Y128.427 E0.00308
G1 X142.068 Y128.542 E0.00516
G1 X142.053 Y128.645 E0.00437
G1 X142.077 Y128.751 E0.00456
G1 X142.093 Y128.807 E0.00243
G1 X142.142 Y128.885 E0.00383
G1 X142.211 Y128.94 E0.00372
G1 X142.341 Y129.039 E0.00684
G1 X142.458 Y129.085 E0.0053
G1 X142.571 Y129.131 E0.0051
G1 X142.687 Y129.158 E0.00497
G1 X142.768 Y129.174 E0.00345
G1 X142.887 Y129.179 E0.005
G1 X142.928 Y129.179 E0.00173
G1 X142.975 Y129.177 E0.00195
G1 X143.093 Y129.161 E0.00501
G1 X143.177 Y129.142 E0.00361
G1 X143.302 Y129.094 E0.0056
G1 X143.359 Y129.067 E0.00265
G1 X147.085 Y126.914 E0.1803
G1 X147.216 Y126.849 E0.00612
G1 X147.363 Y126.792 E0.00661
G1 X147.521 Y126.746 E0.00689
G1 X147.694 Y126.712 E0.00739
G1 X147.875 Y126.69 E0.00764
G1 X148.063 Y126.681 E0.00789
G1 X148.249 Y126.684 E0.00779
G1 X148.427 Y126.703 E0.00753
G1 X148.604 Y126.734 E0.00752
G1 X148.771 Y126.775 E0.00719
G1 X148.923 Y126.829 E0.00675
G1 X149.053 Y126.887 E0.00598
G1 X149.163 Y126.955 E0.00539
G1 X149.26 Y127.032 E0.00521
G1 X149.26 Y140.617 E0.56923
G1 X149.228 Y140.641 E0.00169
G1 X149.164 Y140.676 E0.00304
G1 X149.01 Y140.727 E0.0068
G1 X148.913 Y140.749 E0.00415
G1 X148.881 Y140.755 E0.0014
G1 X148.77 Y140.774 E0.00469
G1 X148.584 Y140.79 E0.00784
G1 X148.434 Y140.793 E0.00627
G1 X148.268 Y140.784 E0.00696
G1 X148.02 Y140.749 E0.01051
G1 X147.825 Y140.704 E0.00837
G1 X147.698 Y140.667 E0.00555
G1 X147.666 Y140.657 E0.00142
G1 X147.46 Y140.587 E0.00907
G1 X147.428 Y140.574 E0.00147
G1 X147.228 Y140.492 E0.00905
G1 X143.523 Y138.202 E0.18252
G1 X143.475 Y138.18 E0.0022
G1 X143.337 Y138.12 E0.00633
G1 X143.248 Y138.097 E0.00383
G1 X143.182 Y138.081 E0.00286
G1 X143.015 Y138.06 E0.00706
G1 X142.94 Y138.058 E0.00313
G1 X142.765 Y138.066 E0.00736
G1 X142.689 Y138.077 E0.00319
G1 X142.531 Y138.114 E0.00683
G1 X142.479 Y138.133 E0.00228
G1 X142.37 Y138.177 E0.00495
G1 X142.317 Y138.227 E0.00305
G1 X142.211 Y138.331 E0.00622
G1 X142.174 Y138.414 E0.0038
G1 X142.139 Y138.521 E0.00473
G1 X142.139 Y138.646 E0.00524
G1 X142.155 Y138.717 E0.00306
G1 X142.189 Y138.806 E0.00397
G1 X142.275 Y138.915 E0.00582
G1 X142.353 Y138.973 E0.00408
G1 X142.386 Y139.006 E0.00195
G1 X142.42 Y139.028 E0.00172
G1 X149.12 Y142.873 E0.32365
G1 X149.26 Y143.016 E0.00841
G1 X149.26 Y144.078 E0.04451
G1 X149.242 Y144.35 E0.01139
G1 X149.214 Y144.521 E0.00725
G1 X149.167 Y144.684 E0.00715
G1 X149.089 Y144.852 E0.00772
