; generated by SuperSlicer 2.3.56 on 2021-06-12 at 19:21:37 UTC

; 

; external perimeters extrusion width = 0.40mm
; perimeters extrusion width = 0.40mm
; infill extrusion width = 0.40mm
; solid infill extrusion width = 0.40mm
; top infill extrusion width = 0.40mm
; support material extrusion width = 0.40mm
; first layer extrusion width = 0.48mm


M140 S70 ; set bed temperature
M104 S245 ; set temperature
;TYPE:Custom
START_PRINT T_BED=70 T_EXTRUDER=245
M107
G21 ; set units to millimeters
G90 ; use absolute coordinates
M82 ; use absolute distances for extrusion
G92 E0
; Filament gcode
M109 S245 ; set temperature and wait for it to be reached
M190 S70 ; set bed temperature and wait for it to be reached
M107
;LAYER_CHANGE
;Z:0.24
;HEIGHT:0.24
G1 Z0.240000 F6000.000
TIMELAPSE_TAKE_FRAME
G1 E-1.00000 F2100.000
G1 X97.992 Y76.446 F6000.000
G1 E0.00000 F2100.000
;TYPE:Skirt
;WIDTH:0.48
G1 F1200.000
M204 P500
G1 X99.347 Y74.990 E0.08507
G1 X100.412 Y74.103 E0.14431
G1 X102.088 Y73.021 E0.22963
G1 X103.316 Y72.431 E0.28786
G1 X105.127 Y71.812 E0.36968
G1 X106.546 Y71.517 E0.43167
G1 X108.506 Y71.358 E0.51574
G1 X128.622 Y71.357 E1.37580
G1 X129.966 Y71.427 E1.43334
G1 X131.921 Y71.764 E1.51817
G1 X133.219 Y72.159 E1.57615
G1 X134.913 Y72.900 E1.65521
G1 X136.075 Y73.576 E1.71268
G1 X137.148 Y74.356 E1.76942
G1 X138.529 Y75.629 E1.84973
G1 X139.419 Y76.668 E1.90821
G1 X184.334 Y144.242 E5.37734
G1 X184.834 Y145.177 E5.42269
G1 X185.157 Y146.224 E5.46954
G1 X185.272 Y147.308 E5.51613
G1 X185.263 Y193.323 E7.48352
G1 X185.163 Y194.108 E7.51737
G1 X184.955 Y194.866 E7.55096
G1 X184.644 Y195.587 E7.58456
G1 X184.236 Y196.259 E7.61815
G1 X183.735 Y196.871 E7.65200
G1 X183.157 Y197.404 E7.68559
G1 X182.511 Y197.851 E7.71919
G1 X181.810 Y198.205 E7.75278
G1 X180.820 Y198.516 E7.79713
G1 X179.790 Y198.640 E7.84148
G1 X167.003 Y198.629 E8.38822
G1 X94.024 Y192.160 E11.52068
G1 X93.284 Y192.034 E11.55277
G1 X92.562 Y191.809 E11.58512
G1 X91.877 Y191.489 E11.61746
G1 X91.240 Y191.081 E11.64981
G1 X90.664 Y190.591 E11.68215
G1 X90.158 Y190.028 E11.71449
G1 X89.732 Y189.403 E11.74684
G1 X89.396 Y188.731 E11.77893
G1 X89.088 Y187.759 E11.82253
G1 X88.959 Y186.748 E11.86613
G1 X88.962 Y176.426 E12.30742
G1 X90.198 Y150.611 E13.41242
G1 X95.018 Y83.898 E16.27223
G1 X95.200 Y82.540 E16.33081
G1 X95.698 Y80.613 E16.41588
G1 X96.214 Y79.321 E16.47536
G1 X97.186 Y77.552 E16.56169
G1 X97.956 Y76.495 E16.61761
G1 X98.302 Y76.746 F6000.000
G1 F1200.000
G1 X98.319 Y76.722 E16.61886
G1 X99.645 Y75.298 E16.70206
G1 X100.662 Y74.451 E16.75863
G1 X102.301 Y73.392 E16.84208
G1 X103.484 Y72.825 E16.89816
G1 X105.268 Y72.218 E16.97872
G1 X106.613 Y71.940 E17.03746
G1 X108.519 Y71.787 E17.11922
G1 X128.622 Y71.786 E17.97872
G1 X129.914 Y71.852 E18.03404
G1 X131.826 Y72.182 E18.11700
G1 X133.070 Y72.561 E18.17261
G1 X134.724 Y73.285 E18.24979
G1 X135.838 Y73.934 E18.30491
G1 X136.877 Y74.688 E18.35980
G1 X138.221 Y75.927 E18.43795
G1 X139.081 Y76.932 E18.49452
G1 X183.977 Y144.479 E21.96223
G1 X184.437 Y145.338 E22.00390
G1 X184.737 Y146.306 E22.04724
G1 X184.844 Y147.314 E22.09059
G1 X184.837 Y193.276 E24.05572
G1 X184.748 Y193.998 E24.08681
G1 X184.557 Y194.706 E24.11814
G1 X184.272 Y195.374 E24.14923
G1 X183.897 Y195.997 E24.18032
G1 X183.434 Y196.566 E24.21165
G1 X182.901 Y197.060 E24.24274
G1 X182.300 Y197.479 E24.27407
G1 X181.651 Y197.807 E24.30516
G1 X180.726 Y198.098 E24.34658
G1 X179.770 Y198.212 E24.38777
G1 X167.029 Y198.202 E24.93252
G1 X94.076 Y191.734 E28.06388
G1 X92.725 Y191.412 E28.12328
G1 X91.502 Y190.741 E28.18291
G1 X90.501 Y189.770 E28.24255
G1 X89.792 Y188.569 E28.30219
G1 X89.505 Y187.661 E28.34290
G1 X89.387 Y186.716 E28.38360
G1 X89.390 Y176.432 E28.82330
G1 X90.626 Y150.634 E29.92758
G1 X95.446 Y83.930 E32.78698
G1 X95.619 Y82.627 E32.84320
G1 X96.102 Y80.759 E32.92568
G1 X96.600 Y79.509 E32.98321
G1 X97.544 Y77.788 E33.06714
G1 X98.267 Y76.795 E33.11965
G92 E0
G1 E-1.00000 F2100.000
G1 X96.127 Y178.071 F6000.000
G1 E0.00000 F2100.000
;TYPE:Internal perimeter
G1 F1200.000
G1 X138.451 Y178.071 E1.80959
G1 X138.451 Y180.081 E1.89553
G1 X138.451 Y185.021 E2.10674
G1 X96.124 Y185.021 E3.91645
G1 X96.124 Y180.082 E4.12763
G1 X96.126 Y178.131 E4.21104
G1 X95.699 Y177.642 F6000.000
G1 F1200.000
G1 X138.879 Y177.642 E6.05725
G1 X138.880 Y180.081 E6.16151
G1 X138.880 Y185.449 E6.39104
G1 X95.696 Y185.449 E8.23739
G1 X95.696 Y180.081 E8.46690
G1 X95.699 Y177.702 E8.56862
G1 X95.271 Y177.214 F6000.000
G1 F1200.000
G1 X139.308 Y177.214 E10.45144
G1 X139.308 Y180.081 E10.57402
G1 X139.308 Y185.878 E10.82188
G1 X95.267 Y185.878 E12.70487
G1 X95.267 Y180.081 E12.95271
G1 X95.271 Y177.274 E13.07274
G1 X94.843 Y176.785 F6000.000
;TYPE:External perimeter
G1 F1200.000
G1 X139.731 Y176.785 E14.99195
G1 X139.731 Y176.837 E14.99417
G1 X139.736 Y176.987 E15.00059
G1 X139.737 Y180.081 E15.13285
G1 X139.737 Y186.306 E15.39903
G1 X94.839 Y186.306 E17.31866
G1 X94.839 Y180.081 E17.58483
G1 X94.843 Y176.845 E17.72317
G1 X95.189 Y176.985 F6000.000
G92 E0
G1 E-1.00000 F2100.000
G1 X137.435 Y178.221 F6000.000
G1 E0.00000 F2100.000
;TYPE:Solid infill
;WIDTH:0.483887
G1 F1800.000
G1 X138.108 Y178.894 E0.04105
G1 X138.108 Y179.500 E0.06718
G1 X137.021 Y178.414 E0.13342
G1 X136.416 Y178.414 E0.15954
G1 X138.108 Y180.106 E0.26272
G1 X138.108 Y180.712 E0.28884
G1 X135.810 Y178.414 E0.42897
G1 X135.204 Y178.414 E0.45508
G1 X138.108 Y181.318 E0.63215
G1 X138.108 Y181.924 E0.65826
G1 X134.598 Y178.414 E0.87226
G1 X133.992 Y178.414 E0.89838
G1 X138.108 Y182.530 E1.14932
G1 X138.108 Y183.136 E1.17544
G1 X133.386 Y178.414 E1.46331
G1 X132.780 Y178.414 E1.48943
G1 X138.108 Y183.742 E1.81424
G1 X138.108 Y184.348 E1.84036
G1 X132.174 Y178.414 E2.20211
G1 X131.568 Y178.414 E2.22823
G1 X137.832 Y184.678 E2.61008
G1 X137.226 Y184.678 E2.63620
G1 X130.962 Y178.414 E3.01805
G1 X130.356 Y178.414 E3.04417
G1 X136.620 Y184.678 E3.42602
G1 X136.014 Y184.678 E3.45214
G1 X129.750 Y178.414 E3.83399
G1 X129.144 Y178.414 E3.86011
G1 X135.408 Y184.678 E4.24196
G1 X134.802 Y184.678 E4.26808
G1 X128.538 Y178.414 E4.64993
G1 X127.932 Y178.414 E4.67605
G1 X134.196 Y184.678 E5.05790
G1 X133.590 Y184.678 E5.08401
G1 X127.326 Y178.414 E5.46586
G1 X126.720 Y178.414 E5.49198
G1 X132.984 Y184.678 E5.87383
G1 X132.378 Y184.678 E5.89995
G1 X126.114 Y178.414 E6.28180
G1 X125.508 Y178.414 E6.30792
G1 X131.772 Y184.678 E6.68977
G1 X131.166 Y184.678 E6.71589
G1 X124.902 Y178.414 E7.09774
G1 X124.296 Y178.414 E7.12386
G1 X130.560 Y184.678 E7.50571
G1 X129.954 Y184.678 E7.53183
G1 X123.690 Y178.414 E7.91368
G1 X123.084 Y178.414 E7.93980
G1 X129.348 Y184.678 E8.32165
G1 X128.742 Y184.678 E8.34777
G1 X122.478 Y178.414 E8.72962
G1 X121.872 Y178.414 E8.75574
G1 X128.136 Y184.678 E9.13759
G1 X127.530 Y184.678 E9.16370
G1 X121.266 Y178.414 E9.54555
G1 X120.660 Y178.414 E9.57167
G1 X126.924 Y184.678 E9.95352
G1 X126.318 Y184.678 E9.97964
G1 X120.054 Y178.414 E10.36149
G1 X119.448 Y178.414 E10.38761
G1 X125.712 Y184.678 E10.76946
G1 X125.106 Y184.678 E10.79558
G1 X118.842 Y178.414 E11.17743
G1 X118.236 Y178.414 E11.20355
G1 X124.500 Y184.678 E11.58540
G1 X123.894 Y184.678 E11.61152
G1 X117.630 Y178.414 E11.99337
G1 X117.024 Y178.414 E12.01949
G1 X123.288 Y184.678 E12.40134
G1 X122.683 Y184.678 E12.42746
G1 X116.418 Y178.414 E12.80931
G1 X115.812 Y178.414 E12.83542
G1 X122.077 Y184.678 E13.21727
G1 X121.471 Y184.678 E13.24339
G1 X115.206 Y178.414 E13.62524
G1 X114.600 Y178.414 E13.65136
G1 X120.865 Y184.678 E14.03321
G1 X120.259 Y184.678 E14.05933
G1 X113.994 Y178.414 E14.44118
G1 X113.388 Y178.414 E14.46730
G1 X119.653 Y184.678 E14.84915
G1 X119.047 Y184.678 E14.87527
G1 X112.782 Y178.414 E15.25712
G1 X112.176 Y178.414 E15.28324
G1 X118.441 Y184.678 E15.66509
G1 X117.835 Y184.678 E15.69121
G1 X111.570 Y178.414 E16.07306
G1 X110.964 Y178.414 E16.09918
G1 X117.229 Y184.678 E16.48103
G1 X116.623 Y184.678 E16.50715
G1 X110.358 Y178.414 E16.88900
G1 X109.752 Y178.414 E16.91511
G1 X116.017 Y184.678 E17.29696
G1 X115.411 Y184.678 E17.32308
G1 X109.146 Y178.414 E17.70493
G1 X108.540 Y178.414 E17.73105
G1 X114.805 Y184.678 E18.11290
G1 X114.199 Y184.678 E18.13902
G1 X107.934 Y178.414 E18.52087
G1 X107.328 Y178.414 E18.54699
G1 X113.593 Y184.678 E18.92884
G1 X112.987 Y184.678 E18.95496
G1 X106.722 Y178.414 E19.33681
G1 X106.116 Y178.414 E19.36293
G1 X112.381 Y184.678 E19.74478
G1 X111.775 Y184.678 E19.77090
G1 X105.510 Y178.414 E20.15275
G1 X104.904 Y178.414 E20.17887
G1 X111.169 Y184.678 E20.56072
G1 X110.563 Y184.678 E20.58683
G1 X104.298 Y178.414 E20.96868
G1 X103.692 Y178.414 E20.99480
G1 X109.957 Y184.678 E21.37665
G1 X109.351 Y184.678 E21.40277
G1 X103.086 Y178.414 E21.78462
G1 X102.480 Y178.414 E21.81074
G1 X108.745 Y184.678 E22.19259
G1 X108.139 Y184.678 E22.21871
G1 X101.874 Y178.414 E22.60056
G1 X101.268 Y178.414 E22.62668
G1 X107.533 Y184.678 E23.00853
G1 X106.927 Y184.678 E23.03465
G1 X100.662 Y178.414 E23.41650
G1 X100.057 Y178.414 E23.44262
G1 X106.321 Y184.678 E23.82447
G1 X105.715 Y184.678 E23.85059
G1 X99.451 Y178.414 E24.23244
G1 X98.845 Y178.414 E24.25855
G1 X105.109 Y184.678 E24.64040
G1 X104.503 Y184.678 E24.66652
G1 X98.239 Y178.414 E25.04837
G1 X97.633 Y178.414 E25.07449
G1 X103.897 Y184.678 E25.45634
G1 X103.291 Y184.678 E25.48246
G1 X97.027 Y178.414 E25.86431
G1 X96.469 Y178.414 E25.88833
G1 X96.469 Y178.462 E25.89043
G1 X102.685 Y184.678 E26.26932
G1 X102.079 Y184.678 E26.29544
G1 X96.469 Y179.068 E26.63740
G1 X96.469 Y179.674 E26.66351
G1 X101.473 Y184.678 E26.96855
G1 X100.867 Y184.678 E26.99467
G1 X96.469 Y180.279 E27.26278
G1 X96.468 Y180.885 E27.28889
G1 X100.261 Y184.678 E27.52008
G1 X99.655 Y184.678 E27.54620
G1 X96.468 Y181.491 E27.74046
G1 X96.468 Y182.097 E27.76657
G1 X99.049 Y184.678 E27.92391
G1 X98.443 Y184.678 E27.95003
G1 X96.468 Y182.703 E28.07044
G1 X96.467 Y183.308 E28.09655
G1 X97.837 Y184.678 E28.18004
G1 X97.231 Y184.678 E28.20616
G1 X96.467 Y183.914 E28.25273
G1 X96.467 Y184.520 E28.27884
G1 X96.818 Y184.871 E28.30023
G92 E0
G1 E-1.00000 F2100.000
G1 X104.323 Y164.625 F6000.000
G1 E0.00000 F2100.000
;TYPE:Internal perimeter
;WIDTH:0.48
G1 F1200.000
G1 X117.834 Y164.625 E0.57770
G1 X120.404 Y162.055 E0.73307
G1 X120.404 Y153.541 E1.09708
G1 X117.834 Y150.972 E1.25246
G1 X104.323 Y150.972 E1.83016
G1 X101.753 Y153.541 E1.98553
G1 X101.753 Y162.055 E2.34954
G1 X104.280 Y164.582 E2.50235
G1 X104.500 Y164.196 F6000.000
G1 F1200.000
G1 X117.657 Y164.196 E3.06487
G1 X119.976 Y161.878 E3.20506
G1 X119.976 Y153.719 E3.55390
G1 X117.657 Y151.400 E3.69409
G1 X104.500 Y151.400 E4.25662
G1 X102.182 Y153.719 E4.39681
G1 X102.182 Y161.878 E4.74564
G1 X104.458 Y164.154 E4.88327
G1 X104.678 Y163.768 F6000.000
G1 F1200.000
G1 X117.479 Y163.768 E5.43062
G1 X119.547 Y161.700 E5.55564
G1 X119.547 Y153.896 E5.88929
G1 X117.479 Y151.829 E6.01431
G1 X104.678 Y151.829 E6.56166
G1 X102.610 Y153.896 E6.68667
G1 X102.610 Y161.700 E7.02033
G1 X104.635 Y163.725 E7.14278
G1 X104.855 Y163.339 F6000.000
;TYPE:External perimeter
G1 F1200.000
G1 X117.302 Y163.339 E7.67495
G1 X119.119 Y161.523 E7.78479
G1 X119.119 Y154.074 E8.10327
G1 X117.302 Y152.257 E8.21311
G1 X104.855 Y152.257 E8.74528
G1 X103.039 Y154.074 E8.85512
G1 X103.039 Y161.523 E9.17360
G1 X104.813 Y163.297 E9.28088
G1 X104.959 Y163.726 F6000.000
G92 E0
G1 E-1.00000 F2100.000
G1 X102.352 Y169.020 F6000.000
G1 E0.00000 F2100.000
;TYPE:Internal perimeter
G1 F1200.000
G1 X97.357 Y164.024 E0.30205
G1 X97.357 Y151.572 E0.83445
G1 X102.353 Y146.576 E1.13656
G1 X119.554 Y146.576 E1.87196
G1 X124.800 Y151.822 E2.18919
G1 X124.800 Y163.990 E2.70945
G1 X119.771 Y169.020 E3.01355
G1 X102.412 Y169.020 E3.75571
G1 X102.175 Y169.448 F6000.000
G1 F1200.000
G1 X96.929 Y164.202 E4.07294
G1 X96.929 Y151.395 E4.62051
G1 X102.176 Y146.147 E4.93780
G1 X119.731 Y146.147 E5.68838
G1 X125.229 Y151.645 E6.02078
G1 X125.229 Y164.168 E6.55622
G1 X119.948 Y169.448 E6.87550
G1 X102.235 Y169.448 E7.63284
G1 X101.997 Y169.877 F6000.000
G1 F1200.000
G1 X96.500 Y164.379 E7.96524
G1 X96.500 Y151.217 E8.52800
G1 X101.998 Y145.719 E8.86046
G1 X119.909 Y145.719 E9.62622
G1 X125.657 Y151.467 E9.97380
G1 X125.657 Y164.345 E10.52441
G1 X120.126 Y169.877 E10.85887
G1 X102.057 Y169.877 E11.63138
G1 X101.820 Y170.305 F6000.000
;TYPE:External perimeter
G1 F1200.000
G1 X96.072 Y164.557 E11.97896
G1 X96.072 Y151.040 E12.55690
G1 X101.821 Y145.290 E12.90454
G1 X120.086 Y145.290 E13.68547
G1 X126.086 Y151.290 E14.04823
G1 X126.086 Y164.523 E14.61402
G1 X120.303 Y170.305 E14.96366
G1 X101.880 Y170.305 E15.75135
G1 X101.820 Y169.905 F6000.000
G92 E0
G1 E-1.00000 F2100.000
G1 X119.219 Y146.726 F6000.000
G1 E0.00000 F2100.000
;TYPE:Solid infill
;WIDTH:0.490751
G1 F1800.000
G1 X124.457 Y151.964 E0.32384
G1 X124.457 Y152.570 E0.35033
G1 X118.806 Y146.919 E0.69971
G1 X118.200 Y146.919 E0.72620
G1 X124.457 Y153.176 E1.11305
G1 X124.457 Y153.782 E1.13954
G1 X117.594 Y146.919 E1.56384
G1 X116.988 Y146.919 E1.59033
G1 X124.457 Y154.388 E2.05210
G1 X124.457 Y154.994 E2.07859
G1 X116.382 Y146.919 E2.57782
G1 X115.776 Y146.919 E2.60431
G1 X124.457 Y155.600 E3.14100
G1 X124.457 Y156.206 E3.16749
G1 X115.170 Y146.919 E3.74164
G1 X114.564 Y146.919 E3.76813
G1 X124.457 Y156.812 E4.37975
G1 X124.457 Y157.418 E4.40624
G1 X120.747 Y153.708 E4.63562
G1 X120.747 Y154.314 E4.66211
G1 X124.457 Y158.024 E4.89149
G1 X124.457 Y158.630 E4.91797
G1 X120.747 Y154.920 E5.14735
G1 X120.747 Y155.526 E5.17384
G1 X124.457 Y159.236 E5.40322
G1 X124.457 Y159.842 E5.42971
G1 X120.747 Y156.132 E5.65909
G1 X120.747 Y156.738 E5.68558
G1 X124.457 Y160.448 E5.91496
G1 X124.457 Y161.054 E5.94145
G1 X120.747 Y157.344 E6.17083
G1 X120.747 Y157.950 E6.19732
G1 X124.457 Y161.660 E6.42670
G1 X124.457 Y162.266 E6.45319
G1 X120.747 Y158.556 E6.68257
G1 X120.747 Y159.161 E6.70906
G1 X124.457 Y162.872 E6.93844
G1 X124.457 Y163.478 E6.96492
G1 X120.747 Y159.767 E7.19430
G1 X120.747 Y160.373 E7.22079
G1 X124.340 Y163.966 E7.44289
G1 X124.037 Y164.269 E7.46163
G1 X120.747 Y160.979 E7.66500
G1 X120.747 Y161.585 E7.69149
G1 X123.734 Y164.572 E7.87612
G1 X123.431 Y164.875 E7.89486
G1 X120.747 Y162.191 E8.06076
G1 X120.747 Y162.197 E8.06102
G1 X120.447 Y162.497 E8.07957
G1 X123.128 Y165.178 E8.24530
G1 X122.825 Y165.481 E8.26403
G1 X120.144 Y162.800 E8.42976
G1 X119.841 Y163.103 E8.44849
G1 X122.522 Y165.784 E8.61422
G1 X122.219 Y166.087 E8.63295
G1 X119.538 Y163.406 E8.79868
G1 X119.235 Y163.709 E8.81741
G1 X121.916 Y166.390 E8.98314
G1 X121.613 Y166.693 E9.00187
G1 X118.932 Y164.012 E9.16760
G1 X118.629 Y164.315 E9.18634
G1 X121.310 Y166.996 E9.35207
G1 X121.007 Y167.299 E9.37080
G1 X118.326 Y164.618 E9.53653
G1 X118.023 Y164.921 E9.55526
G1 X120.704 Y167.602 E9.72099
G1 X120.401 Y167.905 E9.73972
G1 X117.463 Y164.968 E9.92131
G1 X116.857 Y164.968 E9.94780
G1 X120.098 Y168.208 E10.14813
G1 X119.795 Y168.511 E10.16686
G1 X116.251 Y164.968 E10.38592
G1 X115.645 Y164.968 E10.41241
G1 X119.355 Y168.677 E10.64172
G1 X118.749 Y168.677 E10.66821
G1 X115.039 Y164.968 E10.89753
G1 X114.433 Y164.968 E10.92402
G1 X118.143 Y168.677 E11.15334
G1 X117.537 Y168.677 E11.17983
G1 X113.827 Y164.968 E11.40914
G1 X113.221 Y164.968 E11.43563
G1 X116.931 Y168.677 E11.66495
G1 X116.325 Y168.677 E11.69144
G1 X112.615 Y164.968 E11.92076
G1 X112.009 Y164.968 E11.94725
G1 X115.719 Y168.677 E12.17656
G1 X115.113 Y168.677 E12.20305
G1 X111.403 Y164.968 E12.43237
G1 X110.797 Y164.968 E12.45886
G1 X114.507 Y168.677 E12.68818
G1 X113.901 Y168.677 E12.71467
G1 X110.191 Y164.968 E12.94398
G1 X109.585 Y164.968 E12.97047
G1 X113.295 Y168.677 E13.19979
G1 X112.689 Y168.677 E13.22628
G1 X108.979 Y164.968 E13.45560
G1 X108.373 Y164.968 E13.48209
G1 X112.083 Y168.677 E13.71140
G1 X111.477 Y168.677 E13.73789
G1 X107.767 Y164.968 E13.96721
G1 X107.161 Y164.968 E13.99370
G1 X110.871 Y168.677 E14.22302
G1 X110.265 Y168.677 E14.24951
G1 X106.555 Y164.968 E14.47882
G1 X105.949 Y164.968 E14.50531
G1 X109.659 Y168.677 E14.73463
G1 X109.053 Y168.677 E14.76112
G1 X105.343 Y164.968 E14.99044
G1 X104.737 Y164.968 E15.01693
G1 X108.640 Y168.870 E15.25817
G92 E0
