; generated by SuperSlicer 2.4 on 2022-11-14 at 00:54:23 UTC


;
;

;
;
; 

; external perimeters extrusion width = 0.40mm
; perimeters extrusion width = 0.46mm
; infill extrusion width = 0.64mm
; solid infill extrusion width = 0.56mm
; top infill extrusion width = 0.40mm
; first layer extrusion width = 0.50mm

; object:{"name":"PTFEcutter_v4_base","id":"PTFEcutter_v4_base.stl id:0 copy 0","object_center":[165.000000,165.000000,0.000000],"boundingbox_center":[165.000000,165.000000,13.700000],"boundingbox_size":[91.633121,25.000000,27.400000]}
; plater:{"center":[165.000000,165.000000,0.000000],"boundingbox_center":[165.000000,165.000000,13.700000],"boundingbox_size":[91.633121,25.000000,27.400000]}

M73 P0 R65


; Pre-Processed for Cancel-Object support by preprocess_cancellation v0.2.0
; 1 known objects
EXCLUDE_OBJECT_DEFINE NAME=PTFEcutter_v4_base_stl_id_0_copy_0 CENTER=153.728,166.113 POLYGON=[[119.383,152.7],[119.383,177.3],[210.617,177.3],[210.617,152.7]]
;TYPE:Custom
START_PRINT T_BED=70 T_EXTRUDER=235
M107
G21 ; set units to millimeters
G90 ; use absolute coordinates
M83 ; use relative distances for extrusion
; Filament gcode
;_TOOLCHANGE 0
M109 S235 ; set temperature and wait for it to be reached
M190 S70 ; set bed temperature and wait for it to be reached
M107
;LAYER_CHANGE
;Z:0.2
;HEIGHT:0.2
G1 Z0.2 F9000
G92 E0
G1 E-1 F3000
M204 S1000
G1 X117.062 Y149.621 F9000
G1 E1 F1800
;TYPE:Skirt
;WIDTH:0.52
G1 X115.962 Y150.934 E0.06793
G1 X115.568 Y152.6 E0.06793
G1 X115.568 Y177.4 E0.9838
G1 X116.305 Y179.621 E0.09283
G1 X117.617 Y180.721 E0.06793
G1 X119.283 Y181.116 E0.06793
G1 X210.717 Y181.116 E3.62709
G1 X212.938 Y180.379 E0.09283
G1 X214.038 Y179.066 E0.06793
G1 X214.432 Y177.4 E0.06793
G1 X214.432 Y152.6 E0.9838
G1 X213.695 Y150.379 E0.09283
G1 X212.383 Y149.279 E0.06793
G1 X210.717 Y148.884 E0.06793
G1 X119.283 Y148.884 E3.62709
G1 X117.062 Y149.621 E0.09283
G1 X117.44 Y149.971 F9000
G1 F1800
G1 X116.439 Y151.052 E0.05845
G1 X116.045 Y152.6 E0.06336
G1 X116.045 Y177.4 E0.9838
G1 X116.564 Y179.159 E0.07276
G1 X117.736 Y180.245 E0.06336
G1 X119.283 Y180.639 E0.06336
G1 X210.717 Y180.639 E3.62709
G1 X212.476 Y180.119 E0.07276
G1 X213.561 Y178.948 E0.06336
G1 X213.955 Y177.4 E0.06336
G1 X213.955 Y152.6 E0.9838
G1 X213.436 Y150.841 E0.07276
G1 X212.264 Y149.755 E0.06336
G1 X210.717 Y149.361 E0.06336
G1 X119.283 Y149.361 E3.62709
G1 X117.524 Y149.881 E0.07276
G1 X117.44 Y149.971 E0.0049
G1 E-1 F3000
; printing object PTFEcutter_v4_base.stl id:0 copy 0
EXCLUDE_OBJECT_START NAME=PTFEcutter_v4_base_stl_id_0_copy_0
G1 X125.709 Y160.541 F9000
G1 E1 F1800
;TYPE:Internal perimeter
;WIDTH:0.5
G1 X125.899 Y160.351 E0.01022
M73 P0 R65
G1 X126.523 Y160.237 E0.02411
G1 X126.958 Y160.035 E0.01821
G1 X127.667 Y160.037 E0.02696
G1 X127.905 Y159.874 E0.01098
G1 X128.161 Y159.81 E0.01004
G1 X128.546 Y159.593 E0.0168
G1 X129.118 Y159.069 E0.02946
G1 X129.346 Y158.211 E0.03375
G1 X130.424 Y156.98 E0.0622
G1 X130.343 Y156.463 E0.01988
G1 X130.393 Y156.189 E0.01057
G1 X130.088 Y155.516 E0.02809
G1 X129.444 Y154.967 E0.03215
G1 X128.587 Y154.906 E0.03268
G1 X128.316 Y155.053 E0.01172
G1 X128.065 Y155.07 E0.00957
G1 X127.762 Y154.59 E0.02157
G1 X126.993 Y154.354 E0.03059
G1 X126.306 Y154.341 E0.02611
G1 X126.011 Y154.44 E0.01183
G1 X125.588 Y154.462 E0.0161
G1 X125.067 Y154.548 E0.02007
G1 X124.54 Y154.845 E0.02299
G1 X124.146 Y155.256 E0.02163
G1 X123.948 Y155.415 E0.00964
G1 X123.57 Y155.6 E0.016
G1 X123.03 Y156.101 E0.02799
G1 X122.704 Y156.531 E0.02055
G1 X122.656 Y156.834 E0.01164
G1 X122.509 Y157.267 E0.0174
G1 X122.457 Y157.749 E0.0184
G1 X122.391 Y157.964 E0.00857
G1 X122.223 Y158.28 E0.01361
G1 X122.054 Y158.754 E0.01911
G1 X122.071 Y159.237 E0.01837
G1 X121.958 Y159.873 E0.02456
G1 X121.977 Y160.062 E0.00723
G1 X121.942 Y160.49 E0.01632
G1 X122.417 Y161.37 E0.03798
G1 X122.581 Y161.459 E0.00708
G1 X122.725 Y161.648 E0.00904
G1 X123.244 Y162.23 E0.02964
G1 X123.278 Y162.238 E0.00133
G1 X123.475 Y162.514 E0.01289
G1 X124.177 Y162.822 E0.02912
G1 X125.293 Y162.715 E0.04262
G1 X125.91 Y161.898 E0.03888
G1 X125.936 Y160.745 E0.04385
G1 X125.709 Y160.541 E0.01159
G1 X125.045 Y160.559 F9000
G1 F1800
G1 X125.563 Y160.041 E0.02785
G1 X125.608 Y159.94 E0.00423
G1 X125.751 Y159.926 E0.00544
G1 X126.383 Y159.798 E0.02453
G1 X126.857 Y159.578 E0.01986
G1 X127.526 Y159.58 E0.02541
G1 X127.714 Y159.45 E0.0087
G1 X127.991 Y159.381 E0.01082
G1 X128.276 Y159.22 E0.01245
G1 X128.711 Y158.822 E0.0224
G1 X128.932 Y157.99 E0.03273
G1 X129.94 Y156.839 E0.05813
G1 X129.88 Y156.457 E0.01471
G1 X129.918 Y156.248 E0.00809
G1 X129.714 Y155.798 E0.01877
G1 X129.262 Y155.413 E0.02257
G1 X128.688 Y155.371 E0.02189
G1 X128.446 Y155.502 E0.01044
G1 X128.18 Y155.52 E0.01015
G1 X127.935 Y155.602 E0.00981
G1 X127.787 Y155.486 E0.00715
G1 X127.466 Y154.977 E0.02288
G1 X126.92 Y154.809 E0.0217
G1 X126.377 Y154.799 E0.02066
G1 X126.098 Y154.893 E0.01119
G1 X125.638 Y154.917 E0.01751
G1 X125.221 Y154.986 E0.01604
G1 X124.823 Y155.21 E0.01736
G1 X124.456 Y155.594 E0.02021
G1 X124.194 Y155.803 E0.0127
G1 X123.832 Y155.981 E0.01535
G1 X123.371 Y156.409 E0.02392
G1 X123.137 Y156.716 E0.01465
G1 X123.102 Y156.944 E0.00877
G1 X122.958 Y157.366 E0.01697
G1 X122.907 Y157.841 E0.01814
G1 X122.815 Y158.14 E0.01191
G1 X122.642 Y158.465 E0.01399
G1 X122.514 Y158.825 E0.01451
G1 X122.529 Y159.269 E0.01689
G1 X122.419 Y159.891 E0.024
G1 X122.436 Y160.058 E0.00638
G1 X122.409 Y160.392 E0.01274
G1 X122.755 Y161.033 E0.02768
G1 X122.885 Y161.104 E0.00563
G1 X123.078 Y161.357 E0.01208
G1 X123.49 Y161.819 E0.02354
G1 X123.551 Y161.833 E0.00239
G1 X123.774 Y162.146 E0.01461
G1 X124.252 Y162.356 E0.01981
G1 X125.049 Y162.279 E0.03046
G1 X125.456 Y161.741 E0.02564
G1 X125.474 Y160.945 E0.03026
G1 X125.045 Y160.559 E0.02193
G1 E-1 F3000
G1 X129.001 Y157.217 F9000
G1 E1 F1800
;TYPE:External perimeter
G1 X129.455 Y156.699 E0.02618
G1 X129.416 Y156.451 E0.00954
G1 X129.443 Y156.306 E0.00561
G1 X129.34 Y156.079 E0.00946
G1 X129.08 Y155.858 E0.01299
G1 X128.788 Y155.837 E0.0111
G1 X128.577 Y155.952 E0.00916
G1 X128.269 Y155.972 E0.01173
G1 X127.887 Y156.1 E0.01528
G1 X127.819 Y156.153 E0.00332
G1 X127.779 Y156.06 E0.00386
G1 X127.443 Y155.798 E0.01621
G1 X127.17 Y155.364 E0.01947
G1 X126.847 Y155.265 E0.01281
G1 X126.447 Y155.258 E0.01521
G1 X126.184 Y155.346 E0.01056
G1 X125.687 Y155.372 E0.01892
G1 X125.375 Y155.424 E0.012
G1 X125.107 Y155.575 E0.01173
G1 X124.765 Y155.933 E0.01879
G1 X124.441 Y156.192 E0.01577
G1 X124.093 Y156.362 E0.0147
G1 X123.711 Y156.717 E0.01984
G1 X123.571 Y156.9 E0.00876
G1 X123.547 Y157.054 E0.0059
G1 X123.407 Y157.466 E0.01654
G1 X123.341 Y158.082 E0.02356
G1 X123.3 Y158.12 E0.00213
G1 X123.239 Y158.317 E0.00785
G1 X123.061 Y158.651 E0.01437
G1 X122.974 Y158.896 E0.00992
G1 X122.988 Y159.301 E0.01541
G1 X122.88 Y159.909 E0.02344
G1 X122.894 Y160.054 E0.00554
G1 X122.875 Y160.294 E0.00916
G1 X123.093 Y160.696 E0.01738
G1 X123.189 Y160.749 E0.00418
G1 X123.431 Y161.065 E0.01513
G1 X123.736 Y161.407 E0.01743
G1 X123.824 Y161.429 E0.00346
G1 X124.074 Y161.778 E0.01633
G1 X124.326 Y161.89 E0.01049
G1 X124.806 Y161.843 E0.0183
G1 X125.002 Y161.583 E0.01241
G1 X125.012 Y161.144 E0.01667
G1 X124.644 Y160.814 E0.01881
G1 X124.569 Y160.628 E0.00763
G1 X124.621 Y160.498 E0.00532
G1 X124.678 Y160.241 E0.00999
G1 X124.827 Y160.13 E0.00707
G1 X125.18 Y159.777 E0.01895
G1 X125.299 Y159.51 E0.01112
G1 X125.683 Y159.473 E0.01465
G1 X126.24 Y159.361 E0.02159
G1 X126.565 Y159.209 E0.01364
G1 X126.674 Y159.12 E0.00533
G1 X127.384 Y159.122 E0.02702
G1 X127.524 Y159.026 E0.00642
G1 X127.82 Y158.953 E0.01161
G1 X128.006 Y158.848 E0.00811
G1 X128.303 Y158.575 E0.01533
G1 X128.449 Y158.027 E0.02156
G1 X128.407 Y157.773 E0.00979
G1 X128.441 Y157.655 E0.00468
G1 X128.4 Y157.278 E0.01441
G1 X128.211 Y157.073 E0.01059
G1 X128.273 Y156.954 E0.00511
G1 X128.451 Y156.926 E0.00682
G1 X128.748 Y157.092 E0.01293
G1 X128.838 Y157.059 E0.00364
G1 X129.001 Y157.217 E0.00864
;WIPE_START
M204 S3000
G1 X129.298 Y157.486 F9000
;WIPE_END
G1 E-1 F3000
M204 S1000
G1 X209.552 Y176.236 F9000
G1 E1 F1800
;TYPE:Internal perimeter
G1 X120.448 Y176.236 E3.38655
G1 X120.448 Y153.764 E0.85407
G1 X209.552 Y153.764 E3.38655
G1 X209.552 Y176.236 E0.85407
G1 X210.009 Y176.693 F9000
G1 F1800
G1 X119.991 Y176.693 E3.42129
G1 X119.991 Y153.307 E0.88881
G1 X210.009 Y153.307 E3.42129
M73 P1 R64
G1 X210.009 Y176.693 E0.88881
G1 X210.467 Y177.15 F9000
;TYPE:External perimeter
G1 F1800
G1 X119.533 Y177.15 E3.45603
G1 X119.533 Y152.85 E0.92355
G1 X210.467 Y152.85 E3.45603
G1 X210.467 Y177.15 E0.92355
;WIPE_START
M204 S3000
G1 X210.12 Y176.95 F9000
;WIPE_END
G1 E-1 F3000
M204 S1000
G1 X208.56 Y153.833 F9000
G1 E1 F1800
;TYPE:Solid infill
;WIDTH:0.497003
G1 F2400
G1 X209.484 Y154.757 E0.04937
G1 X209.484 Y155.403 F9000
G1 F2400
G1 X207.913 Y153.833 E0.0839
G1 X207.267 Y153.833 F9000
G1 F2400
G1 X209.484 Y156.049 E0.11844
G1 X209.484 Y156.696 F9000
G1 F2400
G1 X206.621 Y153.833 E0.15297
G1 X205.974 Y153.833 F9000
G1 F2400
G1 X209.484 Y157.342 E0.18751
G1 X209.484 Y157.989 F9000
G1 F2400
G1 X205.328 Y153.833 E0.22204
G1 X204.681 Y153.833 F9000
G1 F2400
G1 X209.484 Y158.635 E0.25658
G1 X209.484 Y159.282 F9000
G1 F2400
G1 X204.035 Y153.833 E0.29111
G1 X203.389 Y153.833 F9000
G1 F2400
G1 X209.484 Y159.928 E0.32565
G1 X209.484 Y160.574 F9000
G1 F2400
G1 X202.742 Y153.833 E0.36018
G1 X202.096 Y153.833 F9000
G1 F2400
G1 X209.484 Y161.221 E0.39472
G1 X209.484 Y161.867 F9000
G1 F2400
G1 X201.449 Y153.833 E0.42926
G1 X200.803 Y153.833 F9000
G1 F2400
G1 X209.484 Y162.514 E0.46379
G1 X209.484 Y163.16 F9000
G1 F2400
G1 X200.157 Y153.833 E0.49833
G1 X199.51 Y153.833 F9000
G1 F2400
G1 X209.484 Y163.806 E0.53286
G1 X209.484 Y164.453 F9000
G1 F2400
G1 X198.864 Y153.833 E0.5674
G1 X198.217 Y153.833 F9000
G1 F2400
G1 X209.484 Y165.099 E0.60193
G1 X209.484 Y165.746 F9000
G1 F2400
G1 X197.571 Y153.833 E0.63647
G1 X196.925 Y153.833 F9000
G1 F2400
G1 X209.484 Y166.392 E0.671
G1 X209.484 Y167.038 F9000
G1 F2400
G1 X196.278 Y153.833 E0.70554
G1 X195.632 Y153.833 F9000
G1 F2400
G1 X209.484 Y167.685 E0.74008
G1 X209.484 Y168.331 F9000
G1 F2400
G1 X194.985 Y153.833 E0.77461
G1 X194.339 Y153.833 F9000
G1 F2400
G1 X209.484 Y168.978 E0.80915
G1 X209.484 Y169.624 F9000
G1 F2400
G1 X193.693 Y153.833 E0.84368
G1 X193.046 Y153.833 F9000
G1 F2400
G1 X209.484 Y170.27 E0.87822
G1 X209.484 Y170.917 F9000
G1 F2400
G1 X192.4 Y153.833 E0.91275
G1 X191.753 Y153.833 F9000
G1 F2400
G1 X209.484 Y171.563 E0.94729
G1 X209.484 Y172.21 F9000
G1 F2400
G1 X191.107 Y153.833 E0.98182
M73 P2 R64
G1 X190.46 Y153.833 F9000
G1 F2400
G1 X209.484 Y172.856 E1.01636
G1 X209.484 Y173.502 F9000
G1 F2400
G1 X189.814 Y153.833 E1.0509
G1 X189.168 Y153.833 F9000
G1 F2400
G1 X209.484 Y174.149 E1.08543
G1 X209.484 Y174.795 F9000
G1 F2400
G1 X188.521 Y153.833 E1.11997
G1 X187.875 Y153.833 F9000
G1 F2400
G1 X209.484 Y175.442 E1.1545
G1 X209.484 Y176.088 F9000
G1 F2400
G1 X187.228 Y153.833 E1.18904
G1 X186.582 Y153.833 F9000
G1 F2400
G1 X208.917 Y176.167 E1.19327
G1 X208.27 Y176.167 F9000
G1 F2400
G1 X185.936 Y153.833 E1.19327
G1 X185.289 Y153.833 F9000
G1 F2400
G1 X207.624 Y176.167 E1.19327
G1 X206.977 Y176.167 F9000
G1 F2400
G1 X184.643 Y153.833 E1.19327
G1 X183.996 Y153.833 F9000
G1 F2400
G1 X206.331 Y176.167 E1.19327
G1 X205.685 Y176.167 F9000
G1 F2400
G1 X183.35 Y153.833 E1.19327
G1 X182.704 Y153.833 F9000
G1 F2400
G1 X205.038 Y176.167 E1.19327
G1 X204.392 Y176.167 F9000
G1 F2400
G1 X182.057 Y153.833 E1.19327
G1 X181.411 Y153.833 F9000
G1 F2400
G1 X203.745 Y176.167 E1.19327
G1 X203.099 Y176.167 F9000
G1 F2400
G1 X180.764 Y153.833 E1.19327
G1 X180.118 Y153.833 F9000
G1 F2400
G1 X202.453 Y176.167 E1.19327
G1 X201.806 Y176.167 F9000
G1 F2400
G1 X179.472 Y153.833 E1.19327
G1 X178.825 Y153.833 F9000
G1 F2400
G1 X201.16 Y176.167 E1.19327
G1 X200.513 Y176.167 F9000
G1 F2400
G1 X178.179 Y153.833 E1.19327
G1 X177.532 Y153.833 F9000
G1 F2400
G1 X199.867 Y176.167 E1.19327
G1 X199.221 Y176.167 F9000
G1 F2400
G1 X176.886 Y153.833 E1.19327
G1 X176.24 Y153.833 F9000
G1 F2400
G1 X198.574 Y176.167 E1.19327
G1 X197.928 Y176.167 F9000
G1 F2400
G1 X175.593 Y153.833 E1.19327
G1 X174.947 Y153.833 F9000
G1 F2400
G1 X197.281 Y176.167 E1.19327
G1 X196.635 Y176.167 F9000
G1 F2400
G1 X174.3 Y153.833 E1.19327
G1 X173.654 Y153.833 F9000
G1 F2400
G1 X195.989 Y176.167 E1.19327
G1 X195.342 Y176.167 F9000
G1 F2400
G1 X173.007 Y153.833 E1.19327
G1 X172.361 Y153.833 F9000
G1 F2400
G1 X194.696 Y176.167 E1.19327
G1 X194.049 Y176.167 F9000
G1 F2400
G1 X171.715 Y153.833 E1.19327
G1 X171.068 Y153.833 F9000
G1 F2400
G1 X193.403 Y176.167 E1.19327
G1 X192.756 Y176.167 F9000
G1 F2400
G1 X170.422 Y153.833 E1.19327
G1 X169.775 Y153.833 F9000
G1 F2400
G1 X192.11 Y176.167 E1.19327
G1 X191.464 Y176.167 F9000
G1 F2400
G1 X169.129 Y153.833 E1.19327
G1 X168.483 Y153.833 F9000
G1 F2400
G1 X190.817 Y176.167 E1.19327
G1 X190.171 Y176.167 F9000
G1 F2400
G1 X167.836 Y153.833 E1.19327
G1 X167.19 Y153.833 F9000
G1 F2400
G1 X189.524 Y176.167 E1.19327
G1 X188.878 Y176.167 F9000
G1 F2400
G1 X166.543 Y153.833 E1.19327
G1 X165.897 Y153.833 F9000
G1 F2400
G1 X188.232 Y176.167 E1.19327
G1 X187.585 Y176.167 F9000
G1 F2400
G1 X165.251 Y153.833 E1.19327
G1 X164.604 Y153.833 F9000
G1 F2400
G1 X186.939 Y176.167 E1.19327
G1 X186.292 Y176.167 F9000
G1 F2400
G1 X163.958 Y153.833 E1.19327
G1 X163.311 Y153.833 F9000
G1 F2400
G1 X185.646 Y176.167 E1.19327
G1 X185 Y176.167 F9000
G1 F2400
G1 X162.665 Y153.833 E1.19327
G1 X162.019 Y153.833 F9000
G1 F2400
G1 X184.353 Y176.167 E1.19327
G1 X183.707 Y176.167 F9000
G1 F2400
G1 X161.372 Y153.833 E1.19327
M73 P3 R63
G1 X160.726 Y153.833 F9000
G1 F2400
G1 X183.06 Y176.167 E1.19327
G1 X182.414 Y176.167 F9000
G1 F2400
G1 X160.079 Y153.833 E1.19327
G1 X159.433 Y153.833 F9000
G1 F2400
G1 X181.768 Y176.167 E1.19327
G1 X181.121 Y176.167 F9000
G1 F2400
G1 X158.787 Y153.833 E1.19327
G1 X158.14 Y153.833 F9000
G1 F2400
G1 X180.475 Y176.167 E1.19327
G1 X179.828 Y176.167 F9000
G1 F2400
G1 X157.494 Y153.833 E1.19327
G1 X156.847 Y153.833 F9000
G1 F2400
G1 X179.182 Y176.167 E1.19327
G1 X178.536 Y176.167 F9000
G1 F2400
G1 X156.201 Y153.833 E1.19327
G1 X155.555 Y153.833 F9000
G1 F2400
G1 X177.889 Y176.167 E1.19327
G1 X177.243 Y176.167 F9000
G1 F2400
G1 X154.908 Y153.833 E1.19327
G1 X154.262 Y153.833 F9000
G1 F2400
G1 X176.596 Y176.167 E1.19327
G1 X175.95 Y176.167 F9000
G1 F2400
G1 X153.615 Y153.833 E1.19327
G1 X152.969 Y153.833 F9000
G1 F2400
G1 X175.303 Y176.167 E1.19327
G1 X174.657 Y176.167 F9000
G1 F2400
G1 X152.322 Y153.833 E1.19327
G1 X151.676 Y153.833 F9000
G1 F2400
G1 X174.011 Y176.167 E1.19327
G1 X173.364 Y176.167 F9000
G1 F2400
G1 X151.03 Y153.833 E1.19327
G1 X150.383 Y153.833 F9000
G1 F2400
G1 X172.718 Y176.167 E1.19327
G1 X172.071 Y176.167 F9000
G1 F2400
G1 X149.737 Y153.833 E1.19327
G1 X149.09 Y153.833 F9000
G1 F2400
G1 X171.425 Y176.167 E1.19327
G1 X170.779 Y176.167 F9000
G1 F2400
G1 X148.444 Y153.833 E1.19327
G1 X147.798 Y153.833 F9000
G1 F2400
G1 X170.132 Y176.167 E1.19327
G1 X169.486 Y176.167 F9000
G1 F2400
G1 X147.151 Y153.833 E1.19327
G1 X146.505 Y153.833 F9000
G1 F2400
G1 X168.839 Y176.167 E1.19327
G1 X168.193 Y176.167 F9000
G1 F2400
G1 X145.858 Y153.833 E1.19327
G1 X145.212 Y153.833 F9000
G1 F2400
G1 X167.547 Y176.167 E1.19327
G1 X166.9 Y176.167 F9000
G1 F2400
G1 X144.566 Y153.833 E1.19327
G1 X143.919 Y153.833 F9000
G1 F2400
G1 X166.254 Y176.167 E1.19327
G1 X165.607 Y176.167 F9000
G1 F2400
G1 X143.273 Y153.833 E1.19327
G1 X142.626 Y153.833 F9000
G1 F2400
G1 X164.961 Y176.167 E1.19327
G1 X164.315 Y176.167 F9000
G1 F2400
G1 X141.98 Y153.833 E1.19327
G1 X141.334 Y153.833 F9000
G1 F2400
G1 X163.668 Y176.167 E1.19327
G1 X163.022 Y176.167 F9000
G1 F2400
G1 X140.687 Y153.833 E1.19327
G1 X140.041 Y153.833 F9000
G1 F2400
G1 X162.375 Y176.167 E1.19327
G1 X161.729 Y176.167 F9000
G1 F2400
G1 X139.394 Y153.833 E1.19327
G1 X138.748 Y153.833 F9000
G1 F2400
G1 X161.083 Y176.167 E1.19327
G1 X160.436 Y176.167 F9000
G1 F2400
G1 X138.102 Y153.833 E1.19327
G1 X137.455 Y153.833 F9000
G1 F2400
G1 X159.79 Y176.167 E1.19327
