; generated by SuperSlicer 2.4 on 2022-11-14 at 21:43:44 UTC


;
;

;
;
; 

; external perimeters extrusion width = 0.40mm
; perimeters extrusion width = 0.46mm
; infill extrusion width = 0.64mm
; solid infill extrusion width = 0.56mm
; top infill extrusion width = 0.40mm
; first layer extrusion width = 0.50mm

; object:{"name":"Untitled","id":"Untitled.stl id:0 copy 0","object_center":[152.499998,150.000000,0.000000],"boundingbox_center":[152.499998,150.000000,13.700000],"boundingbox_size":[91.632004,24.998001,27.397999]}
; plater:{"center":[152.499998,150.000000,0.000000],"boundingbox_center":[152.499998,150.000000,13.700000],"boundingbox_size":[91.632004,24.998001,27.397999]}

M73 P0 R49


; Pre-Processed for Cancel-Object support by preprocess_cancellation v0.2.0
; 1 known objects
EXCLUDE_OBJECT_DEFINE NAME=Untitled_stl_id_0_copy_0 CENTER=132.422,149.621 POLYGON=[[106.884,137.701],[106.884,162.299],[198.116,162.299],[198.116,137.701]]
;TYPE:Custom
START_PRINT T_BED=60 T_EXTRUDER=200
M107
G21 ; set units to millimeters
G90 ; use absolute coordinates
M83 ; use relative distances for extrusion
; Filament gcode
;_TOOLCHANGE 0
M104 S200 ; set temperature
M109 S200 ; set temperature and wait for it to be reached
M190 S60 ; set bed temperature and wait for it to be reached
M107
;LAYER_CHANGE
;Z:0.2
;HEIGHT:0.2
G1 Z0.2 F9000
G92 E0
G1 E-0.8 F3000
M204 S1000
G1 X104.563 Y134.622 F9000
G1 E0.8 F1800
;TYPE:Skirt
;WIDTH:0.52
G1 X103.463 Y135.935 E0.06657
G1 X103.068 Y137.601 E0.06657
G1 X103.068 Y162.399 E0.96405
G1 X103.805 Y164.62 E0.09097
G1 X105.118 Y165.72 E0.06657
G1 X106.784 Y166.115 E0.06657
G1 X198.216 Y166.115 E3.55451
G1 X200.437 Y165.378 E0.09097
G1 X201.537 Y164.065 E0.06657
G1 X201.932 Y162.399 E0.06657
G1 X201.932 Y137.601 E0.96405
G1 X201.195 Y135.38 E0.09097
G1 X199.882 Y134.28 E0.06657
G1 X198.216 Y133.885 E0.06657
G1 X106.784 Y133.885 E3.55451
M73 P0 R49
G1 X104.563 Y134.622 E0.09097
G1 X104.941 Y134.972 F9000
G1 F1800
G1 X103.939 Y136.053 E0.05728
G1 X103.545 Y137.601 E0.06209
G1 X103.545 Y162.399 E0.96405
G1 X104.065 Y164.158 E0.0713
G1 X105.236 Y165.244 E0.06209
G1 X106.784 Y165.638 E0.06209
G1 X198.216 Y165.638 E3.55451
G1 X199.975 Y165.118 E0.0713
G1 X201.061 Y163.947 E0.06209
G1 X201.455 Y162.399 E0.06209
G1 X201.455 Y137.601 E0.96405
M73 P1 R49
G1 X200.935 Y135.842 E0.0713
G1 X199.764 Y134.756 E0.06209
G1 X198.216 Y134.362 E0.06209
G1 X106.784 Y134.362 E3.55451
G1 X105.025 Y134.882 E0.0713
G1 X104.941 Y134.972 E0.00481
G1 E-0.8 F3000
; printing object Untitled.stl id:0 copy 0
EXCLUDE_OBJECT_START NAME=Untitled_stl_id_0_copy_0
G1 X197.052 Y161.235 F9000
G1 E0.8 F1800
;TYPE:Internal perimeter
;WIDTH:0.5
G1 X107.948 Y161.235 E3.31877
G1 X107.948 Y138.765 E0.83691
G1 X197.052 Y138.765 E3.31877
G1 X197.052 Y161.235 E0.83691
G1 X197.509 Y161.692 F9000
G1 F1800
G1 X107.491 Y161.692 E3.35282
G1 X107.491 Y138.308 E0.87096
G1 X197.509 Y138.308 E3.35282
G1 X197.509 Y161.692 E0.87096
G1 X197.966 Y162.149 F9000
;TYPE:External perimeter
G1 F1800
G1 X107.034 Y162.149 E3.38687
G1 X107.034 Y137.851 E0.90501
G1 X197.966 Y137.851 E3.38687
M73 P1 R49
G1 X197.966 Y162.149 E0.90501
;WIPE_START
M204 S3000
G1 X197.62 Y161.949 F9000
;WIPE_END
G1 E-0.8 F3000
M204 S1000
G1 X196.983 Y139.758 F9000
G1 E0.8 F1800
;TYPE:Solid infill
;WIDTH:0.497075
G1 F2400
G1 X196.059 Y138.834 E0.04838
G1 X195.413 Y138.834 F9000
G1 F2400
G1 X196.983 Y140.404 E0.08223
G1 X196.983 Y141.05 F9000
G1 F2400
G1 X194.767 Y138.834 E0.11608
G1 X194.12 Y138.834 F9000
G1 F2400
G1 X196.983 Y141.697 E0.14993
G1 X196.983 Y142.343 F9000
G1 F2400
G1 X193.474 Y138.834 E0.18378
G1 X192.827 Y138.834 F9000
G1 F2400
G1 X196.983 Y142.99 E0.21763
G1 X196.983 Y143.636 F9000
G1 F2400
G1 X192.181 Y138.834 E0.25148
G1 X191.534 Y138.834 F9000
G1 F2400
G1 X196.983 Y144.283 E0.28533
G1 X196.983 Y144.929 F9000
G1 F2400
G1 X190.888 Y138.834 E0.31918
G1 X190.242 Y138.834 F9000
G1 F2400
G1 X196.983 Y145.575 E0.35303
G1 X196.983 Y146.222 F9000
G1 F2400
G1 X189.595 Y138.834 E0.38688
G1 X188.949 Y138.834 F9000
G1 F2400
G1 X196.983 Y146.868 E0.42073
G1 X196.983 Y147.515 F9000
G1 F2400
G1 X188.302 Y138.834 E0.45458
G1 X187.656 Y138.834 F9000
G1 F2400
G1 X196.983 Y148.161 E0.48843
G1 X196.983 Y148.807 F9000
G1 F2400
G1 X187.01 Y138.834 E0.52228
G1 X186.363 Y138.834 F9000
G1 F2400
G1 X196.983 Y149.454 E0.55613
G1 X196.983 Y150.1 F9000
G1 F2400
G1 X185.717 Y138.834 E0.58998
G1 X185.07 Y138.834 F9000
G1 F2400
G1 X196.983 Y150.747 E0.62383
G1 X196.983 Y151.393 F9000
G1 F2400
G1 X184.424 Y138.834 E0.65768
G1 X183.778 Y138.834 F9000
G1 F2400
G1 X196.983 Y152.039 E0.69153
G1 X196.983 Y152.686 F9000
G1 F2400
G1 X183.131 Y138.834 E0.72538
G1 X182.485 Y138.834 F9000
G1 F2400
G1 X196.983 Y153.332 E0.75923
G1 X196.983 Y153.979 F9000
G1 F2400
G1 X181.838 Y138.834 E0.79308
G1 X181.192 Y138.834 F9000
G1 F2400
G1 X196.983 Y154.625 E0.82693
G1 X196.983 Y155.271 F9000
G1 F2400
G1 X180.546 Y138.834 E0.86078
G1 X179.899 Y138.834 F9000
G1 F2400
G1 X196.983 Y155.918 E0.89463
G1 X196.983 Y156.564 F9000
G1 F2400
G1 X179.253 Y138.834 E0.92848
G1 X178.606 Y138.834 F9000
G1 F2400
G1 X196.983 Y157.211 E0.96233
G1 X196.983 Y157.857 F9000
G1 F2400
G1 X177.96 Y138.834 E0.99618
G1 X177.314 Y138.834 F9000
G1 F2400
G1 X196.983 Y158.503 E1.03003
G1 X196.983 Y159.15 F9000
G1 F2400
G1 X176.667 Y138.834 E1.06388
G1 X176.021 Y138.834 F9000
G1 F2400
G1 X196.983 Y159.796 E1.09773
G1 X196.983 Y160.443 F9000
G1 F2400
G1 X175.374 Y138.834 E1.13158
G1 X174.728 Y138.834 F9000
G1 F2400
G1 X196.983 Y161.089 E1.16543
G1 X196.414 Y161.166 F9000
G1 F2400
G1 X174.081 Y138.834 E1.16947
G1 X173.435 Y138.834 F9000
G1 F2400
G1 X195.768 Y161.166 E1.16947
G1 X195.121 Y161.166 F9000
G1 F2400
G1 X172.789 Y138.834 E1.16947
G1 X172.142 Y138.834 F9000
G1 F2400
G1 X194.475 Y161.166 E1.16947
G1 X193.828 Y161.166 F9000
G1 F2400
G1 X171.496 Y138.834 E1.16947
G1 X170.849 Y138.834 F9000
G1 F2400
G1 X193.182 Y161.166 E1.16947
G1 X192.536 Y161.166 F9000
G1 F2400
G1 X170.203 Y138.834 E1.16947
G1 X169.557 Y138.834 F9000
G1 F2400
G1 X191.889 Y161.166 E1.16947
G1 X191.243 Y161.166 F9000
G1 F2400
G1 X168.91 Y138.834 E1.16947
G1 X168.264 Y138.834 F9000
G1 F2400
G1 X190.596 Y161.166 E1.16947
G1 X189.95 Y161.166 F9000
G1 F2400
G1 X167.617 Y138.834 E1.16947
G1 X166.971 Y138.834 F9000
G1 F2400
G1 X189.304 Y161.166 E1.16947
G1 X188.657 Y161.166 F9000
G1 F2400
G1 X166.325 Y138.834 E1.16947
M73 P2 R48
G1 X165.678 Y138.834 F9000
G1 F2400
G1 X188.011 Y161.166 E1.16947
G1 X187.364 Y161.166 F9000
G1 F2400
G1 X165.032 Y138.834 E1.16947
G1 X164.385 Y138.834 F9000
G1 F2400
G1 X186.718 Y161.166 E1.16947
G1 X186.072 Y161.166 F9000
G1 F2400
G1 X163.739 Y138.834 E1.16947
G1 X163.093 Y138.834 F9000
G1 F2400
G1 X185.425 Y161.166 E1.16947
G1 X184.779 Y161.166 F9000
G1 F2400
G1 X162.446 Y138.834 E1.16947
M73 P3 R48
G1 X161.8 Y138.834 F9000
G1 F2400
G1 X184.132 Y161.166 E1.16947
G1 X183.486 Y161.166 F9000
G1 F2400
G1 X161.153 Y138.834 E1.16947
G1 X160.507 Y138.834 F9000
G1 F2400
G1 X182.84 Y161.166 E1.16947
G1 X182.193 Y161.166 F9000
G1 F2400
G1 X159.861 Y138.834 E1.16947
G1 X159.214 Y138.834 F9000
G1 F2400
G1 X181.547 Y161.166 E1.16947
G1 X180.9 Y161.166 F9000
G1 F2400
G1 X158.568 Y138.834 E1.16947
G1 X157.921 Y138.834 F9000
G1 F2400
G1 X180.254 Y161.166 E1.16947
G1 X179.607 Y161.166 F9000
G1 F2400
G1 X157.275 Y138.834 E1.16947
G1 X156.628 Y138.834 F9000
G1 F2400
G1 X178.961 Y161.166 E1.16947
G1 X178.315 Y161.166 F9000
G1 F2400
G1 X155.982 Y138.834 E1.16947
G1 X155.336 Y138.834 F9000
G1 F2400
G1 X177.668 Y161.166 E1.16947
G1 X177.022 Y161.166 F9000
G1 F2400
G1 X154.689 Y138.834 E1.16947
G1 X154.043 Y138.834 F9000
G1 F2400
G1 X176.375 Y161.166 E1.16947
G1 X175.729 Y161.166 F9000
G1 F2400
G1 X153.396 Y138.834 E1.16947
G1 X152.75 Y138.834 F9000
G1 F2400
G1 X175.083 Y161.166 E1.16947
G1 X174.436 Y161.166 F9000
G1 F2400
G1 X152.104 Y138.834 E1.16947
G1 X151.457 Y138.834 F9000
G1 F2400
G1 X173.79 Y161.166 E1.16947
G1 X173.143 Y161.166 F9000
G1 F2400
G1 X150.811 Y138.834 E1.16947
G1 X150.164 Y138.834 F9000
G1 F2400
G1 X172.497 Y161.166 E1.16947
G1 X171.851 Y161.166 F9000
G1 F2400
G1 X149.518 Y138.834 E1.16947
G1 X148.872 Y138.834 F9000
G1 F2400
G1 X171.204 Y161.166 E1.16947
G1 X170.558 Y161.166 F9000
G1 F2400
G1 X148.225 Y138.834 E1.16947
G1 X147.579 Y138.834 F9000
G1 F2400
G1 X169.911 Y161.166 E1.16947
G1 X169.265 Y161.166 F9000
G1 F2400
G1 X146.932 Y138.834 E1.16947
G1 X146.286 Y138.834 F9000
G1 F2400
G1 X168.619 Y161.166 E1.16947
G1 X167.972 Y161.166 F9000
G1 F2400
G1 X145.64 Y138.834 E1.16947
G1 X144.993 Y138.834 F9000
G1 F2400
G1 X167.326 Y161.166 E1.16947
G1 X166.679 Y161.166 F9000
G1 F2400
G1 X144.347 Y138.834 E1.16947
G1 X143.7 Y138.834 F9000
G1 F2400
G1 X166.033 Y161.166 E1.16947
M73 P3 R48
G1 X165.387 Y161.166 F9000
G1 F2400
G1 X143.054 Y138.834 E1.16947
G1 X142.408 Y138.834 F9000
G1 F2400
G1 X164.74 Y161.166 E1.16947
G1 X164.094 Y161.166 F9000
G1 F2400
G1 X141.761 Y138.834 E1.16947
G1 X141.115 Y138.834 F9000
G1 F2400
G1 X163.447 Y161.166 E1.16947
G1 X162.801 Y161.166 F9000
G1 F2400
G1 X140.468 Y138.834 E1.16947
G1 X139.822 Y138.834 F9000
G1 F2400
G1 X162.154 Y161.166 E1.16947
G1 X161.508 Y161.166 F9000
G1 F2400
G1 X139.175 Y138.834 E1.16947
G1 X138.529 Y138.834 F9000
G1 F2400
G1 X160.862 Y161.166 E1.16947
G1 X160.215 Y161.166 F9000
G1 F2400
G1 X137.883 Y138.834 E1.16947
G1 X137.236 Y138.834 F9000
G1 F2400
G1 X159.569 Y161.166 E1.16947
G1 X158.922 Y161.166 F9000
G1 F2400
G1 X136.59 Y138.834 E1.16947
G1 X135.943 Y138.834 F9000
G1 F2400
G1 X158.276 Y161.166 E1.16947
G1 X157.63 Y161.166 F9000
G1 F2400
G1 X135.297 Y138.834 E1.16947
G1 X134.651 Y138.834 F9000
G1 F2400
G1 X156.983 Y161.166 E1.16947
G1 X156.337 Y161.166 F9000
G1 F2400
G1 X134.004 Y138.834 E1.16947
G1 X133.358 Y138.834 F9000
G1 F2400
G1 X155.69 Y161.166 E1.16947
G1 X155.044 Y161.166 F9000
G1 F2400
G1 X132.711 Y138.834 E1.16947
G1 X132.065 Y138.834 F9000
G1 F2400
G1 X154.398 Y161.166 E1.16947
G1 X153.751 Y161.166 F9000
G1 F2400
G1 X131.419 Y138.834 E1.16947
G1 X130.772 Y138.834 F9000
G1 F2400
G1 X153.105 Y161.166 E1.16947
G1 X152.458 Y161.166 F9000
G1 F2400
G1 X130.126 Y138.834 E1.16947
G1 X129.479 Y138.834 F9000
G1 F2400
G1 X151.812 Y161.166 E1.16947
G1 X151.166 Y161.166 F9000
G1 F2400
G1 X128.833 Y138.834 E1.16947
G1 X128.187 Y138.834 F9000
G1 F2400
G1 X150.519 Y161.166 E1.16947
G1 X149.873 Y161.166 F9000
G1 F2400
G1 X127.54 Y138.834 E1.16947
G1 X126.894 Y138.834 F9000
G1 F2400
G1 X149.226 Y161.166 E1.16947
G1 X148.58 Y161.166 F9000
G1 F2400
G1 X126.247 Y138.834 E1.16947
G1 X125.601 Y138.834 F9000
G1 F2400
G1 X147.934 Y161.166 E1.16947
G1 X147.287 Y161.166 F9000
G1 F2400
G1 X124.955 Y138.834 E1.16947
G1 X124.308 Y138.834 F9000
G1 F2400
G1 X146.641 Y161.166 E1.16947
G1 X145.994 Y161.166 F9000
G1 F2400
G1 X123.662 Y138.834 E1.16947
G1 X123.015 Y138.834 F9000
G1 F2400
G1 X145.348 Y161.166 E1.16947
G1 X144.701 Y161.166 F9000
G1 F2400
G1 X122.369 Y138.834 E1.16947
G1 X121.722 Y138.834 F9000
G1 F2400
G1 X144.055 Y161.166 E1.16947
M73 P4 R47
G1 X143.409 Y161.166 F9000
G1 F2400
G1 X121.076 Y138.834 E1.16947
G1 X120.43 Y138.834 F9000
G1 F2400
G1 X142.762 Y161.166 E1.16947
G1 X142.116 Y161.166 F9000
G1 F2400
G1 X119.783 Y138.834 E1.16947
G1 X119.137 Y138.834 F9000
G1 F2400
G1 X141.469 Y161.166 E1.16947
G1 X140.823 Y161.166 F9000
G1 F2400
G1 X118.49 Y138.834 E1.16947
G1 X117.844 Y138.834 F9000
G1 F2400
G1 X140.177 Y161.166 E1.16947
G1 X139.53 Y161.166 F9000
G1 F2400
G1 X117.198 Y138.834 E1.16947
G1 X116.551 Y138.834 F9000
M73 P5 R47
G1 F2400
G1 X138.884 Y161.166 E1.16947
G1 X138.237 Y161.166 F9000
G1 F2400
G1 X115.905 Y138.834 E1.16947
G1 X115.258 Y138.834 F9000
G1 F2400
G1 X137.591 Y161.166 E1.16947
G1 X136.945 Y161.166 F9000
G1 F2400
G1 X114.612 Y138.834 E1.16947
G1 X113.966 Y138.834 F9000
G1 F2400
G1 X136.298 Y161.166 E1.16947
G1 X135.652 Y161.166 F9000
G1 F2400
G1 X113.319 Y138.834 E1.16947
G1 X112.673 Y138.834 F9000
G1 F2400
G1 X135.005 Y161.166 E1.16947
G1 X134.359 Y161.166 F9000
G1 F2400
G1 X112.026 Y138.834 E1.16947
G1 X111.38 Y138.834 F9000
G1 F2400
G1 X133.713 Y161.166 E1.16947
G1 X133.066 Y161.166 F9000
G1 F2400
G1 X110.734 Y138.834 E1.16947
G1 X110.087 Y138.834 F9000
G1 F2400
G1 X132.42 Y161.166 E1.16947
G1 X131.773 Y161.166 F9000
G1 F2400
G1 X109.441 Y138.834 E1.16947
G1 X108.794 Y138.834 F9000
G1 F2400
G1 X131.127 Y161.166 E1.16947
G1 X130.481 Y161.166 F9000
G1 F2400
G1 X108.148 Y138.834 E1.16947
G1 X108.017 Y139.349 F9000
G1 F2400
G1 X129.834 Y161.166 E1.14249
G1 X129.188 Y161.166 F9000
G1 F2400
G1 X108.017 Y139.995 E1.10864
G1 X108.017 Y140.642 F9000
G1 F2400
G1 X128.541 Y161.166 E1.07479
G1 X127.895 Y161.166 F9000
G1 F2400
G1 X108.017 Y141.288 E1.04094
G1 X108.017 Y141.935 F9000
G1 F2400
G1 X127.248 Y161.166 E1.00709
G1 X126.602 Y161.166 F9000
G1 F2400
G1 X108.017 Y142.581 E0.97324
G1 X108.017 Y143.227 F9000
G1 F2400
G1 X125.956 Y161.166 E0.93939
G1 X125.309 Y161.166 F9000
G1 F2400
G1 X108.017 Y143.874 E0.90554
G1 X108.017 Y144.52 F9000
G1 F2400
G1 X124.663 Y161.166 E0.87169
G1 X124.016 Y161.166 F9000
G1 F2400
G1 X108.017 Y145.167 E0.83784
G1 X108.017 Y145.813 F9000
G1 F2400
G1 X123.37 Y161.166 E0.80399
G1 X122.724 Y161.166 F9000
G1 F2400
G1 X108.017 Y146.459 E0.77014
G1 X108.017 Y147.106 F9000
G1 F2400
G1 X122.077 Y161.166 E0.73629
G1 X121.431 Y161.166 F9000
G1 F2400
G1 X108.017 Y147.752 E0.70244
G1 X108.017 Y148.399 F9000
G1 F2400
G1 X120.784 Y161.166 E0.66859
G1 X120.138 Y161.166 F9000
G1 F2400
G1 X108.017 Y149.045 E0.63474
G1 X108.017 Y149.691 F9000
G1 F2400
G1 X119.492 Y161.166 E0.60089
G1 X118.845 Y161.166 F9000
G1 F2400
G1 X108.017 Y150.338 E0.56704
G1 X108.017 Y150.984 F9000
G1 F2400
G1 X118.199 Y161.166 E0.5332
M73 P5 R47
G1 X117.552 Y161.166 F9000
G1 F2400
G1 X108.017 Y151.631 E0.49935
G1 X108.017 Y152.277 F9000
G1 F2400
G1 X116.906 Y161.166 E0.4655
G1 X116.26 Y161.166 F9000
G1 F2400
G1 X108.017 Y152.923 E0.43165
G1 X108.017 Y153.57 F9000
G1 F2400
G1 X115.613 Y161.166 E0.3978
G1 X114.967 Y161.166 F9000
G1 F2400
G1 X108.017 Y154.216 E0.36395
G1 X108.017 Y154.863 F9000
G1 F2400
G1 X114.32 Y161.166 E0.3301
G1 X113.674 Y161.166 F9000
G1 F2400
G1 X108.017 Y155.509 E0.29625
G1 X108.017 Y156.155 F9000
G1 F2400
G1 X113.028 Y161.166 E0.2624
G1 X112.381 Y161.166 F9000
G1 F2400
G1 X108.017 Y156.802 E0.22855
G1 X108.017 Y157.448 F9000
G1 F2400
G1 X111.735 Y161.166 E0.1947
G1 X111.088 Y161.166 F9000
G1 F2400
G1 X108.017 Y158.095 E0.16085
G1 X108.017 Y158.741 F9000
G1 F2400
G1 X110.442 Y161.166 E0.127
G1 X109.796 Y161.166 F9000
G1 F2400
G1 X108.017 Y159.387 E0.09315
G1 X108.017 Y160.034 F9000
G1 F2400
G1 X109.149 Y161.166 E0.0593
G1 X108.503 Y161.166 F9000
G1 F2400
G1 X108.017 Y160.68 E0.02545
;LAYER_CHANGE
;Z:0.4
;HEIGHT:0.2
; stop printing object Untitled.stl id:0 copy 0
EXCLUDE_OBJECT_END NAME=Untitled_stl_id_0_copy_0
M204 S3000
G1 Z0.4 F9000
G92 E0
; printing object Untitled.stl id:0 copy 0
EXCLUDE_OBJECT_START NAME=Untitled_stl_id_0_copy_0
M204 S2000
G1 X197.262 Y161.445
;TYPE:Internal perimeter
;WIDTH:0.46
G1 F4200
G1 X107.738 Y161.445 E3.04262
G1 X107.738 Y138.555 E0.77795
G1 X197.262 Y138.555 E3.04262
G1 X197.262 Y161.445 E0.77795
G1 X197.679 Y161.862 F9000
G1 F4200
G1 X107.321 Y161.862 E3.07097
G1 X107.321 Y138.138 E0.8063
G1 X197.679 Y138.138 E3.07097
G1 X197.679 Y161.862 E0.8063
M204 S1000
G1 X198.066 Y162.249 F9000
;TYPE:External perimeter
;WIDTH:0.4
G1 F3600
G1 X106.934 Y162.249 E2.65171
G1 X106.934 Y137.751 E0.71283
G1 X198.066 Y137.751 E2.65171
G1 X198.066 Y162.249 E0.71283
;WIPE_START
M204 S3000
G1 X197.72 Y162.049 F9000
;WIPE_END
M204 S2000
G1 X197.214 Y160.352
;TYPE:Solid infill
;WIDTH:0.556749
G1 F3600
G1 X196.169 Y161.397 E0.06192
G1 X195.438 Y161.397 F9000
G1 F3600
G1 X197.214 Y159.621 E0.10525
G1 X197.214 Y158.89 F9000
G1 F3600
G1 X194.707 Y161.397 E0.14857
G1 X193.975 Y161.397 F9000
G1 F3600
G1 X197.214 Y158.158 E0.19189
G1 X197.214 Y157.427 F9000
G1 F3600
G1 X193.244 Y161.397 E0.23521
G1 X192.513 Y161.397 F9000
G1 F3600
G1 X197.214 Y156.696 E0.27853
G1 X197.214 Y155.964 F9000
G1 F3600
G1 X191.781 Y161.397 E0.32185
G1 X191.05 Y161.397 F9000
G1 F3600
