; generated by SuperSlicer 2.4 on 2022-05-28 at 17:44:20 UTC


;
;

;
;
; 

; external perimeters extrusion width = 0.40mm
; perimeters extrusion width = 0.40mm
; infill extrusion width = 0.72mm
; solid infill extrusion width = 0.56mm
; top infill extrusion width = 0.40mm
; support material extrusion width = 0.40mm
; first layer extrusion width = 0.48mm

; object:{"name":"Deck_Mate_01","id":"Deck_Mate_01.stl id:0 copy 0","object_center":[152.500000,150.000000,0.000000],"boundingbox_center":[152.500000,150.000000,12.461916],"boundingbox_size":[86.706039,122.810043,24.923832]}
; plater:{"center":[152.500000,150.000000,0.000000],"boundingbox_center":[152.500000,150.000000,12.461916],"boundingbox_size":[86.706039,122.810043,24.923832]}

M73 P0 R64
;TYPE:Custom
START_PRINT T_BED=60 T_EXTRUDER=200
M107
G21 ; set units to millimeters
G90 ; use absolute coordinates
M83 ; use relative distances for extrusion
; Filament gcode
M109 S200 ; set temperature and wait for it to be reached
M190 S60 ; set bed temperature and wait for it to be reached
M107
;LAYER_CHANGE
;Z:0.24
;HEIGHT:0.24
G1 Z0.24 F9000
G92 E0
M73 P0 R63
G1 E-0.8 F3000
M204 S1000
G1 X136.416 Y90.427 F9000
G1 E0.8 F1800
;TYPE:Skirt
;WIDTH:0.52
G1 X135.562 Y91.907 E0.07828
G1 X108.556 Y182.38 E4.32544
G1 X108.136 Y184.524 E0.10008
G1 X105.238 Y203.181 E0.86496
G1 X105.194 Y207.034 E0.17655
G1 X106.049 Y209.399 E0.11519
G1 X107.415 Y210.425 E0.07828
G1 X121.44 Y216.542 E0.70098
G1 X122.919 Y216.851 E0.06921
G1 X182.081 Y216.851 E2.71029
G1 X183.56 Y216.542 E0.06921
G1 X197.585 Y210.425 E0.70098
G1 X199.411 Y208.697 E0.11519
G1 X199.806 Y207.034 E0.07828
G1 X199.762 Y203.181 E0.17654
G1 X196.864 Y184.521 E0.86512
G1 X196.443 Y182.377 E0.10007
G1 X169.438 Y91.907 E4.32529
G1 X168.863 Y90.76 E0.05878
G1 X167.555 Y89.66 E0.07828
G1 X165.893 Y89.266 E0.07828
G1 X139.107 Y89.266 E1.22708
G1 X137.844 Y89.488 E0.05878
G1 X136.416 Y90.427 E0.07828
G1 X136.828 Y90.673 F9000
G1 F1800
G1 X136.009 Y92.041 E0.073
G1 X109.003 Y182.513 E4.32544
G1 X108.597 Y184.596 E0.09718
G1 X105.699 Y203.252 E0.86496
G1 X105.66 Y207.034 E0.17327
G1 X106.341 Y209.019 E0.09611
G1 X107.601 Y209.998 E0.07311
G1 X121.627 Y216.115 E0.70098
M73 P1 R63
G1 X122.919 Y216.385 E0.06049
G1 X182.081 Y216.385 E2.71029
G1 X183.373 Y216.115 E0.06049
G1 X197.399 Y209.998 E0.70098
G1 X198.946 Y208.581 E0.09611
G1 X199.339 Y207.034 E0.07311
G1 X199.301 Y203.253 E0.17326
G1 X196.403 Y184.592 E0.86512
G1 X195.996 Y182.51 E0.09717
G1 X168.991 Y92.041 E4.32529
G1 X168.609 Y91.211 E0.04182
G1 X167.439 Y90.126 E0.07311
G1 X165.893 Y89.732 E0.07311
G1 X139.107 Y89.732 E1.22708
G1 X138.204 Y89.861 E0.04182
G1 X136.828 Y90.673 E0.0732
G1 E-0.8 F3000
; printing object Deck_Mate_01.stl id:0 copy 0
G1 X194.707 Y203.749 F9000
G1 E0.8 F1800
;TYPE:Support material interface
;WIDTH:0.48

G1 X196.106 Y203.749 E0.05861
G1 X196.106 Y207.034 E0.13767
G1 X194.177 Y207.034 E0.08084
G1 X194.505 Y206.194 E0.03781
G1 X194.527 Y206.12 E0.00323
G1 X194.646 Y205.592 E0.0227
G1 X194.657 Y205.509 E0.00349
G1 X194.706 Y204.639 E0.03651
G1 X194.707 Y204.611 E0.0012
G1 X194.707 Y203.749 E0.03612
G1 X195.999 Y204.276 F9000
G1 F1800
G1 X194.999 Y204.276 E0.04192
G1 X194.999 Y204.615 E0.01419
G1 X194.998 Y204.652 E0.00154
G1 X194.992 Y204.752 E0.00422
G1 X195.815 Y204.752 E0.03448
G1 X195.815 Y205.228 E0.01995
G1 X194.965 Y205.228 E0.03561
G1 X194.948 Y205.538 E0.01298
G1 X194.933 Y205.644 E0.00449
G1 X194.919 Y205.704 E0.00261
G1 X195.815 Y205.704 E0.03753
G1 X195.815 Y206.181 E0.01995
G1 X194.812 Y206.181 E0.042
G1 X194.809 Y206.195 E0.00061
G1 X194.78 Y206.29 E0.00416
G1 X194.637 Y206.657 E0.01651
G1 X195.999 Y206.657 E0.05707
G1 E-0.8 F3000
G1 X110.822 Y207.034 F9000
G1 E0.8 F1800

G1 X108.894 Y207.034 E0.0808
G1 X108.894 Y203.749 E0.13767
G1 X110.293 Y203.749 E0.05862
G1 X110.293 Y204.611 E0.03612
G1 X110.294 Y204.639 E0.0012
G1 X110.331 Y205.301 E0.02775
G1 X110.343 Y205.509 E0.00875
G1 X110.354 Y205.59 E0.00344
G1 X110.466 Y206.096 E0.02169
G1 X110.488 Y206.168 E0.00318
G1 X110.822 Y207.034 E0.03889
G1 E-0.8 F3000
G1 X110.186 Y204.276 F9000
G1 E0.8 F1800

G1 X109.185 Y204.276 E0.04192
G1 X109.185 Y204.752 E0.01995
G1 X110.008 Y204.752 E0.03449
G1 X110.035 Y205.228 E0.01998
G1 X109.185 Y205.228 E0.03561
G1 X109.185 Y205.704 E0.01995
G1 X110.081 Y205.704 E0.03753
G1 X110.184 Y206.169 E0.01996
G1 X110.187 Y206.181 E0.00049
G1 X109.185 Y206.181 E0.042
G1 X109.185 Y206.657 E0.01995
G1 X110.562 Y206.657 E0.05767
G1 E-0.8 F3000
G1 X139.107 Y169.811 F9000
G1 E0.8 F1800

G1 X139.107 Y166.821 E0.12527
G1 X165.893 Y166.821 E1.12231
G1 X165.893 Y169.816 E0.12551
G1 X165.772 Y169.862 E0.00541
G1 X165.725 Y169.879 E0.00207
G1 X165.436 Y169.988 E0.01295
G1 X165.147 Y170.052 E0.01243
G1 X164.902 Y170.107 E0.01049
G1 X164.663 Y170.107 E0.01004
G1 X164.491 Y169.818 E0.01408
G1 X164.52 Y169.801 E0.00142
G1 X164.385 Y169.568 E0.0113
G1 X164.211 Y169.265 E0.01463
G1 X163.747 Y168.998 E0.02242
G1 X141.253 Y168.998 E0.94252
G1 X140.789 Y169.265 E0.02242
G1 X140.615 Y169.568 E0.01463
G1 X140.587 Y169.616 E0.00232
G1 X140.304 Y170.107 E0.02376
G1 X140.124 Y170.107 E0.00752
G1 X140.029 Y170.096 E0.00402
G1 X139.68 Y170.005 E0.01508
G1 X139.343 Y169.918 E0.01459
G1 X139.107 Y169.811 E0.01086
G1 E-0.8 F3000
G1 X165.785 Y167.14 F9000
G1 E0.8 F1800

G1 X139.399 Y167.14 E1.10561
G1 X139.399 Y167.616 E0.01995
G1 X165.601 Y167.616 E1.09789
G1 X165.601 Y168.092 E0.01995
G1 X139.399 Y168.092 E1.09789
G1 X139.399 Y168.568 E0.01995
G1 X165.601 Y168.568 E1.09789
G1 X165.601 Y169.044 E0.01995
G1 X164.411 Y169.044 E0.04988
G1 X164.424 Y169.052 E0.00064
G1 X164.638 Y169.422 E0.0179
G1 X164.694 Y169.52 E0.00477
G1 X165.785 Y169.52 E0.04571
G1 E-0.8 F3000
G1 X140.958 Y169.044 F9000
G1 E0.8 F1800

G1 X139.399 Y169.044 E0.06532
G1 X139.399 Y169.52 E0.01995
G1 X140.518 Y169.52 E0.04691
G1 E-0.8 F3000
G1 X140.518 Y143.25 F9000
G1 E0.8 F1800

G1 X139.107 Y143.25 E0.05912
G1 X139.107 Y141.256 E0.08354
G1 X139.26 Y141.187 E0.00702
G1 X139.343 Y141.149 E0.00384
G1 X139.68 Y141.062 E0.01459
G1 X140.03 Y140.971 E0.01513
G1 X140.319 Y140.937 E0.0122
G1 X140.342 Y140.967 E0.00158
G1 X140.398 Y141.062 E0.0046
G1 X140.509 Y141.249 E0.00913
G1 X140.48 Y141.266 E0.00142
G1 X140.615 Y141.499 E0.0113
G1 X140.743 Y141.721 E0.01071
G1 X140.789 Y141.802 E0.00392
G1 X141.083 Y141.972 E0.01422
G1 X141.253 Y142.069 E0.00821
G1 X163.747 Y142.069 E0.94252
G1 X164.211 Y141.802 E0.02242
G1 X164.247 Y141.738 E0.00309
G1 X164.385 Y141.499 E0.01154
G1 X164.413 Y141.451 E0.00232
G1 X164.529 Y141.251 E0.00972
G1 X164.545 Y141.222 E0.00139
G1 X164.711 Y140.936 E0.01383
G1 X164.852 Y140.949 E0.00596
G1 X165.147 Y141.015 E0.01264
G1 X165.436 Y141.079 E0.01243
G1 X165.725 Y141.188 E0.01295
G1 X165.771 Y141.205 E0.00204
G1 X165.893 Y141.251 E0.00544
G1 X165.893 Y143.25 E0.08377
G1 X140.518 Y143.25 E1.06319
G1 E-0.8 F3000
G1 X165.785 Y141.43 F9000
G1 E0.8 F1800

G1 X164.762 Y141.43 E0.04289
G1 X164.665 Y141.597 E0.00808
G1 X164.638 Y141.645 E0.00232
G1 X164.5 Y141.884 E0.01154
G1 X164.487 Y141.906 E0.00109
G1 X165.601 Y141.906 E0.04669
G1 X165.601 Y142.382 E0.01995
G1 X139.399 Y142.382 E1.09789
G1 X139.399 Y141.906 E0.01995
G1 X140.513 Y141.906 E0.0467
G1 X140.49 Y141.867 E0.00192
G1 X140.362 Y141.645 E0.01071
G1 X140.238 Y141.43 E0.01041
G1 X139.214 Y141.43 E0.0429
G1 E-0.8 F3000
G1 X165.785 Y142.858 F9000
G1 E0.8 F1800

G1 X139.214 Y142.858 E1.11333
G1 E-0.8 F3000
G1 X139.214 Y99.608 F9000
G1 E0.8 F1800

G1 X139.107 Y99.608 E0.00449
G1 X139.107 Y96.108 E0.14665
G1 X139.107 Y92.965 E0.13169
G1 X165.893 Y92.965 E1.12231
G1 X165.893 Y96.465 E0.14665
G1 X165.893 Y99.608 E0.13169
G1 X165.185 Y99.608 E0.02967
G1 X165.174 Y99.482 E0.00529
G1 X165.085 Y98.404 E0.04533
G1 X165.081 Y98.371 E0.0014
G1 X165.001 Y97.834 E0.02275
G1 X164.923 Y97.316 E0.02196
G1 X164.912 Y97.263 E0.00224
G1 X164.889 Y97.172 E0.00393
G1 X164.843 Y96.995 E0.00767
G1 X164.811 Y96.871 E0.00537
G1 X164.807 Y96.856 E0.00067
G1 X164.799 Y96.827 E0.00124
G1 X164.744 Y96.614 E0.0092
G1 X164.733 Y96.572 E0.00185
G1 X164.718 Y96.576 E0.00065
G1 X164.579 Y96.042 E0.02309
G1 X164.042 Y95.625 E0.0285
G1 X161.427 Y95.614 E0.1096
G1 X161.098 Y95.613 E0.01375
G1 X140.951 Y95.636 E0.8442
G1 X140.413 Y96.051 E0.02847
G1 X140.264 Y96.614 E0.0244
G1 X140.249 Y96.61 E0.00065
G1 X140.22 Y96.721 E0.00481
G1 X140.183 Y96.861 E0.00608
G1 X140.132 Y97.054 E0.00833
G1 X140.123 Y97.099 E0.00193
G1 X139.999 Y97.834 E0.03124
G1 X139.94 Y98.181 E0.01475
G1 X139.935 Y98.221 E0.00167
G1 X139.812 Y99.608 E0.05836
G1 X139.214 Y99.608 E0.02505
G1 E-0.8 F3000
G1 X165.785 Y93.343 F9000
G1 E0.8 F1800

G1 X139.399 Y93.343 E1.10561
G1 X139.399 Y93.819 E0.01995
G1 X165.601 Y93.819 E1.09789
G1 X165.601 Y94.296 E0.01995
G1 X139.399 Y94.296 E1.09789
G1 X139.399 Y94.772 E0.01995
G1 X165.601 Y94.772 E1.09789
G1 X165.601 Y95.248 E0.01995
G1 X139.399 Y95.248 E1.09789
G1 X139.399 Y95.724 E0.01995
G1 X140.36 Y95.724 E0.04028
G1 X140.156 Y95.881 E0.01079
G1 X140.072 Y96.2 E0.01382
G1 X139.399 Y96.2 E0.02822
G1 X139.399 Y96.676 E0.01995
G1 X139.93 Y96.676 E0.02228
G1 X139.901 Y96.787 E0.00481
G1 X139.849 Y96.986 E0.0086
G1 X139.836 Y97.044 E0.00248
G1 X139.818 Y97.152 E0.00461
G1 X139.399 Y97.152 E0.01757
G1 X139.399 Y97.628 E0.01995
G1 X139.738 Y97.628 E0.01421
G1 X139.711 Y97.785 E0.00668
G1 X139.657 Y98.104 E0.01356
G1 X139.399 Y98.104 E0.01084
G1 X139.399 Y98.581 E0.01995
G1 X139.611 Y98.581 E0.00888
G1 X139.568 Y99.057 E0.02003
G1 X139.214 Y99.057 E0.01484
G1 E-0.8 F3000
G1 X165.785 Y95.724 F9000
G1 E0.8 F1800

G1 X164.645 Y95.724 E0.0478
G1 X164.836 Y95.873 E0.01017
G1 X164.921 Y96.2 E0.01416
G1 X165.601 Y96.2 E0.02849
G1 X165.601 Y96.465 E0.01111
G1 X165.601 Y96.676 E0.00883
G1 X165.061 Y96.676 E0.02264
G1 X165.081 Y96.754 E0.00336
G1 X165.089 Y96.782 E0.00124
G1 X165.093 Y96.798 E0.00067
G1 X165.125 Y96.922 E0.00538
G1 X165.171 Y97.099 E0.00767
G1 X165.184 Y97.152 E0.00229
G1 X165.601 Y97.152 E0.01746
G1 X165.601 Y97.628 E0.01995
G1 X165.264 Y97.628 E0.01411
G1 X165.289 Y97.791 E0.00688
G1 X165.336 Y98.104 E0.01329
G1 X165.601 Y98.104 E0.01112
G1 X165.601 Y98.581 E0.01995
G1 X165.392 Y98.581 E0.00877
G1 X165.431 Y99.057 E0.02002
G1 X165.785 Y99.057 E0.01484
G1 E-0.8 F3000
G1 X173.275 Y203.108 F9000
G1 E0.8 F1800
;TYPE:Support material
G1 X182.081 Y203.108 E0.36895
G1 X182.081 Y205.923 E0.11797
G1 X182.081 Y207.249 E0.05553
G1 X182.081 Y213.151 E0.24733
G1 X173.275 Y213.151 E0.36895
G1 X173.275 Y203.108 E0.42083
G1 X181.542 Y213.044 F9000
M73 P1 R62
G1 F1800
G1 X181.542 Y203.399 E0.40413
G1 X181.066 Y203.399 E0.01995
G1 X181.066 Y212.86 E0.39641
G1 X180.59 Y212.86 E0.01995
G1 X180.59 Y203.399 E0.39641
G1 X180.114 Y203.399 E0.01995
G1 X180.114 Y212.86 E0.39641
G1 X179.638 Y212.86 E0.01995
G1 X179.638 Y203.399 E0.39641
G1 X179.162 Y203.399 E0.01995
G1 X179.162 Y212.86 E0.39641
M73 P2 R62
G1 X178.686 Y212.86 E0.01995
G1 X178.686 Y203.399 E0.39641
G1 X178.21 Y203.399 E0.01995
G1 X178.21 Y212.86 E0.39641
G1 X177.734 Y212.86 E0.01995
G1 X177.734 Y203.399 E0.39641
G1 X177.258 Y203.399 E0.01995
G1 X177.258 Y212.86 E0.39641
G1 X176.781 Y212.86 E0.01995
G1 X176.781 Y203.399 E0.39641
G1 X176.305 Y203.399 E0.01995
G1 X176.305 Y212.86 E0.39641
G1 X175.829 Y212.86 E0.01995
G1 X175.829 Y203.399 E0.39641
G1 X175.353 Y203.399 E0.01995
G1 X175.353 Y212.86 E0.39641
G1 X174.877 Y212.86 E0.01995
G1 X174.877 Y203.399 E0.39641
G1 X174.401 Y203.399 E0.01995
G1 X174.401 Y212.86 E0.39641
G1 X173.925 Y212.86 E0.01995
G1 X173.925 Y203.215 E0.40413
G1 E-0.8 F3000
G1 X131.725 Y203.215 F9000
G1 E0.8 F1800
G1 X131.725 Y213.151 E0.41634
G1 X122.919 Y213.151 E0.36895
G1 X122.919 Y207.249 E0.24732
G1 X122.919 Y205.877 E0.05748
G1 X122.919 Y203.108 E0.11602
G1 X131.725 Y203.108 E0.36895
G1 X131.725 Y203.215 E0.00449
G1 X131.075 Y213.044 F9000
G1 F1800
G1 X131.075 Y203.399 E0.40413
G1 X130.599 Y203.399 E0.01995
G1 X130.599 Y212.86 E0.39641
G1 X130.123 Y212.86 E0.01995
G1 X130.123 Y203.399 E0.39641
G1 X129.647 Y203.399 E0.01995
G1 X129.647 Y212.86 E0.39641
G1 X129.171 Y212.86 E0.01995
G1 X129.171 Y203.399 E0.39641
G1 X128.695 Y203.399 E0.01995
G1 X128.695 Y212.86 E0.39641
G1 X128.219 Y212.86 E0.01995
G1 X128.219 Y203.399 E0.39641
G1 X127.742 Y203.399 E0.01995
G1 X127.742 Y212.86 E0.39641
G1 X127.266 Y212.86 E0.01995
G1 X127.266 Y203.399 E0.39641
G1 X126.79 Y203.399 E0.01995
G1 X126.79 Y212.86 E0.39641
G1 X126.314 Y212.86 E0.01995
G1 X126.314 Y203.399 E0.39641
G1 X125.838 Y203.399 E0.01995
G1 X125.838 Y212.86 E0.39641
G1 X125.362 Y212.86 E0.01995
G1 X125.362 Y203.399 E0.39641
G1 X124.886 Y203.399 E0.01995
G1 X124.886 Y212.86 E0.39641
G1 X124.41 Y212.86 E0.01995
G1 X124.41 Y203.399 E0.39641
G1 X123.934 Y203.399 E0.01995
G1 X123.934 Y212.86 E0.39641
G1 X123.458 Y212.86 E0.01995
G1 X123.458 Y203.215 E0.40413
G1 E-0.8 F3000
G1 X129.633 Y176.224 F9000
G1 E0.8 F1800
G1 X129.633 Y172.875 E0.1403
G1 X129.726 Y172.783 E0.00549
G1 X130.401 Y172.114 E0.03982
G1 X130.739 Y171.779 E0.01991
G1 X131.076 Y171.445 E0.01991
G1 X131.414 Y171.11 E0.01991
G1 X131.752 Y170.775 E0.01993
G1 X134.305 Y170.775 E0.107
G1 X134.389 Y170.958 E0.00841
G1 X134.552 Y171.315 E0.01647
G1 X134.607 Y171.408 E0.00451
G1 X135.051 Y172.014 E0.03149
G1 X135.289 Y172.337 E0.01682
G1 X135.368 Y172.424 E0.00491
G1 X135.66 Y172.678 E0.01621
G1 X136.207 Y173.153 E0.03038
G1 X136.301 Y173.218 E0.00477
G1 X136.683 Y173.427 E0.01823
G1 X137.402 Y173.82 E0.03436
G1 X137.429 Y173.832 E0.00123
G1 X137.498 Y173.861 E0.00313
G1 X137.763 Y173.943 E0.01162
G1 X138.439 Y174.155 E0.02967
G1 X138.439 Y176.224 E0.08669
G1 X129.633 Y176.224 E0.36895
G1 X137.741 Y176.116 F9000
G1 F1800
G1 X137.741 Y174.242 E0.07855
G1 X137.676 Y174.222 E0.00285
G1 X137.397 Y174.135 E0.01222
G1 X137.315 Y174.1 E0.00374
G1 X137.275 Y174.083 E0.00183
G1 X137.265 Y174.077 E0.0005
G1 X137.265 Y175.932 E0.07773
G1 X136.788 Y175.932 E0.01995
G1 X136.788 Y173.817 E0.08864
G1 X136.543 Y173.683 E0.01173
G1 X136.312 Y173.557 E0.011
G1 X136.312 Y175.932 E0.09954
G1 X135.836 Y175.932 E0.01995
G1 X135.836 Y173.217 E0.11378
G1 X135.469 Y172.898 E0.02039
G1 X135.36 Y172.803 E0.00605
G1 X135.36 Y175.932 E0.13112
G1 X134.884 Y175.932 E0.01995
G1 X134.884 Y172.278 E0.15309
G1 X134.816 Y172.186 E0.00479
G1 X134.408 Y171.63 E0.02893
G1 X134.408 Y175.932 E0.18028
G1 X133.932 Y175.932 E0.01995
G1 X133.932 Y171.067 E0.20387
G1 X133.456 Y171.067 E0.01995
G1 X133.456 Y175.932 E0.20387
G1 X132.98 Y175.932 E0.01995
G1 X132.98 Y171.067 E0.20386
G1 X132.504 Y171.067 E0.01995
G1 X132.504 Y175.932 E0.20386
G1 X132.027 Y175.932 E0.01995
G1 X132.027 Y171.067 E0.20386
G1 X131.871 Y171.067 E0.00655
G1 X131.619 Y171.317 E0.01489
G1 X131.551 Y171.384 E0.00398
G1 X131.551 Y175.932 E0.19057
G1 X131.075 Y175.932 E0.01995
G1 X131.075 Y171.856 E0.17079
G1 X130.944 Y171.986 E0.00775
G1 X130.606 Y172.321 E0.01991
G1 X130.599 Y172.328 E0.00043
G1 X130.599 Y175.932 E0.15102
G1 X130.123 Y175.932 E0.01995
G1 X130.123 Y172.54 E0.14211
G1 E-0.8 F3000
G1 X166.561 Y174.166 F9000
G1 E0.8 F1800
G1 X166.765 Y174.122 E0.00872
G1 X166.853 Y174.094 E0.0039
G1 X167.095 Y173.996 E0.01092
G1 X167.646 Y173.769 E0.02498
G1 X168.064 Y173.598 E0.01893
G1 X168.156 Y173.549 E0.00436
G1 X169.09 Y172.928 E0.04698
G1 X169.178 Y172.855 E0.00483
G1 X169.449 Y172.573 E0.01636
G1 X169.688 Y172.325 E0.01441
G1 X169.958 Y172.044 E0.01637
G1 X170.029 Y171.952 E0.00486
G1 X170.246 Y171.595 E0.01748
G1 X170.438 Y171.279 E0.01552
G1 X170.509 Y171.162 E0.00573
G1 X170.651 Y170.929 E0.01145
G1 X170.694 Y170.841 E0.0041
G1 X170.726 Y170.775 E0.00306
G1 X173.248 Y170.775 E0.10568
G1 X173.586 Y171.11 E0.01993
G1 X174.599 Y172.114 E0.05974
G1 X174.936 Y172.448 E0.01991
G1 X175.274 Y172.783 E0.01991
G1 X175.367 Y172.875 E0.00547
G1 X175.367 Y176.224 E0.14031
G1 X166.561 Y176.224 E0.36895
G1 X166.561 Y174.166 E0.08621
G1 X174.877 Y176.116 F9000
G1 F1800
G1 X174.877 Y172.8 E0.13896
G1 X174.731 Y172.655 E0.00861
G1 X174.401 Y172.328 E0.01948
G1 X174.401 Y175.932 E0.15102
G1 X173.925 Y175.932 E0.01995
G1 X173.925 Y171.856 E0.17079
G1 X173.449 Y171.384 E0.02809
