; generated by SuperSlicer 2.3.57 on 2022-02-27 at 07:43:45 UTC


;
;

;
;
; 

; external perimeters extrusion width = 0.40mm
; perimeters extrusion width = 0.45mm
; infill extrusion width = 0.72mm
; solid infill extrusion width = 0.56mm
; top infill extrusion width = 0.40mm
; support material extrusion width = 0.42mm
; first layer extrusion width = 0.48mm

; object:{"name":"dirtyText","id":"dirtyText.STL id:0 copy 0","object_center":[152.500000,150.000000,0.000000],"boundingbox_center":[152.500000,150.000000,0.500000],"boundingbox_size":[23.725357,9.000001,1.000000]}
; plater:{"center":[152.500000,150.000000,0.000000],"boundingbox_center":[152.500000,150.000000,0.500000],"boundingbox_size":[23.725357,9.000001,1.000000]}

;TYPE:Custom
START_PRINT T_BED=70 T_EXTRUDER=230
M107
G21 ; set units to millimeters
G90 ; use absolute coordinates
M83 ; use relative distances for extrusion
; Filament gcode
M109 S230 ; set temperature and wait for it to be reached
M190 S70 ; set bed temperature and wait for it to be reached
;LAYER_CHANGE
;Z:0.24
;HEIGHT:0.24
G1 Z0.24 F9000
G1 E-1 F3000
G1 X138.374 Y142.828 F9000
G1 E1 F1800
; External perimeter
;Skirt
SET_VELOCITY_LIMIT ACCEL=300 ACCEL_TO_DECEL=3000 SQUARE_CORNER_VELOCITY=5

; Support material

;TYPE:Skirt
;WIDTH:0.48
G1 X137.764 Y143.495 E0.03861
G1 X137.338 Y144.291 E0.03861
G1 X137.12 Y145.172 E0.03881
G1 X137.099 Y152.933 E0.33184
G1 X137.229 Y153.945 E0.04361
G1 X137.619 Y155.062 E0.05059
G1 X138.318 Y156.141 E0.05498
G1 X139.32 Y157.056 E0.058
G1 X140.024 Y157.489 E0.03534
G1 X140.798 Y157.794 E0.03555
G1 X142.054 Y158.027 E0.05462
G1 X164.317 Y158.042 E0.95187
G1 X165.115 Y157.942 E0.0344
G1 X165.872 Y157.668 E0.0344
G1 X166.598 Y157.196 E0.03701
G1 X167.191 Y156.566 E0.03701
G1 X167.62 Y155.814 E0.03701
G1 X167.859 Y154.982 E0.03701
G1 X167.887 Y145.23 E0.41694
G1 X167.758 Y144.574 E0.02859
G1 X167.512 Y143.953 E0.02859
G1 X167.159 Y143.39 E0.02839
G1 X166.706 Y142.898 E0.02859
G1 X166.171 Y142.497 E0.02859
G1 X165.572 Y142.201 E0.02859
G1 X164.928 Y142.019 E0.02859
G1 X164.267 Y141.957 E0.02839
G1 X140.683 Y141.958 E1.00836
G1 X139.885 Y142.058 E0.0344
G1 X139.128 Y142.332 E0.0344
G1 X138.424 Y142.795 E0.03604
G1 X138.674 Y143.136 F9000
G1 F1800
G1 X138.122 Y143.732 E0.03475
G1 X137.737 Y144.448 E0.03475
G1 X137.544 Y145.238 E0.03475
G1 X137.526 Y152.895 E0.32738
G1 X137.638 Y153.816 E0.03967
G1 X137.981 Y154.826 E0.04561
G1 X138.63 Y155.846 E0.05169
G1 X139.546 Y156.692 E0.05331
G1 X140.213 Y157.105 E0.03355
G1 X140.941 Y157.39 E0.0334
G1 X142.101 Y157.601 E0.05041
G1 X164.302 Y157.614 E0.94924
G1 X164.987 Y157.532 E0.02949
G1 X165.638 Y157.305 E0.02949
G1 X166.302 Y156.884 E0.03362
G1 X166.842 Y156.318 E0.03344
G1 X167.229 Y155.638 E0.03344
G1 X167.441 Y154.881 E0.03362
G1 X167.463 Y145.304 E0.40947
G1 X167.355 Y144.721 E0.02534
G1 X167.141 Y144.169 E0.02534
G1 X166.829 Y143.665 E0.02534
G1 X166.43 Y143.226 E0.02534
G1 X165.957 Y142.869 E0.02534
G1 X165.427 Y142.604 E0.02534
G1 X164.857 Y142.441 E0.02534
G1 X164.267 Y142.386 E0.02534
G1 X140.698 Y142.386 E1.00771
G1 X140.013 Y142.468 E0.02949
G1 X139.362 Y142.695 E0.02949
G1 X138.724 Y143.103 E0.03237
; INIT printing object dirtyText.STL id:0 copy 0
G1 E-1 F3000
; printing object dirtyText.STL id:0 copy 0
G1 X141.798 Y151.299 F9000
G1 E1 F1800
; External perimeter
;ExternalPerimeter
SET_VELOCITY_LIMIT ACCEL=1000 ACCEL_TO_DECEL=1000 SQUARE_CORNER_VELOCITY=5

; Perimeter

;TYPE:External perimeter
G1 X141.798 Y152.776 E0.06312
G1 X141.827 Y152.953 E0.00766
G1 X141.958 Y153.17 E0.01085
G1 X142.137 Y153.292 E0.00928
G1 X142.354 Y153.34 E0.00949
G1 X144.549 Y153.34 E0.09383
G1 X144.549 Y153.46 E0.00458
G1 X144.549 Y153.7 E0.00971
G1 X144.549 Y154.16 E0.01968
G1 X144.429 Y154.16 E0.00458
G1 X144.189 Y154.16 E0.00971
G1 X142.4 Y154.16 E0.07646
G1 X142.071 Y154.126 E0.01416
G1 X141.762 Y154.015 E0.01405
G1 X141.495 Y153.84 E0.01363
G1 X141.28 Y153.628 E0.01293
G1 X141.107 Y153.351 E0.01397
G1 X141.004 Y153.032 E0.01433
G1 X140.977 Y152.737 E0.01264
G1 X140.977 Y145.84 E0.2949
G1 X141.097 Y145.84 E0.00458
G1 X141.337 Y145.84 E0.00971
G1 X141.798 Y145.84 E0.01968
G1 X141.798 Y145.96 E0.00458
G1 X141.798 Y146.2 E0.00971
G1 X141.798 Y150.025 E0.16353
G1 X141.827 Y150.202 E0.00766
G1 X141.959 Y150.421 E0.01094
G1 X142.139 Y150.54 E0.00923
G1 X142.305 Y150.584 E0.00735
G1 X143.422 Y150.589 E0.04773
G1 X143.654 Y150.534 E0.01021
G1 X143.866 Y150.348 E0.01207
G1 X143.947 Y150.198 E0.00728
G1 X143.978 Y150.027 E0.00742
G1 X143.978 Y145.84 E0.17901
G1 X144.098 Y145.84 E0.00458
G1 X144.338 Y145.84 E0.00971
G1 X144.796 Y145.84 E0.0196
G1 X144.796 Y145.96 E0.00458
G1 X144.796 Y146.2 E0.00971
G1 X144.796 Y149.984 E0.16179
G1 X144.762 Y150.318 E0.01435
G1 X144.661 Y150.61 E0.01321
G1 X144.484 Y150.885 E0.01397
G1 X144.261 Y151.106 E0.01344
G1 X143.987 Y151.28 E0.0139
G1 X143.712 Y151.373 E0.01242
G1 X143.374 Y151.409 E0.01451
G1 X142.584 Y151.401 E0.03381
G1 X142.478 Y151.357 E0.0049
G1 X142.19 Y151.116 E0.01604
G1 X142.081 Y151.167 E0.00496
G1 X141.864 Y151.268 E0.01009
G1 X141.852 Y151.274 E0.00056
;WIPE_START
G1 X141.402 Y151.357 F9000
;WIPE_END
G1 X141.539 Y150.8
; External perimeter
;GapFill
SET_VELOCITY_LIMIT ACCEL=2000 ACCEL_TO_DECEL=2000 SQUARE_CORNER_VELOCITY=5

; Skirt

;TYPE:Gap fill
;WIDTH:0.72279
G1 F1800
G1 X141.644 Y150.815 E0.00713
;WIDTH:0.594045
G1 X141.812 Y150.828 E0.00908
;WIDTH:0.40649
G1 X141.979 Y150.84 E0.00594
;WIDTH:0.316317
G1 X142.026 Y150.84 E0.00125
;WIDTH:0.23945
G1 X142.193 Y150.825 E0.00314
;WIDTH:0.17855
G1 X142.279 Y150.847 E0.00113
;WIDTH:0.225916
G1 X142.429 Y150.902 E0.00278
;WIDTH:0.350005
G1 X142.579 Y150.957 E0.00476
;WIDTH:0.453413
G1 X142.679 Y150.994 E0.00427
G1 X143.017 Y150.996 E0.01355
;WIDTH:0.477888
G1 X143.355 Y150.998 E0.01437
G1 X143.492 Y150.989 E0.00585
G1 X143.623 Y150.967 E0.00564
G1 X143.811 Y150.912 E0.00833
G1 X143.883 Y150.869 E0.00358
G1 X144.001 Y150.781 E0.00627
G1 X144.082 Y150.706 E0.00468
G1 X144.206 Y150.571 E0.0078
G1 X144.289 Y150.429 E0.00699
G1 X144.34 Y150.3 E0.00588
G1 X144.359 Y150.229 E0.00315
G1 X144.383 Y150.045 E0.00792
G1 X144.387 Y149.963 E0.00346
G1 X144.387 Y146.037 E0.16704
G1 E-1 F3000
G1 X141.387 Y146.037 F9000
G1 E1 F1800
;WIDTH:0.480691
G1 X141.387 Y150.041 E0.17147
G1 X141.399 Y150.193 E0.00652
;WIDTH:0.519452
G1 X141.408 Y150.309 E0.00547
;WIDTH:0.543573
G1 X141.444 Y150.468 E0.00799
;WIDTH:0.623113
G1 X141.481 Y150.603 E0.008
;WIDTH:0.725068
G1 X141.519 Y150.739 E0.00943
G1 X141.474 Y150.902 E0.01142
;WIDTH:0.629398
G1 X141.439 Y151.011 E0.00657
;WIDTH:0.521299
G1 X141.387 Y151.174 E0.00802
;WIDTH:0.478062
G1 X141.387 Y152.719 E0.06575
G1 X141.391 Y152.792 E0.00312
G1 X141.409 Y152.949 E0.00674
G1 X141.461 Y153.13 E0.00799
G1 X141.542 Y153.273 E0.007
G1 X141.601 Y153.37 E0.00484
G1 X141.697 Y153.476 E0.00609
G1 X141.847 Y153.585 E0.00787
G1 X141.941 Y153.648 E0.00482
G1 X142.014 Y153.678 E0.00336
G1 X142.163 Y153.72 E0.00661
G1 X142.288 Y153.741 E0.00539
G1 X142.422 Y153.75 E0.00569
G1 X144.352 Y153.75 E0.08215
G1 E-1 F3000
G1 X148.848 Y146.66 F9000
G1 E1 F1800
; External perimeter
;ExternalPerimeter
SET_VELOCITY_LIMIT ACCEL=1000 ACCEL_TO_DECEL=1000 SQUARE_CORNER_VELOCITY=5

; Perimeter

;TYPE:External perimeter
;WIDTH:0.48
G1 X148.848 Y154.16 E0.32065
G1 X148.728 Y154.16 E0.00458
G1 X148.488 Y154.16 E0.00971
G1 X148.022 Y154.16 E0.01991
G1 X148.022 Y154.04 E0.00458
G1 X148.022 Y153.8 E0.00971
G1 X148.022 Y146.66 E0.30526
G1 X147.902 Y146.66 E0.00458
G1 X147.662 Y146.66 E0.00971
G1 X146.202 Y146.66 E0.06242
G1 X146.202 Y146.54 E0.00458
G1 X146.202 Y146.3 E0.00971
G1 X146.202 Y145.84 E0.01968
G1 X146.322 Y145.84 E0.00458
G1 X146.562 Y145.84 E0.00971
G1 X150.668 Y145.84 E0.17554
G1 X150.668 Y145.96 E0.00458
G1 X150.668 Y146.2 E0.00971
G1 X150.668 Y146.66 E0.01968
G1 X150.548 Y146.66 E0.00458
G1 X150.308 Y146.66 E0.00971
G1 X148.908 Y146.66 E0.05986
;WIPE_START
G1 X148.448 Y146.66 F9000
;WIPE_END
G1 X148.435 Y146.305
; External perimeter
;GapFill
SET_VELOCITY_LIMIT ACCEL=2000 ACCEL_TO_DECEL=2000 SQUARE_CORNER_VELOCITY=5

; Skirt

;TYPE:Gap fill
;WIDTH:0.535117
G1 F1800
G1 X148.435 Y146.463 E0.00765
;WIDTH:0.48313
G1 X148.435 Y153.963 E0.323
G1 E-1 F3000
G1 X146.399 Y146.25 F9000
G1 E1 F1800
;WIDTH:0.477861
G1 X146.506 Y146.25 E0.00453
G1 X146.612 Y146.25 E0.00453
G1 X148.219 Y146.25 E0.06836
G1 X148.435 Y146.305 E0.00947
G1 X148.651 Y146.25 E0.00947
G1 X150.257 Y146.25 E0.06836
G1 X150.364 Y146.25 E0.00453
G1 X150.471 Y146.25 E0.00453
G1 E-1 F3000
G1 X154.772 Y149.96 F9000
G1 E1 F1800
; External perimeter
;ExternalPerimeter
SET_VELOCITY_LIMIT ACCEL=1000 ACCEL_TO_DECEL=1000 SQUARE_CORNER_VELOCITY=5

; Perimeter

;TYPE:External perimeter
;WIDTH:0.48
G1 X154.772 Y146.66 E0.14107
G1 X154.652 Y146.66 E0.00458
G1 X154.412 Y146.66 E0.00971
G1 X153.398 Y146.66 E0.04335
G1 X153.187 Y146.706 E0.0092
G1 X153.011 Y146.823 E0.00905
G1 X152.894 Y146.988 E0.00867
G1 X152.846 Y147.143 E0.00693
G1 X152.839 Y149.149 E0.08575
G1 X152.878 Y149.387 E0.01034
G1 X152.973 Y149.559 E0.0084
G1 X153.129 Y149.696 E0.00886
G1 X153.524 Y149.89 E0.01882
G1 X153.715 Y149.941 E0.00847
G1 X153.911 Y149.96 E0.0084
G1 X154.712 Y149.96 E0.03423
;WIPE_START
G1 X155.172 Y149.96 F9000
;WIPE_END
G1 X154.772 Y150.543
G1 F1800
G1 X153.911 Y150.543 E0.03678
G1 X153.714 Y150.561 E0.00848
G1 X153.525 Y150.61 E0.00833
G1 X153.317 Y150.697 E0.00964
G1 X153.094 Y150.828 E0.01108
G1 X152.965 Y150.953 E0.00766
G1 X152.881 Y151.123 E0.00812
G1 X152.839 Y151.411 E0.01244
G1 X152.839 Y154.16 E0.11754
G1 X152.719 Y154.16 E0.00458
G1 X152.479 Y154.16 E0.00971
G1 X152.02 Y154.16 E0.0196
G1 X152.02 Y154.04 E0.00458
G1 X152.02 Y153.8 E0.00971
G1 X152.02 Y151.387 E0.10317
G1 X152.05 Y151.149 E0.01027
G1 X152.143 Y150.936 E0.00994
G1 X152.205 Y150.856 E0.00431
G1 X152.41 Y150.682 E0.0115
G1 X152.836 Y150.456 E0.02062
G1 X152.837 Y150.336 E0.00499
G1 X152.838 Y150.096 E0.01012
G1 X152.838 Y150.045 E0.0022
G1 X152.733 Y149.987 E0.00499
G1 X152.523 Y149.872 E0.01012
G1 X152.369 Y149.787 E0.0075
G1 X152.262 Y149.7 E0.00589
G1 X152.119 Y149.52 E0.00983
G1 X152.04 Y149.309 E0.00966
G1 X152.021 Y149.115 E0.00835
G1 X152.031 Y147.075 E0.0872
G1 X152.053 Y146.937 E0.00598
G1 X152.163 Y146.624 E0.01417
G1 X152.328 Y146.37 E0.01296
G1 X152.557 Y146.138 E0.01392
G1 X152.679 Y146.05 E0.00645
G1 X152.957 Y145.917 E0.01315
G1 X153.092 Y145.878 E0.00601
G1 X153.444 Y145.84 E0.01515
G1 X155.59 Y145.84 E0.09176
G1 X155.59 Y145.96 E0.00458
G1 X155.59 Y146.2 E0.00971
G1 X155.59 Y154.16 E0.34033
G1 X155.47 Y154.16 E0.00458
G1 X155.23 Y154.16 E0.00971
G1 X154.772 Y154.16 E0.0196
G1 X154.772 Y154.04 E0.00458
G1 X154.772 Y153.8 E0.00971
G1 X154.772 Y150.603 E0.1367
;WIPE_START
G1 X154.772 Y150.143 F9000
;WIPE_END
G1 X155.17 Y150.251
; External perimeter
;GapFill
SET_VELOCITY_LIMIT ACCEL=2000 ACCEL_TO_DECEL=2000 SQUARE_CORNER_VELOCITY=5

; Skirt

;TYPE:Gap fill
;WIDTH:0.486859
G1 F1800
G1 X155.181 Y150.157 E0.00414
G1 X155.181 Y146.463 E0.16043
;WIDTH:0.513263
G1 X155.144 Y146.286 E0.00834
G1 X154.968 Y146.25 E0.00825
;WIDTH:0.478064
G1 X153.466 Y146.25 E0.06396
G1 X153.333 Y146.26 E0.00567
G1 X153.173 Y146.285 E0.0069
G1 X152.995 Y146.348 E0.00803
G1 X152.825 Y146.452 E0.00846
G1 X152.704 Y146.561 E0.00691
G1 X152.648 Y146.628 E0.00373
G1 X152.545 Y146.78 E0.00782
G1 X152.516 Y146.839 E0.0028
G1 X152.483 Y146.938 E0.00444
G1 X152.438 Y147.112 E0.00767
G1 X152.434 Y148.104 E0.04221
G1 X152.43 Y149.096 E0.04221
G1 X152.438 Y149.216 E0.00514
G1 X152.467 Y149.323 E0.00471
;WIDTH:0.404305
G1 X152.54 Y149.477 E0.006
;WIDTH:0.339504
G1 X152.57 Y149.519 E0.00149
;WIDTH:0.284479
G1 X152.688 Y149.635 E0.00385
;WIDTH:0.185439
G1 X152.781 Y149.726 E0.00174
;WIDTH:0.149685
G1 X152.886 Y149.8 E0.00126
G1 X153.032 Y150.619 F9000
;WIDTH:0.310989
G1 F1800
G1 X153.163 Y150.409 E0.0064
;WIDTH:0.416712
G1 X153.27 Y150.247 E0.00705
;WIDTH:0.482691
G1 X153.369 Y150.25 E0.00425
;WIDTH:0.415639
G1 X153.476 Y150.25 E0.00388
;WIDTH:0.330404
G1 X153.65 Y150.251 E0.00484
;WIDTH:0.284959
G1 X153.781 Y150.251 E0.00305
;WIDTH:0.240896
G1 X153.892 Y150.251 E0.00211
G1 X154.968 Y150.251 E0.02034
G1 X155.17 Y150.251 E0.00381
;WIDTH:0.3586
G1 X155.181 Y150.346 E0.00292
;WIDTH:0.476304
G1 X155.181 Y153.963 E0.15332
G1 E-1 F3000
G1 X152.43 Y153.963 F9000
G1 E1 F1800
;WIDTH:0.458248
G1 X152.43 Y151.412 E0.10354
G1 X152.448 Y151.258 E0.00628
G1 X152.483 Y151.137 E0.00511
;WIDTH:0.405116
G1 X152.534 Y151.041 E0.00385
;WIDTH:0.332398
G1 X152.633 Y150.918 E0.0044
;WIDTH:0.229844
G1 X152.743 Y150.805 E0.00282
;WIDTH:0.158729
G1 X152.891 Y150.695 E0.00197
G1 E-1 F3000
G1 X158.289 Y154.16 F9000
G1 E1 F1800
; External perimeter
;ExternalPerimeter
SET_VELOCITY_LIMIT ACCEL=1000 ACCEL_TO_DECEL=1000 SQUARE_CORNER_VELOCITY=5

; Perimeter

;TYPE:External perimeter
;WIDTH:0.48
G1 X157.47 Y154.16 E0.035
G1 X157.47 Y154.04 E0.00458
G1 X157.47 Y153.8 E0.00971
G1 X157.47 Y145.84 E0.34033
G1 X157.59 Y145.84 E0.00458
G1 X157.83 Y145.84 E0.00971
G1 X158.289 Y145.84 E0.0196
G1 X158.289 Y145.96 E0.00458
G1 X158.289 Y146.2 E0.00971
G1 X158.289 Y154.1 E0.33777
;WIPE_START
G1 X157.942 Y153.96 F9000
;WIPE_END
G1 X157.879 Y146.037
; External perimeter
;GapFill
SET_VELOCITY_LIMIT ACCEL=2000 ACCEL_TO_DECEL=2000 SQUARE_CORNER_VELOCITY=5

; Skirt

;TYPE:Gap fill
;WIDTH:0.476104
G1 F1800
G1 X157.879 Y153.963 E0.3358
G1 E-1 F3000
G1 X163.204 Y153.341 F9000
G1 E1 F1800
; External perimeter
;ExternalPerimeter
SET_VELOCITY_LIMIT ACCEL=1000 ACCEL_TO_DECEL=1000 SQUARE_CORNER_VELOCITY=5

; Perimeter

;TYPE:External perimeter
;WIDTH:0.48
G1 X163.204 Y146.66 E0.28563
G1 X163.084 Y146.66 E0.00458
G1 X162.844 Y146.66 E0.00971
G1 X161.581 Y146.66 E0.05401
G1 X161.37 Y146.706 E0.00921
G1 X161.186 Y146.828 E0.00946
G1 X161.054 Y147.045 E0.01086
G1 X161.024 Y147.222 E0.00766
G1 X161.024 Y152.773 E0.23735
G1 X161.048 Y152.936 E0.00706
G1 X161.181 Y153.166 E0.01135
G1 X161.348 Y153.283 E0.00871
G1 X161.503 Y153.332 E0.00697
G1 X163.144 Y153.341 E0.07017
;WIPE_START
G1 X163.604 Y153.342 F9000
;WIPE_END
G1 X164.023 Y154.16
G1 F1800
G1 X161.627 Y154.16 E0.10244
G1 X161.291 Y154.125 E0.01442
G1 X160.996 Y154.024 E0.01334
G1 X160.875 Y153.955 E0.00597
G1 X160.593 Y153.725 E0.01553
G1 X160.414 Y153.499 E0.01235
G1 X160.271 Y153.193 E0.01442
G1 X160.231 Y153.039 E0.00683
G1 X160.204 Y152.737 E0.01293
G1 X160.214 Y147.082 E0.24181
G1 X160.286 Y146.761 E0.01404
G1 X160.345 Y146.622 E0.00648
G1 X160.522 Y146.352 E0.01381
G1 X160.74 Y146.138 E0.01307
G1 X160.86 Y146.052 E0.0063
G1 X161.173 Y145.906 E0.01474
G1 X161.309 Y145.87 E0.00604
G1 X161.625 Y145.84 E0.01358
G1 X164.023 Y145.84 E0.1025
G1 X164.023 Y145.96 E0.00458
G1 X164.023 Y146.2 E0.00971
G1 X164.023 Y154.1 E0.33777
;WIPE_START
G1 X163.676 Y153.96 F9000
;WIPE_END
G1 X163.577 Y153.714
; External perimeter
;GapFill
SET_VELOCITY_LIMIT ACCEL=2000 ACCEL_TO_DECEL=2000 SQUARE_CORNER_VELOCITY=5

; Skirt

;TYPE:Gap fill
;WIDTH:0.512605
G1 F1800
G1 X163.4 Y153.751 E0.00832
;WIDTH:0.475822
G1 X162.524 Y153.749 E0.03708
G1 X161.648 Y153.746 E0.03708
G1 X161.471 Y153.737 E0.00752
G1 X161.38 Y153.723 E0.00389
G1 X161.196 Y153.662 E0.00821
G1 X161.107 Y153.615 E0.00425
G1 X161.011 Y153.543 E0.00509
G1 X160.881 Y153.441 E0.00697
G1 X160.768 Y153.28 E0.00836
G1 X160.678 Y153.107 E0.00826
G1 X160.637 Y152.968 E0.00612
G1 X160.617 Y152.788 E0.00769
G1 X160.614 Y152.719 E0.00289
G1 X160.616 Y149.962 E0.11674
G1 X160.619 Y147.205 E0.11674
G1 X160.624 Y147.128 E0.00328
G1 X160.661 Y146.94 E0.00811
G1 X160.71 Y146.817 E0.0056
G1 X160.775 Y146.715 E0.00512
G1 X160.864 Y146.581 E0.00681
G1 X161.006 Y146.454 E0.00806
G1 X161.069 Y146.41 E0.00326
G1 X161.178 Y146.349 E0.00529
G1 X161.314 Y146.296 E0.00616
;WIDTH:0.484773
G1 X161.382 Y146.279 E0.00304
G1 X161.56 Y146.254 E0.00776
G1 X161.645 Y146.25 E0.00368
G1 X163.401 Y146.25 E0.07592
;WIDTH:0.514142
G1 X163.576 Y146.286 E0.00827
G1 X163.613 Y146.463 E0.00836
;WIDTH:0.476306
G1 X163.613 Y153.539 E0.2999
;WIDTH:0.512605
G1 X163.589 Y153.656 E0.00549
; INIT stop printing object dirtyText.STL id:0 copy 0
;LAYER_CHANGE
;Z:0.44
