; generated by SuperSlicer 2.3.57 on 2022-02-27 at 06:33:53 UTC


;
;

;
;
; 

; external perimeters extrusion width = 0.40mm
; perimeters extrusion width = 0.45mm
; infill extrusion width = 0.72mm
; solid infill extrusion width = 0.56mm
; top infill extrusion width = 0.40mm
; support material extrusion width = 0.42mm
; first layer extrusion width = 0.48mm

; external perimeters extrusion width = 0.40mm
; perimeters extrusion width = 0.45mm
; infill extrusion width = 0.72mm
; solid infill extrusion width = 0.56mm
; top infill extrusion width = 0.40mm
; support material extrusion width = 0.42mm
; first layer extrusion width = 0.48mm

; object:{"name":"dishesText","id":"dishesText.STL id:0 copy 0","object_center":[152.500000,150.000000,0.000000],"boundingbox_center":[152.500000,150.000000,0.300000],"boundingbox_size":[28.217449,9.000000,0.600000]}
; plater:{"center":[152.500000,150.000000,0.000000],"boundingbox_center":[152.500000,150.000000,0.300000],"boundingbox_size":[28.217449,9.000000,0.600000]}

;TYPE:Custom
START_PRINT T_BED=60 T_EXTRUDER=200
M107
G21 ; set units to millimeters
G90 ; use absolute coordinates
M83 ; use relative distances for extrusion
; Filament gcode
M104 S200 ; set temperature
M109 S200 ; set temperature and wait for it to be reached
M190 S60 ; set bed temperature and wait for it to be reached
M107
;LAYER_CHANGE
;Z:0.24
;HEIGHT:0.24
G1 Z0.24 F9000
G1 E-0.8 F3000
G1 X136.851 Y143.099 F9000
G1 E0.8 F1800
; External perimeter
;Skirt
SET_VELOCITY_LIMIT ACCEL=300 ACCEL_TO_DECEL=3000 SQUARE_CORNER_VELOCITY=5

; Support material

;TYPE:Skirt
;WIDTH:0.48
G1 X135.97 Y143.987 E0.05348
G1 X135.322 Y145.049 E0.05318
G1 X134.934 Y146.288 E0.05553
G1 X134.859 Y147.022 E0.03154
G1 X134.889 Y149.932 E0.12441
G1 X135.378 Y154.873 E0.21228
G1 X135.67 Y155.898 E0.0456
G1 X136.197 Y156.739 E0.04241
G1 X136.932 Y157.405 E0.04241
G1 X137.814 Y157.848 E0.04221
G1 X138.788 Y158.037 E0.04241
G1 X166.549 Y158.043 E1.18695
G1 X167.292 Y157.957 E0.032
G1 X168.007 Y157.72 E0.0322
G1 X168.767 Y157.258 E0.03801
G1 X169.392 Y156.626 E0.03801
G1 X169.845 Y155.862 E0.03801
G1 X170.099 Y155.015 E0.03781
G1 X170.151 Y154.414 E0.02578
G1 X170.135 Y145.259 E0.39145
G1 X170.011 Y144.597 E0.02879
G1 X169.768 Y143.974 E0.02859
G1 X169.416 Y143.405 E0.02859
G1 X168.963 Y142.908 E0.02879
G1 X168.425 Y142.502 E0.02879
G1 X167.827 Y142.204 E0.02859
G1 X167.184 Y142.02 E0.02859
G1 X166.513 Y141.957 E0.02879
G1 X140.082 Y141.958 E1.13009
G1 X138.981 Y142.082 E0.04736
G1 X137.928 Y142.435 E0.04748
G1 X136.902 Y143.068 E0.05155
G1 X137.129 Y143.426 F9000
G1 F1800
G1 X136.315 Y144.241 E0.04924
G1 X135.714 Y145.222 E0.04922
G1 X135.355 Y146.373 E0.05153
G1 X135.287 Y147.03 E0.02826
G1 X135.316 Y149.889 E0.12224
G1 X135.801 Y154.802 E0.21106
G1 X136.045 Y155.687 E0.03926
G1 X136.509 Y156.443 E0.03794
G1 X137.162 Y157.044 E0.03794
G1 X137.955 Y157.443 E0.03794
G1 X138.822 Y157.61 E0.03776
G1 X166.539 Y157.614 E1.18507
G1 X167.181 Y157.543 E0.0276
G1 X167.796 Y157.345 E0.0276
G1 X168.483 Y156.937 E0.03419
G1 X169.051 Y156.367 E0.03438
G1 X169.459 Y155.675 E0.03438
G1 X169.683 Y154.907 E0.03419
G1 X169.711 Y145.326 E0.40965
G1 X169.605 Y144.739 E0.02553
G1 X169.395 Y144.185 E0.02534
G1 X169.083 Y143.675 E0.02553
G1 X168.686 Y143.235 E0.02534
G1 X168.215 Y142.876 E0.02534
G1 X167.681 Y142.607 E0.02553
G1 X167.108 Y142.442 E0.02553
G1 X166.513 Y142.386 E0.02553
G1 X140.098 Y142.386 E1.12939
G1 X139.092 Y142.496 E0.04328
G1 X138.144 Y142.808 E0.04266
G1 X137.18 Y143.395 E0.04824
; INIT printing object dishesText.STL id:0 copy 0
G1 E-0.8 F3000
; printing object dishesText.STL id:0 copy 0
G1 X142.303 Y146.66 F9000
G1 E0.8 F1800
; External perimeter
;ExternalPerimeter
SET_VELOCITY_LIMIT ACCEL=1000 ACCEL_TO_DECEL=1000 SQUARE_CORNER_VELOCITY=5

; Perimeter

;TYPE:External perimeter
G1 X140.11 Y146.66 E0.09374
G1 X139.9 Y146.706 E0.0092
G1 X139.723 Y146.823 E0.00909
G1 X139.602 Y146.995 E0.00897
G1 X139.552 Y147.217 E0.00974
G1 X139.552 Y149.292 E0.08872
G1 X139.598 Y149.454 E0.00719
G1 X139.727 Y149.604 E0.00845
G1 X139.921 Y149.707 E0.00939
G1 X140.136 Y149.769 E0.00955
G1 X141.489 Y149.947 E0.05836
G1 X141.918 Y150.064 E0.019
G1 X142.134 Y150.184 E0.01057
G1 X142.308 Y150.351 E0.01034
G1 X142.376 Y150.452 E0.00521
G1 X142.487 Y150.721 E0.01243
G1 X142.545 Y151.069 E0.01511
G1 X142.543 Y152.91 E0.0787
G1 X142.52 Y153.063 E0.00662
G1 X142.416 Y153.355 E0.01325
G1 X142.245 Y153.622 E0.01356
G1 X142.041 Y153.836 E0.01265
G1 X141.768 Y154.017 E0.01398
G1 X141.46 Y154.126 E0.01396
G1 X141.127 Y154.16 E0.01432
G1 X139.23 Y154.16 E0.08111
G1 X139.23 Y154.04 E0.00458
G1 X139.23 Y153.8 E0.00971
G1 X139.23 Y153.34 E0.01968
G1 X139.35 Y153.34 E0.00458
G1 X139.59 Y153.34 E0.00971
G1 X141.175 Y153.34 E0.06778
G1 X141.398 Y153.288 E0.00979
G1 X141.586 Y153.15 E0.00995
G1 X141.702 Y152.953 E0.00978
G1 X141.732 Y152.778 E0.00758
G1 X141.732 Y151.206 E0.06721
G1 X141.686 Y151.044 E0.00721
G1 X141.556 Y150.895 E0.00846
G1 X141.361 Y150.792 E0.00945
G1 X141.149 Y150.731 E0.00943
G1 X139.743 Y150.543 E0.06064
G1 X139.353 Y150.432 E0.01731
G1 X139.245 Y150.381 E0.00513
G1 X139.058 Y150.244 E0.00994
G1 X138.907 Y150.05 E0.01048
G1 X138.8 Y149.793 E0.01191
G1 X138.759 Y149.618 E0.00769
G1 X138.731 Y149.237 E0.01631
G1 X138.741 Y147.085 E0.09202
G1 X138.761 Y146.947 E0.00596
G1 X138.863 Y146.646 E0.01357
G1 X139.035 Y146.372 E0.01385
G1 X139.263 Y146.144 E0.0138
G1 X139.533 Y145.972 E0.01367
G1 X139.821 Y145.874 E0.01301
G1 X140.156 Y145.84 E0.01439
G1 X142.303 Y145.84 E0.09178
G1 X142.303 Y145.96 E0.00458
G1 X142.303 Y146.2 E0.00971
G1 X142.303 Y146.6 E0.01711
;WIPE_START
G1 X141.956 Y146.46 F9000
;WIPE_END
G1 E-0.8 F3000
G1 X139.427 Y153.75 F9000
G1 E0.8 F1800
; External perimeter
;GapFill
SET_VELOCITY_LIMIT ACCEL=2000 ACCEL_TO_DECEL=2000 SQUARE_CORNER_VELOCITY=5

; Skirt

;TYPE:Gap fill
;WIDTH:0.48165
G1 X139.64 Y153.75 E0.00915
G1 X141.106 Y153.75 E0.06292
G1 X141.198 Y153.745 E0.00394
G1 X141.369 Y153.719 E0.00743
G1 X141.529 Y153.673 E0.00716
G1 X141.691 Y153.579 E0.00801
G1 X141.776 Y153.519 E0.00447
G1 X141.912 Y153.389 E0.00809
G1 X141.986 Y153.273 E0.00592
G1 X142.046 Y153.175 E0.00494
G1 X142.069 Y153.127 E0.00226
G1 X142.118 Y152.962 E0.00737
G1 X142.137 Y152.795 E0.00723
G1 X142.138 Y151.987 E0.03469
G1 X142.138 Y151.179 E0.03469
G1 X142.107 Y150.994 E0.00803
;WIDTH:0.514174
G1 X142.083 Y150.886 E0.00515
G1 X142.07 Y150.839 E0.00221
;WIDTH:0.561138
G1 X141.969 Y150.67 E0.01005
G1 X141.876 Y150.568 E0.00697
G1 X141.799 Y150.513 E0.00482
G1 X141.644 Y150.444 E0.00863
;WIDTH:0.507635
G1 X141.542 Y150.404 E0.00499
G1 X141.405 Y150.363 E0.00651
;WIDTH:0.479132
G1 X141.217 Y150.325 E0.00817
G1 X140.642 Y150.249 E0.02475
G1 X140.067 Y150.173 E0.02475
G1 X139.933 Y150.146 E0.00586
;WIDTH:0.51538
G1 X139.83 Y150.124 E0.00487
G1 X139.783 Y150.111 E0.00225
G1 X139.626 Y150.05 E0.00778
;WIDTH:0.577313
G1 X139.514 Y150.005 E0.00633
G1 X139.405 Y149.931 E0.00696
G1 X139.306 Y149.817 E0.00788
;WIDTH:0.553127
G1 X139.238 Y149.707 E0.00648
;WIDTH:0.521753
G1 X139.182 Y149.554 E0.00765
;WIDTH:0.478064
G1 X139.151 Y149.378 E0.00761
G1 X139.141 Y149.223 E0.00659
G1 X139.146 Y147.195 E0.08631
G1 X139.166 Y147.044 E0.00647
G1 X139.216 Y146.867 E0.00783
G1 X139.248 Y146.794 E0.00342
G1 X139.358 Y146.629 E0.00841
G1 X139.469 Y146.508 E0.007
G1 X139.613 Y146.405 E0.00755
G1 X139.705 Y146.346 E0.00467
G1 X139.778 Y146.317 E0.00331
G1 X139.91 Y146.281 E0.00582
G1 X140.045 Y146.259 E0.00584
G1 X140.177 Y146.25 E0.00563
G1 X142.106 Y146.25 E0.08209
G1 E-0.8 F3000
G1 X149.695 Y149.877 F9000
G1 E0.8 F1800
; External perimeter
;ExternalPerimeter
SET_VELOCITY_LIMIT ACCEL=1000 ACCEL_TO_DECEL=1000 SQUARE_CORNER_VELOCITY=5

; Perimeter

;TYPE:External perimeter
;WIDTH:0.48
G1 X151.621 Y149.877 E0.08233
G1 X151.621 Y149.757 E0.00458
G1 X151.621 Y149.517 E0.00971
G1 X151.621 Y145.84 E0.15722
G1 X151.741 Y145.84 E0.00458
G1 X151.981 Y145.84 E0.00971
G1 X152.439 Y145.84 E0.0196
G1 X152.439 Y145.96 E0.00458
G1 X152.439 Y146.2 E0.00971
G1 X152.439 Y154.16 E0.34033
G1 X152.319 Y154.16 E0.00458
G1 X152.079 Y154.16 E0.00971
G1 X151.621 Y154.16 E0.0196
G1 X151.621 Y154.04 E0.00458
G1 X151.621 Y153.8 E0.00971
G1 X151.621 Y150.567 E0.13821
G1 X151.501 Y150.567 E0.00458
G1 X151.261 Y150.567 E0.00971
G1 X149.695 Y150.567 E0.06694
G1 X149.695 Y150.687 E0.00458
G1 X149.695 Y150.927 E0.00971
G1 X149.695 Y154.16 E0.13821
G1 X149.575 Y154.16 E0.00458
G1 X149.335 Y154.16 E0.00971
G1 X148.875 Y154.16 E0.01968
G1 X148.875 Y154.04 E0.00458
G1 X148.875 Y153.8 E0.00971
G1 X148.875 Y145.84 E0.34033
G1 X148.995 Y145.84 E0.00458
G1 X149.235 Y145.84 E0.00971
G1 X149.695 Y145.84 E0.01968
G1 X149.695 Y145.96 E0.00458
G1 X149.695 Y146.2 E0.00971
G1 X149.695 Y149.817 E0.15465
;WIPE_START
G1 X149.695 Y150.277 F9000
;WIPE_END
G1 X149.311 Y150.222
; External perimeter
;GapFill
SET_VELOCITY_LIMIT ACCEL=2000 ACCEL_TO_DECEL=2000 SQUARE_CORNER_VELOCITY=5

; Skirt

;TYPE:Gap fill
;WIDTH:0.43861
G1 F1800
G1 X149.498 Y150.222 E0.00724
;WIDTH:0.34786
G1 X152.004 Y150.222 E0.0741
;WIDTH:0.411982
G1 X152.03 Y150.37 E0.00541
;WIDTH:0.476104
G1 X152.03 Y153.963 E0.15221
G1 E-0.8 F3000
G1 X149.285 Y153.963 F9000
G1 E0.8 F1800
;WIDTH:0.477865
G1 X149.285 Y153.856 E0.00453
G1 X149.285 Y153.75 E0.00453
G1 X149.285 Y150.37 E0.14377
G1 X149.311 Y150.222 E0.0064
G1 X149.285 Y150.074 E0.0064
G1 X149.285 Y146.25 E0.16268
G1 X149.285 Y146.144 E0.00453
G1 X149.285 Y146.037 E0.00453
G1 E-0.8 F3000
G1 X152.03 Y146.037 F9000
G1 E0.8 F1800
;WIDTH:0.476104
G1 X152.03 Y150.074 E0.17104
;WIDTH:0.50196
G1 X152.004 Y150.222 E0.00676
G1 E-0.8 F3000
G1 X146.224 Y153.352 F9000
G1 E0.8 F1800
; External perimeter
;ExternalPerimeter
SET_VELOCITY_LIMIT ACCEL=1000 ACCEL_TO_DECEL=1000 SQUARE_CORNER_VELOCITY=5

; Perimeter

;TYPE:External perimeter
;WIDTH:0.48
G1 X146.224 Y150.562 E0.11928
G1 X146.104 Y150.562 E0.00458
G1 X145.864 Y150.562 E0.00971
G1 X144.26 Y150.562 E0.06858
G1 X144.26 Y150.442 E0.00458
G1 X144.26 Y150.202 E0.00971
G1 X144.26 Y149.919 E0.01209
G1 X144.38 Y149.919 E0.00458
G1 X144.62 Y149.919 E0.00971
G1 X146.224 Y149.919 E0.06858
G1 X146.224 Y149.799 E0.00458
G1 X146.224 Y149.559 E0.00971
G1 X146.224 Y146.648 E0.12447
G1 X146.104 Y146.648 E0.00458
G1 X145.864 Y146.648 E0.00971
G1 X144.065 Y146.648 E0.07692
G1 X144.065 Y146.528 E0.00458
G1 X144.065 Y146.288 E0.00971
G1 X144.065 Y145.84 E0.01915
G1 X144.185 Y145.84 E0.00458
G1 X144.425 Y145.84 E0.00971
G1 X147.042 Y145.84 E0.11192
G1 X147.042 Y145.96 E0.00458
G1 X147.042 Y146.2 E0.00971
G1 X147.042 Y154.16 E0.34033
G1 X146.922 Y154.16 E0.00458
G1 X146.682 Y154.16 E0.00971
G1 X144.065 Y154.16 E0.11192
G1 X144.065 Y154.04 E0.00458
G1 X144.065 Y153.8 E0.00971
G1 X144.065 Y153.352 E0.01915
G1 X144.185 Y153.352 E0.00458
G1 X144.425 Y153.352 E0.00971
G1 X146.164 Y153.352 E0.07436
;WIPE_START
G1 X146.624 Y153.352 F9000
;WIPE_END
G1 X144.262 Y153.756
; External perimeter
;GapFill
SET_VELOCITY_LIMIT ACCEL=2000 ACCEL_TO_DECEL=2000 SQUARE_CORNER_VELOCITY=5

; Skirt

;TYPE:Gap fill
;WIDTH:0.465564
G1 F1800
G1 X146.421 Y153.756 E0.0892
;WIDTH:0.504219
G1 X146.6 Y153.717 E0.00827
G1 X146.633 Y153.549 E0.00775
;WIDTH:0.476104
G1 X146.633 Y150.365 E0.13489
;WIDTH:0.388265
G1 X146.615 Y150.241 E0.00423
;WIDTH:0.300426
G1 X144.457 Y150.241 E0.0536
G1 X146.615 Y150.241 F9000
;WIDTH:0.494346
G1 F1800
G1 X146.633 Y150.116 E0.00556
G1 X146.633 Y146.451 E0.16195
G1 X146.6 Y146.283 E0.00758
G1 X146.421 Y146.244 E0.00809
;WIDTH:0.465564
G1 X144.469 Y146.244 E0.08065
G1 X144.365 Y146.244 E0.00428
G1 X144.262 Y146.244 E0.00428
G1 E-0.8 F3000
G1 X157.706 Y146.66 F9000
G1 E0.8 F1800
; External perimeter
;ExternalPerimeter
SET_VELOCITY_LIMIT ACCEL=1000 ACCEL_TO_DECEL=1000 SQUARE_CORNER_VELOCITY=5

; Perimeter

;TYPE:External perimeter
;WIDTH:0.48
G1 X155.514 Y146.66 E0.09374
G1 X155.303 Y146.706 E0.0092
G1 X155.126 Y146.823 E0.00909
G1 X155.006 Y146.995 E0.00897
G1 X154.955 Y147.217 E0.00974
G1 X154.955 Y149.292 E0.08872
G1 X155.001 Y149.454 E0.00719
G1 X155.13 Y149.604 E0.00845
G1 X155.324 Y149.707 E0.00939
G1 X155.539 Y149.769 E0.00955
G1 X156.892 Y149.947 E0.05836
G1 X157.321 Y150.064 E0.019
G1 X157.537 Y150.184 E0.01057
G1 X157.712 Y150.351 E0.01034
G1 X157.78 Y150.452 E0.00521
G1 X157.89 Y150.721 E0.01242
G1 X157.948 Y151.069 E0.01511
G1 X157.946 Y152.91 E0.0787
G1 X157.923 Y153.063 E0.00662
G1 X157.82 Y153.355 E0.01325
G1 X157.649 Y153.622 E0.01356
G1 X157.444 Y153.836 E0.01265
G1 X157.172 Y154.017 E0.01398
G1 X156.864 Y154.126 E0.01396
G1 X156.531 Y154.16 E0.01432
G1 X154.634 Y154.16 E0.08111
G1 X154.634 Y154.04 E0.00458
G1 X154.634 Y153.8 E0.00971
G1 X154.634 Y153.34 E0.01968
G1 X154.754 Y153.34 E0.00458
G1 X154.994 Y153.34 E0.00971
G1 X156.579 Y153.34 E0.06778
G1 X156.802 Y153.288 E0.00979
G1 X156.989 Y153.15 E0.00995
G1 X157.105 Y152.953 E0.00978
G1 X157.135 Y152.778 E0.00758
G1 X157.135 Y151.206 E0.06721
G1 X157.089 Y151.044 E0.00721
G1 X156.96 Y150.895 E0.00846
G1 X156.764 Y150.792 E0.00945
G1 X156.552 Y150.731 E0.00943
G1 X155.146 Y150.543 E0.06064
G1 X154.757 Y150.432 E0.01731
G1 X154.649 Y150.381 E0.00513
G1 X154.461 Y150.244 E0.00994
G1 X154.311 Y150.05 E0.01048
G1 X154.203 Y149.793 E0.01191
G1 X154.163 Y149.618 E0.00769
G1 X154.135 Y149.237 E0.01631
G1 X154.144 Y147.085 E0.09202
G1 X154.165 Y146.947 E0.00596
G1 X154.266 Y146.646 E0.01357
G1 X154.439 Y146.372 E0.01385
G1 X154.667 Y146.144 E0.0138
G1 X154.937 Y145.972 E0.01367
G1 X155.225 Y145.874 E0.01301
G1 X155.56 Y145.84 E0.01439
G1 X157.706 Y145.84 E0.09178
G1 X157.706 Y145.96 E0.00458
G1 X157.706 Y146.2 E0.00971
G1 X157.706 Y146.6 E0.01711
;WIPE_START
G1 X157.36 Y146.46 F9000
;WIPE_END
G1 E-0.8 F3000
G1 X154.831 Y153.75 F9000
G1 E0.8 F1800
; External perimeter
;GapFill
SET_VELOCITY_LIMIT ACCEL=2000 ACCEL_TO_DECEL=2000 SQUARE_CORNER_VELOCITY=5

; Skirt

;TYPE:Gap fill
;WIDTH:0.481649
G1 X156.51 Y153.75 E0.07207
G1 X156.601 Y153.745 E0.00394
G1 X156.773 Y153.719 E0.00743
G1 X156.933 Y153.673 E0.00716
G1 X157.094 Y153.579 E0.00801
G1 X157.179 Y153.519 E0.00447
G1 X157.315 Y153.389 E0.00809
G1 X157.39 Y153.273 E0.00592
G1 X157.45 Y153.175 E0.00494
G1 X157.472 Y153.127 E0.00226
G1 X157.522 Y152.962 E0.00737
G1 X157.541 Y152.795 E0.00723
G1 X157.541 Y151.987 E0.03469
G1 X157.542 Y151.179 E0.03469
G1 X157.511 Y150.994 E0.00803
;WIDTH:0.51417
G1 X157.486 Y150.886 E0.00515
G1 X157.473 Y150.839 E0.00221
;WIDTH:0.561139
G1 X157.372 Y150.67 E0.01005
G1 X157.28 Y150.568 E0.00697
G1 X157.203 Y150.513 E0.00482
G1 X157.048 Y150.444 E0.00863
;WIDTH:0.507636
G1 X156.946 Y150.404 E0.00499
G1 X156.809 Y150.363 E0.00651
;WIDTH:0.479132
G1 X156.621 Y150.325 E0.00817
G1 X156.046 Y150.249 E0.02475
G1 X155.471 Y150.173 E0.02475
G1 X155.336 Y150.146 E0.00586
;WIDTH:0.515382
G1 X155.233 Y150.124 E0.00487
G1 X155.186 Y150.111 E0.00225
G1 X155.029 Y150.05 E0.00778
;WIDTH:0.577309
G1 X154.918 Y150.005 E0.00633
G1 X154.808 Y149.931 E0.00696
G1 X154.71 Y149.817 E0.00788
;WIDTH:0.553124
G1 X154.641 Y149.707 E0.00648
;WIDTH:0.521751
G1 X154.586 Y149.554 E0.00765
;WIDTH:0.478062
G1 X154.555 Y149.378 E0.00761
G1 X154.545 Y149.223 E0.0066
G1 X154.547 Y148.209 E0.04316
G1 X154.549 Y147.195 E0.04316
G1 X154.569 Y147.044 E0.00647
G1 X154.619 Y146.867 E0.00783
G1 X154.652 Y146.794 E0.00342
G1 X154.761 Y146.629 E0.00841
G1 X154.872 Y146.508 E0.007
G1 X155.017 Y146.405 E0.00755
G1 X155.109 Y146.346 E0.00467
G1 X155.181 Y146.317 E0.00331
G1 X155.313 Y146.281 E0.00582
G1 X155.449 Y146.259 E0.00584
G1 X155.581 Y146.25 E0.00563
G1 X156.438 Y146.25 E0.03651
G1 X157.296 Y146.25 E0.03651
G1 X157.509 Y146.25 E0.00907
G1 E-0.8 F3000
G1 X160.535 Y154.16 F9000
G1 E0.8 F1800
; External perimeter
;ExternalPerimeter
SET_VELOCITY_LIMIT ACCEL=1000 ACCEL_TO_DECEL=1000 SQUARE_CORNER_VELOCITY=5

; Perimeter

;TYPE:External perimeter
;WIDTH:0.48
G1 X159.716 Y154.16 E0.035
G1 X159.716 Y154.04 E0.00458
G1 X159.716 Y153.8 E0.00971
G1 X159.716 Y145.84 E0.34033
G1 X159.836 Y145.84 E0.00458
G1 X160.076 Y145.84 E0.00971
G1 X160.535 Y145.84 E0.0196
G1 X160.535 Y145.96 E0.00458
G1 X160.535 Y146.2 E0.00971
