; generated by SuperSlicer 2.3.57 on 2022-02-27 at 06:00:04 UTC


;
;

;
;
; 

; external perimeters extrusion width = 0.40mm
; perimeters extrusion width = 0.45mm
; infill extrusion width = 0.72mm
; solid infill extrusion width = 0.56mm
; top infill extrusion width = 0.40mm
; support material extrusion width = 0.42mm
; first layer extrusion width = 0.48mm

; external perimeters extrusion width = 0.40mm
; perimeters extrusion width = 0.45mm
; infill extrusion width = 0.72mm
; solid infill extrusion width = 0.56mm
; top infill extrusion width = 0.40mm
; support material extrusion width = 0.42mm
; first layer extrusion width = 0.48mm

; object:{"name":"top_5x1","id":"top_5x1.5mm.STL id:0 copy 0","object_center":[152.500000,150.000000,0.000000],"boundingbox_center":[152.500000,150.000000,3.396974],"boundingbox_size":[35.038942,19.299999,6.793948]}
; plater:{"center":[152.500000,150.000000,0.000000],"boundingbox_center":[152.500000,150.000000,3.396974],"boundingbox_size":[35.038942,19.299999,6.793948]}

;TYPE:Custom
START_PRINT T_BED=70 T_EXTRUDER=230
M107
G21 ; set units to millimeters
G90 ; use absolute coordinates
M83 ; use relative distances for extrusion
; Filament gcode
M104 S230 ; set temperature
M109 S230 ; set temperature and wait for it to be reached
M190 S70 ; set bed temperature and wait for it to be reached
M107
;LAYER_CHANGE
;Z:0.24
;HEIGHT:0.24
G1 Z0.24 F9000
G1 E-1 F3000
G1 X132.522 Y138.101 F9000
G1 E1 F1800
; External perimeter
;Skirt
SET_VELOCITY_LIMIT ACCEL=300 ACCEL_TO_DECEL=3000 SQUARE_CORNER_VELOCITY=5

; Support material

;TYPE:Skirt
;WIDTH:0.48
G1 X131.928 Y138.932 E0.04368
G1 X131.596 Y139.736 E0.03721
G1 X131.442 Y140.68 E0.04088
G1 X131.44 Y159.261 E0.79443
G1 X131.608 Y160.3 E0.04502
G1 X132.089 Y161.349 E0.04933
G1 X132.776 Y162.141 E0.04484
G1 X133.471 Y162.657 E0.03701
G1 X134.404 Y163.044 E0.04318
G1 X135.301 Y163.185 E0.03881
G1 X169.632 Y163.189 E1.46785
G1 X170.767 Y162.991 E0.04926
G1 X171.694 Y162.555 E0.0438
G1 X172.432 Y161.954 E0.04069
G1 X173.013 Y161.182 E0.04134
G1 X173.365 Y160.386 E0.03721
G1 X173.549 Y159.43 E0.04161
G1 X173.549 Y140.569 E0.80642
G1 X173.408 Y139.764 E0.03493
G1 X173.173 Y139.118 E0.02939
G1 X172.748 Y138.422 E0.03487
G1 X172.285 Y137.901 E0.02979
G1 X171.655 Y137.42 E0.03392
G1 X171.03 Y137.101 E0.02999
G1 X170.189 Y136.874 E0.03724
G1 X169.504 Y136.808 E0.02939
G1 X135.34 Y136.814 E1.46072
G1 X134.293 Y136.99 E0.0454
G1 X133.225 Y137.498 E0.05055
G1 X132.567 Y138.062 E0.03704
G1 X132.848 Y138.379 F9000
G1 F1800
G1 X132.305 Y139.134 E0.03976
G1 X132.007 Y139.857 E0.03344
G1 X131.87 Y140.708 E0.03687
G1 X131.868 Y159.236 E0.79214
G1 X132.012 Y160.155 E0.03979
G1 X132.431 Y161.089 E0.04379
G1 X133.054 Y161.814 E0.04087
G1 X133.672 Y162.279 E0.03306
G1 X134.514 Y162.63 E0.03899
G1 X135.317 Y162.756 E0.03475
G1 X169.617 Y162.761 E1.46653
G1 X170.627 Y162.585 E0.04382
G1 X171.437 Y162.211 E0.03813
G1 X172.113 Y161.668 E0.03709
G1 X172.644 Y160.964 E0.03771
G1 X172.959 Y160.248 E0.03344
G1 X173.124 Y159.376 E0.03794
G1 X173.124 Y140.626 E0.80166
G1 X172.999 Y139.896 E0.03167
G1 X172.795 Y139.321 E0.02609
G1 X172.412 Y138.689 E0.03162
G1 X172.003 Y138.224 E0.02647
G1 X171.432 Y137.786 E0.03074
G1 X170.877 Y137.502 E0.02666
G1 X170.107 Y137.295 E0.03409
G1 X169.504 Y137.237 E0.02591
G1 X135.355 Y137.243 E1.46006
G1 X134.432 Y137.395 E0.04
G1 X133.486 Y137.84 E0.04472
G1 X132.894 Y138.34 E0.03313
; INIT printing object top_5x1.5mm.STL id:0 copy 0
G1 E-1 F3000
; printing object top_5x1.5mm.STL id:0 copy 0
G1 X153.439 Y150.946 F9000
G1 E1 F1800
; External perimeter
;Perimeter
SET_VELOCITY_LIMIT ACCEL=2000 ACCEL_TO_DECEL=2000 SQUARE_CORNER_VELOCITY=5

; Overhang perimeter

;TYPE:Internal perimeter
G1 X154.11 Y151.367 E0.0339
G1 X154.51 Y151.513 E0.0182
G1 X154.979 Y151.618 E0.02057
G1 X155.918 Y151.729 E0.0404
G1 X155.918 Y152.189 E0.01968
G1 X153.44 Y152.189 E0.10596
G1 X153.439 Y151.006 E0.05059
G1 E-1 F3000
G1 X155.958 Y147.726 F9000
G1 E1 F1800
G1 X158.507 Y147.726 E0.109
G1 X158.512 Y149.627 E0.08128
G1 X158.172 Y149.305 E0.02004
G1 X157.868 Y149.099 E0.01569
G1 X157.383 Y148.906 E0.02234
G1 X156.894 Y148.795 E0.02141
G1 X155.958 Y148.686 E0.04031
G1 X155.958 Y147.786 E0.03844
G1 E-1 F3000
G1 X143.033 Y148.768 F9000
G1 E1 F1800
G1 X143.047 Y149.478 E0.03033
G1 X142.354 Y149.043 E0.03497
G1 X141.969 Y148.903 E0.01753
G1 X141.491 Y148.795 E0.02094
G1 X140.555 Y148.686 E0.04031
G1 X140.555 Y147.724 E0.04112
G1 X143.293 Y147.71 E0.11707
G1 X143.293 Y147.699 E0.00044
G1 X145.01 Y147.71 E0.07343
G1 X145.01 Y148.768 E0.04525
G1 X143.093 Y148.768 E0.08198
G1 X143.508 Y152.31 F9000
G1 F1800
G1 X143.54 Y151.994 E0.01358
G1 X143.541 Y151.596 E0.01705
G1 X145.01 Y151.618 E0.06282
G1 X145.01 Y152.204 E0.02506
G1 X144.46 Y152.207 E0.02351
G1 X143.978 Y152.238 E0.02063
G1 X143.567 Y152.301 E0.0178
G1 E-1 F3000
G1 X158.081 Y148.723 F9000
G1 E1 F1800
G1 X157.485 Y148.485 E0.02744
G1 X157.549 Y148.155 E0.01438
G1 X158.08 Y148.155 E0.02271
G1 X158.081 Y148.663 E0.02173
G1 E-1 F3000
G1 X138.362 Y151.76 F9000
G1 E1 F1800
G1 X137.588 Y151.76 E0.0331
G1 X137.588 Y155.655 E0.1665
G1 X141.076 Y155.655 E0.14916
G1 X141.458 Y155.629 E0.01636
G1 X141.916 Y155.53 E0.02004
G1 X142.395 Y155.336 E0.02207
G1 X142.382 Y155.649 E0.01338
G1 X148.045 Y155.655 E0.24212
G1 X156.48 Y155.655 E0.36063
G1 X156.862 Y155.629 E0.01635
G1 X157.319 Y155.53 E0.02001
G1 X157.77 Y155.348 E0.0208
G1 X158.071 Y155.163 E0.0151
G1 X158.069 Y155.655 E0.02101
G1 X161.966 Y155.655 E0.16664
G1 X161.966 Y155.063 E0.0253
G1 X162.384 Y155.329 E0.02118
G1 X162.808 Y155.508 E0.01967
G1 X163.25 Y155.618 E0.0195
G1 X163.704 Y155.655 E0.01947
G1 X167.7 Y155.655 E0.17085
G1 X167.7 Y144.261 E0.48715
G1 X163.708 Y144.261 E0.17067
G1 X163.284 Y144.292 E0.01818
G1 X162.811 Y144.406 E0.02083
G1 X162.413 Y144.572 E0.01845
G1 X161.966 Y144.848 E0.02245
G1 X161.966 Y144.261 E0.02511
G1 X155.392 Y144.261 E0.28109
G1 X154.938 Y144.297 E0.01946
G1 X154.508 Y144.403 E0.01894
G1 X153.886 Y144.657 E0.02872
G1 X153.895 Y144.261 E0.01695
G1 X150.203 Y144.261 E0.15785
G1 X145.444 Y144.261 E0.20347
G1 X143.145 Y144.276 E0.09829
G1 X139.991 Y144.26 E0.13487
G1 X139.535 Y144.297 E0.01958
G1 X139.105 Y144.403 E0.01893
G1 X138.7 Y144.568 E0.0187
G1 X138.315 Y144.805 E0.01931
G1 X137.951 Y145.116 E0.02047
G1 X137.652 Y145.462 E0.01956
G1 X137.412 Y145.846 E0.01937
G1 X137.232 Y146.273 E0.01981
G1 X137.124 Y146.709 E0.0192
G1 X137.088 Y147.164 E0.01949
G1 X137.103 Y149.599 E0.10414
G1 X137.184 Y150.07 E0.0204
G1 X137.332 Y150.516 E0.02011
G1 X137.514 Y150.859 E0.01661
G1 X137.758 Y151.185 E0.01741
G1 X138.318 Y151.719 E0.03308
G1 E-1 F3000
G1 X142.859 Y154.443 F9000
G1 E1 F1800
G1 X142.828 Y155.221 E0.03328
G1 X148.045 Y155.227 E0.22306
G1 X156.466 Y155.226 E0.36001
G1 X156.802 Y155.204 E0.01439
G1 X157.192 Y155.119 E0.0171
G1 X157.576 Y154.964 E0.01769
G1 X157.908 Y154.76 E0.01665
G1 X158.503 Y154.248 E0.03358
G1 X158.499 Y155.226 E0.04181
G1 X161.538 Y155.226 E0.12991
G1 X161.538 Y153.987 E0.053
G1 X161.965 Y154.489 E0.02821
G1 X162.237 Y154.728 E0.01549
G1 X162.584 Y154.948 E0.01755
G1 X162.943 Y155.1 E0.0167
G1 X163.32 Y155.194 E0.01657
G1 X163.721 Y155.226 E0.01723
G1 X167.272 Y155.226 E0.1518
G1 X167.272 Y144.689 E0.45051
G1 X163.724 Y144.689 E0.15168
G1 X163.351 Y144.716 E0.016
G1 X162.945 Y144.814 E0.01786
G1 X162.609 Y144.955 E0.01555
G1 X162.3 Y145.146 E0.01554
G1 X162.004 Y145.382 E0.0162
G1 X161.538 Y145.916 E0.0303
G1 X161.538 Y144.689 E0.05244
G1 X155.409 Y144.689 E0.26205
G1 X155.007 Y144.721 E0.01724
G1 X154.641 Y144.811 E0.01609
G1 X154.298 Y144.952 E0.01586
G1 X153.971 Y145.153 E0.01642
G1 X153.437 Y145.61 E0.03004
G1 X153.457 Y144.689 E0.03935
G1 X150.203 Y144.689 E0.13912
G1 X145.446 Y144.689 E0.2034
G1 X143.146 Y144.705 E0.09834
G1 X140.007 Y144.689 E0.13421
G1 X139.603 Y144.721 E0.01731
G1 X139.238 Y144.811 E0.01609
G1 X138.895 Y144.952 E0.01586
G1 X138.568 Y145.153 E0.0164
G1 X138.254 Y145.42 E0.01765
G1 X137.998 Y145.717 E0.01675
G1 X137.793 Y146.044 E0.0165
G1 X137.64 Y146.408 E0.0169
G1 X137.549 Y146.778 E0.01626
G1 X137.517 Y147.179 E0.01722
G1 X137.532 Y149.562 E0.10187
G1 X137.601 Y149.965 E0.01751
G1 X137.727 Y150.347 E0.01719
G1 X137.877 Y150.629 E0.01366
G1 X138.08 Y150.9 E0.01445
G1 X138.302 Y151.111 E0.0131
G1 X138.602 Y151.314 E0.0155
G1 X139.097 Y151.511 E0.02277
G1 X139.576 Y151.618 E0.02099
G1 X140.516 Y151.729 E0.04046
G1 X140.516 Y152.189 E0.01967
G1 X138.016 Y152.189 E0.10686
G1 X138.016 Y155.226 E0.12986
G1 X141.062 Y155.226 E0.13024
G1 X141.398 Y155.204 E0.01439
G1 X141.789 Y155.119 E0.01712
G1 X142.175 Y154.963 E0.01777
G1 X142.51 Y154.754 E0.01687
G1 X142.814 Y154.483 E0.01745
G1 E-1 F3000
G1 X150.835 Y149.155 F9000
G1 E1 F1800
; External perimeter
;ExternalPerimeter
SET_VELOCITY_LIMIT ACCEL=1000 ACCEL_TO_DECEL=1000 SQUARE_CORNER_VELOCITY=5

; Perimeter

;TYPE:External perimeter
G1 X150.27 Y149.155 E0.02418
G1 X150.27 Y149.035 E0.00458
G1 X150.27 Y148.795 E0.00971
G1 X150.27 Y145.118 E0.15722
G1 X150.15 Y145.118 E0.00458
G1 X149.91 Y145.118 E0.00971
G1 X148.089 Y145.118 E0.07783
G1 X148.089 Y145.238 E0.00458
G1 X148.089 Y145.478 E0.00971
G1 X148.089 Y154.798 E0.39848
G1 X148.209 Y154.798 E0.00458
G1 X148.449 Y154.798 E0.00971
G1 X150.27 Y154.798 E0.07783
G1 X150.27 Y154.678 E0.00458
G1 X150.27 Y154.438 E0.00971
G1 X150.27 Y151.205 E0.13821
G1 X150.39 Y151.205 E0.00458
G1 X150.63 Y151.205 E0.00971
G1 X150.835 Y151.205 E0.00879
G1 X150.835 Y151.325 E0.00458
G1 X150.835 Y151.565 E0.00971
G1 X150.835 Y154.798 E0.13821
G1 X150.955 Y154.798 E0.00458
G1 X151.195 Y154.798 E0.00971
G1 X153.014 Y154.798 E0.07776
G1 X153.014 Y154.678 E0.00458
G1 X153.014 Y154.438 E0.00971
G1 X153.01 Y150.454 E0.17032
G1 X152.967 Y148.954 E0.06415
G1 X152.967 Y147.46 E0.06387
G1 X153.019 Y145.118 E0.10018
G1 X152.899 Y145.118 E0.00456
G1 X152.659 Y145.118 E0.00969
G1 X150.835 Y145.118 E0.07798
G1 X150.835 Y145.238 E0.00458
G1 X150.835 Y145.478 E0.00971
G1 X150.835 Y149.095 E0.15465
;WIPE_START
G1 X150.489 Y148.955 F9000
;WIPE_END
G1 E-1 F3000
G1 X156.347 Y152.617 F9000
G1 E1 F1800
G1 X153.848 Y152.617 E0.10685
G1 X153.848 Y152.737 E0.00458
G1 X153.848 Y152.977 E0.00971
G1 X153.848 Y154.798 E0.07783
G1 X153.968 Y154.798 E0.00458
G1 X154.208 Y154.798 E0.00971
G1 X156.452 Y154.798 E0.09592
G1 X156.742 Y154.778 E0.01243
G1 X157.066 Y154.708 E0.01419
G1 X157.382 Y154.58 E0.01459
G1 X157.654 Y154.413 E0.01365
G1 X157.947 Y154.162 E0.01649
G1 X158.155 Y153.903 E0.01419
G1 X158.313 Y153.639 E0.01319
G1 X158.433 Y153.346 E0.01352
G1 X158.499 Y153.052 E0.01286
G1 X158.516 Y152.719 E0.01427
G1 X158.516 Y151.201 E0.06491
G1 X158.496 Y150.767 E0.01857
G1 X158.431 Y150.464 E0.01323
G1 X158.337 Y150.208 E0.01166
G1 X158.211 Y149.982 E0.01109
G1 X158.071 Y149.801 E0.00978
G1 X157.902 Y149.64 E0.00997
G1 X157.666 Y149.48 E0.01222
G1 X157.255 Y149.316 E0.01891
G1 X156.822 Y149.218 E0.01899
G1 X155.8 Y149.098 E0.04401
G1 X155.529 Y149.046 E0.01176
G1 X155.529 Y148.926 E0.00478
G1 X155.529 Y148.686 E0.00992
G1 X155.529 Y147.298 E0.05936
G1 X155.649 Y147.298 E0.00458
G1 X155.889 Y147.298 E0.00971
G1 X158.281 Y147.298 E0.10223
G1 X158.281 Y147.178 E0.00458
G1 X158.281 Y146.938 E0.00971
G1 X158.281 Y145.118 E0.07783
G1 X158.161 Y145.118 E0.00458
G1 X157.921 Y145.118 E0.00971
G1 X155.426 Y145.118 E0.10668
G1 X155.075 Y145.145 E0.01501
G1 X154.775 Y145.22 E0.01325
G1 X154.493 Y145.335 E0.01302
G1 X154.224 Y145.501 E0.0135
G1 X153.96 Y145.726 E0.01485
G1 X153.747 Y145.975 E0.01401
G1 X153.582 Y146.251 E0.01372
G1 X153.461 Y146.56 E0.01419
G1 X153.409 Y146.865 E0.01323
G1 X153.396 Y147.2 E0.01436
G1 X153.396 Y149.214 E0.08609
G1 X153.436 Y149.84 E0.02681
G1 X153.532 Y150.168 E0.01461
G1 X153.645 Y150.393 E0.01079
G1 X153.804 Y150.612 E0.01157
G1 X153.977 Y150.778 E0.01025
G1 X154.3 Y150.98 E0.01627
G1 X154.631 Y151.101 E0.01507
G1 X155.051 Y151.195 E0.01843
G1 X156.074 Y151.315 E0.044
G1 X156.346 Y151.367 E0.01186
G1 X156.346 Y151.487 E0.00478
G1 X156.346 Y151.727 E0.00992
G1 X156.347 Y152.557 E0.03548
;WIPE_START
G1 X156.001 Y152.417 F9000
;WIPE_END
G1 E-1 F3000
G1 X158.929 Y154.798 F9000
G1 E1 F1800
G1 X161.109 Y154.798 E0.09319
G1 X161.109 Y154.678 E0.00458
G1 X161.109 Y154.438 E0.00971
G1 X161.109 Y145.118 E0.39848
G1 X160.989 Y145.118 E0.00458
G1 X160.749 Y145.118 E0.00971
G1 X158.93 Y145.118 E0.07778
G1 X158.93 Y145.238 E0.00458
G1 X158.931 Y145.478 E0.00971
G1 X158.945 Y151.457 E0.25567
G1 X158.93 Y154.738 E0.14025
;WIPE_START
G1 X158.929 Y155.198 F9000
;WIPE_END
G1 X166.843 Y154.798
G1 F1800
G1 X166.843 Y145.118 E0.41387
G1 X166.723 Y145.118 E0.00458
G1 X166.483 Y145.118 E0.00971
G1 X163.74 Y145.118 E0.1173
G1 X163.417 Y145.141 E0.01383
G1 X163.078 Y145.223 E0.0149
G1 X162.806 Y145.337 E0.01265
G1 X162.547 Y145.496 E0.01298
G1 X162.302 Y145.693 E0.01345
G1 X162.078 Y145.948 E0.0145
G1 X161.898 Y146.229 E0.01424
G1 X161.771 Y146.529 E0.01395
G1 X161.692 Y146.84 E0.01372
G1 X161.664 Y147.194 E0.01517
G1 X161.664 Y152.722 E0.23638
G1 X161.689 Y153.05 E0.01407
G1 X161.758 Y153.347 E0.01302
G1 X161.88 Y153.651 E0.01401
G1 X162.044 Y153.921 E0.0135
G1 X162.271 Y154.188 E0.01496
G1 X162.495 Y154.384 E0.01275
G1 X162.784 Y154.568 E0.01462
G1 X163.079 Y154.693 E0.01373
G1 X163.389 Y154.77 E0.01364
G1 X163.738 Y154.798 E0.01499
G1 X166.783 Y154.798 E0.13018
;WIPE_START
G1 X167.243 Y154.798 F9000
;WIPE_END
G1 E-1 F3000
G1 X145.438 Y149.197 F9000
G1 E1 F1800
G1 X143.47 Y149.197 E0.08418
G1 X143.472 Y149.317 E0.00456
G1 X143.477 Y149.557 E0.00969
G1 X143.508 Y151.167 E0.06884
G1 X143.628 Y151.168 E0.00464
G1 X143.868 Y151.172 E0.00977
G1 X145.438 Y151.196 E0.06713
G1 X145.438 Y151.316 E0.0046
G1 X145.438 Y151.556 E0.00973
G1 X145.438 Y152.631 E0.04595
G1 X145.318 Y152.631 E0.0046
G1 X145.078 Y152.632 E0.00973
G1 X144.475 Y152.635 E0.02581
G1 X144.025 Y152.664 E0.01927
G1 X143.386 Y152.763 E0.02767
G1 X143.382 Y152.883 E0.00478
G1 X143.375 Y153.123 E0.00992
G1 X143.365 Y153.448 E0.01392
G1 X143.308 Y153.943 E0.0213
G1 X143.274 Y154.793 E0.03635
G1 X143.394 Y154.793 E0.00453
G1 X143.634 Y154.793 E0.00966
G1 X147.617 Y154.798 E0.17029
G1 X147.617 Y154.678 E0.00458
G1 X147.617 Y154.438 E0.00971
G1 X147.617 Y145.118 E0.39849
G1 X147.497 Y145.118 E0.00458
G1 X147.257 Y145.118 E0.00971
G1 X145.447 Y145.118 E0.07737
G1 X143.292 Y145.132 E0.09213
G1 X143.292 Y145.252 E0.0046
G1 X143.292 Y145.492 E0.00973
G1 X143.292 Y147.271 E0.07604
G1 X143.412 Y147.272 E0.0046
G1 X143.652 Y147.273 E0.00973
G1 X145.438 Y147.284 E0.07636
G1 X145.438 Y147.404 E0.0046
G1 X145.438 Y147.644 E0.00973
G1 X145.438 Y149.137 E0.06382
;WIPE_START
G1 X145.092 Y148.997 F9000
;WIPE_END
G1 E-1 F3000
G1 X140.944 Y152.617 F9000
G1 E1 F1800
G1 X138.445 Y152.617 E0.10685
G1 X138.445 Y152.737 E0.00458
G1 X138.445 Y152.977 E0.00971
G1 X138.445 Y154.798 E0.07783
G1 X138.565 Y154.798 E0.00458
G1 X138.805 Y154.798 E0.00971
G1 X141.048 Y154.798 E0.09592
G1 X141.338 Y154.778 E0.01243
G1 X141.663 Y154.708 E0.0142
G1 X141.98 Y154.58 E0.01462
G1 X142.252 Y154.41 E0.01372
G1 X142.542 Y154.152 E0.01659
G1 X142.741 Y153.873 E0.01464
G1 X142.877 Y153.587 E0.01354
G1 X143.001 Y153.044 E0.02383
G1 X143.112 Y151.972 E0.04607
G1 X143.113 Y151.192 E0.03335
G1 X143.027 Y150.476 E0.03084
G1 X142.929 Y150.213 E0.01198
G1 X142.808 Y149.985 E0.01105
G1 X142.668 Y149.802 E0.00987
G1 X142.496 Y149.638 E0.01014
G1 X142.165 Y149.43 E0.0167
G1 X141.848 Y149.315 E0.01443
G1 X141.418 Y149.218 E0.01882
G1 X140.396 Y149.098 E0.04401
G1 X140.126 Y149.046 E0.01176
G1 X140.126 Y148.926 E0.00478
G1 X140.126 Y148.686 E0.00992
G1 X140.126 Y147.297 E0.05938
G1 X140.246 Y147.297 E0.0046
G1 X140.486 Y147.296 E0.00973
G1 X142.864 Y147.284 E0.10167
G1 X142.864 Y147.164 E0.0046
G1 X142.864 Y146.924 E0.00973
G1 X142.864 Y145.132 E0.0766
G1 X142.744 Y145.131 E0.0046
G1 X142.504 Y145.13 E0.00973
G1 X140.023 Y145.118 E0.10609
G1 X139.672 Y145.145 E0.01504
G1 X139.371 Y145.22 E0.01325
G1 X139.089 Y145.335 E0.01302
G1 X138.821 Y145.5 E0.01349
G1 X138.557 Y145.725 E0.01483
G1 X138.344 Y145.972 E0.01393
G1 X138.175 Y146.242 E0.01364
