; generated by SuperSlicer 2.5.59 on 2022-11-28 at 23:06:43 UTC


;
;

;
;
; 

; external perimeters extrusion width = 0.40mm
; perimeters extrusion width = 0.46mm
; infill extrusion width = 0.64mm
; solid infill extrusion width = 0.56mm
; top infill extrusion width = 0.40mm
; first layer extrusion width = 0.50mm

; object:{"name":"dock","id":"dock.stl id:0 copy 0","object_center":[152.500000,150.000000,0.000000],"boundingbox_center":[152.500000,150.000000,18.127562],"boundingbox_size":[43.223999,41.256001,36.253998]}
; plater:{"center":[152.500000,150.000000,0.000000],"boundingbox_center":[152.500000,150.000000,18.127562],"boundingbox_size":[43.223999,41.256001,36.253998]}

M73 P0 R44


; Pre-Processed for Cancel-Object support by preprocess_cancellation v0.2.0
; 1 known objects
EXCLUDE_OBJECT_DEFINE NAME=dock_stl_id_0_copy_0 CENTER=159.581,160.169 POLYGON=[[131.088,129.572],[131.088,170.428],[173.912,170.428],[173.912,129.572]]
;TYPE:Custom
START_PRINT T_BED=70 T_EXTRUDER=235
M107
G21 ; set units to millimeters
G90 ; use absolute coordinates
M83 ; use relative distances for extrusion
; Filament gcode
;_TOOLCHANGE 0
M104 S235 ; set temperature
M109 S235 ; set temperature and wait for it to be reached
M190 S70 ; set bed temperature and wait for it to be reached
M107
;LAYER_CHANGE
;Z:0.2
;HEIGHT:0.2
G1 Z0.2 F9000
G92 E0
G1 E-1 F3000
M204 S1000
G1 X150.747 Y138.426 F9000
G1 E1 F1800
;TYPE:Skirt
;WIDTH:0.52
G1 X128.528 Y162.623 E1.30316
G1 X127.971 Y163.417 E0.0385
G1 X127.55 Y165.077 E0.06793
G1 X127.583 Y169.261 E0.16596
G1 X128.039 Y171.01 E0.07173
G1 X129.185 Y172.283 E0.06793
G1 X130.78 Y172.907 E0.06793
G1 X138.39 Y173.944 E0.30468
G1 X143.606 Y173.937 E0.2069
G1 X162.245 Y172.814 E0.74074
G1 X163.907 Y172.523 E0.06693
G1 X165.193 Y172.18 E0.05282
G1 X166.836 Y171.58 E0.06939
G1 X167.878 Y171.101 E0.04547
G1 X169.058 Y170.452 E0.05343
G1 X170.521 Y169.472 E0.06987
G1 X171.352 Y168.811 E0.04209
G1 X172.629 Y167.616 E0.06937
G1 X173.875 Y166.177 E0.07554
G1 X174.767 Y164.909 E0.06151
G1 X175.993 Y162.672 E0.10117
G1 X176.44 Y161.595 E0.04627
G1 X177.027 Y159.713 E0.07819
G1 X177.41 Y157.728 E0.08022
G1 X177.531 Y156.576 E0.04594
G1 X177.429 Y129.455 E1.07587
G1 X176.692 Y127.251 E0.0922
G1 X175.38 Y126.151 E0.06793
G1 X173.713 Y125.756 E0.06793
G1 X164.014 Y125.756 E0.38477
M73 P0 R44
G1 X162.695 Y125.998 E0.0532
G1 X161.277 Y126.959 E0.06793
G1 X150.747 Y138.426 E0.61759
G1 X151.099 Y138.749 F9000
G1 F1800
G1 X128.88 Y162.945 E1.30316
G1 X128.027 Y165.085 E0.09136
G1 X128.061 Y169.256 E0.16549
G1 X128.361 Y170.589 E0.0542
G1 X129.369 Y171.828 E0.06336
G1 X130.846 Y172.434 E0.06336
G1 X138.39 Y173.466 E0.30204
G1 X143.578 Y173.461 E0.2058
G1 X161.3 Y172.427 E0.70421
G1 X162.392 Y172.315 E0.04354
G1 X163.991 Y172.013 E0.06457
G1 X165.653 Y171.526 E0.06869
G1 X166.854 Y171.053 E0.05121
G1 X167.867 Y170.571 E0.04453
G1 X169.505 Y169.606 E0.07543
G1 X170.891 Y168.576 E0.06847
G1 X171.839 Y167.73 E0.05043
G1 X172.643 Y166.898 E0.04588
G1 X173.722 Y165.588 E0.06732
G1 X174.719 Y164.086 E0.07153
G1 X175.477 Y162.654 E0.06427
G1 X175.989 Y161.44 E0.05227
G1 X176.523 Y159.76 E0.06993
G1 X176.757 Y158.74 E0.0415
G1 X177.038 Y156.787 E0.07828
G1 X176.952 Y129.457 E1.08415
G1 X176.433 Y127.713 E0.0722
G1 X175.261 Y126.627 E0.06336
G1 X173.713 Y126.233 E0.06336
G1 X164.014 Y126.233 E0.38477
G1 X162.966 Y126.408 E0.04216
G1 X161.629 Y127.282 E0.06336
G1 X151.099 Y138.749 E0.61759
G1 E-1 F3000
; printing object dock.stl id:0 copy 0
EXCLUDE_OBJECT_START NAME=dock_stl_id_0_copy_0
G1 X142.626 Y167.968 F9000
G1 E1 F1800
;TYPE:Internal perimeter
;WIDTH:0.5
G1 X142.626 Y168.27 E0.01148
G1 X142.224 Y168.27 E0.01525
G1 X142.225 Y169.064 E0.03017
G1 X139.554 Y169.064 E0.10151
G1 X139.554 Y168.064 E0.038
G1 X132.453 Y168.063 E0.26987
G1 X132.438 Y166.187 E0.07132
G1 X149.632 Y166.192 E0.65348
G1 X150.507 Y166.167 E0.03329
G1 X151.4 Y166.087 E0.03407
G1 X152.467 Y165.928 E0.04101
G1 X153.518 Y165.691 E0.04095
G1 X154.212 Y165.497 E0.02738
G1 X155.066 Y165.205 E0.0343
G1 X156.067 Y164.791 E0.04116
G1 X156.879 Y164.391 E0.03439
G1 X157.661 Y163.95 E0.03413
G1 X158.418 Y163.462 E0.03421
G1 X159.144 Y162.931 E0.0342
G1 X159.972 Y162.244 E0.04089
G1 X160.738 Y161.509 E0.04035
G1 X161.231 Y160.985 E0.02736
G1 X161.808 Y160.297 E0.03412
G1 X162.447 Y159.434 E0.04084
G1 X162.935 Y158.676 E0.03424
G1 X163.38 Y157.889 E0.03434
G1 X163.852 Y156.914 E0.04116
G1 X164.192 Y156.079 E0.03427
G1 X164.427 Y155.398 E0.02739
G1 X164.723 Y154.363 E0.04094
G1 X164.915 Y153.476 E0.03446
G1 X165.075 Y152.414 E0.04084
G1 X165.153 Y151.52 E0.03408
G1 X165.178 Y150.647 E0.03322
G1 X165.178 Y130.636 E0.76052
G1 X172.549 Y130.636 E0.28014
G1 X172.546 Y155.689 E0.95218
G1 X172.663 Y156.16 E0.01843
G1 X172.656 Y156.354 E0.00738
G1 X172.591 Y156.957 E0.02305
G1 X172.42 Y157.979 E0.03938
G1 X172.28 Y158.584 E0.0236
G1 X172.112 Y159.175 E0.02338
G1 X171.839 Y159.968 E0.03187
G1 X171.513 Y160.739 E0.03182
G1 X171.253 Y161.266 E0.0223
G1 X170.752 Y162.126 E0.03784
G1 X170.529 Y162.378 E0.01278
G1 X170.231 Y162.81 E0.01996
G1 X170.123 Y163.047 E0.00991
G1 X169.971 Y163.243 E0.00941
G1 X169.744 Y163.445 E0.01157
G1 X169.403 Y163.839 E0.01981
G1 X169.258 Y164.073 E0.01047
G1 X168.748 Y164.594 E0.02768
G1 X168.126 Y165.15 E0.03174
G1 X167.678 Y165.506 E0.02173
G1 X166.992 Y165.991 E0.03193
G1 X166.505 Y166.294 E0.02178
G1 X165.773 Y166.698 E0.03181
G1 X165.02 Y167.05 E0.03157
G1 X164.244 Y167.355 E0.03171
G1 X163.697 Y167.535 E0.02186
G1 X162.888 Y167.751 E0.03182
G1 X162.315 Y167.869 E0.02224
G1 X161.736 Y167.961 E0.0223
G1 X160.909 Y168.042 E0.03158
G1 X159.824 Y168.079 E0.04126
G1 X157.934 Y168.087 E0.0718
G1 X153.782 Y167.985 E0.15788
G1 X142.626 Y167.968 E0.42399
G1 X143.083 Y168.426 F9000
G1 F1800
G1 X143.083 Y168.727 E0.01145
G1 X142.682 Y168.727 E0.01524
G1 X142.682 Y169.521 E0.03017
G1 X139.097 Y169.521 E0.13626
G1 X139.097 Y168.521 E0.038
G1 X132 Y168.52 E0.26973
G1 X131.977 Y165.73 E0.10607
G1 X149.625 Y165.735 E0.67075
G1 X150.481 Y165.711 E0.03251
G1 X151.346 Y165.633 E0.03303
G1 X152.383 Y165.478 E0.03985
G1 X153.406 Y165.247 E0.03987
G1 X154.077 Y165.06 E0.02645
G1 X154.905 Y164.777 E0.03326
G1 X155.879 Y164.375 E0.04005
G1 X156.665 Y163.987 E0.03333
G1 X157.425 Y163.559 E0.03313
G1 X158.159 Y163.086 E0.03319
G1 X158.863 Y162.571 E0.03315
G1 X159.667 Y161.903 E0.03973
G1 X160.413 Y161.187 E0.03929
G1 X160.89 Y160.681 E0.02642
G1 X161.449 Y160.014 E0.03308
G1 X162.071 Y159.174 E0.03974
G1 X162.543 Y158.439 E0.03318
G1 X162.975 Y157.677 E0.03329
G1 X163.434 Y156.728 E0.04005
G1 X163.764 Y155.918 E0.03325
G1 X163.991 Y155.26 E0.02645
G1 X164.28 Y154.251 E0.03989
G1 X164.465 Y153.394 E0.03334
G1 X164.621 Y152.36 E0.03975
G1 X164.696 Y151.494 E0.03304
G1 X164.721 Y150.64 E0.03247
G1 X164.721 Y130.179 E0.77764
G1 X173.006 Y130.179 E0.31489
G1 X173.003 Y155.633 E0.96741
G1 X173.123 Y156.112 E0.01876
G1 X173.112 Y156.387 E0.01046
G1 X173.044 Y157.019 E0.02417
G1 X172.869 Y158.068 E0.04042
G1 X172.723 Y158.698 E0.02456
G1 X172.548 Y159.312 E0.02428
G1 X172.266 Y160.132 E0.03295
G1 X171.928 Y160.93 E0.03291
G1 X171.656 Y161.482 E0.0234
G1 X171.124 Y162.395 E0.04017
G1 X170.89 Y162.66 E0.01346
G1 X170.63 Y163.036 E0.01734
G1 X170.517 Y163.285 E0.01041
G1 X170.42 Y163.415 E0.00615
G1 X170.306 Y163.557 E0.00693
G1 X170.07 Y163.766 E0.01201
G1 X169.773 Y164.111 E0.01728
G1 X169.62 Y164.357 E0.01102
G1 X169.064 Y164.924 E0.03018
G1 X168.42 Y165.5 E0.03282
G1 X167.952 Y165.872 E0.02272
G1 X167.245 Y166.372 E0.03293
G1 X166.737 Y166.688 E0.02275
G1 X165.98 Y167.106 E0.03284
G1 X165.201 Y167.471 E0.03271
G1 X164.399 Y167.785 E0.03275
G1 X163.828 Y167.973 E0.02284
G1 X162.993 Y168.196 E0.03282
G1 X162.397 Y168.319 E0.02314
G1 X161.794 Y168.415 E0.02322
G1 X160.939 Y168.498 E0.03266
G1 X159.832 Y168.536 E0.04207
G1 X157.93 Y168.544 E0.07231
G1 X153.776 Y168.442 E0.15792
G1 X143.083 Y168.426 E0.4064
G1 X143.54 Y168.883 F9000
;TYPE:External perimeter
G1 F1800
G1 X143.54 Y169.184 E0.01142
G1 X143.139 Y169.184 E0.01523
G1 X143.14 Y169.978 E0.03017
G1 X138.64 Y169.978 E0.17101
G1 X138.64 Y168.978 E0.03801
G1 X131.547 Y168.977 E0.26959
G1 X131.517 Y165.345 E0.13807
G1 X131.919 Y165.273 E0.01553
G1 X149.619 Y165.278 E0.67271
G1 X150.454 Y165.254 E0.03174
G1 X151.292 Y165.179 E0.03199
G1 X152.299 Y165.029 E0.0387
G1 X153.295 Y164.804 E0.03879
G1 X153.941 Y164.623 E0.02552
G1 X154.744 Y164.349 E0.03222
G1 X155.69 Y163.958 E0.03893
G1 X156.452 Y163.583 E0.03227
G1 X157.188 Y163.167 E0.03214
G1 X157.9 Y162.709 E0.03217
G1 X158.582 Y162.21 E0.03211
G1 X159.362 Y161.562 E0.03856
G1 X160.088 Y160.865 E0.03824
G1 X160.548 Y160.377 E0.02548
G1 X161.09 Y159.731 E0.03205
G1 X161.695 Y158.914 E0.03864
G1 X162.152 Y158.203 E0.03212
G1 X162.57 Y157.465 E0.03225
G1 X163.016 Y156.543 E0.03893
G1 X163.336 Y155.757 E0.03222
G1 X163.555 Y155.123 E0.02551
G1 X163.836 Y154.14 E0.03885
G1 X164.015 Y153.312 E0.03222
G1 X164.167 Y152.306 E0.03866
G1 X164.24 Y151.467 E0.03199
G1 X164.264 Y150.633 E0.03172
G1 X164.264 Y129.722 E0.79476
G1 X173.463 Y129.722 E0.34963
G1 X173.463 Y129.855 E0.00506
G1 X173.46 Y155.577 E0.9776
G1 X173.582 Y156.064 E0.01909
G1 X173.569 Y156.42 E0.01354
G1 X173.497 Y157.082 E0.02528
G1 X173.317 Y158.158 E0.04147
G1 X173.166 Y158.812 E0.02553
G1 X172.984 Y159.449 E0.02518
G1 X172.693 Y160.296 E0.03402
G1 X172.344 Y161.12 E0.034
G1 X172.059 Y161.698 E0.02451
G1 X171.497 Y162.664 E0.0425
G1 X171.25 Y162.943 E0.01414
G1 X171.03 Y163.262 E0.01473
G1 X170.913 Y163.519 E0.01074
G1 X170.782 Y163.695 E0.00835
G1 X170.638 Y163.873 E0.0087
G1 X170.396 Y164.088 E0.01231
G1 X170.142 Y164.382 E0.01474
G1 X169.982 Y164.641 E0.01158
G1 X169.38 Y165.255 E0.03269
G1 X168.715 Y165.849 E0.0339
G1 X168.227 Y166.237 E0.02371
G1 X167.498 Y166.753 E0.03392
G1 X166.968 Y167.082 E0.02371
G1 X166.188 Y167.513 E0.03387
G1 X165.382 Y167.891 E0.03385
G1 X164.554 Y168.215 E0.03379
G1 X163.958 Y168.412 E0.02382
G1 X163.099 Y168.641 E0.03382
G1 X162.479 Y168.769 E0.02404
G1 X161.852 Y168.868 E0.02414
G1 X160.969 Y168.954 E0.03373
G1 X159.841 Y168.993 E0.04288
G1 X157.925 Y169.001 E0.07282
G1 X153.77 Y168.899 E0.15797
G1 X143.54 Y168.883 E0.3888
;WIPE_START
M204 S3000
G1 X143.14 Y168.883 F9000
;WIPE_END
G1 E-1 F3000
M204 S1000
G1 X172.48 Y131.629 F9000
G1 E1 F1800
;TYPE:Solid infill
;WIDTH:0.489242
G1 F2400
G1 X171.557 Y130.705 E0.04859
G1 X170.91 Y130.705 F9000
G1 F2400
G1 X172.48 Y132.275 E0.08258
G1 X172.48 Y132.921 F9000
G1 F2400
G1 X170.264 Y130.705 E0.11657
G1 X169.617 Y130.705 F9000
G1 F2400
G1 X172.48 Y133.568 E0.15056
G1 X172.48 Y134.214 F9000
G1 F2400
G1 X168.971 Y130.705 E0.18456
G1 X168.325 Y130.705 F9000
G1 F2400
G1 X172.48 Y134.86 E0.21855
G1 X172.48 Y135.507 F9000
G1 F2400
G1 X167.678 Y130.705 E0.25254
G1 X167.032 Y130.705 F9000
G1 F2400
G1 X172.48 Y136.153 E0.28653
G1 X172.48 Y136.799 F9000
G1 F2400
G1 X166.385 Y130.705 E0.32053
G1 X165.739 Y130.705 F9000
G1 F2400
G1 X172.48 Y137.446 E0.35452
G1 X172.48 Y138.092 F9000
G1 F2400
G1 X165.247 Y130.859 E0.3804
G1 X165.247 Y131.505 F9000
G1 F2400
G1 X172.48 Y138.738 E0.38039
G1 X172.479 Y139.385 F9000
G1 F2400
G1 X165.247 Y132.152 E0.38039
G1 X165.247 Y132.798 F9000
G1 F2400
G1 X172.479 Y140.031 E0.38038
G1 X172.479 Y140.677 F9000
G1 F2400
G1 X165.247 Y133.445 E0.38038
G1 X165.247 Y134.091 F9000
G1 F2400
G1 X172.479 Y141.323 E0.38038
M73 P1 R43
G1 X172.479 Y141.97 F9000
G1 F2400
G1 X165.247 Y134.737 E0.38037
G1 X165.247 Y135.384 F9000
G1 F2400
G1 X172.479 Y142.616 E0.38037
G1 X172.479 Y143.262 F9000
G1 F2400
G1 X165.247 Y136.03 E0.38036
G1 X165.247 Y136.677 F9000
G1 F2400
G1 X172.479 Y143.909 E0.38036
G1 X172.479 Y144.555 F9000
G1 F2400
G1 X165.247 Y137.323 E0.38036
G1 X165.247 Y137.969 F9000
G1 F2400
G1 X172.479 Y145.201 E0.38035
G1 X172.479 Y145.848 F9000
G1 F2400
G1 X165.247 Y138.616 E0.38035
G1 X165.247 Y139.262 F9000
G1 F2400
G1 X172.479 Y146.494 E0.38034
G1 X172.479 Y147.14 F9000
G1 F2400
G1 X165.247 Y139.909 E0.38034
M73 P1 R43
G1 X165.247 Y140.555 F9000
G1 F2400
G1 X172.478 Y147.787 E0.38033
G1 X172.478 Y148.433 F9000
G1 F2400
G1 X165.247 Y141.201 E0.38033
G1 X165.247 Y141.848 F9000
G1 F2400
G1 X172.478 Y149.079 E0.38033
G1 X172.478 Y149.726 F9000
G1 F2400
G1 X165.247 Y142.494 E0.38032
G1 X165.247 Y143.141 F9000
G1 F2400
G1 X172.478 Y150.372 E0.38032
G1 X172.478 Y151.018 F9000
G1 F2400
G1 X165.247 Y143.787 E0.38031
G1 X165.247 Y144.434 F9000
G1 F2400
G1 X172.478 Y151.665 E0.38031
G1 X172.478 Y152.311 F9000
G1 F2400
G1 X165.247 Y145.08 E0.38031
G1 X165.247 Y145.726 F9000
G1 F2400
G1 X172.478 Y152.957 E0.3803
G1 X172.478 Y153.604 F9000
G1 F2400
G1 X165.247 Y146.373 E0.3803
G1 X165.247 Y147.019 F9000
G1 F2400
G1 X172.478 Y154.25 E0.38029
G1 X172.478 Y154.896 F9000
G1 F2400
G1 X165.247 Y147.666 E0.38029
G1 X165.247 Y148.312 F9000
G1 F2400
G1 X172.478 Y155.543 E0.38029
G1 X172.582 Y156.294 F9000
G1 F2400
G1 X165.247 Y148.958 E0.3858
G1 X165.247 Y149.605 F9000
G1 F2400
G1 X172.529 Y156.887 E0.38297
G1 X172.42 Y157.424 F9000
G1 F2400
G1 X165.247 Y150.251 E0.37725
G1 X165.233 Y150.884 F9000
G1 F2400
G1 X172.305 Y157.956 E0.37194
G1 X172.19 Y158.488 F9000
G1 F2400
G1 X165.197 Y151.495 E0.36778
G1 X165.162 Y152.105 F9000
G1 F2400
G1 X172.076 Y159.019 E0.36362
G1 X171.906 Y159.496 F9000
G1 F2400
G1 X165.096 Y152.686 E0.35818
G1 X164.997 Y153.233 F9000
G1 F2400
G1 X171.718 Y159.954 E0.35348
G1 X171.53 Y160.413 F9000
G1 F2400
G1 X164.898 Y153.781 E0.34878
G1 X164.799 Y154.329 F9000
G1 F2400
G1 X171.342 Y160.871 E0.34408
G1 X171.14 Y161.316 F9000
G1 F2400
G1 X164.659 Y154.835 E0.34085
G1 X164.516 Y155.338 F9000
G1 F2400
G1 X170.889 Y161.712 E0.33522
G1 X170.639 Y162.107 F9000
G1 F2400
G1 X164.343 Y155.812 E0.33108
G1 X164.166 Y156.28 F9000
G1 F2400
G1 X170.388 Y162.503 E0.32724
G1 X170.137 Y162.898 F9000
G1 F2400
G1 X163.988 Y156.749 E0.3234
G1 X163.79 Y157.198 F9000
G1 F2400
G1 X169.847 Y163.255 E0.31854
G1 X169.543 Y163.597 F9000
G1 F2400
G1 X163.58 Y157.634 E0.31362
G1 X163.358 Y158.058 F9000
G1 F2400
G1 X169.239 Y163.939 E0.30929
G1 X168.934 Y164.281 F9000
G1 F2400
G1 X163.114 Y158.461 E0.30609
G1 X162.871 Y158.864 F9000
G1 F2400
G1 X168.617 Y164.61 E0.3022
G1 X168.257 Y164.897 F9000
G1 F2400
G1 X162.628 Y159.268 E0.29606
G1 X162.364 Y159.651 F9000
G1 F2400
G1 X167.897 Y165.183 E0.29097
G1 X167.537 Y165.47 F9000
G1 F2400
G1 X162.08 Y160.013 E0.28698
G1 X161.796 Y160.375 F9000
G1 F2400
G1 X167.177 Y165.756 E0.28298
G1 X166.798 Y166.024 F9000
G1 F2400
G1 X161.512 Y160.738 E0.278
G1 X161.221 Y161.093 F9000
G1 F2400
G1 X166.389 Y166.261 E0.27183
G1 X165.98 Y166.498 F9000
G1 F2400
G1 X160.898 Y161.416 E0.26732
G1 X160.574 Y161.739 F9000
G1 F2400
G1 X165.55 Y166.714 E0.26167
G1 X165.089 Y166.9 F9000
G1 F2400
G1 X160.251 Y162.062 E0.25445
G1 X159.919 Y162.377 F9000
G1 F2400
G1 X164.628 Y167.086 E0.24766
G1 X164.168 Y167.271 F9000
G1 F2400
G1 X159.566 Y162.67 E0.242
G1 X159.213 Y162.963 F9000
G1 F2400
G1 X163.707 Y167.457 E0.23635
G1 X163.181 Y167.577 F9000
G1 F2400
G1 X158.832 Y163.229 E0.22869
G1 X158.449 Y163.492 F9000
G1 F2400
G1 X162.649 Y167.693 E0.22091
G1 X162.118 Y167.808 F9000
G1 F2400
G1 X158.066 Y163.755 E0.21313
G1 X157.681 Y164.017 F9000
G1 F2400
G1 X161.567 Y167.903 E0.20436
G1 X160.958 Y167.94 F9000
G1 F2400
G1 X157.258 Y164.24 E0.19459
G1 X156.835 Y164.464 F9000
G1 F2400
G1 X160.349 Y167.978 E0.18481
G1 X159.734 Y168.009 F9000
G1 F2400
G1 X156.412 Y164.687 E0.1747
G1 X155.98 Y164.902 F9000
G1 F2400
G1 X159.077 Y167.999 E0.16288
G1 X158.421 Y167.988 F9000
G1 F2400
G1 X155.523 Y165.091 E0.1524
G1 X155.063 Y165.278 F9000
G1 F2400
G1 X157.764 Y167.978 E0.14203
G1 X157.107 Y167.968 F9000
G1 F2400
G1 X154.571 Y165.432 E0.13337
G1 X154.079 Y165.586 F9000
G1 F2400
G1 X156.451 Y167.958 E0.12471
G1 X155.794 Y167.947 F9000
G1 F2400
G1 X153.587 Y165.741 E0.11605
G1 X153.048 Y165.848 F9000
G1 F2400
G1 X155.137 Y167.937 E0.10986
G1 X154.481 Y167.927 F9000
G1 F2400
G1 X152.504 Y165.95 E0.10396
G1 X151.96 Y166.052 F9000
G1 F2400
G1 X153.824 Y167.917 E0.09805
G1 X153.176 Y167.915 F9000
G1 F2400
G1 X151.415 Y166.154 E0.09261
