; generated by SuperSlicer 2.3.56 on 2021-09-26 at 17:15:02 UTC


;
;

;
;
; 

; external perimeters extrusion width = 0.40mm
; perimeters extrusion width = 0.40mm
; infill extrusion width = 0.40mm
; solid infill extrusion width = 0.40mm
; top infill extrusion width = 0.40mm
; first layer extrusion width = 0.48mm


;TYPE:Custom
START_PRINT T_BED=70 T_EXTRUDER=235
M107
G21 ; set units to millimeters
G90 ; use absolute coordinates
M83 ; use relative distances for extrusion
M109 S235 ; set temperature and wait for it to be reached
M190 S70 ; set bed temperature and wait for it to be reached
;LAYER_CHANGE
;Z:0.24
;HEIGHT:0.24
G1 Z0.240000 F6000.000
G1 E-1.50000 F3000.000
G1 X63.556 Y93.631 F6000.000
G1 E1.50000 F1800.000
;TYPE:Skirt
;WIDTH:0.48
G1 F1200.000
G1 X64.317 Y93.163 E0.03820
G1 X65.162 Y92.808 E0.03920
G1 X66.041 Y92.591 E0.03870
G1 X66.953 Y92.512 E0.03915
G1 X207.006 Y92.512 E5.98802
G1 X208.117 Y92.620 E0.04774
G1 X209.191 Y92.937 E0.04790
G1 X210.182 Y93.451 E0.04771
G1 X211.069 Y94.155 E0.04844
G1 X211.816 Y95.033 E0.04928
G1 X212.364 Y96.011 E0.04791
G1 X212.719 Y97.088 E0.04848
G1 X212.860 Y98.193 E0.04765
G1 X212.861 Y193.760 E4.08600
G1 X212.679 Y195.080 E0.05697
G1 X212.187 Y196.357 E0.05849
G1 X211.433 Y197.461 E0.05718
G1 X210.444 Y198.369 E0.05739
G1 X209.683 Y198.837 E0.03822
G1 X208.839 Y199.192 E0.03915
G1 X207.959 Y199.409 E0.03874
G1 X207.047 Y199.488 E0.03915
G1 X66.953 Y199.488 E5.98977
G1 X65.602 Y199.318 E0.05820
G1 X64.305 Y198.831 E0.05925
G1 X63.178 Y198.071 E0.05814
G1 X62.256 Y197.069 E0.05822
G1 X61.791 Y196.314 E0.03790
G1 X61.437 Y195.475 E0.03894
G1 X61.218 Y194.596 E0.03871
G1 X61.138 Y193.689 E0.03893
G1 X61.138 Y98.305 E4.07821
G1 X61.311 Y96.961 E0.05794
G1 X61.799 Y95.669 E0.05903
G1 X62.559 Y94.548 E0.05789
G1 X63.512 Y93.672 E0.05536
G1 X63.800 Y93.986 F6000.000
G1 F1200.000
G1 X63.816 Y93.972 E0.00090
G1 X64.518 Y93.541 E0.03522
G1 X65.298 Y93.214 E0.03618
G1 X66.114 Y93.013 E0.03594
G1 X66.962 Y92.941 E0.03638
G1 X207.006 Y92.941 E5.98763
G1 X208.035 Y93.040 E0.04421
G1 X209.034 Y93.336 E0.04454
G1 X209.954 Y93.814 E0.04436
G1 X210.779 Y94.471 E0.04506
G1 X211.472 Y95.288 E0.04581
G1 X211.977 Y96.193 E0.04431
G1 X212.305 Y97.196 E0.04510
G1 X212.432 Y98.219 E0.04407
G1 X212.433 Y193.743 E4.08421
G1 X212.265 Y194.968 E0.05284
G1 X211.809 Y196.156 E0.05443
G1 X211.106 Y197.184 E0.05322
G1 X210.184 Y198.028 E0.05343
G1 X209.482 Y198.459 E0.03524
G1 X208.697 Y198.787 E0.03638
G1 X207.880 Y198.988 E0.03597
G1 X207.038 Y199.059 E0.03614
G1 X66.955 Y199.059 E5.98931
G1 X65.707 Y198.903 E0.05379
G1 X64.499 Y198.449 E0.05516
G1 X63.454 Y197.743 E0.05391
G1 X62.600 Y196.813 E0.05398
G1 X62.169 Y196.113 E0.03517
G1 X61.841 Y195.333 E0.03617
G1 X61.640 Y194.522 E0.03571
G1 X61.566 Y193.680 E0.03616
G1 X61.566 Y98.313 E4.07744
G1 X61.726 Y97.065 E0.05378
G1 X62.181 Y95.864 E0.05494
G1 X62.886 Y94.825 E0.05366
G1 X63.756 Y94.027 E0.05047
G1 E-1.50000 F3000.000
G1 X153.621 Y115.045 F6000.000
G1 E1.50000 F1800.000
;TYPE:Internal perimeter
G1 F1200.000
G1 X153.498 Y116.452 E0.06041
G1 X153.498 Y175.548 E2.52667
G1 X153.621 Y176.955 E0.06041
G1 X153.999 Y178.367 E0.06246
G1 X154.617 Y179.691 E0.06246
G1 X155.455 Y180.887 E0.06246
G1 X156.488 Y181.920 E0.06246
G1 X157.684 Y182.758 E0.06246
G1 X159.008 Y183.376 E0.06246
G1 X160.420 Y183.754 E0.06246
G1 X161.827 Y183.877 E0.06041
G1 X188.923 Y183.877 E1.15849
G1 X190.330 Y183.754 E0.06041
G1 X191.742 Y183.376 E0.06246
G1 X193.066 Y182.758 E0.06246
G1 X194.262 Y181.920 E0.06246
G1 X195.295 Y180.887 E0.06246
G1 X196.133 Y179.691 E0.06246
G1 X196.751 Y178.367 E0.06246
G1 X197.129 Y176.955 E0.06246
G1 X197.252 Y175.548 E0.06041
G1 X197.252 Y116.452 E2.52667
G1 X197.129 Y115.045 E0.06041
G1 X196.751 Y113.633 E0.06246
G1 X196.133 Y112.309 E0.06246
G1 X195.295 Y111.113 E0.06246
G1 X194.262 Y110.080 E0.06246
G1 X193.066 Y109.242 E0.06246
G1 X191.742 Y108.624 E0.06246
G1 X190.330 Y108.246 E0.06246
G1 X188.923 Y108.123 E0.06041
G1 X161.827 Y108.123 E1.15849
G1 X160.420 Y108.246 E0.06041
G1 X159.008 Y108.624 E0.06246
G1 X157.684 Y109.242 E0.06246
G1 X156.488 Y110.080 E0.06246
G1 X155.455 Y111.113 E0.06246
G1 X154.617 Y112.309 E0.06246
G1 X153.999 Y113.633 E0.06246
G1 X153.637 Y114.987 E0.05990
G1 X154.051 Y115.098 F6000.000
G1 F1200.000
G1 X154.045 Y115.119 E0.00096
G1 X153.927 Y116.471 E0.05800
G1 X153.927 Y175.529 E2.52507
G1 X154.045 Y176.881 E0.05800
G1 X154.403 Y178.219 E0.05926
G1 X154.989 Y179.476 E0.05926
G1 X155.784 Y180.611 E0.05926
G1 X156.764 Y181.591 E0.05926
G1 X157.899 Y182.386 E0.05926
G1 X159.156 Y182.972 E0.05926
G1 X160.494 Y183.330 E0.05926
G1 X161.846 Y183.448 E0.05800
G1 X188.904 Y183.448 E1.15689
G1 X190.256 Y183.330 E0.05800
G1 X191.594 Y182.972 E0.05926
G1 X192.851 Y182.386 E0.05926
G1 X193.986 Y181.591 E0.05926
G1 X194.966 Y180.611 E0.05926
G1 X195.761 Y179.476 E0.05926
G1 X196.347 Y178.219 E0.05926
G1 X196.705 Y176.881 E0.05926
G1 X196.823 Y175.529 E0.05800
G1 X196.823 Y116.471 E2.52507
G1 X196.705 Y115.119 E0.05800
G1 X196.347 Y113.781 E0.05926
G1 X195.761 Y112.524 E0.05926
G1 X194.966 Y111.389 E0.05926
G1 X193.986 Y110.409 E0.05926
G1 X192.851 Y109.614 E0.05926
G1 X191.594 Y109.028 E0.05926
G1 X190.256 Y108.670 E0.05926
G1 X188.904 Y108.552 E0.05800
G1 X161.846 Y108.552 E1.15689
G1 X160.494 Y108.670 E0.05800
G1 X159.156 Y109.028 E0.05926
G1 X157.899 Y109.614 E0.05926
G1 X156.764 Y110.409 E0.05926
G1 X155.784 Y111.389 E0.05926
G1 X154.989 Y112.524 E0.05926
G1 X154.403 Y113.781 E0.05926
G1 X154.066 Y115.040 E0.05573
G1 X154.480 Y115.151 F6000.000
;TYPE:External perimeter
G1 F1200.000
G1 X154.468 Y115.194 E0.00192
G1 X154.355 Y116.490 E0.05560
G1 X154.355 Y175.510 E2.52347
G1 X154.468 Y176.806 E0.05560
G1 X154.808 Y178.072 E0.05605
G1 X155.362 Y179.260 E0.05605
G1 X156.114 Y180.334 E0.05605
G1 X157.041 Y181.261 E0.05605
G1 X158.115 Y182.013 E0.05605
G1 X159.303 Y182.567 E0.05605
G1 X160.569 Y182.907 E0.05605
G1 X161.865 Y183.020 E0.05560
G1 X188.885 Y183.020 E1.15529
G1 X190.181 Y182.907 E0.05560
G1 X191.447 Y182.567 E0.05605
G1 X192.635 Y182.013 E0.05605
G1 X193.709 Y181.261 E0.05605
G1 X194.636 Y180.334 E0.05605
G1 X195.388 Y179.260 E0.05605
G1 X195.942 Y178.072 E0.05605
G1 X196.282 Y176.806 E0.05605
G1 X196.395 Y175.510 E0.05560
G1 X196.395 Y116.490 E2.52347
G1 X196.282 Y115.194 E0.05560
G1 X195.942 Y113.928 E0.05605
G1 X195.388 Y112.740 E0.05605
G1 X194.636 Y111.666 E0.05605
G1 X193.709 Y110.739 E0.05605
G1 X192.635 Y109.987 E0.05605
G1 X191.447 Y109.433 E0.05605
G1 X190.181 Y109.093 E0.05605
G1 X188.885 Y108.980 E0.05560
G1 X161.865 Y108.980 E1.15529
G1 X160.569 Y109.093 E0.05560
G1 X159.303 Y109.433 E0.05605
G1 X158.115 Y109.987 E0.05605
G1 X157.041 Y110.739 E0.05605
G1 X156.114 Y111.666 E0.05605
G1 X155.362 Y112.740 E0.05605
G1 X154.808 Y113.928 E0.05605
G1 X154.496 Y115.093 E0.05156
G1 X154.437 Y115.162 F6000.000
G1 E-1.50000 F3000.000
G1 X144.627 Y130.623 F6000.000
G1 E1.50000 F1800.000
;TYPE:Internal perimeter
G1 F1200.000
G1 X144.627 Y99.252 E1.34128
G1 X159.998 Y99.252 E0.65719
G1 X159.998 Y99.798 E0.02334
G1 X160.026 Y100.120 E0.01383
G1 X160.122 Y100.479 E0.01588
G1 X160.279 Y100.816 E0.01588
G1 X160.492 Y101.120 E0.01588
G1 X160.755 Y101.383 E0.01588
G1 X161.059 Y101.596 E0.01588
G1 X161.396 Y101.753 E0.01588
G1 X161.755 Y101.849 E0.01588
G1 X162.077 Y101.877 E0.01383
G1 X188.673 Y101.877 E1.13712
G1 X188.995 Y101.849 E0.01383
G1 X189.354 Y101.753 E0.01588
G1 X189.691 Y101.596 E0.01588
G1 X189.995 Y101.383 E0.01588
G1 X190.258 Y101.120 E0.01588
G1 X190.471 Y100.816 E0.01588
G1 X190.628 Y100.479 E0.01588
G1 X190.724 Y100.120 E0.01588
G1 X190.752 Y99.798 E0.01383
G1 X190.752 Y99.252 E0.02334
G1 X206.123 Y99.252 E0.65720
G1 X206.123 Y111.010 E0.50271
G1 X205.841 Y111.034 E0.01212
G1 X205.541 Y111.115 E0.01328
G1 X205.259 Y111.246 E0.01327
G1 X205.005 Y111.424 E0.01327
G1 X204.786 Y111.644 E0.01328
G1 X204.607 Y111.898 E0.01327
G1 X204.476 Y112.179 E0.01327
G1 X204.396 Y112.479 E0.01328
G1 X204.373 Y112.741 E0.01122
G1 X204.373 Y119.036 E0.26918
G1 X204.396 Y119.298 E0.01122
G1 X204.476 Y119.598 E0.01328
G1 X204.607 Y119.879 E0.01327
G1 X204.786 Y120.133 E0.01327
G1 X205.005 Y120.353 E0.01328
G1 X205.259 Y120.531 E0.01327
G1 X205.541 Y120.662 E0.01327
G1 X205.841 Y120.743 E0.01328
G1 X206.123 Y120.767 E0.01212
G1 X206.123 Y130.623 E0.42138
G1 X205.577 Y130.623 E0.02334
G1 X205.255 Y130.651 E0.01383
G1 X204.896 Y130.747 E0.01588
G1 X204.559 Y130.904 E0.01588
G1 X204.255 Y131.117 E0.01588
G1 X203.992 Y131.380 E0.01588
G1 X203.779 Y131.684 E0.01588
G1 X203.622 Y132.021 E0.01588
G1 X203.526 Y132.380 E0.01588
G1 X203.498 Y132.702 E0.01383
G1 X203.498 Y159.298 E1.13711
G1 X203.526 Y159.620 E0.01383
G1 X203.622 Y159.979 E0.01588
G1 X203.779 Y160.316 E0.01588
G1 X203.992 Y160.620 E0.01588
G1 X204.255 Y160.883 E0.01588
G1 X204.559 Y161.096 E0.01588
G1 X204.896 Y161.253 E0.01588
G1 X205.255 Y161.349 E0.01588
G1 X205.577 Y161.377 E0.01383
G1 X206.123 Y161.377 E0.02334
G1 X206.123 Y171.233 E0.42138
G1 X205.841 Y171.257 E0.01212
G1 X205.541 Y171.338 E0.01328
G1 X205.259 Y171.469 E0.01327
G1 X205.005 Y171.647 E0.01327
G1 X204.786 Y171.867 E0.01328
G1 X204.607 Y172.121 E0.01327
G1 X204.476 Y172.402 E0.01327
G1 X204.396 Y172.702 E0.01328
G1 X204.373 Y172.964 E0.01122
G1 X204.373 Y179.259 E0.26918
G1 X204.396 Y179.521 E0.01122
G1 X204.476 Y179.821 E0.01328
G1 X204.607 Y180.102 E0.01327
G1 X204.786 Y180.356 E0.01327
G1 X205.005 Y180.576 E0.01328
G1 X205.259 Y180.754 E0.01327
G1 X205.541 Y180.885 E0.01327
G1 X205.841 Y180.966 E0.01328
G1 X206.123 Y180.990 E0.01212
G1 X206.123 Y192.748 E0.50271
G1 X202.365 Y192.748 E0.16066
G1 X202.341 Y192.466 E0.01212
G1 X202.260 Y192.166 E0.01327
G1 X202.129 Y191.884 E0.01328
G1 X201.951 Y191.630 E0.01328
G1 X201.731 Y191.411 E0.01327
G1 X201.477 Y191.232 E0.01328
G1 X201.196 Y191.101 E0.01328
G1 X200.896 Y191.021 E0.01327
G1 X200.634 Y190.998 E0.01122
G1 X194.339 Y190.998 E0.26918
G1 X194.077 Y191.021 E0.01122
G1 X193.777 Y191.101 E0.01327
G1 X193.496 Y191.232 E0.01328
G1 X193.242 Y191.411 E0.01327
G1 X193.022 Y191.630 E0.01327
G1 X192.844 Y191.884 E0.01328
G1 X192.713 Y192.166 E0.01328
G1 X192.632 Y192.466 E0.01327
G1 X192.608 Y192.748 E0.01212
G1 X190.752 Y192.748 E0.07934
G1 X190.752 Y192.202 E0.02334
G1 X190.724 Y191.880 E0.01383
G1 X190.628 Y191.521 E0.01588
G1 X190.471 Y191.184 E0.01588
G1 X190.258 Y190.880 E0.01588
G1 X189.995 Y190.617 E0.01588
G1 X189.691 Y190.404 E0.01588
G1 X189.354 Y190.247 E0.01588
G1 X188.995 Y190.151 E0.01588
G1 X188.673 Y190.123 E0.01383
G1 X162.077 Y190.123 E1.13711
G1 X161.755 Y190.151 E0.01383
G1 X161.396 Y190.247 E0.01588
G1 X161.059 Y190.404 E0.01588
G1 X160.755 Y190.617 E0.01588
G1 X160.492 Y190.880 E0.01588
G1 X160.279 Y191.184 E0.01588
G1 X160.122 Y191.521 E0.01588
G1 X160.026 Y191.880 E0.01588
G1 X159.998 Y192.202 E0.01383
G1 X159.998 Y192.748 E0.02334
G1 X158.142 Y192.748 E0.07934
G1 X158.118 Y192.466 E0.01212
G1 X158.037 Y192.166 E0.01327
G1 X157.906 Y191.884 E0.01328
G1 X157.728 Y191.630 E0.01328
G1 X157.508 Y191.411 E0.01327
G1 X157.254 Y191.232 E0.01328
G1 X156.973 Y191.101 E0.01328
G1 X156.673 Y191.021 E0.01327
G1 X156.411 Y190.998 E0.01122
G1 X150.116 Y190.998 E0.26918
G1 X149.854 Y191.021 E0.01122
G1 X149.554 Y191.101 E0.01327
G1 X149.273 Y191.232 E0.01328
G1 X149.019 Y191.411 E0.01328
G1 X148.799 Y191.630 E0.01327
G1 X148.621 Y191.884 E0.01328
G1 X148.490 Y192.166 E0.01328
G1 X148.409 Y192.466 E0.01327
G1 X148.385 Y192.748 E0.01212
G1 X144.627 Y192.748 E0.16066
G1 X144.627 Y161.377 E1.34128
G1 X145.173 Y161.377 E0.02334
G1 X145.495 Y161.349 E0.01383
G1 X145.854 Y161.253 E0.01588
G1 X146.191 Y161.096 E0.01588
G1 X146.495 Y160.883 E0.01588
G1 X146.758 Y160.620 E0.01588
G1 X146.971 Y160.316 E0.01588
G1 X147.128 Y159.979 E0.01588
G1 X147.224 Y159.620 E0.01588
G1 X147.252 Y159.298 E0.01383
G1 X147.252 Y132.702 E1.13712
G1 X147.224 Y132.380 E0.01383
G1 X147.128 Y132.021 E0.01588
G1 X146.971 Y131.684 E0.01588
G1 X146.758 Y131.380 E0.01588
G1 X146.495 Y131.117 E0.01588
G1 X146.191 Y130.904 E0.01588
G1 X145.854 Y130.747 E0.01588
G1 X145.495 Y130.651 E0.01588
G1 X145.173 Y130.623 E0.01383
G1 X144.687 Y130.623 E0.02077
G1 X144.198 Y131.052 F6000.000
G1 F1200.000
G1 X144.198 Y98.823 E1.37792
G1 X160.427 Y98.823 E0.69384
G1 X160.427 Y99.779 E0.04086
G1 X160.450 Y100.045 E0.01142
G1 X160.527 Y100.332 E0.01268
G1 X160.652 Y100.601 E0.01268
G1 X160.822 Y100.843 E0.01268
G1 X161.032 Y101.053 E0.01268
G1 X161.274 Y101.223 E0.01268
G1 X161.543 Y101.348 E0.01268
G1 X161.830 Y101.425 E0.01268
G1 X162.096 Y101.448 E0.01142
G1 X188.654 Y101.448 E1.13552
G1 X188.920 Y101.425 E0.01142
G1 X189.207 Y101.348 E0.01268
G1 X189.476 Y101.223 E0.01268
G1 X189.718 Y101.053 E0.01268
G1 X189.928 Y100.843 E0.01268
G1 X190.098 Y100.601 E0.01268
G1 X190.223 Y100.332 E0.01268
G1 X190.300 Y100.045 E0.01268
G1 X190.323 Y99.779 E0.01142
G1 X190.323 Y98.823 E0.04086
G1 X206.552 Y98.823 E0.69384
G1 X206.552 Y111.440 E0.53943
G1 X206.121 Y111.440 E0.01841
G1 X205.915 Y111.458 E0.00882
G1 X205.688 Y111.519 E0.01007
G1 X205.474 Y111.618 E0.01007
G1 X205.282 Y111.754 E0.01007
G1 X205.115 Y111.920 E0.01007
G1 X204.980 Y112.113 E0.01007
G1 X204.880 Y112.326 E0.01007
G1 X204.819 Y112.554 E0.01007
G1 X204.802 Y112.759 E0.00882
G1 X204.802 Y119.018 E0.26758
G1 X204.819 Y119.223 E0.00882
G1 X204.880 Y119.451 E0.01007
G1 X204.980 Y119.664 E0.01007
G1 X205.115 Y119.857 E0.01007
G1 X205.282 Y120.023 E0.01007
G1 X205.474 Y120.159 E0.01007
G1 X205.688 Y120.258 E0.01007
G1 X205.915 Y120.319 E0.01007
G1 X206.121 Y120.337 E0.00882
G1 X206.552 Y120.337 E0.01841
G1 X206.552 Y131.052 E0.45810
G1 X205.596 Y131.052 E0.04086
G1 X205.330 Y131.075 E0.01142
G1 X205.043 Y131.152 E0.01268
G1 X204.774 Y131.277 E0.01268
G1 X204.532 Y131.447 E0.01268
G1 X204.322 Y131.657 E0.01268
G1 X204.152 Y131.899 E0.01268
G1 X204.027 Y132.168 E0.01268
G1 X203.950 Y132.455 E0.01268
G1 X203.927 Y132.721 E0.01142
G1 X203.927 Y159.279 E1.13552
G1 X203.950 Y159.545 E0.01143
G1 X204.027 Y159.832 E0.01268
G1 X204.152 Y160.101 E0.01268
G1 X204.322 Y160.343 E0.01268
G1 X204.532 Y160.553 E0.01268
G1 X204.774 Y160.723 E0.01268
G1 X205.043 Y160.848 E0.01268
G1 X205.330 Y160.925 E0.01268
G1 X205.596 Y160.948 E0.01142
G1 X206.552 Y160.948 E0.04086
G1 X206.552 Y171.663 E0.45810
G1 X206.121 Y171.663 E0.01841
G1 X205.915 Y171.681 E0.00882
G1 X205.688 Y171.742 E0.01007
G1 X205.474 Y171.841 E0.01007
G1 X205.282 Y171.977 E0.01007
G1 X205.115 Y172.143 E0.01007
G1 X204.980 Y172.336 E0.01007
G1 X204.880 Y172.549 E0.01007
G1 X204.819 Y172.777 E0.01007
G1 X204.802 Y172.982 E0.00882
G1 X204.802 Y179.241 E0.26758
G1 X204.819 Y179.446 E0.00882
G1 X204.880 Y179.674 E0.01007
G1 X204.980 Y179.887 E0.01007
G1 X205.115 Y180.080 E0.01007
G1 X205.282 Y180.246 E0.01007
G1 X205.474 Y180.382 E0.01007
G1 X205.688 Y180.481 E0.01007
G1 X205.915 Y180.542 E0.01007
G1 X206.121 Y180.560 E0.00882
G1 X206.552 Y180.560 E0.01841
G1 X206.552 Y193.177 E0.53942
G1 X201.935 Y193.177 E0.19738
G1 X201.935 Y192.746 E0.01841
G1 X201.917 Y192.540 E0.00882
G1 X201.856 Y192.313 E0.01007
G1 X201.757 Y192.099 E0.01007
G1 X201.621 Y191.907 E0.01007
G1 X201.455 Y191.740 E0.01007
G1 X201.262 Y191.605 E0.01007
G1 X201.049 Y191.505 E0.01007
G1 X200.821 Y191.444 E0.01007
G1 X200.616 Y191.427 E0.00882
G1 X194.357 Y191.427 E0.26758
G1 X194.152 Y191.444 E0.00882
G1 X193.924 Y191.505 E0.01007
G1 X193.711 Y191.605 E0.01007
G1 X193.518 Y191.740 E0.01007
G1 X193.352 Y191.907 E0.01007
G1 X193.216 Y192.099 E0.01007
G1 X193.117 Y192.313 E0.01007
G1 X193.056 Y192.540 E0.01007
G1 X193.038 Y192.746 E0.00882
G1 X193.038 Y193.177 E0.01841
G1 X190.323 Y193.177 E0.11606
G1 X190.323 Y192.221 E0.04086
G1 X190.300 Y191.955 E0.01142
G1 X190.223 Y191.668 E0.01268
G1 X190.098 Y191.399 E0.01268
G1 X189.928 Y191.157 E0.01268
G1 X189.718 Y190.947 E0.01268
G1 X189.476 Y190.777 E0.01268
G1 X189.207 Y190.652 E0.01268
G1 X188.920 Y190.575 E0.01268
G1 X188.654 Y190.552 E0.01143
G1 X162.096 Y190.552 E1.13551
G1 X161.830 Y190.575 E0.01143
G1 X161.543 Y190.652 E0.01268
G1 X161.274 Y190.777 E0.01268
