; generated by SuperSlicer 2.3.57 on 2021-12-29 at 03:15:37 UTC


;
;

;
;
; 

; external perimeters extrusion width = 0.40mm
; perimeters extrusion width = 0.40mm
; infill extrusion width = 0.40mm
; solid infill extrusion width = 0.40mm
; top infill extrusion width = 0.40mm
; support material extrusion width = 0.40mm
; first layer extrusion width = 0.48mm


;TYPE:Custom
START_PRINT T_BED=70 T_EXTRUDER=235
M107
G21 ; set units to millimeters
G90 ; use absolute coordinates
M83 ; use relative distances for extrusion
M104 S235 ; set temperature
M109 S235 ; set temperature and wait for it to be reached
M190 S70 ; set bed temperature and wait for it to be reached
M107
;LAYER_CHANGE
;Z:0.24
;HEIGHT:0.24
G1 Z0.24 F6000
G1 E-1.5 F3000
G1 X98.742 Y111.621 F6000
G1 E1.5 F1800
;TYPE:Skirt
;WIDTH:0.48
G1 F1200
G1 X97.954 Y112.566 E0.05261
G1 X97.362 Y113.646 E0.05264
G1 X97.005 Y114.819 E0.05242
G1 X96.891 Y115.982 E0.04999
G1 X96.893 Y177.137 E2.61469
G1 X97.017 Y178.184 E0.0451
G1 X97.336 Y179.196 E0.04535
G1 X97.835 Y180.125 E0.0451
G1 X98.503 Y180.949 E0.04535
G1 X99.362 Y181.667 E0.04785
G1 X100.345 Y182.201 E0.04785
G1 X101.414 Y182.531 E0.04785
G1 X102.528 Y182.643 E0.04785
G1 X171.591 Y182.641 E2.95285
G1 X172.645 Y182.518 E0.04535
G1 X173.657 Y182.2 E0.04535
G1 X174.591 Y181.698 E0.04535
G1 X175.415 Y181.031 E0.04535
G1 X176.113 Y180.201 E0.04635
G1 X176.64 Y179.253 E0.04635
G1 X176.975 Y178.223 E0.04635
G1 X177.107 Y177.147 E0.04635
G1 X177.095 Y115.59 E2.63187
G1 X176.912 Y114.455 E0.04917
G1 X176.546 Y113.441 E0.0461
G1 X175.96 Y112.445 E0.0494
G1 X175.179 Y111.546 E0.05093
G1 X174.252 Y110.838 E0.04984
G1 X173.129 Y110.293 E0.0534
G1 X172.106 Y109.992 E0.0456
G1 X171.038 Y109.889 E0.04585
G1 X102.819 Y109.892 E2.91675
G1 X101.76 Y110.018 E0.0456
G1 X100.749 Y110.339 E0.04535
G1 X99.65 Y110.899 E0.05275
G1 X98.789 Y111.584 E0.04703
G1 X99.053 Y111.917 F6000
G1 F1200
G1 X98.312 Y112.802 E0.04936
G1 X97.758 Y113.809 E0.04911
G1 X97.425 Y114.906 E0.049
G1 X97.32 Y115.983 E0.04629
G1 X97.321 Y177.118 E2.61384
G1 X97.434 Y178.086 E0.04167
G1 X97.725 Y179.016 E0.04167
G1 X98.184 Y179.875 E0.04167
G1 X98.799 Y180.639 E0.04191
G1 X99.592 Y181.305 E0.04431
G1 X100.502 Y181.802 E0.04431
G1 X101.497 Y182.11 E0.04455
G1 X102.528 Y182.214 E0.04431
G1 X171.573 Y182.213 E2.95203
G1 X172.546 Y182.101 E0.04191
G1 X173.482 Y181.809 E0.04191
G1 X174.342 Y181.35 E0.04167
G1 X175.105 Y180.735 E0.04191
G1 X175.756 Y179.965 E0.04311
G1 X176.246 Y179.084 E0.04311
G1 X176.558 Y178.125 E0.04311
G1 X176.679 Y177.124 E0.04311
G1 X176.669 Y115.632 E2.62911
G1 X176.499 Y114.571 E0.04596
G1 X176.16 Y113.627 E0.04287
G1 X175.616 Y112.699 E0.046
G1 X174.888 Y111.86 E0.04749
G1 X174.024 Y111.201 E0.04647
G1 X172.971 Y110.691 E0.05005
G1 X172.019 Y110.411 E0.04239
G1 X171.038 Y110.317 E0.04215
G1 X102.841 Y110.32 E2.91581
G1 X101.862 Y110.434 E0.04215
G1 X100.927 Y110.729 E0.04191
G1 X99.896 Y111.251 E0.0494
G1 X99.1 Y111.88 E0.04339
G1 E-1.5 F3000
G1 X103.631 Y116.631 F6000
G1 E1.5 F1800
;TYPE:Internal perimeter
G1 F1200
G1 X170.369 Y116.631 E2.85344
G1 X170.369 Y175.903 E2.53421
G1 X103.631 Y175.903 E2.85344
G1 X103.631 Y116.691 E2.53165
G1 X103.202 Y116.202 F6000
G1 F1200
G1 X170.798 Y116.202 E2.89008
G1 X170.798 Y176.332 E2.57085
G1 X103.202 Y176.332 E2.89008
G1 X103.202 Y116.262 E2.56829
G1 X102.842 Y115.848 F6000
;TYPE:External perimeter
G1 F1200
G1 X103.004 Y115.774 E0.00761
G1 X170.996 Y115.774 E2.90703
G1 X171.158 Y115.848 E0.00761
G1 X171.186 Y115.882 E0.00191
G1 X171.219 Y115.941 E0.00286
G1 X171.226 Y116.006 E0.0028
G1 X171.226 Y176.76 E2.59757
G1 X102.774 Y176.76 E2.92672
G1 X102.774 Y116.006 E2.59757
G1 X102.781 Y115.941 E0.0028
G1 X102.807 Y115.896 E0.0022
G1 X103.004 Y115.922 F6000
G1 E-1.5 F3000
G1 X170.219 Y117.647 F6000
G1 E1.5 F1800
;TYPE:Solid infill
;WIDTH:0.480445
G1 X169.537 Y116.965 E0.04127
G1 X168.931 Y116.965 E0.02593
G1 X170.035 Y118.069 E0.0668
G1 X170.035 Y118.675 E0.02593
G1 X168.325 Y116.965 E0.10347
G1 X167.719 Y116.965 E0.02593
G1 X170.035 Y119.281 E0.14015
G1 X170.035 Y119.887 E0.02593
G1 X167.113 Y116.965 E0.17682
G1 X166.507 Y116.965 E0.02593
G1 X170.035 Y120.493 E0.2135
G1 X170.035 Y121.099 E0.02593
G1 X165.901 Y116.965 E0.25017
G1 X165.295 Y116.965 E0.02593
G1 X170.035 Y121.705 E0.28685
G1 X170.035 Y122.31 E0.02593
G1 X164.69 Y116.965 E0.32352
G1 X164.084 Y116.965 E0.02593
G1 X170.035 Y122.916 E0.3602
G1 X170.035 Y123.522 E0.02593
G1 X163.478 Y116.965 E0.39687
G1 X162.872 Y116.965 E0.02593
G1 X170.035 Y124.128 E0.43355
G1 X170.035 Y124.734 E0.02593
G1 X162.266 Y116.965 E0.47022
G1 X161.66 Y116.965 E0.02593
G1 X170.035 Y125.34 E0.5069
G1 X170.035 Y125.946 E0.02593
G1 X161.054 Y116.965 E0.54357
G1 X160.448 Y116.965 E0.02593
G1 X170.035 Y126.552 E0.58025
G1 X170.035 Y127.158 E0.02593
G1 X159.842 Y116.965 E0.61692
G1 X159.236 Y116.965 E0.02593
G1 X170.035 Y127.764 E0.65359
G1 X170.035 Y128.37 E0.02593
G1 X158.63 Y116.965 E0.69027
G1 X158.024 Y116.965 E0.02593
G1 X170.035 Y128.976 E0.72694
G1 X170.035 Y129.582 E0.02593
G1 X157.418 Y116.965 E0.76362
G1 X156.812 Y116.965 E0.02593
G1 X170.035 Y130.188 E0.80029
G1 X170.035 Y130.794 E0.02593
G1 X156.206 Y116.965 E0.83697
G1 X155.6 Y116.965 E0.02593
G1 X170.035 Y131.4 E0.87364
G1 X170.035 Y132.006 E0.02593
G1 X154.994 Y116.965 E0.91032
G1 X154.388 Y116.965 E0.02593
G1 X170.035 Y132.612 E0.94699
G1 X170.035 Y133.218 E0.02593
G1 X153.782 Y116.965 E0.98367
G1 X153.176 Y116.965 E0.02593
G1 X170.035 Y133.824 E1.02034
G1 X170.035 Y134.43 E0.02593
G1 X152.57 Y116.965 E1.05702
G1 X151.964 Y116.965 E0.02593
G1 X170.035 Y135.036 E1.09369
G1 X170.035 Y135.642 E0.02593
G1 X151.358 Y116.965 E1.13037
G1 X150.752 Y116.965 E0.02593
G1 X170.035 Y136.248 E1.16704
G1 X170.035 Y136.854 E0.02593
G1 X150.146 Y116.965 E1.20372
G1 X149.54 Y116.965 E0.02593
G1 X170.035 Y137.46 E1.24039
G1 X170.035 Y138.066 E0.02593
G1 X148.934 Y116.965 E1.27707
G1 X148.328 Y116.965 E0.02593
G1 X170.035 Y138.672 E1.31374
G1 X170.035 Y139.278 E0.02593
G1 X147.722 Y116.965 E1.35042
G1 X147.116 Y116.965 E0.02593
G1 X170.035 Y139.884 E1.38709
G1 X170.035 Y140.49 E0.02593
G1 X146.51 Y116.965 E1.42377
G1 X145.904 Y116.965 E0.02593
G1 X170.035 Y141.096 E1.46044
G1 X170.035 Y141.702 E0.02593
G1 X145.298 Y116.965 E1.49712
G1 X144.692 Y116.965 E0.02593
G1 X170.035 Y142.308 E1.53379
G1 X170.035 Y142.914 E0.02593
G1 X144.086 Y116.965 E1.57047
G1 X143.48 Y116.965 E0.02593
G1 X170.035 Y143.52 E1.60714
G1 X170.035 Y144.126 E0.02593
G1 X142.874 Y116.965 E1.64382
G1 X142.268 Y116.965 E0.02593
G1 X170.035 Y144.732 E1.68049
G1 X170.035 Y145.338 E0.02593
G1 X141.662 Y116.965 E1.71717
G1 X141.056 Y116.965 E0.02593
G1 X170.035 Y145.944 E1.75384
G1 X170.035 Y146.55 E0.02593
G1 X140.45 Y116.965 E1.79052
G1 X139.844 Y116.965 E0.02593
G1 X170.035 Y147.156 E1.82719
G1 X170.035 Y147.762 E0.02593
G1 X139.238 Y116.965 E1.86387
G1 X138.632 Y116.965 E0.02593
G1 X170.035 Y148.368 E1.90054
G1 X170.035 Y148.974 E0.02593
G1 X138.026 Y116.965 E1.93722
G1 X137.42 Y116.965 E0.02593
G1 X170.035 Y149.58 E1.97389
G1 X170.035 Y150.186 E0.02593
G1 X136.814 Y116.965 E2.01057
G1 X136.208 Y116.965 E0.02593
G1 X170.035 Y150.792 E2.04724
G1 X170.035 Y151.398 E0.02593
G1 X135.602 Y116.965 E2.08392
G1 X134.996 Y116.965 E0.02593
G1 X170.035 Y152.004 E2.12059
G1 X170.035 Y152.61 E0.02593
G1 X134.39 Y116.965 E2.15727
G1 X133.784 Y116.965 E0.02593
G1 X170.035 Y153.216 E2.19394
G1 X170.035 Y153.822 E0.02593
G1 X133.178 Y116.965 E2.23062
G1 X132.572 Y116.965 E0.02593
G1 X170.035 Y154.428 E2.26729
G1 X170.035 Y155.034 E0.02593
G1 X131.966 Y116.965 E2.30397
G1 X131.36 Y116.965 E0.02593
G1 X170.035 Y155.64 E2.34064
G1 X170.035 Y156.246 E0.02593
G1 X130.754 Y116.965 E2.37732
G1 X130.148 Y116.965 E0.02593
G1 X170.035 Y156.852 E2.41399
G1 X170.035 Y157.458 E0.02593
G1 X129.542 Y116.965 E2.45067
G1 X128.936 Y116.965 E0.02593
G1 X170.035 Y158.064 E2.48734
G1 X170.035 Y158.67 E0.02593
G1 X128.33 Y116.965 E2.52402
G1 X127.725 Y116.965 E0.02593
G1 X170.035 Y159.275 E2.56069
G1 X170.035 Y159.881 E0.02593
G1 X127.119 Y116.965 E2.59737
G1 X126.513 Y116.965 E0.02593
G1 X170.035 Y160.487 E2.63404
G1 X170.035 Y161.093 E0.02593
G1 X125.907 Y116.965 E2.67072
G1 X125.301 Y116.965 E0.02593
G1 X170.035 Y161.699 E2.70739
G1 X170.035 Y162.305 E0.02593
G1 X124.695 Y116.965 E2.74407
G1 X124.089 Y116.965 E0.02593
G1 X170.035 Y162.911 E2.78074
G1 X170.035 Y163.517 E0.02593
G1 X123.483 Y116.965 E2.81742
G1 X122.877 Y116.965 E0.02593
G1 X170.035 Y164.123 E2.85409
G1 X170.035 Y164.729 E0.02593
G1 X122.271 Y116.965 E2.89077
G1 X121.665 Y116.965 E0.02593
G1 X170.035 Y165.335 E2.92744
G1 X170.035 Y165.941 E0.02593
G1 X121.059 Y116.965 E2.96412
G1 X120.453 Y116.965 E0.02593
G1 X170.035 Y166.547 E3.00079
G1 X170.035 Y167.153 E0.02593
G1 X119.847 Y116.965 E3.03747
G1 X119.241 Y116.965 E0.02593
G1 X170.035 Y167.759 E3.07414
G1 X170.035 Y168.365 E0.02593
G1 X118.635 Y116.965 E3.11082
G1 X118.029 Y116.965 E0.02593
G1 X170.035 Y168.971 E3.14749
G1 X170.035 Y169.577 E0.02593
G1 X117.423 Y116.965 E3.18417
G1 X116.817 Y116.965 E0.02593
G1 X170.035 Y170.183 E3.22084
G1 X170.035 Y170.789 E0.02593
G1 X116.211 Y116.965 E3.25752
G1 X115.605 Y116.965 E0.02593
G1 X170.035 Y171.395 E3.29419
G1 X170.035 Y172.001 E0.02593
G1 X114.999 Y116.965 E3.33087
G1 X114.393 Y116.965 E0.02593
G1 X170.035 Y172.607 E3.36754
G1 X170.035 Y173.213 E0.02593
G1 X113.787 Y116.965 E3.40422
G1 X113.181 Y116.965 E0.02593
G1 X170.035 Y173.819 E3.44089
G1 X170.035 Y174.425 E0.02593
G1 X112.575 Y116.965 E3.47757
G1 X111.969 Y116.965 E0.02593
G1 X170.035 Y175.031 E3.51424
G1 X170.035 Y175.569 E0.02301
G1 X169.967 Y175.569 E0.00292
G1 X111.363 Y116.965 E3.54679
G1 X110.757 Y116.965 E0.02593
G1 X169.361 Y175.569 E3.54679
G1 X168.755 Y175.569 E0.02593
G1 X110.151 Y116.965 E3.54679
G1 X109.545 Y116.965 E0.02593
G1 X168.149 Y175.569 E3.54679
G1 X167.543 Y175.569 E0.02593
G1 X108.939 Y116.965 E3.54679
G1 X108.333 Y116.965 E0.02593
G1 X166.937 Y175.569 E3.54679
G1 X166.331 Y175.569 E0.02593
G1 X107.727 Y116.965 E3.54679
G1 X107.121 Y116.965 E0.02593
G1 X165.725 Y175.569 E3.54679
G1 X165.119 Y175.569 E0.02593
G1 X106.515 Y116.965 E3.54679
G1 X105.909 Y116.965 E0.02593
G1 X164.513 Y175.569 E3.54679
G1 X163.907 Y175.569 E0.02593
G1 X105.303 Y116.965 E3.54679
G1 X104.697 Y116.965 E0.02593
G1 X163.301 Y175.569 E3.54679
G1 X162.695 Y175.569 E0.02593
G1 X104.091 Y116.965 E3.54679
G1 X103.965 Y116.965 E0.0054
G1 X103.965 Y117.445 E0.02053
G1 X162.089 Y175.569 E3.51775
G1 X161.483 Y175.569 E0.02593
G1 X103.965 Y118.051 E3.48108
G1 X103.965 Y118.657 E0.02593
G1 X160.877 Y175.569 E3.4444
G1 X160.271 Y175.569 E0.02593
G1 X103.965 Y119.263 E3.40773
G1 X103.965 Y119.869 E0.02593
G1 X159.665 Y175.569 E3.37105
G1 X159.059 Y175.569 E0.02593
G1 X103.965 Y120.475 E3.33438
G1 X103.965 Y121.081 E0.02593
G1 X158.453 Y175.569 E3.2977
G1 X157.847 Y175.569 E0.02593
G1 X103.965 Y121.687 E3.26103
G1 X103.965 Y122.293 E0.02593
G1 X157.241 Y175.569 E3.22435
G1 X156.635 Y175.569 E0.02593
G1 X103.965 Y122.899 E3.18768
G1 X103.965 Y123.505 E0.02593
G1 X156.029 Y175.569 E3.151
G1 X155.423 Y175.569 E0.02593
G1 X103.965 Y124.111 E3.11433
G1 X103.965 Y124.716 E0.02593
G1 X154.817 Y175.569 E3.07765
G1 X154.211 Y175.569 E0.02593
G1 X103.965 Y125.322 E3.04098
G1 X103.965 Y125.928 E0.02593
G1 X153.605 Y175.569 E3.0043
G1 X152.999 Y175.569 E0.02593
G1 X103.965 Y126.534 E2.96763
G1 X103.965 Y127.14 E0.02593
G1 X152.393 Y175.569 E2.93095
G1 X151.787 Y175.569 E0.02593
G1 X103.965 Y127.746 E2.89428
G1 X103.965 Y128.352 E0.02593
G1 X151.181 Y175.569 E2.8576
G1 X150.575 Y175.569 E0.02593
G1 X103.965 Y128.958 E2.82093
G1 X103.965 Y129.564 E0.02593
G1 X149.969 Y175.569 E2.78425
G1 X149.363 Y175.569 E0.02593
G1 X103.965 Y130.17 E2.74758
G1 X103.965 Y130.776 E0.02593
G1 X148.757 Y175.569 E2.7109
G1 X148.151 Y175.569 E0.02593
G1 X103.965 Y131.382 E2.67423
G1 X103.965 Y131.988 E0.02593
G1 X147.545 Y175.569 E2.63755
G1 X146.939 Y175.569 E0.02593
G1 X103.965 Y132.594 E2.60088
G1 X103.965 Y133.2 E0.02593
G1 X146.333 Y175.569 E2.5642
G1 X145.727 Y175.569 E0.02593
G1 X103.965 Y133.806 E2.52753
G1 X103.965 Y134.412 E0.02593
G1 X145.122 Y175.569 E2.49085
G1 X144.516 Y175.569 E0.02593
G1 X103.965 Y135.018 E2.45418
G1 X103.965 Y135.624 E0.02593
G1 X143.91 Y175.569 E2.4175
G1 X143.304 Y175.569 E0.02593
G1 X103.965 Y136.23 E2.38083
G1 X103.965 Y136.836 E0.02593
G1 X142.698 Y175.569 E2.34415
G1 X142.092 Y175.569 E0.02593
G1 X103.965 Y137.442 E2.30748
G1 X103.965 Y138.048 E0.02593
G1 X141.486 Y175.569 E2.2708
G1 X140.88 Y175.569 E0.02593
G1 X103.965 Y138.654 E2.23413
G1 X103.965 Y139.26 E0.02593
G1 X140.274 Y175.569 E2.19745
G1 X139.668 Y175.569 E0.02593
G1 X103.965 Y139.866 E2.16078
G1 X103.965 Y140.472 E0.02593
G1 X139.062 Y175.569 E2.1241
G1 X138.456 Y175.569 E0.02593
G1 X103.965 Y141.078 E2.08743
G1 X103.965 Y141.684 E0.02593
G1 X137.85 Y175.569 E2.05075
G1 X137.244 Y175.569 E0.02593
G1 X103.965 Y142.29 E2.01408
G1 X103.965 Y142.896 E0.02593
G1 X136.638 Y175.569 E1.9774
G1 X136.032 Y175.569 E0.02593
G1 X103.965 Y143.502 E1.94073
G1 X103.965 Y144.108 E0.02593
G1 X135.426 Y175.569 E1.90405
G1 X134.82 Y175.569 E0.02593
G1 X103.965 Y144.714 E1.86738
G1 X103.965 Y145.32 E0.02593
G1 X134.214 Y175.569 E1.8307
G1 X133.608 Y175.569 E0.02593
G1 X103.965 Y145.926 E1.79403
G1 X103.965 Y146.532 E0.02593
G1 X133.002 Y175.569 E1.75735
G1 X132.396 Y175.569 E0.02593
G1 X103.965 Y147.138 E1.72068
G1 X103.965 Y147.744 E0.02593
G1 X131.79 Y175.569 E1.684
G1 X131.184 Y175.569 E0.02593
G1 X103.965 Y148.35 E1.64733
G1 X103.965 Y148.956 E0.02593
G1 X130.578 Y175.569 E1.61065
G1 X129.972 Y175.569 E0.02593
G1 X103.965 Y149.562 E1.57398
G1 X103.965 Y150.168 E0.02593
G1 X129.366 Y175.569 E1.5373
G1 X128.76 Y175.569 E0.02593
G1 X103.965 Y150.774 E1.50063
G1 X103.965 Y151.38 E0.02593
G1 X128.154 Y175.569 E1.46395
G1 X127.548 Y175.569 E0.02593
G1 X103.965 Y151.986 E1.42728
G1 X103.965 Y152.592 E0.02593
G1 X126.942 Y175.569 E1.3906
G1 X126.336 Y175.569 E0.02593
G1 X103.965 Y153.198 E1.35393
G1 X103.965 Y153.804 E0.02593
G1 X125.73 Y175.569 E1.31725
G1 X125.124 Y175.569 E0.02593
G1 X103.965 Y154.41 E1.28058
G1 X103.965 Y155.016 E0.02593
G1 X124.518 Y175.569 E1.2439
G1 X123.912 Y175.569 E0.02593
G1 X103.965 Y155.622 E1.20723
G1 X103.965 Y156.228 E0.02593
G1 X123.306 Y175.569 E1.17055
G1 X122.7 Y175.569 E0.02593
G1 X103.965 Y156.834 E1.13388
G1 X103.965 Y157.44 E0.02593
G1 X122.094 Y175.569 E1.0972
G1 X121.488 Y175.569 E0.02593
G1 X103.965 Y158.046 E1.06053
G1 X103.965 Y158.652 E0.02593
G1 X120.882 Y175.569 E1.02385
G1 X120.276 Y175.569 E0.02593
G1 X103.965 Y159.258 E0.98718
G1 X103.965 Y159.864 E0.02593
G1 X119.67 Y175.569 E0.9505
G1 X119.064 Y175.569 E0.02593
G1 X103.965 Y160.47 E0.91383
G1 X103.965 Y161.076 E0.02593
G1 X118.458 Y175.569 E0.87715
G1 X117.852 Y175.569 E0.02593
G1 X103.965 Y161.681 E0.84048
G1 X103.965 Y162.287 E0.02593
G1 X117.246 Y175.569 E0.8038
G1 X116.64 Y175.569 E0.02593
G1 X103.965 Y162.893 E0.76713
G1 X103.965 Y163.499 E0.02593
G1 X116.034 Y175.569 E0.73045
G1 X115.428 Y175.569 E0.02593
G1 X103.965 Y164.105 E0.69378
G1 X103.965 Y164.711 E0.02593
G1 X114.822 Y175.569 E0.6571
G1 X114.216 Y175.569 E0.02593
G1 X103.965 Y165.317 E0.62043
G1 X103.965 Y165.923 E0.02593
G1 X113.61 Y175.569 E0.58375
G1 X113.004 Y175.569 E0.02593
G1 X103.965 Y166.529 E0.54708
G1 X103.965 Y167.135 E0.02593
G1 X112.398 Y175.569 E0.5104
G1 X111.792 Y175.569 E0.02593
G1 X103.965 Y167.741 E0.47373
G1 X103.965 Y168.347 E0.02593
G1 X111.186 Y175.569 E0.43706
G1 X110.58 Y175.569 E0.02593
G1 X103.965 Y168.953 E0.40038
G1 X103.965 Y169.559 E0.02593
G1 X109.974 Y175.569 E0.36371
G1 X109.368 Y175.569 E0.02593
G1 X103.965 Y170.165 E0.32703
G1 X103.965 Y170.771 E0.02593
G1 X108.763 Y175.569 E0.29036
G1 X108.157 Y175.569 E0.02593
G1 X103.965 Y171.377 E0.25368
G1 X103.965 Y171.983 E0.02593
G1 X107.551 Y175.569 E0.21701
G1 X106.945 Y175.569 E0.02593
G1 X103.965 Y172.589 E0.18033
G1 X103.965 Y173.195 E0.02593
G1 X106.339 Y175.569 E0.14366
G1 X105.733 Y175.569 E0.02593
G1 X103.965 Y173.801 E0.10698
G1 X103.965 Y174.407 E0.02593
