; generated by SuperSlicer 2.3.57 on 2022-02-21 at 04:10:49 UTC


;
;

;
;
; 

; external perimeters extrusion width = 0.40mm
; perimeters extrusion width = 0.45mm
; infill extrusion width = 0.72mm
; solid infill extrusion width = 0.56mm
; top infill extrusion width = 0.40mm
; support material extrusion width = 0.42mm
; first layer extrusion width = 0.48mm

; external perimeters extrusion width = 0.40mm
; perimeters extrusion width = 0.45mm
; infill extrusion width = 0.72mm
; solid infill extrusion width = 0.56mm
; top infill extrusion width = 0.40mm
; support material extrusion width = 0.42mm
; first layer extrusion width = 0.48mm

; external perimeters extrusion width = 0.40mm
; perimeters extrusion width = 0.45mm
; infill extrusion width = 0.72mm
; solid infill extrusion width = 0.56mm
; top infill extrusion width = 0.40mm
; support material extrusion width = 0.42mm
; first layer extrusion width = 0.48mm

; external perimeters extrusion width = 0.40mm
; perimeters extrusion width = 0.45mm
; infill extrusion width = 0.72mm
; solid infill extrusion width = 0.56mm
; top infill extrusion width = 0.40mm
; support material extrusion width = 0.42mm
; first layer extrusion width = 0.48mm

; external perimeters extrusion width = 0.40mm
; perimeters extrusion width = 0.45mm
; infill extrusion width = 0.72mm
; solid infill extrusion width = 0.56mm
; top infill extrusion width = 0.40mm
; support material extrusion width = 0.42mm
; first layer extrusion width = 0.48mm

; object:{"name":"Hanger_Inner_v2_Laid_Flat","id":"Hanger_Inner_v2_Laid_Flat.stl id:0 copy 0","object_center":[152.500000,150.000000,0.000000],"boundingbox_center":[152.500000,150.000000,10.991516],"boundingbox_size":[50.361359,49.000000,21.983032]}
; plater:{"center":[152.500000,150.000000,0.000000],"boundingbox_center":[152.500000,150.000000,10.991516],"boundingbox_size":[50.361359,49.000000,21.983032]}

;TYPE:Custom
START_PRINT T_BED=60 T_EXTRUDER=200
M107
G21 ; set units to millimeters
G90 ; use absolute coordinates
M83 ; use relative distances for extrusion
; Filament gcode
M104 S200 ; set temperature
M109 S200 ; set temperature and wait for it to be reached
M190 S60 ; set bed temperature and wait for it to be reached
;LAYER_CHANGE
;Z:0.24
;HEIGHT:0.24
G1 Z0.24 F9000
G1 E-0.6 F3000
G1 X133.064 Y130.397 F9000
G1 E0.6 F1800
; External perimeter
;Skirt
SET_VELOCITY_LIMIT ACCEL=300 ACCEL_TO_DECEL=3000 SQUARE_CORNER_VELOCITY=5

; Support material

;TYPE:Skirt
;WIDTH:0.48
G1 X131.86 Y131.706 E0.07602
G1 X130.672 Y133.185 E0.08113
G1 X129.734 Y134.512 E0.06945
G1 X128.828 Y135.972 E0.07347
G1 X127.959 Y137.6 E0.07891
G1 X127.281 Y139.076 E0.06943
G1 X126.658 Y140.682 E0.07367
G1 X126.137 Y142.319 E0.07346
G1 X125.739 Y143.89 E0.0693
G1 X125.394 Y145.706 E0.07903
G1 X125.183 Y147.407 E0.07325
G1 X125.081 Y149.032 E0.06963
G1 X125.081 Y150.976 E0.08312
G1 X125.183 Y152.592 E0.06922
G1 X125.395 Y154.301 E0.07366
G1 X125.712 Y155.995 E0.07366
G1 X126.106 Y157.567 E0.0693
G1 X126.693 Y159.414 E0.08285
G1 X127.284 Y160.931 E0.06963
G1 X127.964 Y162.411 E0.06964
G1 X128.878 Y164.111 E0.08253
G1 X129.738 Y165.495 E0.06964
G1 X130.735 Y166.901 E0.07368
G1 X131.816 Y168.243 E0.07368
G1 X132.91 Y169.444 E0.06945
G1 X134.26 Y170.756 E0.08054
G1 X135.624 Y171.915 E0.07651
G1 X136.918 Y172.889 E0.06926
G1 X138.269 Y173.785 E0.06927
G1 X139.849 Y174.702 E0.07813
G1 X141.405 Y175.476 E0.07431
G1 X143.006 Y176.153 E0.07431
G1 X144.736 Y176.756 E0.07834
G1 X146.291 Y177.196 E0.06908
G1 X147.874 Y177.544 E0.06928
G1 X149.66 Y177.826 E0.07734
G1 X151.405 Y177.989 E0.07493
G1 X153.112 Y178.043 E0.07303
G1 X177.693 Y178.041 E1.05096
G1 X178.421 Y177.943 E0.0314
G1 X179.118 Y177.699 E0.0316
G1 X179.752 Y177.319 E0.0316
G1 X180.297 Y176.819 E0.0316
G1 X180.681 Y176.3 E0.02758
G1 X180.965 Y175.727 E0.02738
G1 X181.146 Y175.107 E0.02758
G1 X181.215 Y174.466 E0.02758
G1 X181.211 Y125.418 E2.09705
G1 X181.112 Y124.738 E0.02939
G1 X180.885 Y124.084 E0.02959
G1 X180.539 Y123.485 E0.02959
G1 X180.085 Y122.962 E0.02959
G1 X179.541 Y122.535 E0.02959
G1 X178.926 Y122.218 E0.02959
G1 X178.262 Y122.023 E0.02959
G1 X177.578 Y121.957 E0.02939
G1 X153.081 Y121.958 E1.04738
G1 X151.412 Y122.01 E0.07137
G1 X149.789 Y122.159 E0.06969
G1 X147.89 Y122.453 E0.08218
G1 X146.293 Y122.804 E0.06989
G1 X144.729 Y123.246 E0.06948
G1 X142.999 Y123.85 E0.07835
G1 X141.309 Y124.57 E0.07854
G1 X139.859 Y125.293 E0.06927
G1 X138.455 Y126.1 E0.06927
G1 X136.92 Y127.11 E0.07853
G1 X135.46 Y128.216 E0.07833
G1 X134.227 Y129.274 E0.06946
G1 X133.107 Y130.356 E0.06657
G1 X133.397 Y130.674 F9000
G1 F1800
G1 X133.362 Y130.705 E0.002
G1 X132.19 Y131.98 E0.07403
G1 X131.021 Y133.433 E0.07975
G1 X130.09 Y134.75 E0.06896
G1 X129.198 Y136.189 E0.07237
G1 X128.348 Y137.779 E0.07709
G1 X127.676 Y139.241 E0.06876
G1 X127.063 Y140.823 E0.07255
G1 X126.548 Y142.439 E0.07254
G1 X126.154 Y143.995 E0.06861
G1 X125.818 Y145.77 E0.07723
G1 X125.61 Y147.449 E0.07235
G1 X125.509 Y149.058 E0.06894
G1 X125.509 Y150.945 E0.08067
G1 X125.61 Y152.554 E0.06894
G1 X125.818 Y154.234 E0.07235
G1 X126.131 Y155.906 E0.07273
G1 X126.521 Y157.462 E0.06861
G1 X127.093 Y159.26 E0.08063
G1 X127.679 Y160.767 E0.06914
G1 X128.351 Y162.228 E0.06876
G1 X129.245 Y163.89 E0.08069
G1 X130.094 Y165.256 E0.06877
G1 X131.075 Y166.641 E0.07256
G1 X132.143 Y167.966 E0.07275
G1 X133.224 Y169.153 E0.06865
G1 X134.532 Y170.424 E0.078
G1 X135.882 Y171.573 E0.07579
G1 X138.503 Y173.426 E0.13721
G1 X140.054 Y174.326 E0.07669
G1 X141.586 Y175.088 E0.07316
G1 X143.158 Y175.752 E0.07297
G1 X144.854 Y176.344 E0.07676
G1 X147.966 Y177.125 E0.13719
G1 X149.708 Y177.401 E0.07544
G1 X151.434 Y177.562 E0.07412
G1 X153.114 Y177.614 E0.07185
G1 X177.665 Y177.613 E1.0497
G1 X178.31 Y177.529 E0.02779
G1 X178.924 Y177.316 E0.02779
G1 X179.487 Y176.982 E0.02798
G1 X179.967 Y176.544 E0.02779
G1 X180.311 Y176.083 E0.02459
G1 X180.566 Y175.573 E0.0244
G1 X180.726 Y175.025 E0.0244
G1 X180.787 Y174.453 E0.02459
G1 X180.784 Y125.459 E2.09478
G1 X180.698 Y124.85 E0.02628
G1 X180.5 Y124.273 E0.02609
G1 X180.197 Y123.743 E0.02609
G1 X179.798 Y123.281 E0.02609
G1 X179.32 Y122.902 E0.02609
G1 X178.774 Y122.619 E0.02628
G1 X178.189 Y122.445 E0.02609
G1 X177.577 Y122.386 E0.02628
G1 X153.086 Y122.386 E1.04713
G1 X151.44 Y122.438 E0.0704
G1 X149.833 Y122.585 E0.06901
G1 X147.984 Y122.871 E0.07998
G1 X146.395 Y123.22 E0.06957
G1 X144.851 Y123.657 E0.06862
G1 X143.156 Y124.249 E0.07676
G1 X141.5 Y124.953 E0.07695
G1 X138.671 Y126.47 E0.13723
G1 X137.169 Y127.459 E0.07688
G1 X135.738 Y128.542 E0.07675
G1 X133.441 Y130.633 E0.13282
; INIT printing object Hanger_Inner_v2_Laid_Flat.stl id:0 copy 0
G1 E-0.6 F3000
; printing object Hanger_Inner_v2_Laid_Flat.stl id:0 copy 0
G1 X165.355 Y171.468 F9000
G1 E0.6 F1800
; External perimeter
;SupportMaterial
SET_VELOCITY_LIMIT ACCEL=3000 ACCEL_TO_DECEL=3000 SQUARE_CORNER_VELOCITY=5

; Support material interface

;TYPE:Support material
G1 X165.355 Y169.532 E0.08276
G1 E-0.6 F3000
G1 X132.789 Y150.951 F9000
G1 E0.6 F1800
G1 X132.789 Y149.238 E0.07323
G1 X132.711 Y149.218 E0.00344
G1 X132.52 Y149.217 E0.00816
G1 X132.335 Y149.261 E0.00815
G1 X132.168 Y149.348 E0.00804
G1 X132.013 Y149.485 E0.00885
G1 X131.932 Y149.602 E0.00606
G1 X131.932 Y150.692 E0.04661
G1 E-0.6 F3000
G1 X165.355 Y130.468 F9000
G1 E0.6 F1800
G1 X165.355 Y128.532 E0.08276
G1 E-0.6 F3000
G1 X134.63 Y148.952 F9000
G1 E0.6 F1800
; External perimeter
;Perimeter
SET_VELOCITY_LIMIT ACCEL=2000 ACCEL_TO_DECEL=2000 SQUARE_CORNER_VELOCITY=5

; Overhang perimeter

;TYPE:Internal perimeter
G1 X134.307 Y148.485 E0.02425
G1 X133.913 Y148.136 E0.02254
G1 X133.43 Y147.879 E0.02336
G1 X132.899 Y147.745 E0.02344
G1 X132.35 Y147.742 E0.02344
G1 X131.817 Y147.87 E0.02344
G1 X131.328 Y148.122 E0.02353
G1 X130.902 Y148.499 E0.02434
G1 X130.602 Y148.933 E0.02254
G1 X130.405 Y149.444 E0.02344
G1 X130.336 Y150.01 E0.02435
G1 X130.399 Y150.533 E0.02253
G1 X130.591 Y151.047 E0.02344
G1 X130.916 Y151.517 E0.02443
G1 X131.329 Y151.877 E0.02344
G1 X131.794 Y152.121 E0.02245
G1 X132.323 Y152.255 E0.02336
G1 X132.874 Y152.258 E0.02353
G1 X133.428 Y152.122 E0.02443
G1 X133.914 Y151.863 E0.02353
G1 X134.323 Y151.498 E0.02344
G1 X134.631 Y151.046 E0.02335
G1 X134.818 Y150.554 E0.02254
G1 X134.887 Y149.988 E0.02434
G1 X134.817 Y149.445 E0.02344
G1 X134.651 Y149.008 E0.01998
G1 X134.251 Y149.16 F9000
; External perimeter
;ExternalPerimeter
SET_VELOCITY_LIMIT ACCEL=1000 ACCEL_TO_DECEL=1000 SQUARE_CORNER_VELOCITY=5

; Perimeter

;TYPE:External perimeter
G1 F1800
G1 X133.985 Y148.771 E0.02013
G1 X133.667 Y148.49 E0.01815
G1 X133.275 Y148.282 E0.01896
G1 X132.844 Y148.173 E0.019
G1 X132.4 Y148.171 E0.019
G1 X131.968 Y148.274 E0.019
G1 X131.572 Y148.478 E0.01903
G1 X131.225 Y148.786 E0.01984
G1 X130.984 Y149.135 E0.01814
G1 X130.823 Y149.549 E0.01899
G1 X130.767 Y150.01 E0.01984
G1 X130.819 Y150.431 E0.01814
G1 X130.974 Y150.847 E0.01899
G1 X131.238 Y151.229 E0.01987
G1 X131.573 Y151.521 E0.01899
G1 X131.948 Y151.718 E0.01812
G1 X132.378 Y151.827 E0.01897
G1 X132.823 Y151.829 E0.01903
G1 X133.274 Y151.718 E0.01987
G1 X133.667 Y151.509 E0.01903
G1 X133.998 Y151.213 E0.01899
G1 X134.248 Y150.847 E0.01896
G1 X134.399 Y150.45 E0.01814
G1 X134.455 Y149.99 E0.01983
G1 X134.399 Y149.549 E0.01899
G1 X134.272 Y149.216 E0.01524
;WIPE_START
G1 X134.256 Y149.154 F9000
;WIPE_END
G1 X176.476 Y126.697
; External perimeter
;Perimeter
SET_VELOCITY_LIMIT ACCEL=2000 ACCEL_TO_DECEL=2000 SQUARE_CORNER_VELOCITY=5

; Overhang perimeter

;TYPE:Internal perimeter
G1 F1800
G1 X176.476 Y173.303 E1.99266
G1 X166.512 Y173.303 E0.42599
G1 X166.436 Y172.993 E0.01364
G1 X166.919 Y172.74 E0.02328
G1 X167.432 Y172.297 E0.02901
G1 X167.805 Y171.753 E0.02821
G1 X168.027 Y171.17 E0.02667
G1 X168.114 Y170.496 E0.02905
G1 X168.032 Y169.843 E0.02813
G1 X167.81 Y169.259 E0.0267
G1 X167.426 Y168.698 E0.0291
G1 X166.929 Y168.264 E0.0282
G1 X166.348 Y167.964 E0.02796
G1 X165.716 Y167.814 E0.02777
G1 X165.091 Y167.814 E0.02675
G1 X164.433 Y167.976 E0.02895
G1 X163.88 Y168.266 E0.02672
G1 X163.39 Y168.694 E0.0278
G1 X163.016 Y169.23 E0.02796
G1 X162.778 Y169.846 E0.02823
G1 X162.701 Y170.522 E0.02909
G1 X162.776 Y171.141 E0.02666
G1 X163.006 Y171.752 E0.02788
G1 X163.376 Y172.291 E0.02797
G1 X163.871 Y172.73 E0.02829
G1 X164.384 Y172.991 E0.0246
G1 X164.309 Y173.303 E0.01373
G1 X153.158 Y173.303 E0.47679
G1 X151.703 Y173.258 E0.06224
G1 X150.271 Y173.126 E0.06145
G1 X148.851 Y172.906 E0.06145
G1 X147.447 Y172.599 E0.06145
G1 X146.064 Y172.206 E0.06145
G1 X144.709 Y171.729 E0.06145
G1 X143.385 Y171.169 E0.06144
G1 X142.098 Y170.529 E0.06144
G1 X140.854 Y169.812 E0.06143
G1 X139.656 Y169.019 E0.06143
G1 X138.509 Y168.154 E0.06142
G1 X137.417 Y167.22 E0.06141
G1 X136.385 Y166.221 E0.06141
G1 X135.417 Y165.16 E0.0614
G1 X135.203 Y164.895 E0.01456
G1 X134.516 Y164.042 E0.04684
G1 X133.686 Y162.871 E0.06139
G1 X132.929 Y161.651 E0.06139
G1 X132.249 Y160.386 E0.06138
G1 X131.649 Y159.082 E0.06138
G1 X131.13 Y157.744 E0.06137
G1 X130.694 Y156.377 E0.06137
G1 X130.343 Y154.985 E0.06136
G1 X130.079 Y153.574 E0.06136
G1 X129.903 Y152.15 E0.06136
G1 X129.847 Y151.248 E0.03865
G1 X130.139 Y151.146 E0.01322
G1 X130.594 Y151.804 E0.03418
G1 X131.085 Y152.233 E0.02789
G1 X131.64 Y152.524 E0.02679
G1 X132.269 Y152.683 E0.02774
G1 X132.924 Y152.687 E0.02803
G1 X133.583 Y152.525 E0.02898
G1 X134.161 Y152.217 E0.02803
G1 X134.647 Y151.782 E0.02789
G1 X135.013 Y151.246 E0.02775
G1 X135.237 Y150.657 E0.02694
G1 X135.318 Y149.987 E0.02885
G1 X135.236 Y149.34 E0.0279
G1 X135.012 Y148.751 E0.02694
G1 X134.63 Y148.199 E0.0287
G1 X134.159 Y147.781 E0.02693
G1 X133.586 Y147.477 E0.02775
G1 X132.953 Y147.317 E0.02788
G1 X132.301 Y147.313 E0.02788
G1 X131.667 Y147.465 E0.02788
G1 X131.084 Y147.766 E0.02803
G1 X130.579 Y148.213 E0.02885
G1 X130.139 Y148.849 E0.03306
G1 X129.847 Y148.748 E0.01322
G1 X129.903 Y147.85 E0.03846
G1 X130.079 Y146.426 E0.06136
G1 X130.343 Y145.015 E0.06136
G1 X130.694 Y143.623 E0.06136
G1 X131.13 Y142.256 E0.06137
G1 X131.649 Y140.918 E0.06137
G1 X132.249 Y139.614 E0.06138
G1 X132.929 Y138.349 E0.06138
G1 X133.686 Y137.129 E0.06139
G1 X134.516 Y135.958 E0.06139
G1 X135.417 Y134.84 E0.0614
G1 X136.385 Y133.779 E0.0614
G1 X137.417 Y132.78 E0.06141
G1 X138.509 Y131.846 E0.06141
G1 X139.082 Y131.414 E0.03071
G1 X139.656 Y130.981 E0.03071
G1 X140.854 Y130.188 E0.06143
G1 X142.098 Y129.471 E0.06143
G1 X143.385 Y128.831 E0.06144
G1 X144.709 Y128.271 E0.06144
G1 X146.064 Y127.794 E0.06145
G1 X147.447 Y127.401 E0.06145
G1 X148.851 Y127.094 E0.06145
G1 X150.271 Y126.874 E0.06145
G1 X151.703 Y126.742 E0.06145
G1 X153.158 Y126.697 E0.06224
G1 X164.299 Y126.697 E0.47635
G1 X164.375 Y127.007 E0.01364
G1 X163.88 Y127.266 E0.02391
G1 X163.39 Y127.694 E0.0278
G1 X163.016 Y128.23 E0.02796
G1 X162.778 Y128.846 E0.02823
G1 X162.701 Y129.522 E0.02909
G1 X162.776 Y130.141 E0.02666
G1 X163.006 Y130.752 E0.02788
G1 X163.376 Y131.291 E0.02797
G1 X163.871 Y131.73 E0.02829
G1 X164.475 Y132.037 E0.02899
G1 X165.08 Y132.186 E0.0266
G1 X165.733 Y132.186 E0.02793
G1 X166.367 Y132.029 E0.02793
G1 X166.919 Y131.74 E0.02662
G1 X167.432 Y131.297 E0.02901
G1 X167.805 Y130.753 E0.02821
G1 X168.027 Y130.17 E0.02667
G1 X168.114 Y129.496 E0.02905
G1 X168.032 Y128.843 E0.02813
G1 X167.81 Y128.259 E0.0267
G1 X167.426 Y127.698 E0.0291
G1 X166.929 Y127.264 E0.0282
G1 X166.433 Y127.008 E0.02387
G1 X166.509 Y126.697 E0.01369
G1 X176.416 Y126.697 E0.42358
G1 X167.613 Y128.948 F9000
G1 F1800
G1 X167.428 Y128.459 E0.02233
G1 X167.103 Y127.985 E0.02459
G1 X166.687 Y127.621 E0.02365
G1 X166.198 Y127.369 E0.0235
G1 X165.666 Y127.242 E0.02339
G1 X165.143 Y127.242 E0.02236
G1 X164.587 Y127.38 E0.02451
G1 X164.124 Y127.622 E0.02234
G1 X163.712 Y127.983 E0.0234
G1 X163.397 Y128.433 E0.0235
G1 X163.198 Y128.949 E0.02366
G1 X163.132 Y129.521 E0.02459
G1 X163.195 Y130.038 E0.0223
G1 X163.388 Y130.552 E0.02345
G1 X163.7 Y131.005 E0.02351
G1 X164.114 Y131.373 E0.02371
G1 X164.626 Y131.633 E0.02453
G1 X165.132 Y131.758 E0.02227
G1 X165.681 Y131.758 E0.02348
G1 X166.214 Y131.626 E0.02349
G1 X166.676 Y131.384 E0.02228
G1 X167.11 Y131.009 E0.02454
G1 X167.423 Y130.553 E0.02365
G1 X167.608 Y130.065 E0.02231
G1 X167.682 Y129.495 E0.02456
G1 X167.621 Y129.007 E0.02104
G1 X167.196 Y129.061 F9000
; External perimeter
;ExternalPerimeter
SET_VELOCITY_LIMIT ACCEL=1000 ACCEL_TO_DECEL=1000 SQUARE_CORNER_VELOCITY=5

; Perimeter

;TYPE:External perimeter
G1 F1800
G1 X167.045 Y128.659 E0.01833
G1 X166.78 Y128.272 E0.02008
G1 X166.444 Y127.978 E0.01909
G1 X166.048 Y127.774 E0.01904
G1 X165.616 Y127.671 E0.019
G1 X165.195 Y127.671 E0.01798
G1 X164.74 Y127.783 E0.02007
G1 X164.368 Y127.978 E0.01796
G1 X164.033 Y128.271 E0.01901
G1 X163.778 Y128.636 E0.01904
G1 X163.617 Y129.053 E0.0191
G1 X163.564 Y129.519 E0.02009
G1 X163.614 Y129.936 E0.01794
G1 X163.771 Y130.352 E0.01902
G1 X164.023 Y130.719 E0.01904
G1 X164.358 Y131.016 E0.01912
G1 X164.776 Y131.229 E0.02007
G1 X165.183 Y131.329 E0.01794
G1 X165.629 Y131.329 E0.01903
G1 X166.061 Y131.222 E0.01905
G1 X166.433 Y131.027 E0.01795
G1 X166.788 Y130.72 E0.02006
G1 X167.041 Y130.352 E0.0191
G1 X167.19 Y129.96 E0.01795
G1 X167.25 Y129.495 E0.02007
G1 X167.203 Y129.12 E0.01613
;WIPE_START
G1 X167.203 Y129.055 F9000
;WIPE_END
G1 X165.666 Y168.242
; External perimeter
;Perimeter
SET_VELOCITY_LIMIT ACCEL=2000 ACCEL_TO_DECEL=2000 SQUARE_CORNER_VELOCITY=5

; Overhang perimeter

;TYPE:Internal perimeter
G1 F1800
G1 X165.143 Y168.242 E0.02236
G1 X164.587 Y168.38 E0.02451
G1 X164.124 Y168.622 E0.02234
G1 X163.712 Y168.983 E0.0234
G1 X163.397 Y169.433 E0.0235
G1 X163.198 Y169.949 E0.02366
G1 X163.132 Y170.521 E0.02459
G1 X163.195 Y171.038 E0.0223
G1 X163.388 Y171.552 E0.02345
G1 X163.7 Y172.005 E0.02351
G1 X164.114 Y172.373 E0.02371
G1 X164.626 Y172.633 E0.02453
G1 X165.132 Y172.758 E0.02227
G1 X165.681 Y172.758 E0.02348
G1 X166.214 Y172.626 E0.02349
G1 X166.676 Y172.384 E0.02228
G1 X167.11 Y172.009 E0.02453
G1 X167.423 Y171.553 E0.02365
G1 X167.608 Y171.065 E0.02231
G1 X167.682 Y170.495 E0.02456
