; generated by SuperSlicer 2.5.59 on 2022-12-19 at 01:24:44 UTC


;
;

;
;
; 

; external perimeters extrusion width = 0.40mm
; perimeters extrusion width = 0.46mm
; infill extrusion width = 0.64mm
; solid infill extrusion width = 0.56mm
; top infill extrusion width = 0.40mm
; first layer extrusion width = 0.50mm

; object:{"name":"drawer_housing_3_F","id":"drawer_housing_3_F.stl id:0 copy 0","object_center":[152.500000,150.000000,0.000000],"boundingbox_center":[152.500000,150.000000,61.599998],"boundingbox_size":[144.899994,67.300003,123.199997]}
; plater:{"center":[152.500000,150.000000,0.000000],"boundingbox_center":[152.500000,150.000000,61.599998],"boundingbox_size":[144.899994,67.300003,123.199997]}

M73 P0 R343


; Pre-Processed for Cancel-Object support by preprocess_cancellation v0.2.0
; 1 known objects
EXCLUDE_OBJECT_DEFINE NAME=drawer_housing_3_F_stl_id_0_copy_0 CENTER=154.421,147.804 POLYGON=[[80.2,116.5],[80.2,183.5],[224.8,183.5],[224.8,116.5]]
;TYPE:Custom
START_PRINT T_BED=60 T_EXTRUDER=200
M107
G21 ; set units to millimeters
G90 ; use absolute coordinates
M83 ; use relative distances for extrusion
; Filament gcode
PRESSURE_ADVANCE_SELECT FILAMENT=PLA
;_TOOLCHANGE 0
M104 S200 ; set temperature
M109 S200 ; set temperature and wait for it to be reached
M190 S60 ; set bed temperature and wait for it to be reached
M107
;LAYER_CHANGE
;Z:0.2
;HEIGHT:0.2
G1 Z0.2 F9000
G92 E0
G1 E-0.8 F3000
M204 S1000
G1 X77.929 Y113.471 F9000
G1 E0.8 F1800
;TYPE:Skirt
;WIDTH:0.52
G1 X76.829 Y114.784 E0.06521
G1 X76.434 Y116.45 E0.06521
G1 X76.434 Y183.55 E2.55534
G1 X77.171 Y185.771 E0.08911
G1 X78.484 Y186.871 E0.06521
G1 X80.15 Y187.266 E0.06521
G1 X224.85 Y187.266 E5.51055
G1 X227.071 Y186.529 E0.08911
G1 X228.171 Y185.216 E0.06521
G1 X228.566 Y183.55 E0.06521
G1 X228.566 Y116.45 E2.55534
G1 X227.829 Y114.229 E0.08911
G1 X226.516 Y113.129 E0.06521
G1 X224.85 Y112.734 E0.06521
G1 X80.15 Y112.734 E5.51055
G1 X77.929 Y113.471 E0.08911
G1 X78.307 Y113.821 F9000
G1 F1800
G1 X77.305 Y114.902 E0.05611
G1 X76.911 Y116.45 E0.06082
G1 X76.911 Y183.55 E2.55534
G1 X77.431 Y185.309 E0.06985
G1 X78.602 Y186.395 E0.06082
G1 X80.15 Y186.789 E0.06082
G1 X224.85 Y186.789 E5.51055
G1 X226.609 Y186.269 E0.06985
G1 X227.695 Y185.098 E0.06082
G1 X228.089 Y183.55 E0.06082
G1 X228.089 Y116.45 E2.55534
G1 X227.569 Y114.691 E0.06985
G1 X226.398 Y113.605 E0.06082
G1 X224.85 Y113.211 E0.06082
G1 X80.15 Y113.211 E5.51055
G1 X78.391 Y113.731 E0.06985
G1 X78.307 Y113.821 E0.00471
G1 E-0.8 F3000
; printing object drawer_housing_3_F.stl id:0 copy 0
EXCLUDE_OBJECT_START NAME=drawer_housing_3_F_stl_id_0_copy_0
G1 X207.874 Y124.686 F9000
G1 E0.8 F1800
;TYPE:Internal perimeter
;WIDTH:0.5
G1 X97.126 Y124.686 E4.04073
G1 X88.386 Y133.426 E0.451
G1 X88.386 Y166.574 E1.20941
G1 X97.126 Y175.314 E0.451
G1 X207.874 Y175.314 E4.04073
M73 P0 R342
G1 X216.614 Y166.574 E0.451
G1 X216.614 Y133.426 E1.20941
G1 X207.874 Y124.686 E0.451
G1 X207.495 Y125.143 F9000
G1 F1800
G1 X97.316 Y125.143 E4.02001
G1 X88.843 Y133.616 E0.43719
G1 X88.843 Y166.384 E1.1956
G1 X97.316 Y174.857 E0.43719
G1 X207.684 Y174.857 E4.02692
G1 X216.157 Y166.384 E0.43719
G1 X216.157 Y133.616 E1.1956
G1 X207.684 Y125.143 E0.43719
G1 X207.495 Y125.143 E0.00691
G1 X207.495 Y125.6 F9000
;TYPE:External perimeter
G1 F1800
G1 X97.505 Y125.6 E4.0131
G1 X89.3 Y133.805 E0.42337
G1 X89.3 Y166.195 E1.18178
G1 X97.505 Y174.4 E0.42337
G1 X207.495 Y174.4 E4.0131
G1 X215.7 Y166.195 E0.42337
G1 X215.7 Y133.805 E1.18178
G1 X207.495 Y125.6 E0.42337
;WIPE_START
M204 S3000
G1 X207.391 Y125.214 F9000
;WIPE_END
G1 E-0.8 F3000
M204 S1000
G1 X223.686 Y182.386 F9000
G1 E0.8 F1800
;TYPE:Internal perimeter
G1 X81.314 Y182.386 E5.19458
G1 X81.314 Y117.614 E2.36326
G1 X223.686 Y117.614 E5.19458
G1 X223.686 Y182.386 E2.36326
G1 X224.143 Y182.843 F9000
G1 F1800
G1 X80.857 Y182.843 E5.22794
G1 X80.857 Y117.157 E2.39662
G1 X224.143 Y117.157 E5.22794
G1 X224.143 Y182.843 E2.39662
G1 X224.6 Y183.3 F9000
;TYPE:External perimeter
G1 F1800
G1 X80.4 Y183.3 E5.26129
M73 P0 R341
G1 X80.4 Y116.7 E2.42997
G1 X224.6 Y116.7 E5.26129
G1 X224.6 Y183.3 E2.42997
;WIPE_START
M204 S3000
G1 X224.254 Y183.1 F9000
;WIPE_END
G1 E-0.8 F3000
M204 S1000
G1 X223.617 Y118.607 F9000
G1 E0.8 F1800
;TYPE:Solid infill
;WIDTH:0.493141
G1 F2400
G1 X222.693 Y117.683 E0.04702
G1 X222.047 Y117.683 F9000
G1 F2400
G1 X223.617 Y119.253 E0.07992
G1 X223.617 Y119.899 F9000
G1 F2400
G1 X221.401 Y117.683 E0.11282
G1 X220.754 Y117.683 F9000
G1 F2400
G1 X223.617 Y120.546 E0.14571
G1 X223.617 Y121.192 F9000
G1 F2400
G1 X220.108 Y117.683 E0.17861
G1 X219.461 Y117.683 F9000
G1 F2400
G1 X223.617 Y121.839 E0.2115
G1 X223.617 Y122.485 F9000
G1 F2400
G1 X218.815 Y117.683 E0.2444
G1 X218.168 Y117.683 F9000
G1 F2400
G1 X223.617 Y123.132 E0.2773
G1 X223.617 Y123.778 F9000
G1 F2400
G1 X217.522 Y117.683 E0.31019
G1 X216.876 Y117.683 F9000
G1 F2400
G1 X223.617 Y124.424 E0.34309
G1 X223.617 Y125.071 F9000
G1 F2400
G1 X216.229 Y117.683 E0.37599
G1 X215.583 Y117.683 F9000
G1 F2400
G1 X223.617 Y125.717 E0.40888
G1 X223.617 Y126.364 F9000
G1 F2400
G1 X214.936 Y117.683 E0.44178
G1 X214.29 Y117.683 F9000
G1 F2400
G1 X223.617 Y127.01 E0.47468
G1 X223.617 Y127.656 F9000
G1 F2400
G1 X213.644 Y117.683 E0.50757
G1 X212.997 Y117.683 F9000
G1 F2400
G1 X223.617 Y128.303 E0.54047
G1 X223.617 Y128.949 F9000
G1 F2400
G1 X212.351 Y117.683 E0.57337
G1 X211.704 Y117.683 F9000
G1 F2400
G1 X223.617 Y129.596 E0.60626
G1 X223.617 Y130.242 F9000
G1 F2400
G1 X211.058 Y117.683 E0.63916
G1 X210.412 Y117.683 F9000
G1 F2400
G1 X223.617 Y130.888 E0.67205
G1 X223.617 Y131.535 F9000
G1 F2400
G1 X209.765 Y117.683 E0.70495
G1 X209.119 Y117.683 F9000
G1 F2400
G1 X223.617 Y132.181 E0.73785
G1 X223.617 Y132.828 F9000
G1 F2400
G1 X208.472 Y117.683 E0.77074
G1 X207.826 Y117.683 F9000
G1 F2400
G1 X223.617 Y133.474 E0.80364
G1 X223.617 Y134.12 F9000
G1 F2400
G1 X207.18 Y117.683 E0.83654
G1 X206.533 Y117.683 F9000
G1 F2400
G1 X223.617 Y134.767 E0.86943
G1 X223.617 Y135.413 F9000
G1 F2400
G1 X205.887 Y117.683 E0.90233
G1 X205.24 Y117.683 F9000
G1 F2400
G1 X223.617 Y136.06 E0.93523
G1 X223.617 Y136.706 F9000
G1 F2400
G1 X204.594 Y117.683 E0.96812
G1 X203.948 Y117.683 F9000
G1 F2400
G1 X223.617 Y137.352 E1.00102
G1 X223.617 Y137.999 F9000
G1 F2400
G1 X203.301 Y117.683 E1.03392
G1 X202.655 Y117.683 F9000
G1 F2400
G1 X223.617 Y138.645 E1.06681
G1 X223.617 Y139.292 F9000
G1 F2400
G1 X202.008 Y117.683 E1.09971
G1 X201.362 Y117.683 F9000
G1 F2400
G1 X223.617 Y139.938 E1.13261
G1 X223.617 Y140.585 F9000
G1 F2400
G1 X216.683 Y133.65 E0.35291
G1 X216.683 Y134.296 F9000
G1 F2400
G1 X223.617 Y141.231 E0.35291
G1 X223.617 Y141.877 F9000
G1 F2400
G1 X216.683 Y134.943 E0.35291
G1 X216.683 Y135.589 F9000
G1 F2400
G1 X223.617 Y142.524 E0.35291
G1 X223.617 Y143.17 F9000
G1 F2400
G1 X216.683 Y136.236 E0.35291
G1 X216.683 Y136.882 F9000
G1 F2400
G1 X223.617 Y143.817 E0.35291
G1 X223.617 Y144.463 F9000
G1 F2400
G1 X216.683 Y137.528 E0.35291
G1 X216.683 Y138.175 F9000
G1 F2400
G1 X223.617 Y145.109 E0.35291
G1 X223.617 Y145.756 F9000
G1 F2400
G1 X216.683 Y138.821 E0.35291
G1 X216.683 Y139.468 F9000
G1 F2400
G1 X223.617 Y146.402 E0.35291
G1 X223.617 Y147.049 F9000
G1 F2400
G1 X216.683 Y140.114 E0.35291
G1 X216.683 Y140.76 F9000
G1 F2400
G1 X223.617 Y147.695 E0.35291
G1 X223.617 Y148.341 F9000
G1 F2400
G1 X216.683 Y141.407 E0.35291
G1 X216.683 Y142.053 F9000
G1 F2400
G1 X223.617 Y148.988 E0.35291
G1 X223.617 Y149.634 F9000
G1 F2400
G1 X216.683 Y142.7 E0.35291
G1 X216.683 Y143.346 F9000
G1 F2400
G1 X223.617 Y150.281 E0.35291
G1 X223.617 Y150.927 F9000
G1 F2400
G1 X216.683 Y143.992 E0.35291
G1 X216.683 Y144.639 F9000
G1 F2400
G1 X223.617 Y151.573 E0.35291
G1 X223.617 Y152.22 F9000
G1 F2400
G1 X216.683 Y145.285 E0.35291
G1 X216.683 Y145.932 F9000
G1 F2400
G1 X223.617 Y152.866 E0.35291
G1 X223.617 Y153.513 F9000
G1 F2400
G1 X216.683 Y146.578 E0.35291
G1 X216.683 Y147.224 F9000
G1 F2400
G1 X223.617 Y154.159 E0.35291
G1 X223.617 Y154.805 F9000
G1 F2400
G1 X216.683 Y147.871 E0.35291
G1 X216.683 Y148.517 F9000
G1 F2400
G1 X223.617 Y155.452 E0.35291
G1 X223.617 Y156.098 F9000
G1 F2400
G1 X216.683 Y149.164 E0.35291
G1 X216.683 Y149.81 F9000
G1 F2400
G1 X223.617 Y156.745 E0.35291
G1 X223.617 Y157.391 F9000
G1 F2400
G1 X216.683 Y150.457 E0.35291
G1 X216.683 Y151.103 F9000
G1 F2400
G1 X223.617 Y158.038 E0.35291
G1 X223.617 Y158.684 F9000
G1 F2400
G1 X216.683 Y151.749 E0.35291
G1 X216.683 Y152.396 F9000
G1 F2400
G1 X223.617 Y159.33 E0.35291
G1 X223.617 Y159.977 F9000
G1 F2400
G1 X216.683 Y153.042 E0.35291
G1 X216.683 Y153.689 F9000
G1 F2400
G1 X223.617 Y160.623 E0.35291
G1 X223.617 Y161.27 F9000
G1 F2400
G1 X216.683 Y154.335 E0.35291
G1 X216.683 Y154.981 F9000
G1 F2400
G1 X223.617 Y161.916 E0.35291
G1 X223.617 Y162.562 F9000
G1 F2400
G1 X216.683 Y155.628 E0.35291
G1 X216.683 Y156.274 F9000
G1 F2400
G1 X223.617 Y163.209 E0.35291
G1 X223.617 Y163.855 F9000
G1 F2400
G1 X216.683 Y156.921 E0.35291
G1 X216.683 Y157.567 F9000
G1 F2400
G1 X223.617 Y164.502 E0.35291
G1 X223.617 Y165.148 F9000
G1 F2400
G1 X216.683 Y158.213 E0.35291
G1 X216.683 Y158.86 F9000
G1 F2400
G1 X223.617 Y165.794 E0.35291
G1 X223.617 Y166.441 F9000
G1 F2400
G1 X216.683 Y159.506 E0.35291
G1 X216.683 Y160.153 F9000
G1 F2400
G1 X223.617 Y167.087 E0.35291
G1 X223.617 Y167.734 F9000
G1 F2400
G1 X216.683 Y160.799 E0.35291
G1 X216.683 Y161.445 F9000
G1 F2400
G1 X223.617 Y168.38 E0.35291
G1 X223.617 Y169.026 F9000
G1 F2400
G1 X216.683 Y162.092 E0.35291
G1 X216.683 Y162.738 F9000
G1 F2400
G1 X223.617 Y169.673 E0.35291
G1 X223.617 Y170.319 F9000
G1 F2400
G1 X216.683 Y163.385 E0.35291
G1 X216.683 Y164.031 F9000
G1 F2400
G1 X223.617 Y170.966 E0.35291
G1 X223.617 Y171.612 F9000
G1 F2400
G1 X216.683 Y164.677 E0.35291
G1 X216.683 Y165.324 F9000
G1 F2400
G1 X223.617 Y172.258 E0.35291
G1 X223.617 Y172.905 F9000
G1 F2400
G1 X216.683 Y165.97 E0.35291
G1 X216.675 Y166.609 F9000
G1 F2400
G1 X223.617 Y173.551 E0.35328
G1 X223.617 Y174.198 F9000
G1 F2400
G1 X216.352 Y166.933 E0.36973
G1 X216.029 Y167.256 F9000
G1 F2400
G1 X223.617 Y174.844 E0.38618
G1 X223.617 Y175.491 F9000
G1 F2400
G1 X215.706 Y167.579 E0.40263
G1 X215.383 Y167.902 F9000
G1 F2400
G1 X223.617 Y176.137 E0.41908
G1 X223.617 Y176.783 F9000
G1 F2400
G1 X215.059 Y168.225 E0.43553
G1 X214.736 Y168.549 F9000
G1 F2400
G1 X223.617 Y177.43 E0.45197
G1 X223.617 Y178.076 F9000
G1 F2400
G1 X214.413 Y168.872 E0.46842
G1 X214.09 Y169.195 F9000
G1 F2400
G1 X223.617 Y178.723 E0.48487
G1 X223.617 Y179.369 F9000
G1 F2400
G1 X213.767 Y169.518 E0.50132
G1 X213.443 Y169.841 F9000
G1 F2400
G1 X223.617 Y180.015 E0.51777
G1 X223.617 Y180.662 F9000
G1 F2400
G1 X213.12 Y170.165 E0.53421
G1 X212.797 Y170.488 F9000
G1 F2400
G1 X223.617 Y181.308 E0.55066
G1 X223.617 Y181.955 F9000
G1 F2400
G1 X212.474 Y170.811 E0.56711
G1 X212.151 Y171.134 F9000
G1 F2400
G1 X223.334 Y182.317 E0.56912
G1 X222.687 Y182.317 F9000
G1 F2400
G1 X211.827 Y171.457 E0.55267
G1 X211.504 Y171.781 F9000
G1 F2400
G1 X222.041 Y182.317 E0.53623
G1 X221.394 Y182.317 F9000
G1 F2400
G1 X211.181 Y172.104 E0.51978
G1 X210.858 Y172.427 F9000
G1 F2400
G1 X220.748 Y182.317 E0.50333
G1 X220.102 Y182.317 F9000
G1 F2400
G1 X210.534 Y172.75 E0.48688
G1 X210.211 Y173.073 F9000
G1 F2400
G1 X219.455 Y182.317 E0.47043
G1 X218.809 Y182.317 F9000
G1 F2400
G1 X209.888 Y173.397 E0.45398
G1 X209.565 Y173.72 F9000
G1 F2400
G1 X218.162 Y182.317 E0.43754
G1 X217.516 Y182.317 F9000
G1 F2400
G1 X209.242 Y174.043 E0.42109
G1 X208.918 Y174.366 F9000
G1 F2400
G1 X216.87 Y182.317 E0.40464
G1 X216.223 Y182.317 F9000
G1 F2400
G1 X208.595 Y174.689 E0.38819
G1 X208.272 Y175.013 F9000
G1 F2400
G1 X215.577 Y182.317 E0.37174
G1 X214.93 Y182.317 F9000
G1 F2400
G1 X207.949 Y175.336 E0.35529
G1 X207.349 Y175.383 F9000
G1 F2400
G1 X214.284 Y182.317 E0.35291
G1 X213.637 Y182.317 F9000
G1 F2400
G1 X206.703 Y175.383 E0.35291
G1 X206.056 Y175.383 F9000
G1 F2400
G1 X212.991 Y182.317 E0.35291
G1 X212.345 Y182.317 F9000
G1 F2400
G1 X205.41 Y175.383 E0.35291
G1 X204.764 Y175.383 F9000
G1 F2400
G1 X211.698 Y182.317 E0.35291
G1 X211.052 Y182.317 F9000
G1 F2400
G1 X204.117 Y175.383 E0.35291
G1 X203.471 Y175.383 F9000
G1 F2400
G1 X210.405 Y182.317 E0.35291
G1 X209.759 Y182.317 F9000
G1 F2400
G1 X202.824 Y175.383 E0.35291
G1 X202.178 Y175.383 F9000
G1 F2400
G1 X209.113 Y182.317 E0.35291
G1 X208.466 Y182.317 F9000
G1 F2400
G1 X201.532 Y175.383 E0.35291
G1 X200.885 Y175.383 F9000
G1 F2400
G1 X207.82 Y182.317 E0.35291
G1 X207.173 Y182.317 F9000
G1 F2400
G1 X200.239 Y175.383 E0.35291
G1 X199.592 Y175.383 F9000
G1 F2400
G1 X206.527 Y182.317 E0.35291
G1 X205.881 Y182.317 F9000
G1 F2400
G1 X198.946 Y175.383 E0.35291
G1 X198.3 Y175.383 F9000
G1 F2400
G1 X205.234 Y182.317 E0.35291
G1 X204.588 Y182.317 F9000
G1 F2400
G1 X197.653 Y175.383 E0.35291
G1 X197.007 Y175.383 F9000
G1 F2400
G1 X203.941 Y182.317 E0.35291
G1 X203.295 Y182.317 F9000
G1 F2400
G1 X196.36 Y175.383 E0.35291
G1 X195.714 Y175.383 F9000
G1 F2400
G1 X202.649 Y182.317 E0.35291
G1 X202.002 Y182.317 F9000
G1 F2400
G1 X195.068 Y175.383 E0.35291
G1 X194.421 Y175.383 F9000
G1 F2400
G1 X201.356 Y182.317 E0.35291
G1 X200.709 Y182.317 F9000
G1 F2400
G1 X193.775 Y175.383 E0.35291
G1 X193.128 Y175.383 F9000
G1 F2400
G1 X200.063 Y182.317 E0.35291
G1 X199.417 Y182.317 F9000
G1 F2400
G1 X192.482 Y175.383 E0.35291
M73 P1 R340
G1 X191.836 Y175.383 F9000
G1 F2400
G1 X198.77 Y182.317 E0.35291
G1 X198.124 Y182.317 F9000
G1 F2400
G1 X191.189 Y175.383 E0.35291
G1 X190.543 Y175.383 F9000
G1 F2400
G1 X197.477 Y182.317 E0.35291
G1 X196.831 Y182.317 F9000
G1 F2400
G1 X189.896 Y175.383 E0.35291
G1 X189.25 Y175.383 F9000
G1 F2400
G1 X196.184 Y182.317 E0.35291
G1 X195.538 Y182.317 F9000
G1 F2400
G1 X188.603 Y175.383 E0.35291
G1 X187.957 Y175.383 F9000
G1 F2400
G1 X194.892 Y182.317 E0.35291
G1 X194.245 Y182.317 F9000
G1 F2400
G1 X187.311 Y175.383 E0.35291
G1 X186.664 Y175.383 F9000
G1 F2400
G1 X193.599 Y182.317 E0.35291
G1 X192.952 Y182.317 F9000
G1 F2400
G1 X186.018 Y175.383 E0.35291
G1 X185.371 Y175.383 F9000
G1 F2400
G1 X192.306 Y182.317 E0.35291
G1 X191.66 Y182.317 F9000
G1 F2400
G1 X184.725 Y175.383 E0.35291
G1 X184.079 Y175.383 F9000
G1 F2400
G1 X191.013 Y182.317 E0.35291
G1 X190.367 Y182.317 F9000
G1 F2400
G1 X183.432 Y175.383 E0.35291
G1 X182.786 Y175.383 F9000
G1 F2400
G1 X189.72 Y182.317 E0.35291
G1 X189.074 Y182.317 F9000
G1 F2400
G1 X182.139 Y175.383 E0.35291
G1 X181.493 Y175.383 F9000
G1 F2400
G1 X188.428 Y182.317 E0.35291
G1 X187.781 Y182.317 F9000
G1 F2400
G1 X180.847 Y175.383 E0.35291
G1 X180.2 Y175.383 F9000
G1 F2400
G1 X187.135 Y182.317 E0.35291
G1 X186.488 Y182.317 F9000
G1 F2400
G1 X179.554 Y175.383 E0.35291
G1 X178.907 Y175.383 F9000
G1 F2400
G1 X185.842 Y182.317 E0.35291
G1 X185.196 Y182.317 F9000
G1 F2400
G1 X178.261 Y175.383 E0.35291
G1 X177.615 Y175.383 F9000
G1 F2400
G1 X184.549 Y182.317 E0.35291
G1 X183.903 Y182.317 F9000
G1 F2400
G1 X176.968 Y175.383 E0.35291
G1 X176.322 Y175.383 F9000
G1 F2400
G1 X183.256 Y182.317 E0.35291
G1 X182.61 Y182.317 F9000
G1 F2400
G1 X175.675 Y175.383 E0.35291
G1 X175.029 Y175.383 F9000
G1 F2400
G1 X181.964 Y182.317 E0.35291
G1 X181.317 Y182.317 F9000
G1 F2400
G1 X174.383 Y175.383 E0.35291
G1 X173.736 Y175.383 F9000
G1 F2400
G1 X180.671 Y182.317 E0.35291
G1 X180.024 Y182.317 F9000
G1 F2400
G1 X173.09 Y175.383 E0.35291
G1 X172.443 Y175.383 F9000
G1 F2400
G1 X179.378 Y182.317 E0.35291
G1 X178.732 Y182.317 F9000
G1 F2400
G1 X171.797 Y175.383 E0.35291
G1 X171.15 Y175.383 F9000
G1 F2400
G1 X178.085 Y182.317 E0.35291
G1 X177.439 Y182.317 F9000
G1 F2400
G1 X170.504 Y175.383 E0.35291
G1 X169.858 Y175.383 F9000
G1 F2400
G1 X176.792 Y182.317 E0.35291
G1 X176.146 Y182.317 F9000
G1 F2400
G1 X169.211 Y175.383 E0.35291
G1 X168.565 Y175.383 F9000
G1 F2400
G1 X175.499 Y182.317 E0.35291
G1 X174.853 Y182.317 F9000
G1 F2400
G1 X167.918 Y175.383 E0.35291
G1 X167.272 Y175.383 F9000
G1 F2400
G1 X174.207 Y182.317 E0.35291
G1 X173.56 Y182.317 F9000
G1 F2400
G1 X166.626 Y175.383 E0.35291
G1 X165.979 Y175.383 F9000
G1 F2400
G1 X172.914 Y182.317 E0.35291
G1 X172.267 Y182.317 F9000
G1 F2400
