; generated by SuperSlicer 2.5.59 on 2022-12-18 at 08:16:09 UTC


;
;

;
;
; 

; external perimeters extrusion width = 0.40mm
; perimeters extrusion width = 0.46mm
; infill extrusion width = 0.64mm
; solid infill extrusion width = 0.56mm
; top infill extrusion width = 0.40mm
; support material extrusion width = 0.46mm
; first layer extrusion width = 0.50mm

; external perimeters extrusion width = 0.40mm
; perimeters extrusion width = 0.46mm
; infill extrusion width = 0.64mm
; solid infill extrusion width = 0.56mm
; top infill extrusion width = 0.40mm
; support material extrusion width = 0.46mm
; first layer extrusion width = 0.50mm

; object:{"name":"drawer_housing_2_F","id":"drawer_housing_2_F.stl id:0 copy 0","object_center":[132.450000,150.000001,0.000000],"boundingbox_center":[132.450000,150.000001,61.599998],"boundingbox_size":[45.400002,144.899994,123.199997]}
; object:{"name":"1x1","id":"1x1.stl id:1 copy 0","object_center":[178.200000,150.000000,0.000000],"boundingbox_center":[178.200000,150.000000,7.300000],"boundingbox_size":[34.099998,23.200001,14.600000]}
; plater:{"center":[152.499999,150.000001,0.000000],"boundingbox_center":[152.499999,150.000001,61.599998],"boundingbox_size":[85.500000,144.899994,123.199997]}

M73 P0 R303


; Pre-Processed for Cancel-Object support by preprocess_cancellation v0.2.0
; 2 known objects
EXCLUDE_OBJECT_DEFINE NAME=drawer_housing_2_F_stl_id_0_copy_0 CENTER=134.942,152.639 POLYGON=[[109.9,77.7],[109.9,222.3],[155.0,222.3],[155.0,77.7]]
EXCLUDE_OBJECT_DEFINE NAME=1x1_stl_id_1_copy_0 CENTER=178.052,150.209 POLYGON=[[161.352,138.6],[161.352,161.4],[195.042,161.4],[195.042,138.6]]
;TYPE:Custom
START_PRINT T_BED=60 T_EXTRUDER=200
M107
G21 ; set units to millimeters
G90 ; use absolute coordinates
M83 ; use relative distances for extrusion
; Filament gcode
PRESSURE_ADVANCE_SELECT FILAMENT=PLA
;_TOOLCHANGE 0
M104 S200 ; set temperature
M109 S200 ; set temperature and wait for it to be reached
M190 S60 ; set bed temperature and wait for it to be reached
M107
;LAYER_CHANGE
;Z:0.2
;HEIGHT:0.2
G1 Z0.2 F9000
G92 E0
G1 E-0.8 F3000
M204 S1000
G1 X106.529 Y75.984 F9000
G1 E0.8 F1800
;TYPE:Skirt
;WIDTH:0.52
G1 X106.134 Y77.65 E0.06454
G1 X106.134 Y222.35 E5.45314
G1 X106.871 Y224.571 E0.08819
G1 X108.184 Y225.671 E0.06454
G1 X109.85 Y226.066 E0.06454
G1 X155.05 Y226.066 E1.7034
G1 X157.003 Y225.511 E0.07651
G1 X158.213 Y224.299 E0.06454
G1 X197.012 Y161.346 E2.78682
G1 X197.54 Y160.177 E0.04836
G1 X197.709 Y159.525 E0.02536
G1 X197.819 Y158.508 E0.03858
G1 X197.819 Y141.494 E0.64117
G1 X197.577 Y139.959 E0.05857
G1 X197.162 Y138.934 E0.04167
G1 X158.213 Y75.701 E2.79879
G1 X156.716 Y74.329 E0.07651
G1 X155.05 Y73.934 E0.06454
G1 X109.85 Y73.934 E1.7034
G1 X107.629 Y74.671 E0.08819
G1 X106.529 Y75.984 E0.06454
G1 X107.005 Y76.105 F9000
G1 F1800
G1 X106.611 Y77.65 E0.06009
G1 X106.611 Y222.35 E5.45314
M73 P0 R302
G1 X107.131 Y224.109 E0.06912
G1 X108.302 Y225.195 E0.06019
G1 X109.85 Y225.589 E0.06019
G1 X155.05 Y225.589 E1.7034
G1 X156.66 Y225.16 E0.06277
G1 X157.807 Y224.049 E0.06019
G1 X196.606 Y161.096 E2.78682
G1 X197.089 Y160.022 E0.0444
G1 X197.243 Y159.422 E0.02332
G1 X197.342 Y158.508 E0.03467
G1 X197.342 Y141.494 E0.64117
G1 X197.125 Y140.11 E0.05279
G1 X196.747 Y139.169 E0.03822
G1 X157.807 Y75.951 E2.79812
G1 X156.598 Y74.805 E0.06277
G1 X155.05 Y74.411 E0.06019
G1 X109.85 Y74.411 E1.7034
G1 X108.091 Y74.931 E0.06912
G1 X107.005 Y76.105 E0.06027
G1 E-0.8 F3000
; printing object drawer_housing_2_F.stl id:0 copy 0
EXCLUDE_OBJECT_START NAME=drawer_housing_2_F_stl_id_0_copy_0
G1 X138.074 Y85.886 F9000
G1 E0.8 F1800
;TYPE:Internal perimeter
;WIDTH:0.5
G1 X126.826 Y85.886 E0.40609
G1 X118.086 Y94.626 E0.44631
G1 X118.086 Y205.374 E3.99864
G1 X126.826 Y214.114 E0.44631
G1 X138.074 Y214.114 E0.40609
G1 X146.814 Y205.374 E0.44631
G1 X146.814 Y94.626 E3.99864
G1 X138.074 Y85.886 E0.44631
G1 X137.695 Y86.343 F9000
G1 F1800
G1 X127.016 Y86.343 E0.38559
G1 X118.543 Y94.816 E0.43263
G1 X118.543 Y205.184 E3.98497
G1 X127.016 Y213.657 E0.43263
G1 X137.884 Y213.657 E0.39242
G1 X146.357 Y205.184 E0.43263
G1 X146.357 Y94.816 E3.98497
G1 X137.884 Y86.343 E0.43263
G1 X137.695 Y86.343 E0.00684
G1 X137.695 Y86.8 F9000
;TYPE:External perimeter
G1 F1800
G1 X127.205 Y86.8 E0.37875
G1 X119 Y95.005 E0.41896
G1 X119 Y204.995 E3.9713
G1 X127.205 Y213.2 E0.41896
G1 X137.695 Y213.2 E0.37875
G1 X145.9 Y204.995 E0.41896
G1 X145.9 Y95.005 E3.9713
G1 X137.695 Y86.8 E0.41896
;WIPE_START
M204 S3000
G1 X137.591 Y86.414 F9000
;WIPE_END
G1 E-0.8 F3000
M204 S1000
G1 X153.886 Y221.186 F9000
G1 E0.8 F1800
;TYPE:Internal perimeter
G1 X111.014 Y221.186 E1.54793
G1 X111.014 Y78.814 E5.14047
G1 X153.886 Y78.814 E1.54793
G1 X153.886 Y221.186 E5.14047
G1 X154.343 Y221.643 F9000
G1 F1800
G1 X110.557 Y221.643 E1.58093
G1 X110.557 Y78.357 E5.17348
M73 P0 R301
G1 X154.343 Y78.357 E1.58093
G1 X154.343 Y221.643 E5.17348
G1 X154.8 Y222.1 F9000
;TYPE:External perimeter
G1 F1800
G1 X110.1 Y222.1 E1.61394
G1 X110.1 Y77.9 E5.20649
G1 X154.8 Y77.9 E1.61394
G1 X154.8 Y222.1 E5.20649
;WIPE_START
M204 S3000
G1 X154.454 Y221.9 F9000
;WIPE_END
G1 E-0.8 F3000
M204 S1000
G1 X152.893 Y78.883 F9000
G1 E0.8 F1800
;TYPE:Solid infill
;WIDTH:0.493044
G1 F2400
G1 X153.817 Y79.807 E0.04652
G1 X153.817 Y80.453 F9000
G1 F2400
G1 X152.247 Y78.883 E0.07907
G1 X151.601 Y78.883 F9000
G1 F2400
G1 X153.817 Y81.099 E0.11162
G1 X153.817 Y81.746 F9000
G1 F2400
G1 X150.954 Y78.883 E0.14417
G1 X150.308 Y78.883 F9000
G1 F2400
G1 X153.817 Y82.392 E0.17671
G1 X153.817 Y83.039 F9000
G1 F2400
G1 X149.661 Y78.883 E0.20926
G1 X149.015 Y78.883 F9000
G1 F2400
G1 X153.817 Y83.685 E0.24181
G1 X153.817 Y84.332 F9000
G1 F2400
G1 X148.368 Y78.883 E0.27435
G1 X147.722 Y78.883 F9000
G1 F2400
G1 X153.817 Y84.978 E0.3069
G1 X153.817 Y85.624 F9000
G1 F2400
G1 X147.076 Y78.883 E0.33945
G1 X146.429 Y78.883 F9000
G1 F2400
G1 X153.817 Y86.271 E0.372
G1 X153.817 Y86.917 F9000
G1 F2400
G1 X145.783 Y78.883 E0.40454
G1 X145.136 Y78.883 F9000
G1 F2400
G1 X153.817 Y87.564 E0.43709
G1 X153.817 Y88.21 F9000
G1 F2400
G1 X144.49 Y78.883 E0.46964
G1 X143.844 Y78.883 F9000
G1 F2400
G1 X153.817 Y88.856 E0.50219
G1 X153.817 Y89.503 F9000
G1 F2400
G1 X143.197 Y78.883 E0.53473
G1 X142.551 Y78.883 F9000
G1 F2400
G1 X153.817 Y90.149 E0.56728
G1 X153.817 Y90.796 F9000
G1 F2400
G1 X141.904 Y78.883 E0.59983
G1 X141.258 Y78.883 F9000
G1 F2400
G1 X153.817 Y91.442 E0.63238
G1 X153.817 Y92.088 F9000
G1 F2400
G1 X140.612 Y78.883 E0.66492
G1 X139.965 Y78.883 F9000
G1 F2400
G1 X153.817 Y92.735 E0.69747
G1 X153.817 Y93.381 F9000
G1 F2400
G1 X139.319 Y78.883 E0.73002
G1 X138.672 Y78.883 F9000
G1 F2400
G1 X153.817 Y94.028 E0.76257
G1 X153.817 Y94.674 F9000
G1 F2400
G1 X138.026 Y78.883 E0.79511
G1 X137.38 Y78.883 F9000
G1 F2400
G1 X153.817 Y95.32 E0.82766
G1 X153.817 Y95.967 F9000
G1 F2400
G1 X136.733 Y78.883 E0.86021
G1 X136.087 Y78.883 F9000
G1 F2400
G1 X153.817 Y96.613 E0.89276
G1 X153.817 Y97.26 F9000
G1 F2400
G1 X135.44 Y78.883 E0.9253
G1 X134.794 Y78.883 F9000
G1 F2400
G1 X153.817 Y97.906 E0.95785
G1 X153.817 Y98.552 F9000
G1 F2400
G1 X134.148 Y78.883 E0.9904
G1 X133.501 Y78.883 F9000
G1 F2400
G1 X153.817 Y99.199 E1.02295
G1 X153.817 Y99.845 F9000
G1 F2400
G1 X132.855 Y78.883 E1.05549
G1 X132.208 Y78.883 F9000
G1 F2400
G1 X153.817 Y100.492 E1.08804
G1 X153.817 Y101.138 F9000
G1 F2400
G1 X131.562 Y78.883 E1.12059
G1 X130.915 Y78.883 F9000
G1 F2400
G1 X137.85 Y85.817 E0.34917
G1 X137.204 Y85.817 F9000
G1 F2400
G1 X130.269 Y78.883 E0.34917
G1 X129.623 Y78.883 F9000
G1 F2400
G1 X136.557 Y85.817 E0.34917
G1 X135.911 Y85.817 F9000
G1 F2400
G1 X128.976 Y78.883 E0.34917
G1 X128.33 Y78.883 F9000
G1 F2400
G1 X135.264 Y85.817 E0.34917
G1 X134.618 Y85.817 F9000
G1 F2400
G1 X127.683 Y78.883 E0.34917
G1 X127.037 Y78.883 F9000
G1 F2400
G1 X133.972 Y85.817 E0.34917
G1 X133.325 Y85.817 F9000
G1 F2400
G1 X126.391 Y78.883 E0.34917
G1 X125.744 Y78.883 F9000
G1 F2400
G1 X132.679 Y85.817 E0.34917
G1 X132.032 Y85.817 F9000
G1 F2400
G1 X125.098 Y78.883 E0.34917
G1 X124.451 Y78.883 F9000
G1 F2400
G1 X131.386 Y85.817 E0.34917
G1 X130.74 Y85.817 F9000
G1 F2400
G1 X123.805 Y78.883 E0.34917
G1 X123.159 Y78.883 F9000
G1 F2400
G1 X130.093 Y85.817 E0.34917
G1 X129.447 Y85.817 F9000
G1 F2400
G1 X122.512 Y78.883 E0.34917
G1 X121.866 Y78.883 F9000
G1 F2400
G1 X128.8 Y85.817 E0.34917
G1 X128.154 Y85.817 F9000
G1 F2400
G1 X121.219 Y78.883 E0.34917
G1 X120.573 Y78.883 F9000
G1 F2400
G1 X127.508 Y85.817 E0.34917
G1 X126.861 Y85.817 F9000
G1 F2400
G1 X119.927 Y78.883 E0.34917
G1 X119.28 Y78.883 F9000
G1 F2400
G1 X126.506 Y86.109 E0.36385
G1 X126.183 Y86.432 F9000
G1 F2400
G1 X118.634 Y78.883 E0.38012
G1 X117.987 Y78.883 F9000
G1 F2400
G1 X125.86 Y86.755 E0.3964
G1 X125.537 Y87.079 F9000
G1 F2400
G1 X117.341 Y78.883 E0.41267
G1 X116.695 Y78.883 F9000
G1 F2400
G1 X125.214 Y87.402 E0.42894
G1 X124.89 Y87.725 F9000
G1 F2400
G1 X116.048 Y78.883 E0.44522
G1 X115.402 Y78.883 F9000
G1 F2400
G1 X124.567 Y88.048 E0.46149
G1 X124.244 Y88.371 F9000
G1 F2400
G1 X114.755 Y78.883 E0.47776
G1 X114.109 Y78.883 F9000
G1 F2400
G1 X123.921 Y88.695 E0.49404
G1 X123.598 Y89.018 F9000
G1 F2400
G1 X113.462 Y78.883 E0.51031
G1 X112.816 Y78.883 F9000
G1 F2400
G1 X123.274 Y89.341 E0.52659
G1 X122.951 Y89.664 F9000
G1 F2400
G1 X112.17 Y78.883 E0.54286
G1 X111.523 Y78.883 F9000
G1 F2400
G1 X122.628 Y89.987 E0.55913
G1 X122.305 Y90.311 F9000
G1 F2400
G1 X111.083 Y79.089 E0.56504
G1 X111.083 Y79.735 F9000
G1 F2400
G1 X121.982 Y90.634 E0.54877
G1 X121.658 Y90.957 F9000
G1 F2400
G1 X111.083 Y80.381 E0.5325
G1 X111.083 Y81.028 F9000
G1 F2400
G1 X121.335 Y91.28 E0.51622
G1 X121.012 Y91.603 F9000
G1 F2400
G1 X111.083 Y81.674 E0.49995
G1 X111.083 Y82.321 F9000
G1 F2400
G1 X120.689 Y91.927 E0.48367
G1 X120.365 Y92.25 F9000
G1 F2400
G1 X111.083 Y82.967 E0.4674
G1 X111.083 Y83.613 F9000
G1 F2400
G1 X120.042 Y92.573 E0.45113
G1 X119.719 Y92.896 F9000
G1 F2400
G1 X111.083 Y84.26 E0.43485
G1 X111.083 Y84.906 F9000
G1 F2400
G1 X119.396 Y93.219 E0.41858
G1 X119.073 Y93.543 F9000
G1 F2400
G1 X111.083 Y85.553 E0.40231
G1 X111.083 Y86.199 F9000
G1 F2400
G1 X118.749 Y93.866 E0.38603
G1 X118.426 Y94.189 F9000
G1 F2400
G1 X111.083 Y86.845 E0.36976
G1 X111.083 Y87.492 F9000
G1 F2400
G1 X118.103 Y94.512 E0.35348
G1 X118.017 Y95.073 F9000
G1 F2400
G1 X111.083 Y88.138 E0.34917
G1 X111.083 Y88.785 F9000
G1 F2400
G1 X118.017 Y95.719 E0.34917
G1 X118.017 Y96.366 F9000
G1 F2400
G1 X111.083 Y89.431 E0.34917
G1 X111.083 Y90.077 F9000
G1 F2400
G1 X118.017 Y97.012 E0.34917
G1 X118.017 Y97.658 F9000
G1 F2400
G1 X111.083 Y90.724 E0.34917
G1 X111.083 Y91.37 F9000
G1 F2400
G1 X118.017 Y98.305 E0.34917
G1 X118.017 Y98.951 F9000
G1 F2400
G1 X111.083 Y92.017 E0.34917
G1 X111.083 Y92.663 F9000
G1 F2400
G1 X118.017 Y99.598 E0.34917
G1 X118.017 Y100.244 F9000
G1 F2400
G1 X111.083 Y93.31 E0.34917
G1 X111.083 Y93.956 F9000
G1 F2400
G1 X118.017 Y100.891 E0.34917
G1 X118.017 Y101.537 F9000
G1 F2400
G1 X111.083 Y94.602 E0.34917
G1 X111.083 Y95.249 F9000
G1 F2400
G1 X118.017 Y102.183 E0.34917
G1 X118.017 Y102.83 F9000
G1 F2400
G1 X111.083 Y95.895 E0.34917
G1 X111.083 Y96.542 F9000
G1 F2400
G1 X118.017 Y103.476 E0.34917
G1 X118.017 Y104.123 F9000
G1 F2400
G1 X111.083 Y97.188 E0.34917
G1 X111.083 Y97.834 F9000
G1 F2400
G1 X118.017 Y104.769 E0.34917
M73 P1 R301
G1 X118.017 Y105.415 F9000
G1 F2400
G1 X111.083 Y98.481 E0.34917
G1 X111.083 Y99.127 F9000
G1 F2400
G1 X118.017 Y106.062 E0.34917
G1 X118.017 Y106.708 F9000
G1 F2400
G1 X111.083 Y99.774 E0.34917
G1 X111.083 Y100.42 F9000
G1 F2400
G1 X118.017 Y107.355 E0.34917
G1 X118.017 Y108.001 F9000
G1 F2400
G1 X111.083 Y101.066 E0.34917
G1 X111.083 Y101.713 F9000
G1 F2400
G1 X118.017 Y108.647 E0.34917
G1 X118.017 Y109.294 F9000
G1 F2400
G1 X111.083 Y102.359 E0.34917
G1 X111.083 Y103.006 F9000
G1 F2400
G1 X118.017 Y109.94 E0.34917
G1 X118.017 Y110.587 F9000
G1 F2400
G1 X111.083 Y103.652 E0.34917
G1 X111.083 Y104.298 F9000
G1 F2400
G1 X118.017 Y111.233 E0.34917
G1 X118.017 Y111.879 F9000
G1 F2400
G1 X111.083 Y104.945 E0.34917
G1 X111.083 Y105.591 F9000
G1 F2400
G1 X118.017 Y112.526 E0.34917
G1 X118.017 Y113.172 F9000
G1 F2400
G1 X111.083 Y106.238 E0.34917
G1 X111.083 Y106.884 F9000
G1 F2400
G1 X118.017 Y113.819 E0.34917
G1 X118.017 Y114.465 F9000
G1 F2400
G1 X111.083 Y107.53 E0.34917
G1 X111.083 Y108.177 F9000
G1 F2400
G1 X118.017 Y115.111 E0.34917
G1 X118.017 Y115.758 F9000
G1 F2400
G1 X111.083 Y108.823 E0.34917
G1 X111.083 Y109.47 F9000
G1 F2400
G1 X118.017 Y116.404 E0.34917
G1 X118.017 Y117.051 F9000
G1 F2400
G1 X111.083 Y110.116 E0.34917
G1 X111.083 Y110.763 F9000
G1 F2400
G1 X118.017 Y117.697 E0.34917
G1 X118.017 Y118.344 F9000
G1 F2400
G1 X111.083 Y111.409 E0.34917
G1 X111.083 Y112.055 F9000
G1 F2400
G1 X118.017 Y118.99 E0.34917
G1 X118.017 Y119.636 F9000
G1 F2400
G1 X111.083 Y112.702 E0.34917
G1 X111.083 Y113.348 F9000
G1 F2400
G1 X118.017 Y120.283 E0.34917
G1 X118.017 Y120.929 F9000
G1 F2400
G1 X111.083 Y113.995 E0.34917
G1 X111.083 Y114.641 F9000
G1 F2400
G1 X118.017 Y121.576 E0.34917
G1 X118.017 Y122.222 F9000
G1 F2400
G1 X111.083 Y115.287 E0.34917
G1 X111.083 Y115.934 F9000
G1 F2400
G1 X118.017 Y122.868 E0.34917
G1 X118.017 Y123.515 F9000
G1 F2400
G1 X111.083 Y116.58 E0.34917
G1 X111.083 Y117.227 F9000
G1 F2400
G1 X118.017 Y124.161 E0.34917
G1 X118.017 Y124.808 F9000
G1 F2400
G1 X111.083 Y117.873 E0.34917
G1 X111.083 Y118.519 F9000
G1 F2400
G1 X118.017 Y125.454 E0.34917
G1 X118.017 Y126.1 F9000
G1 F2400
G1 X111.083 Y119.166 E0.34917
G1 X111.083 Y119.812 F9000
G1 F2400
G1 X118.017 Y126.747 E0.34917
G1 X118.017 Y127.393 F9000
G1 F2400
G1 X111.083 Y120.459 E0.34917
G1 X111.083 Y121.105 F9000
G1 F2400
G1 X118.017 Y128.04 E0.34917
G1 X118.017 Y128.686 F9000
G1 F2400
G1 X111.083 Y121.751 E0.34917
G1 X111.083 Y122.398 F9000
G1 F2400
G1 X118.017 Y129.332 E0.34917
G1 X118.017 Y129.979 F9000
G1 F2400
G1 X111.083 Y123.044 E0.34917
G1 X111.083 Y123.691 F9000
G1 F2400
G1 X118.017 Y130.625 E0.34917
G1 X118.017 Y131.272 F9000
G1 F2400
G1 X111.083 Y124.337 E0.34917
G1 X111.083 Y124.983 F9000
G1 F2400
G1 X118.017 Y131.918 E0.34917
G1 X118.017 Y132.564 F9000
G1 F2400
G1 X111.083 Y125.63 E0.34917
G1 X111.083 Y126.276 F9000
G1 F2400
G1 X118.017 Y133.211 E0.34917
G1 X118.017 Y133.857 F9000
G1 F2400
G1 X111.083 Y126.923 E0.34917
G1 X111.083 Y127.569 F9000
G1 F2400
G1 X118.017 Y134.504 E0.34917
G1 X118.017 Y135.15 F9000
G1 F2400
G1 X111.083 Y128.216 E0.34917
G1 X111.083 Y128.862 F9000
G1 F2400
G1 X118.017 Y135.797 E0.34917
G1 X118.017 Y136.443 F9000
G1 F2400
G1 X111.083 Y129.508 E0.34917
G1 X111.083 Y130.155 F9000
G1 F2400
G1 X118.017 Y137.089 E0.34917
G1 X118.017 Y137.736 F9000
G1 F2400
G1 X111.083 Y130.801 E0.34917
G1 X111.083 Y131.448 F9000
G1 F2400
G1 X118.017 Y138.382 E0.34917
G1 X118.017 Y139.029 F9000
G1 F2400
G1 X111.083 Y132.094 E0.34917
G1 X111.083 Y132.74 F9000
G1 F2400
G1 X118.017 Y139.675 E0.34917
G1 X118.017 Y140.321 F9000
G1 F2400
G1 X111.083 Y133.387 E0.34917
G1 X111.083 Y134.033 F9000
G1 F2400
G1 X118.017 Y140.968 E0.34917
G1 X118.017 Y141.614 F9000
G1 F2400
G1 X111.083 Y134.68 E0.34917
G1 X111.083 Y135.326 F9000
G1 F2400
G1 X118.017 Y142.261 E0.34917
G1 X118.017 Y142.907 F9000
G1 F2400
G1 X111.083 Y135.972 E0.34917
G1 X111.083 Y136.619 F9000
G1 F2400
G1 X118.017 Y143.553 E0.34917
G1 X118.017 Y144.2 F9000
G1 F2400
G1 X111.083 Y137.265 E0.34917
G1 X111.083 Y137.912 F9000
G1 F2400
G1 X118.017 Y144.846 E0.34917
G1 X118.017 Y145.493 F9000
G1 F2400
G1 X111.083 Y138.558 E0.34917
G1 X111.083 Y139.204 F9000
G1 F2400
G1 X118.017 Y146.139 E0.34917
G1 X118.017 Y146.785 F9000
G1 F2400
G1 X111.083 Y139.851 E0.34917
G1 X111.083 Y140.497 F9000
G1 F2400
G1 X118.017 Y147.432 E0.34917
G1 X118.017 Y148.078 F9000
G1 F2400
G1 X111.083 Y141.144 E0.34917
G1 X111.083 Y141.79 F9000
G1 F2400
G1 X118.017 Y148.725 E0.34917
G1 X118.017 Y149.371 F9000
G1 F2400
G1 X111.083 Y142.436 E0.34917
G1 X111.083 Y143.083 F9000
G1 F2400
G1 X118.017 Y150.017 E0.34917
G1 X118.017 Y150.664 F9000
G1 F2400
G1 X111.083 Y143.729 E0.34917
G1 X111.083 Y144.376 F9000
G1 F2400
G1 X118.017 Y151.31 E0.34917
