; generated by SuperSlicer 2.5.59 on 2022-12-17 at 18:25:48 UTC


;
;

;
;
; 

; external perimeters extrusion width = 0.40mm
; perimeters extrusion width = 0.46mm
; infill extrusion width = 0.64mm
; solid infill extrusion width = 0.56mm
; top infill extrusion width = 0.40mm
; support material extrusion width = 0.46mm
; first layer extrusion width = 0.50mm

; object:{"name":"drawer(1)","id":"drawer(1).stl id:0 copy 0","object_center":[152.500001,150.000000,0.000000],"boundingbox_center":[152.500001,150.000000,9.400001],"boundingbox_size":[140.199997,130.000000,18.800001]}
; plater:{"center":[152.500001,150.000000,0.000000],"boundingbox_center":[152.500001,150.000000,9.400001],"boundingbox_size":[140.199997,130.000000,18.800001]}

M73 P0 R141


; Pre-Processed for Cancel-Object support by preprocess_cancellation v0.2.0
; 1 known objects
EXCLUDE_OBJECT_DEFINE NAME=drawer_1_stl_id_0_copy_0 CENTER=153.485,115.183 POLYGON=[[82.6,79.368],[82.6,214.8],[222.4,214.8],[222.4,79.368]]
;TYPE:Custom
START_PRINT T_BED=60 T_EXTRUDER=200
M107
G21 ; set units to millimeters
G90 ; use absolute coordinates
M83 ; use relative distances for extrusion
; Filament gcode
PRESSURE_ADVANCE_SELECT FILAMENT=PLA
;_TOOLCHANGE 0
M104 S200 ; set temperature
M109 S200 ; set temperature and wait for it to be reached
M190 S60 ; set bed temperature and wait for it to be reached
M107
;LAYER_CHANGE
;Z:0.2
;HEIGHT:0.2
G1 Z0.2 F9000
G92 E0
G1 E-0.8 F3000
M204 S1000
G1 X81.389 Y92.85 F9000
G1 E0.8 F1800
;TYPE:Skirt
;WIDTH:0.52
G1 X80.473 Y93.715 E0.04749
G1 X79.805 Y94.618 E0.04234
G1 X79.303 Y95.598 E0.04151
G1 X79.066 Y96.271 E0.02687
G1 X78.849 Y97.285 E0.03908
G1 X78.784 Y98.198 E0.0345
G1 X78.784 Y214.9 E4.39802
G1 X79.521 Y217.121 E0.08819
G1 X80.834 Y218.221 E0.06454
G1 X82.5 Y218.616 E0.06454
G1 X222.5 Y218.616 E5.27602
G1 X224.721 Y217.879 E0.08819
G1 X225.821 Y216.566 E0.06454
G1 X226.216 Y214.9 E0.06454
G1 X226.214 Y98.097 E4.40182
G1 X226.081 Y96.867 E0.04662
G1 X225.704 Y95.617 E0.04922
G1 X224.893 Y94.168 E0.06258
G1 X223.998 Y93.173 E0.05043
G1 X222.955 Y92.388 E0.0492
G1 X221.557 Y91.736 E0.05814
G1 X169.896 Y75.818 E2.03723
G1 X168.802 Y75.653 E0.04169
G1 X136.198 Y75.653 E1.22868
G1 X135.104 Y75.818 E0.04171
G1 X83.399 Y91.754 E2.039
G1 X82.384 Y92.199 E0.04178
G1 X81.389 Y92.85 E0.04479
G1 X81.669 Y93.236 F9000
G1 F1800
G1 X80.84 Y94.019 E0.04295
G1 X80.204 Y94.878 E0.0403
G1 X79.748 Y95.77 E0.03775
G1 X79.526 Y96.395 E0.02499
G1 X79.32 Y97.36 E0.0372
G1 X79.262 Y98.198 E0.03165
G1 X79.261 Y214.9 E4.39802
G1 X79.781 Y216.659 E0.06912
G1 X80.952 Y217.745 E0.06019
G1 X82.5 Y218.139 E0.06019
G1 X222.5 Y218.139 E5.27602
M73 P0 R141
G1 X224.259 Y217.619 E0.06912
G1 X225.345 Y216.448 E0.06019
G1 X225.739 Y214.9 E0.06019
G1 X225.737 Y98.097 E4.40182
G1 X225.612 Y96.949 E0.04351
G1 X225.259 Y95.787 E0.04577
G1 X224.514 Y94.458 E0.05742
G1 X223.685 Y93.532 E0.04682
G1 X222.716 Y92.801 E0.04575
G1 X221.397 Y92.186 E0.05485
G1 X169.755 Y76.273 E2.03645
G1 X168.802 Y76.13 E0.03634
G1 X136.198 Y76.13 E1.22868
G1 X135.244 Y76.274 E0.03635
G1 X83.54 Y92.21 E2.039
G1 X82.592 Y92.628 E0.03903
G1 X81.669 Y93.236 E0.04166
G1 E-0.8 F3000
; printing object drawer(1).stl id:0 copy 0
EXCLUDE_OBJECT_START NAME=drawer_1_stl_id_0_copy_0
G1 X132.803 Y93.236 F9000
G1 E0.8 F1800
;TYPE:Support material
;WIDTH:0.5
G1 X132.803 Y82.764 E0.3781
G1 X136.198 Y82.764 E0.1226
G1 X136.198 Y79.368 E0.1226
G1 X168.802 Y79.368 E1.17717
G1 X168.802 Y82.764 E0.1226
G1 X172.197 Y82.764 E0.1226
G1 X172.197 Y94.021 E0.40646
G1 X171.475 Y94.021 E0.02609
G1 X168.479 Y94.021 E0.10816
G1 X167.98 Y94.021 E0.01803
G1 X165.483 Y94.021 E0.09013
G1 X164.984 Y94.021 E0.01803
G1 X162.488 Y94.021 E0.09013
G1 X161.989 Y94.021 E0.01803
G1 X158.993 Y94.021 E0.10816
G1 X158.494 Y94.021 E0.01803
G1 X155.997 Y94.021 E0.09013
G1 X155.498 Y94.021 E0.01803
G1 X153.002 Y94.021 E0.09013
G1 X152.502 Y94.021 E0.01803
G1 X149.507 Y94.021 E0.10816
G1 X149.007 Y94.021 E0.01803
G1 X146.511 Y94.021 E0.09013
G1 X146.012 Y94.021 E0.01803
G1 X143.016 Y94.021 E0.10816
G1 X142.517 Y94.021 E0.01803
G1 X140.021 Y94.021 E0.09013
G1 X139.521 Y94.021 E0.01803
G1 X137.025 Y94.021 E0.09013
G1 X136.526 Y94.021 E0.01803
G1 X133.53 Y94.021 E0.10816
G1 X132.803 Y94.021 E0.02626
G1 X132.803 Y93.236 E0.02836
G1 X171.799 Y93.907 F9000
G1 F1800
G1 X171.799 Y83.075 E0.39111
G1 X171.291 Y83.075 E0.01834
G1 X171.291 Y93.711 E0.38402
G1 X170.783 Y93.711 E0.01834
G1 X170.783 Y83.075 E0.38402
G1 X170.275 Y83.075 E0.01834
G1 X170.275 Y93.711 E0.38402
G1 X169.767 Y93.711 E0.01834
G1 X169.767 Y83.075 E0.38402
G1 X169.26 Y83.075 E0.01834
G1 X169.26 Y93.711 E0.38402
G1 X168.752 Y93.711 E0.01834
G1 X168.752 Y83.075 E0.38402
G1 X168.491 Y83.075 E0.00942
G1 X168.491 Y79.679 E0.1226
G1 X168.244 Y79.679 E0.00892
G1 X168.244 Y93.711 E0.50662
G1 X167.98 Y93.711 E0.00953
G1 X167.736 Y93.711 E0.0088
G1 X167.736 Y79.679 E0.50662
G1 X167.228 Y79.679 E0.01834
G1 X167.228 Y93.711 E0.50662
G1 X166.72 Y93.711 E0.01834
G1 X166.72 Y79.679 E0.50662
G1 X166.212 Y79.679 E0.01834
G1 X166.212 Y93.711 E0.50662
G1 X165.705 Y93.711 E0.01834
G1 X165.705 Y79.679 E0.50662
G1 X165.197 Y79.679 E0.01834
G1 X165.197 Y93.711 E0.50662
G1 X164.689 Y93.711 E0.01834
G1 X164.689 Y79.679 E0.50662
G1 X164.181 Y79.679 E0.01834
G1 X164.181 Y93.711 E0.50662
G1 X163.673 Y93.711 E0.01834
G1 X163.673 Y79.679 E0.50662
G1 X163.165 Y79.679 E0.01834
G1 X163.165 Y93.711 E0.50662
G1 X162.657 Y93.711 E0.01834
G1 X162.657 Y79.679 E0.50662
G1 X162.149 Y79.679 E0.01834
G1 X162.149 Y93.711 E0.50662
G1 X161.642 Y93.711 E0.01834
G1 X161.642 Y79.679 E0.50662
G1 X161.134 Y79.679 E0.01834
G1 X161.134 Y93.711 E0.50662
G1 X160.626 Y93.711 E0.01834
G1 X160.626 Y79.679 E0.50662
G1 X160.118 Y79.679 E0.01834
G1 X160.118 Y93.711 E0.50662
G1 X159.61 Y93.711 E0.01834
G1 X159.61 Y79.679 E0.50662
G1 X159.102 Y79.679 E0.01834
G1 X159.102 Y93.711 E0.50662
G1 X158.993 Y93.711 E0.00395
G1 X158.594 Y93.711 E0.01439
G1 X158.594 Y79.679 E0.50662
G1 X158.087 Y79.679 E0.01834
G1 X158.087 Y93.711 E0.50662
G1 X157.579 Y93.711 E0.01834
G1 X157.579 Y79.679 E0.50662
G1 X157.071 Y79.679 E0.01834
G1 X157.071 Y93.711 E0.50662
G1 X156.563 Y93.711 E0.01834
G1 X156.563 Y79.679 E0.50662
G1 X156.055 Y79.679 E0.01834
G1 X156.055 Y93.711 E0.50662
G1 X155.997 Y93.711 E0.00209
G1 X155.547 Y93.711 E0.01625
G1 X155.547 Y79.679 E0.50662
G1 X155.039 Y79.679 E0.01834
G1 X155.039 Y93.711 E0.50662
G1 X154.531 Y93.711 E0.01834
G1 X154.531 Y79.679 E0.50662
G1 X154.024 Y79.679 E0.01834
G1 X154.024 Y93.711 E0.50662
G1 X153.516 Y93.711 E0.01834
G1 X153.516 Y79.679 E0.50662
G1 X153.008 Y79.679 E0.01834
G1 X153.008 Y93.711 E0.50662
G1 X152.5 Y93.711 E0.01834
G1 X152.5 Y79.679 E0.50662
G1 X151.992 Y79.679 E0.01834
G1 X151.992 Y93.711 E0.50662
G1 X151.484 Y93.711 E0.01834
G1 X151.484 Y79.679 E0.50662
G1 X150.976 Y79.679 E0.01834
G1 X150.976 Y93.711 E0.50662
G1 X150.469 Y93.711 E0.01834
G1 X150.469 Y79.679 E0.50662
G1 X149.961 Y79.679 E0.01834
G1 X149.961 Y93.711 E0.50662
G1 X149.453 Y93.711 E0.01834
G1 X149.453 Y79.679 E0.50662
G1 X148.945 Y79.679 E0.01834
G1 X148.945 Y93.711 E0.50662
M73 P1 R140
G1 X148.437 Y93.711 E0.01834
G1 X148.437 Y79.679 E0.50662
G1 X147.929 Y79.679 E0.01834
G1 X147.929 Y93.711 E0.50662
G1 X147.421 Y93.711 E0.01834
G1 X147.421 Y79.679 E0.50662
G1 X146.913 Y79.679 E0.01834
G1 X146.913 Y93.711 E0.50662
G1 X146.511 Y93.711 E0.01453
G1 X146.406 Y93.711 E0.00381
G1 X146.406 Y79.679 E0.50662
G1 X145.898 Y79.679 E0.01834
G1 X145.898 Y93.711 E0.50662
G1 X145.39 Y93.711 E0.01834
G1 X145.39 Y79.679 E0.50662
G1 X144.882 Y79.679 E0.01834
G1 X144.882 Y93.711 E0.50662
G1 X144.374 Y93.711 E0.01834
G1 X144.374 Y79.679 E0.50662
G1 X143.866 Y79.679 E0.01834
G1 X143.866 Y93.711 E0.50662
G1 X143.358 Y93.711 E0.01834
G1 X143.358 Y79.679 E0.50662
G1 X142.851 Y79.679 E0.01834
G1 X142.851 Y93.711 E0.50662
G1 X142.517 Y93.711 E0.01204
G1 X142.343 Y93.711 E0.00629
G1 X142.343 Y79.679 E0.50662
G1 X141.835 Y79.679 E0.01834
G1 X141.835 Y93.711 E0.50662
G1 X141.327 Y93.711 E0.01834
G1 X141.327 Y79.679 E0.50662
G1 X140.819 Y79.679 E0.01834
G1 X140.819 Y93.711 E0.50662
G1 X140.311 Y93.711 E0.01834
G1 X140.311 Y79.679 E0.50662
G1 X139.803 Y79.679 E0.01834
G1 X139.803 Y93.711 E0.50662
G1 X139.521 Y93.711 E0.01018
G1 X139.295 Y93.711 E0.00815
G1 X139.295 Y79.679 E0.50662
G1 X138.788 Y79.679 E0.01834
G1 X138.788 Y93.711 E0.50662
G1 X138.28 Y93.711 E0.01834
G1 X138.28 Y79.679 E0.50662
G1 X137.772 Y79.679 E0.01834
G1 X137.772 Y93.711 E0.50662
G1 X137.264 Y93.711 E0.01834
G1 X137.264 Y79.679 E0.50662
G1 X136.756 Y79.679 E0.01834
G1 X136.756 Y93.711 E0.50662
G1 X136.248 Y93.711 E0.01834
G1 X136.248 Y83.075 E0.38402
G1 X135.74 Y83.075 E0.01834
G1 X135.74 Y93.711 E0.38402
G1 X135.233 Y93.711 E0.01834
G1 X135.233 Y83.075 E0.38402
G1 X134.725 Y83.075 E0.01834
G1 X134.725 Y93.711 E0.38402
G1 X134.217 Y93.711 E0.01834
G1 X134.217 Y83.075 E0.38402
G1 X133.709 Y83.075 E0.01834
G1 X133.709 Y93.711 E0.38402
G1 X133.53 Y93.711 E0.00646
G1 X133.201 Y93.711 E0.01188
G1 X133.201 Y82.878 E0.39111
G1 E-0.8 F3000
G1 X221.336 Y213.736 F9000
G1 E0.8 F1800
;TYPE:Internal perimeter
G1 X83.664 Y213.736 E4.97077
M73 P1 R140
G1 X83.664 Y98.229 E4.17048
G1 X83.677 Y97.995 E0.00847
G1 X83.709 Y97.795 E0.00731
G1 X83.761 Y97.6 E0.00731
G1 X83.834 Y97.411 E0.00731
G1 X83.926 Y97.23 E0.00731
G1 X84.034 Y97.065 E0.00711
G1 X84.191 Y96.875 E0.00892
G1 X84.317 Y96.754 E0.00631
G1 X84.608 Y96.543 E0.01296
G1 X84.911 Y96.396 E0.01215
G1 X85.261 Y96.296 E0.01316
G1 X85.378 Y96.279 E0.00425
G1 X86.111 Y96.264 E0.02649
G1 X215.772 Y96.264 E4.68155
G1 X219.361 Y96.264 E0.12959
G1 X219.769 Y96.303 E0.01478
G1 X220.139 Y96.412 E0.01391
G1 X220.267 Y96.471 E0.0051
G1 X220.598 Y96.682 E0.01417
G1 X220.738 Y96.804 E0.00671
G1 X220.983 Y97.091 E0.01363
G1 X221.17 Y97.422 E0.01373
G1 X221.238 Y97.599 E0.00682
G1 X221.322 Y97.982 E0.01418
G1 X221.334 Y98.142 E0.00578
G1 X221.336 Y213.736 E4.17364
G1 X221.793 Y214.193 F9000
G1 F1800
G1 X83.207 Y214.193 E5.00378
G1 X83.207 Y98.217 E4.18743
G1 X83.222 Y97.946 E0.00978
G1 X83.261 Y97.699 E0.00904
G1 X83.326 Y97.458 E0.00904
G1 X83.416 Y97.224 E0.00904
G1 X83.53 Y97.001 E0.00904
G1 X83.665 Y96.794 E0.00891
G1 X83.856 Y96.564 E0.0108
G1 X84.023 Y96.402 E0.0084
G1 X84.372 Y96.15 E0.01555
G1 X84.747 Y95.968 E0.01504
G1 X85.165 Y95.849 E0.01568
G1 X85.339 Y95.823 E0.00638
G1 X86.106 Y95.807 E0.0277
G1 X215.772 Y95.807 E4.68171
G1 X219.383 Y95.807 E0.13037
G1 X219.657 Y95.822 E0.00991
G1 X219.856 Y95.852 E0.00728
G1 X220.106 Y95.915 E0.00929
G1 X220.299 Y95.983 E0.00741
G1 X220.486 Y96.069 E0.00741
G1 X220.709 Y96.198 E0.00929
G1 X220.873 Y96.315 E0.00728
G1 X221.064 Y96.482 E0.00916
G1 X221.237 Y96.668 E0.00917
G1 X221.359 Y96.828 E0.00728
G1 X221.495 Y97.047 E0.00929
G1 X221.585 Y97.227 E0.00728
G1 X221.677 Y97.468 E0.0093
G1 X221.731 Y97.662 E0.00728
G1 X221.775 Y97.916 E0.0093
G1 X221.791 Y98.124 E0.00755
G1 X221.793 Y214.193 E4.19078
G1 X222.25 Y214.65 F9000
;TYPE:External perimeter
G1 F1800
G1 X82.75 Y214.65 E5.03679
G1 X82.75 Y98.205 E4.20438
G1 X82.767 Y97.898 E0.01109
G1 X82.814 Y97.603 E0.01077
G1 X82.891 Y97.315 E0.01077
G1 X82.999 Y97.037 E0.01077
G1 X83.134 Y96.772 E0.01077
G1 X83.296 Y96.523 E0.01071
G1 X83.52 Y96.253 E0.01267
G1 X83.729 Y96.051 E0.01049
G1 X84.136 Y95.756 E0.01815
G1 X84.583 Y95.539 E0.01793
G1 X85.068 Y95.401 E0.01821
G1 X85.301 Y95.366 E0.00851
G1 X86.102 Y95.35 E0.02892
G1 X215.772 Y95.35 E4.68188
G1 X219.395 Y95.35 E0.13082
G1 X219.704 Y95.367 E0.01114
G1 X219.946 Y95.403 E0.00887
G1 X220.239 Y95.477 E0.01088
G1 X220.471 Y95.559 E0.00892
G1 X220.696 Y95.662 E0.00892
G1 X220.957 Y95.813 E0.01088
G1 X221.156 Y95.956 E0.00886
G1 X221.382 Y96.153 E0.01082
G1 X221.587 Y96.373 E0.01083
G1 X221.736 Y96.568 E0.00887
G1 X221.895 Y96.824 E0.01088
G1 X222.004 Y97.043 E0.00887
G1 X222.112 Y97.325 E0.01088
G1 X222.177 Y97.562 E0.00886
G1 X222.229 Y97.858 E0.01088
G1 X222.248 Y98.107 E0.00898
G1 X222.25 Y214.65 E4.20792
;WIPE_START
M204 S3000
G1 X221.904 Y214.45 F9000
;WIPE_END
G1 E-0.8 F3000
M204 S1000
G1 X221.177 Y97.649 F9000
G1 E0.8 F1800
;TYPE:Solid infill
;WIDTH:0.499168
G1 F2400
G1 X219.98 Y96.452 E0.06104
G1 X219.214 Y96.333 F9000
G1 F2400
G1 X221.265 Y98.384 E0.10457
G1 X221.265 Y99.03 F9000
G1 F2400
G1 X218.568 Y96.333 E0.13752
G1 X217.921 Y96.333 F9000
G1 F2400
G1 X221.266 Y99.677 E0.17047
G1 X221.266 Y100.323 F9000
G1 F2400
G1 X217.275 Y96.333 E0.20343
G1 X216.629 Y96.333 F9000
G1 F2400
G1 X221.266 Y100.97 E0.23638
G1 X221.266 Y101.616 F9000
G1 F2400
G1 X215.982 Y96.333 E0.26933
G1 X215.336 Y96.333 F9000
G1 F2400
G1 X221.266 Y102.263 E0.30228
G1 X221.266 Y102.909 F9000
G1 F2400
G1 X214.689 Y96.333 E0.33524
G1 X214.043 Y96.333 F9000
G1 F2400
G1 X221.266 Y103.555 E0.36819
G1 X221.266 Y104.202 F9000
G1 F2400
G1 X213.396 Y96.333 E0.40114
G1 X212.75 Y96.333 F9000
G1 F2400
G1 X221.266 Y104.848 E0.43409
G1 X221.266 Y105.495 F9000
G1 F2400
G1 X212.104 Y96.333 E0.46704
G1 X211.457 Y96.333 F9000
G1 F2400
G1 X221.266 Y106.141 E0.5
G1 X221.266 Y106.787 F9000
G1 F2400
G1 X210.811 Y96.333 E0.53295
G1 X210.164 Y96.333 F9000
G1 F2400
G1 X221.266 Y107.434 E0.5659
G1 X221.266 Y108.08 F9000
G1 F2400
G1 X209.518 Y96.333 E0.59885
G1 X208.872 Y96.333 F9000
G1 F2400
G1 X221.266 Y108.727 E0.6318
G1 X221.266 Y109.373 F9000
G1 F2400
G1 X208.225 Y96.333 E0.66476
G1 X207.579 Y96.333 F9000
G1 F2400
G1 X221.266 Y110.02 E0.69771
G1 X221.266 Y110.666 F9000
G1 F2400
G1 X206.932 Y96.333 E0.73066
G1 X206.286 Y96.333 F9000
G1 F2400
G1 X221.266 Y111.312 E0.76361
G1 X221.266 Y111.959 F9000
G1 F2400
G1 X205.64 Y96.333 E0.79657
G1 X204.993 Y96.333 F9000
G1 F2400
G1 X221.266 Y112.605 E0.82952
G1 X221.266 Y113.252 F9000
G1 F2400
G1 X204.347 Y96.333 E0.86247
G1 X203.7 Y96.333 F9000
G1 F2400
G1 X221.266 Y113.898 E0.89542
G1 X221.266 Y114.545 F9000
G1 F2400
G1 X203.054 Y96.333 E0.92837
G1 X202.408 Y96.333 F9000
G1 F2400
G1 X221.266 Y115.191 E0.96133
M73 P2 R139
G1 X221.266 Y115.837 F9000
G1 F2400
G1 X201.761 Y96.333 E0.99428
G1 X201.115 Y96.333 F9000
G1 F2400
G1 X221.266 Y116.484 E1.02723
G1 X221.266 Y117.13 F9000
G1 F2400
G1 X200.468 Y96.333 E1.06018
G1 X199.822 Y96.333 F9000
G1 F2400
G1 X221.266 Y117.777 E1.09314
G1 X221.266 Y118.423 F9000
G1 F2400
G1 X199.176 Y96.333 E1.12609
G1 X198.529 Y96.333 F9000
M73 P2 R139
G1 F2400
G1 X221.266 Y119.069 E1.15904
G1 X221.266 Y119.716 F9000
G1 F2400
G1 X197.883 Y96.333 E1.19199
G1 X197.236 Y96.333 F9000
G1 F2400
G1 X221.266 Y120.362 E1.22494
G1 X221.266 Y121.009 F9000
G1 F2400
G1 X196.59 Y96.333 E1.2579
G1 X195.943 Y96.333 F9000
G1 F2400
G1 X221.266 Y121.655 E1.29085
G1 X221.266 Y122.302 F9000
G1 F2400
G1 X195.297 Y96.333 E1.3238
G1 X194.651 Y96.333 F9000
G1 F2400
G1 X221.266 Y122.948 E1.35675
G1 X221.266 Y123.594 F9000
G1 F2400
G1 X194.004 Y96.333 E1.38971
G1 X193.358 Y96.333 F9000
G1 F2400
G1 X221.266 Y124.241 E1.42266
G1 X221.266 Y124.887 F9000
G1 F2400
G1 X192.711 Y96.333 E1.45561
G1 X192.065 Y96.333 F9000
G1 F2400
G1 X221.266 Y125.534 E1.48856
G1 X221.266 Y126.18 F9000
G1 F2400
G1 X191.419 Y96.333 E1.52151
G1 X190.772 Y96.333 F9000
G1 F2400
G1 X221.266 Y126.826 E1.55447
G1 X221.266 Y127.473 F9000
G1 F2400
G1 X190.126 Y96.333 E1.58742
G1 X189.479 Y96.333 F9000
G1 F2400
G1 X221.266 Y128.119 E1.62037
G1 X221.266 Y128.766 F9000
G1 F2400
G1 X188.833 Y96.333 E1.65332
G1 X188.187 Y96.333 F9000
G1 F2400
G1 X221.266 Y129.412 E1.68627
G1 X221.266 Y130.059 F9000
G1 F2400
G1 X187.54 Y96.333 E1.71923
G1 X186.894 Y96.333 F9000
G1 F2400
G1 X221.266 Y130.705 E1.75218
G1 X221.266 Y131.351 F9000
G1 F2400
G1 X186.247 Y96.333 E1.78513
G1 X185.601 Y96.333 F9000
G1 F2400
G1 X221.266 Y131.998 E1.81808
G1 X221.266 Y132.644 F9000
G1 F2400
G1 X184.955 Y96.333 E1.85104
G1 X184.308 Y96.333 F9000
G1 F2400
G1 X221.266 Y133.291 E1.88399
G1 X221.266 Y133.937 F9000
G1 F2400
G1 X183.662 Y96.333 E1.91694
G1 X183.015 Y96.333 F9000
G1 F2400
G1 X221.266 Y134.583 E1.94989
G1 X221.266 Y135.23 F9000
G1 F2400
G1 X182.369 Y96.333 E1.98284
G1 X181.723 Y96.333 F9000
G1 F2400
G1 X221.266 Y135.876 E2.0158
G1 X221.266 Y136.523 F9000
G1 F2400
