; generated by SuperSlicer 2.5.59 on 2022-12-20 at 23:50:39 UTC


;
;

;
;
; 

; external perimeters extrusion width = 0.40mm
; perimeters extrusion width = 0.46mm
; infill extrusion width = 0.64mm
; solid infill extrusion width = 0.56mm
; top infill extrusion width = 0.40mm
; support material extrusion width = 0.46mm
; first layer extrusion width = 0.50mm

; external perimeters extrusion width = 0.40mm
; perimeters extrusion width = 0.46mm
; infill extrusion width = 0.64mm
; solid infill extrusion width = 0.56mm
; top infill extrusion width = 0.40mm
; support material extrusion width = 0.46mm
; first layer extrusion width = 0.50mm

; external perimeters extrusion width = 0.40mm
; perimeters extrusion width = 0.46mm
; infill extrusion width = 0.64mm
; solid infill extrusion width = 0.56mm
; top infill extrusion width = 0.40mm
; support material extrusion width = 0.46mm
; first layer extrusion width = 0.50mm

; external perimeters extrusion width = 0.40mm
; perimeters extrusion width = 0.46mm
; infill extrusion width = 0.64mm
; solid infill extrusion width = 0.56mm
; top infill extrusion width = 0.40mm
; support material extrusion width = 0.46mm
; first layer extrusion width = 0.50mm

; object:{"name":"drawer","id":"drawer.stl id:0 copy 0","object_center":[149.935872,176.200001,0.000000],"boundingbox_center":[149.935872,176.200001,9.400001],"boundingbox_size":[140.199997,130.000000,18.800001]}
; object:{"name":"1x2(2)","id":"1x2(2).stl id:1 copy 0","object_center":[168.014129,82.000001,0.000000],"boundingbox_center":[168.014129,82.000001,7.300000],"boundingbox_size":[34.099998,46.400002,14.600000]}
; object:{"name":"1x1","id":"1x1.stl id:2 copy 0","object_center":[208.114129,99.430990,0.000000],"boundingbox_center":[208.114129,99.430990,7.300000],"boundingbox_size":[34.099998,23.200001,14.600000]}
; object:{"name":"1x2(2)","id":"1x2(2).stl id:3 copy 0","object_center":[127.914129,82.000001,0.000000],"boundingbox_center":[127.914129,82.000001,7.300000],"boundingbox_size":[34.099998,46.400002,14.600000]}
; plater:{"center":[152.500001,150.000001,0.000000],"boundingbox_center":[152.500001,150.000001,9.400001],"boundingbox_size":[145.328255,182.400001,18.800001]}

M73 P0 R198


; Pre-Processed for Cancel-Object support by preprocess_cancellation v0.2.0
; 4 known objects
EXCLUDE_OBJECT_DEFINE NAME=drawer_stl_id_0_copy_0 CENTER=150.923,141.394 POLYGON=[[80.036,105.568],[80.036,241.0],[219.836,241.0],[219.836,105.568]]
EXCLUDE_OBJECT_DEFINE NAME=1x2_2_stl_id_1_copy_0 CENTER=168.121,82.567 POLYGON=[[151.165,59.0],[151.165,105.0],[184.864,105.0],[184.864,59.0]]
EXCLUDE_OBJECT_DEFINE NAME=1x2_2_stl_id_3_copy_0 CENTER=128.148,82.540 POLYGON=[[111.065,59.0],[111.065,105.0],[144.764,105.0],[144.764,59.0]]
EXCLUDE_OBJECT_DEFINE NAME=1x1_stl_id_2_copy_0 CENTER=208.120,99.715 POLYGON=[[191.266,88.031],[191.266,110.831],[224.956,110.831],[224.956,88.031]]
;TYPE:Custom
START_PRINT T_BED=60 T_EXTRUDER=200
M107
G21 ; set units to millimeters
G90 ; use absolute coordinates
M83 ; use relative distances for extrusion
; Filament gcode
PRESSURE_ADVANCE_SELECT FILAMENT=PLA
;_TOOLCHANGE 0
M104 S200 ; set temperature
M109 S200 ; set temperature and wait for it to be reached
M190 S60 ; set bed temperature and wait for it to be reached
M107
;LAYER_CHANGE
;Z:0.2
;HEIGHT:0.2
G1 Z0.2 F9000
G92 E0
G1 E-0.8 F3000
M204 S1000
G1 X108.951 Y59.33 F9000
G1 E0.8 F1800
;TYPE:Skirt
;WIDTH:0.52
G1 X76.898 Y121.443 E2.63409
G1 X76.622 Y122.101 E0.02688
G1 X76.336 Y123.164 E0.0415
G1 X76.22 Y124.398 E0.04669
G1 X76.22 Y241.1 E4.39802
M73 P0 R198
G1 X76.957 Y243.321 E0.08819
G1 X78.27 Y244.421 E0.06454
G1 X79.936 Y244.816 E0.06454
G1 X219.936 Y244.816 E5.27602
G1 X222.065 Y244.145 E0.0841
G1 X223.204 Y242.867 E0.06454
G1 X223.65 Y241.214 E0.06454
G1 X227.732 Y108.052 E5.02066
G1 X227.733 Y90.925 E0.64546
G1 X227.647 Y90.052 E0.03307
G1 X227.366 Y89.016 E0.04046
G1 X226.882 Y88.022 E0.04165
G1 X226.218 Y87.139 E0.04165
G1 X225.263 Y86.297 E0.04797
G1 X185.163 Y57.266 E1.86566
G1 X184.35 Y56.798 E0.03535
G1 X183.69 Y56.531 E0.02684
G1 X182.285 Y56.248 E0.054
G1 X113.994 Y56.229 E2.57362
G1 X112.938 Y56.341 E0.03999
G1 X112.257 Y56.521 E0.02655
G1 X110.985 Y57.121 E0.053
G1 X110.438 Y57.512 E0.02535
G1 X109.794 Y58.121 E0.03341
G1 X108.951 Y59.33 E0.05555
G1 X109.382 Y59.552 F9000
G1 F1800
G1 X77.47 Y121.371 E2.6218
G1 X77.067 Y122.273 E0.03721
G1 X76.807 Y123.24 E0.03774
G1 X76.697 Y124.398 E0.04384
G1 X76.697 Y241.1 E4.39802
G1 X77.217 Y242.859 E0.06912
G1 X78.388 Y243.945 E0.06019
G1 X79.936 Y244.339 E0.06019
G1 X219.936 Y244.339 E5.27602
G1 X221.611 Y243.872 E0.06552
G1 X222.732 Y242.734 E0.06019
G1 X223.173 Y241.199 E0.06019
G1 X227.255 Y108.038 E5.02066
G1 X227.256 Y90.925 E0.6449
G1 X227.175 Y90.118 E0.03057
G1 X226.914 Y89.167 E0.03717
G1 X226.467 Y88.257 E0.03821
G1 X225.855 Y87.449 E0.03821
G1 X224.983 Y86.683 E0.04372
G1 X184.883 Y57.652 E1.86566
G1 X183.554 Y56.988 E0.05598
G1 X182.235 Y56.723 E0.05071
G1 X113.994 Y56.706 E2.57174
G1 X113.042 Y56.807 E0.03608
G1 X112.416 Y56.97 E0.02435
G1 X111.248 Y57.519 E0.04862
G1 X110.313 Y58.266 E0.04514
G1 X109.507 Y59.31 E0.04967
G1 X109.382 Y59.552 E0.01029
G1 E-0.8 F3000
; printing object drawer.stl id:0 copy 0
EXCLUDE_OBJECT_START NAME=drawer_stl_id_0_copy_0
G1 X133.634 Y105.568 F9000
G1 E0.8 F1800
;TYPE:Support material
;WIDTH:0.5
G1 X166.237 Y105.568 E1.17717
G1 X166.237 Y108.964 E0.1226
G1 X169.633 Y108.964 E0.1226
G1 X169.633 Y120.221 E0.40646
G1 X168.911 Y120.221 E0.02609
G1 X165.915 Y120.221 E0.10816
G1 X165.416 Y120.221 E0.01803
G1 X162.919 Y120.221 E0.09013
G1 X162.42 Y120.221 E0.01803
G1 X159.924 Y120.221 E0.09013
G1 X159.424 Y120.221 E0.01803
G1 X156.429 Y120.221 E0.10816
G1 X155.93 Y120.221 E0.01803
G1 X153.433 Y120.221 E0.09013
G1 X152.934 Y120.221 E0.01803
G1 X150.438 Y120.221 E0.09013
G1 X149.938 Y120.221 E0.01803
G1 X146.943 Y120.221 E0.10816
G1 X146.443 Y120.221 E0.01803
G1 X143.947 Y120.221 E0.09013
G1 X143.448 Y120.221 E0.01803
G1 X140.452 Y120.221 E0.10816
G1 X139.953 Y120.221 E0.01803
G1 X137.456 Y120.221 E0.09013
G1 X136.957 Y120.221 E0.01803
G1 X134.461 Y120.221 E0.09013
G1 X133.962 Y120.221 E0.01803
G1 X130.966 Y120.221 E0.10816
G1 X130.239 Y120.221 E0.02626
G1 X130.239 Y108.964 E0.40646
G1 X133.634 Y108.964 E0.1226
G1 X133.634 Y105.568 E0.1226
G1 X169.235 Y120.107 F9000
G1 F1800
G1 X169.235 Y109.275 E0.39111
G1 X168.727 Y109.275 E0.01834
G1 X168.727 Y119.911 E0.38402
G1 X168.219 Y119.911 E0.01834
G1 X168.219 Y109.275 E0.38402
G1 X167.711 Y109.275 E0.01834
G1 X167.711 Y119.911 E0.38402
G1 X167.203 Y119.911 E0.01834
G1 X167.203 Y109.275 E0.38402
G1 X166.695 Y109.275 E0.01834
G1 X166.695 Y119.911 E0.38402
G1 X166.188 Y119.911 E0.01834
G1 X166.188 Y109.275 E0.38402
G1 X165.927 Y109.275 E0.00942
G1 X165.927 Y105.879 E0.1226
G1 X165.68 Y105.879 E0.00892
G1 X165.68 Y119.911 E0.50662
G1 X165.416 Y119.911 E0.00953
G1 X165.172 Y119.911 E0.0088
G1 X165.172 Y105.879 E0.50662
G1 X164.664 Y105.879 E0.01834
G1 X164.664 Y119.911 E0.50662
G1 X164.156 Y119.911 E0.01834
G1 X164.156 Y105.879 E0.50662
G1 X163.648 Y105.879 E0.01834
G1 X163.648 Y119.911 E0.50662
G1 X163.14 Y119.911 E0.01834
G1 X163.14 Y105.879 E0.50662
G1 X162.633 Y105.879 E0.01834
G1 X162.633 Y119.911 E0.50662
G1 X162.125 Y119.911 E0.01834
G1 X162.125 Y105.879 E0.50662
G1 X161.617 Y105.879 E0.01834
G1 X161.617 Y119.911 E0.50662
G1 X161.109 Y119.911 E0.01834
G1 X161.109 Y105.879 E0.50662
G1 X160.601 Y105.879 E0.01834
G1 X160.601 Y119.911 E0.50662
G1 X160.093 Y119.911 E0.01834
G1 X160.093 Y105.879 E0.50662
G1 X159.585 Y105.879 E0.01834
G1 X159.585 Y119.911 E0.50662
G1 X159.077 Y119.911 E0.01834
G1 X159.077 Y105.879 E0.50662
G1 X158.57 Y105.879 E0.01834
G1 X158.57 Y119.911 E0.50662
G1 X158.062 Y119.911 E0.01834
G1 X158.062 Y105.879 E0.50662
G1 X157.554 Y105.879 E0.01834
G1 X157.554 Y119.911 E0.50662
G1 X157.046 Y119.911 E0.01834
G1 X157.046 Y105.879 E0.50662
G1 X156.538 Y105.879 E0.01834
G1 X156.538 Y119.911 E0.50662
G1 X156.429 Y119.911 E0.00395
G1 X156.03 Y119.911 E0.01439
G1 X156.03 Y105.879 E0.50662
G1 X155.522 Y105.879 E0.01834
G1 X155.522 Y119.911 E0.50662
G1 X155.015 Y119.911 E0.01834
G1 X155.015 Y105.879 E0.50662
G1 X154.507 Y105.879 E0.01834
G1 X154.507 Y119.911 E0.50662
G1 X153.999 Y119.911 E0.01834
G1 X153.999 Y105.879 E0.50662
G1 X153.491 Y105.879 E0.01834
G1 X153.491 Y119.911 E0.50662
G1 X153.433 Y119.911 E0.00209
G1 X152.983 Y119.911 E0.01625
G1 X152.983 Y105.879 E0.50662
G1 X152.475 Y105.879 E0.01834
G1 X152.475 Y119.911 E0.50662
G1 X151.967 Y119.911 E0.01834
G1 X151.967 Y105.879 E0.50662
G1 X151.459 Y105.879 E0.01834
G1 X151.459 Y119.911 E0.50662
G1 X150.952 Y119.911 E0.01834
G1 X150.952 Y105.879 E0.50662
G1 X150.444 Y105.879 E0.01834
G1 X150.444 Y119.911 E0.50662
M73 P1 R197
G1 X149.936 Y119.911 E0.01834
G1 X149.936 Y105.879 E0.50662
G1 X149.428 Y105.879 E0.01834
G1 X149.428 Y119.911 E0.50662
G1 X148.92 Y119.911 E0.01834
G1 X148.92 Y105.879 E0.50662
G1 X148.412 Y105.879 E0.01834
G1 X148.412 Y119.911 E0.50662
G1 X147.904 Y119.911 E0.01834
G1 X147.904 Y105.879 E0.50662
G1 X147.397 Y105.879 E0.01834
G1 X147.397 Y119.911 E0.50662
G1 X146.889 Y119.911 E0.01834
G1 X146.889 Y105.879 E0.50662
G1 X146.381 Y105.879 E0.01834
G1 X146.381 Y119.911 E0.50662
G1 X145.873 Y119.911 E0.01834
G1 X145.873 Y105.879 E0.50662
G1 X145.365 Y105.879 E0.01834
G1 X145.365 Y119.911 E0.50662
G1 X144.857 Y119.911 E0.01834
G1 X144.857 Y105.879 E0.50662
G1 X144.349 Y105.879 E0.01834
G1 X144.349 Y119.911 E0.50662
G1 X143.947 Y119.911 E0.01453
G1 X143.841 Y119.911 E0.00381
G1 X143.841 Y105.879 E0.50662
G1 X143.334 Y105.879 E0.01834
G1 X143.334 Y119.911 E0.50662
G1 X142.826 Y119.911 E0.01834
G1 X142.826 Y105.879 E0.50662
G1 X142.318 Y105.879 E0.01834
G1 X142.318 Y119.911 E0.50662
G1 X141.81 Y119.911 E0.01834
G1 X141.81 Y105.879 E0.50662
G1 X141.302 Y105.879 E0.01834
G1 X141.302 Y119.911 E0.50662
G1 X140.794 Y119.911 E0.01834
G1 X140.794 Y105.879 E0.50662
G1 X140.286 Y105.879 E0.01834
G1 X140.286 Y119.911 E0.50662
G1 X139.953 Y119.911 E0.01204
G1 X139.779 Y119.911 E0.00629
G1 X139.779 Y105.879 E0.50662
G1 X139.271 Y105.879 E0.01834
G1 X139.271 Y119.911 E0.50662
G1 X138.763 Y119.911 E0.01834
G1 X138.763 Y105.879 E0.50662
G1 X138.255 Y105.879 E0.01834
G1 X138.255 Y119.911 E0.50662
G1 X137.747 Y119.911 E0.01834
G1 X137.747 Y105.879 E0.50662
G1 X137.239 Y105.879 E0.01834
G1 X137.239 Y119.911 E0.50662
G1 X136.957 Y119.911 E0.01018
G1 X136.731 Y119.911 E0.00815
G1 X136.731 Y105.879 E0.50662
G1 X136.223 Y105.879 E0.01834
G1 X136.223 Y119.911 E0.50662
G1 X135.716 Y119.911 E0.01834
G1 X135.716 Y105.879 E0.50662
G1 X135.208 Y105.879 E0.01834
G1 X135.208 Y119.911 E0.50662
G1 X134.7 Y119.911 E0.01834
G1 X134.7 Y105.879 E0.50662
G1 X134.192 Y105.879 E0.01834
G1 X134.192 Y119.911 E0.50662
G1 X133.684 Y119.911 E0.01834
G1 X133.684 Y109.275 E0.38402
G1 X133.176 Y109.275 E0.01834
G1 X133.176 Y119.911 E0.38402
G1 X132.668 Y119.911 E0.01834
G1 X132.668 Y109.275 E0.38402
G1 X132.161 Y109.275 E0.01834
G1 X132.161 Y119.911 E0.38402
G1 X131.653 Y119.911 E0.01834
G1 X131.653 Y109.275 E0.38402
G1 X131.145 Y109.275 E0.01834
G1 X131.145 Y119.911 E0.38402
G1 X130.966 Y119.911 E0.00646
G1 X130.637 Y119.911 E0.01188
G1 X130.637 Y109.078 E0.39111
G1 E-0.8 F3000
G1 X218.772 Y239.936 F9000
G1 E0.8 F1800
;TYPE:Internal perimeter
G1 X81.1 Y239.936 E4.97077
G1 X81.1 Y124.429 E4.17048
G1 X81.113 Y124.195 E0.00847
G1 X81.145 Y123.995 E0.00731
G1 X81.197 Y123.8 E0.00731
G1 X81.27 Y123.611 E0.00731
G1 X81.362 Y123.43 E0.00731
G1 X81.47 Y123.265 E0.00711
G1 X81.627 Y123.075 E0.00892
G1 X81.753 Y122.954 E0.00631
G1 X82.044 Y122.743 E0.01296
G1 X82.347 Y122.596 E0.01215
G1 X82.697 Y122.496 E0.01316
G1 X82.813 Y122.479 E0.00425
G1 X83.547 Y122.464 E0.02649
G1 X213.208 Y122.464 E4.68155
M73 P1 R196
G1 X216.797 Y122.464 E0.12959
G1 X217.205 Y122.503 E0.01478
G1 X217.574 Y122.612 E0.01391
G1 X217.703 Y122.671 E0.0051
G1 X218.034 Y122.882 E0.01417
G1 X218.174 Y123.004 E0.00671
G1 X218.419 Y123.291 E0.01363
G1 X218.606 Y123.622 E0.01373
G1 X218.674 Y123.799 E0.00682
G1 X218.758 Y124.182 E0.01418
G1 X218.77 Y124.342 E0.00578
G1 X218.772 Y239.936 E4.17364
G1 X219.229 Y240.393 F9000
G1 F1800
G1 X80.643 Y240.393 E5.00378
G1 X80.643 Y124.417 E4.18743
G1 X80.658 Y124.146 E0.00978
G1 X80.697 Y123.899 E0.00904
G1 X80.762 Y123.658 E0.00904
G1 X80.852 Y123.424 E0.00904
G1 X80.966 Y123.201 E0.00904
G1 X81.101 Y122.994 E0.00891
G1 X81.292 Y122.764 E0.0108
G1 X81.459 Y122.602 E0.0084
G1 X81.808 Y122.35 E0.01555
G1 X82.183 Y122.168 E0.01504
G1 X82.6 Y122.049 E0.01568
G1 X82.775 Y122.023 E0.00638
G1 X83.542 Y122.007 E0.0277
G1 X213.208 Y122.007 E4.68171
G1 X216.819 Y122.007 E0.13037
G1 X217.093 Y122.022 E0.00991
G1 X217.292 Y122.052 E0.00728
G1 X217.542 Y122.115 E0.00929
G1 X217.735 Y122.183 E0.00741
G1 X217.922 Y122.269 E0.00741
G1 X218.145 Y122.398 E0.00929
G1 X218.309 Y122.515 E0.00728
G1 X218.5 Y122.682 E0.00916
G1 X218.673 Y122.868 E0.00917
G1 X218.795 Y123.028 E0.00728
G1 X218.931 Y123.247 E0.00929
G1 X219.021 Y123.427 E0.00728
G1 X219.113 Y123.668 E0.0093
G1 X219.167 Y123.862 E0.00728
G1 X219.211 Y124.116 E0.0093
G1 X219.227 Y124.324 E0.00755
G1 X219.229 Y240.393 E4.19078
G1 X219.686 Y240.85 F9000
;TYPE:External perimeter
G1 F1800
G1 X80.186 Y240.85 E5.03679
G1 X80.186 Y124.405 E4.20438
M73 P1 R196
G1 X80.202 Y124.098 E0.01109
G1 X80.25 Y123.803 E0.01077
G1 X80.327 Y123.515 E0.01077
G1 X80.434 Y123.237 E0.01077
G1 X80.57 Y122.972 E0.01077
G1 X80.732 Y122.723 E0.01071
G1 X80.956 Y122.453 E0.01267
G1 X81.165 Y122.251 E0.01049
G1 X81.572 Y121.956 E0.01815
G1 X82.019 Y121.739 E0.01793
G1 X82.504 Y121.601 E0.01821
G1 X82.737 Y121.566 E0.00851
G1 X83.538 Y121.55 E0.02892
G1 X213.208 Y121.55 E4.68188
G1 X216.831 Y121.55 E0.13082
G1 X217.139 Y121.567 E0.01114
G1 X217.382 Y121.603 E0.00887
G1 X217.674 Y121.677 E0.01088
G1 X217.907 Y121.759 E0.00892
G1 X218.132 Y121.862 E0.00892
G1 X218.393 Y122.013 E0.01088
G1 X218.592 Y122.156 E0.00886
G1 X218.818 Y122.353 E0.01082
G1 X219.022 Y122.573 E0.01083
G1 X219.172 Y122.768 E0.00887
G1 X219.331 Y123.024 E0.01088
G1 X219.44 Y123.243 E0.00887
G1 X219.548 Y123.525 E0.01088
G1 X219.613 Y123.762 E0.00886
G1 X219.665 Y124.058 E0.01088
G1 X219.684 Y124.307 E0.00898
G1 X219.686 Y240.85 E4.20792
;WIPE_START
M204 S3000
G1 X219.339 Y240.65 F9000
;WIPE_END
G1 E-0.8 F3000
M204 S1000
G1 X218.613 Y123.849 F9000
G1 E0.8 F1800
;TYPE:Solid infill
;WIDTH:0.499168
G1 F2400
G1 X217.416 Y122.652 E0.06104
G1 X216.65 Y122.533 F9000
G1 F2400
G1 X218.701 Y124.584 E0.10457
G1 X218.701 Y125.23 F9000
G1 F2400
G1 X216.004 Y122.533 E0.13752
G1 X215.357 Y122.533 F9000
G1 F2400
G1 X218.701 Y125.877 E0.17047
G1 X218.701 Y126.523 F9000
G1 F2400
G1 X214.711 Y122.533 E0.20343
G1 X214.064 Y122.533 F9000
G1 F2400
G1 X218.701 Y127.17 E0.23638
G1 X218.701 Y127.816 F9000
G1 F2400
G1 X213.418 Y122.533 E0.26933
G1 X212.772 Y122.533 F9000
G1 F2400
G1 X218.701 Y128.463 E0.30228
G1 X218.701 Y129.109 F9000
G1 F2400
G1 X212.125 Y122.533 E0.33524
G1 X211.479 Y122.533 F9000
G1 F2400
G1 X218.701 Y129.755 E0.36819
G1 X218.701 Y130.402 F9000
G1 F2400
G1 X210.832 Y122.533 E0.40114
G1 X210.186 Y122.533 F9000
G1 F2400
G1 X218.701 Y131.048 E0.43409
G1 X218.701 Y131.695 F9000
G1 F2400
G1 X209.54 Y122.533 E0.46704
G1 X208.893 Y122.533 F9000
G1 F2400
G1 X218.701 Y132.341 E0.5
G1 X218.701 Y132.987 F9000
G1 F2400
G1 X208.247 Y122.533 E0.53295
G1 X207.6 Y122.533 F9000
G1 F2400
G1 X218.701 Y133.634 E0.5659
G1 X218.702 Y134.28 F9000
G1 F2400
G1 X206.954 Y122.533 E0.59885
G1 X206.308 Y122.533 F9000
G1 F2400
G1 X218.702 Y134.927 E0.6318
G1 X218.702 Y135.573 F9000
G1 F2400
G1 X205.661 Y122.533 E0.66476
G1 X205.015 Y122.533 F9000
G1 F2400
G1 X218.702 Y136.22 E0.69771
G1 X218.702 Y136.866 F9000
G1 F2400
G1 X204.368 Y122.533 E0.73066
G1 X203.722 Y122.533 F9000
G1 F2400
G1 X218.702 Y137.512 E0.76361
G1 X218.702 Y138.159 F9000
G1 F2400
G1 X203.075 Y122.533 E0.79657
G1 X202.429 Y122.533 F9000
G1 F2400
G1 X218.702 Y138.805 E0.82952
G1 X218.702 Y139.452 F9000
G1 F2400
G1 X201.783 Y122.533 E0.86247
G1 X201.136 Y122.533 F9000
G1 F2400
