; generated by SuperSlicer 2.4 on 2022-09-13 at 02:12:12 UTC


;
;

;
;
; 

; external perimeters extrusion width = 0.40mm
; perimeters extrusion width = 0.50mm
; infill extrusion width = 0.72mm
; solid infill extrusion width = 0.56mm
; top infill extrusion width = 0.40mm
; support material extrusion width = 0.50mm

; external perimeters extrusion width = 0.40mm
; perimeters extrusion width = 0.50mm
; infill extrusion width = 0.72mm
; solid infill extrusion width = 0.56mm
; top infill extrusion width = 0.40mm
; support material extrusion width = 0.50mm

; external perimeters extrusion width = 0.40mm
; perimeters extrusion width = 0.50mm
; infill extrusion width = 0.72mm
; solid infill extrusion width = 0.56mm
; top infill extrusion width = 0.40mm
; support material extrusion width = 0.50mm

; external perimeters extrusion width = 0.40mm
; perimeters extrusion width = 0.50mm
; infill extrusion width = 0.72mm
; solid infill extrusion width = 0.56mm
; top infill extrusion width = 0.40mm
; support material extrusion width = 0.50mm

; object:{"name":"Part_1-_TPU_Print_-_FLEX_-_3D_Printer_Anti_Vibration_Damper_Feet_v2","id":"Part_1-_TPU_Print_-_FLEX_-_3D_Printer_Anti_Vibration_Damper_Feet_v2.stl id:0 copy 0","object_center":[165.500007,163.000007,0.000000],"boundingbox_center":[165.500007,163.000007,9.001000],"boundingbox_size":[20.000000,20.000000,18.002000]}
; object:{"name":"Part_1-_TPU_Print_-_FLEX_-_3D_Printer_Anti_Vibration_Damper_Feet_v2","id":"Part_1-_TPU_Print_-_FLEX_-_3D_Printer_Anti_Vibration_Damper_Feet_v2.stl id:1 copy 0","object_center":[165.500007,136.999993,0.000000],"boundingbox_center":[165.500007,136.999993,9.001000],"boundingbox_size":[20.000000,20.000000,18.002000]}
; object:{"name":"Part_1-_TPU_Print_-_FLEX_-_3D_Printer_Anti_Vibration_Damper_Feet_v2","id":"Part_1-_TPU_Print_-_FLEX_-_3D_Printer_Anti_Vibration_Damper_Feet_v2.stl id:2 copy 0","object_center":[139.499993,163.000007,0.000000],"boundingbox_center":[139.499993,163.000007,9.001000],"boundingbox_size":[20.000000,20.000000,18.002000]}
; object:{"name":"Part_1-_TPU_Print_-_FLEX_-_3D_Printer_Anti_Vibration_Damper_Feet_v2","id":"Part_1-_TPU_Print_-_FLEX_-_3D_Printer_Anti_Vibration_Damper_Feet_v2.stl id:3 copy 0","object_center":[139.499993,136.999993,0.000000],"boundingbox_center":[139.499993,136.999993,9.001000],"boundingbox_size":[20.000000,20.000000,18.002000]}
; plater:{"center":[152.500000,150.000000,0.000000],"boundingbox_center":[152.500000,150.000000,9.001000],"boundingbox_size":[46.000014,46.000014,18.002000]}

M73 P0 R72
;TYPE:Custom
START_PRINT T_BED=60 T_EXTRUDER=220
M107
G21 ; set units to millimeters
G90 ; use absolute coordinates
M83 ; use relative distances for extrusion
; Filament gcode
;_TOOLCHANGE 0
M104 S220 ; set temperature
M109 S220 ; set temperature and wait for it to be reached
M190 S60 ; set bed temperature and wait for it to be reached
M107
;LAYER_CHANGE
;Z:0.2
;HEIGHT:0.2
G1 Z0.2 F9000
G92 E0
M204 S1000
G1 X129.614 Y127.658
;TYPE:Skirt
;WIDTH:0.52
G1 F1800
G1 X128.329 Y129.242 E0.08091
G1 X127.915 Y129.873 E0.02991
G1 X126.997 Y131.645 E0.07918
G1 X126.725 Y132.327 E0.02914
G1 X126.194 Y134.171 E0.07609
G1 X125.9 Y136.662 E0.09953
G1 X125.9 Y163.338 E1.05819
G1 X126.194 Y165.827 E0.09944
G1 X126.725 Y167.671 E0.07609
G1 X126.997 Y168.353 E0.02914
G1 X127.915 Y170.125 E0.07918
G1 X128.329 Y170.756 E0.02991
G1 X129.614 Y172.34 E0.08091
G1 X130.158 Y172.884 E0.03055
G1 X131.742 Y174.169 E0.08091
G1 X132.373 Y174.583 E0.02991
G1 X134.145 Y175.501 E0.07918
G1 X134.827 Y175.773 E0.02914
G1 X136.671 Y176.304 E0.0761
G1 X139.158 Y176.599 E0.09938
G1 X165.842 Y176.599 E1.05851
G1 X168.327 Y176.304 E0.09929
G1 X170.171 Y175.773 E0.0761
G1 X170.853 Y175.501 E0.02914
G1 X172.625 Y174.583 E0.07918
G1 X173.256 Y174.169 E0.02991
G1 X174.84 Y172.884 E0.08091
G1 X175.384 Y172.34 E0.03055
G1 X176.669 Y170.756 E0.08091
G1 X177.083 Y170.125 E0.02991
G1 X178.001 Y168.353 E0.07918
G1 X178.273 Y167.671 E0.02914
G1 X178.804 Y165.827 E0.0761
G1 X179.099 Y163.342 E0.09929
M73 P0 R72
G1 X179.115 Y137 E1.04497
G1 X178.933 Y134.857 E0.08531
G1 X178.804 Y134.171 E0.0277
G1 X178.273 Y132.327 E0.0761
G1 X178.001 Y131.645 E0.02914
G1 X177.083 Y129.873 E0.07918
G1 X176.669 Y129.242 E0.02991
G1 X175.384 Y127.658 E0.08091
G1 X174.84 Y127.114 E0.03055
G1 X173.256 Y125.829 E0.08091
G1 X172.625 Y125.415 E0.02991
G1 X170.853 Y124.497 E0.07919
G1 X170.171 Y124.225 E0.02914
G1 X168.327 Y123.694 E0.07609
G1 X165.838 Y123.4 E0.09944
G1 X139.5 Y123.385 E1.04481
G1 X137.361 Y123.564 E0.08515
G1 X134.827 Y124.225 E0.10387
G1 X134.145 Y124.497 E0.02914
G1 X132.373 Y125.415 E0.07918
G1 X131.742 Y125.829 E0.02991
G1 X130.158 Y127.114 E0.08091
G1 X129.614 Y127.658 E0.03055
G1 X129.984 Y127.959 F9000
G1 F1800
G1 X128.699 Y129.543 E0.08091
G1 X128.339 Y130.093 E0.02607
G1 X127.183 Y132.459 E0.10449
G1 X126.653 Y134.303 E0.07609
G1 X126.375 Y136.706 E0.09596
G1 X126.375 Y163.294 E1.05475
G1 X126.653 Y165.695 E0.09587
G1 X127.183 Y167.539 E0.07609
G1 X128.339 Y169.905 E0.10449
G1 X129.984 Y172.039 E0.10688
G1 X130.459 Y172.514 E0.02663
G1 X132.043 Y173.799 E0.08091
G1 X132.593 Y174.159 E0.02607
G1 X134.959 Y175.315 E0.10449
G1 X136.803 Y175.845 E0.0761
G1 X139.202 Y176.124 E0.09583
G1 X165.798 Y176.124 E1.05503
G1 X168.195 Y175.845 E0.09574
G1 X170.039 Y175.315 E0.0761
G1 X172.405 Y174.159 E0.10449
G1 X174.539 Y172.514 E0.10688
G1 X175.014 Y172.039 E0.02663
G1 X176.299 Y170.455 E0.08091
G1 X176.659 Y169.905 E0.02607
G1 X177.815 Y167.539 E0.10449
G1 X178.345 Y165.695 E0.0761
G1 X178.624 Y163.298 E0.09574
G1 X178.638 Y137 E1.04322
G1 X178.345 Y134.303 E0.10763
G1 X177.578 Y131.865 E0.1014
G1 X176.659 Y130.093 E0.07918
G1 X175.014 Y127.959 E0.10688
G1 X174.539 Y127.484 E0.02663
G1 X172.955 Y126.199 E0.08091
G1 X170.633 Y124.92 E0.10515
G1 X168.195 Y124.153 E0.1014
G1 X165.794 Y123.875 E0.09587
G1 X139.5 Y123.862 E1.04309
G1 X137.404 Y124.04 E0.08343
G1 X134.959 Y124.683 E0.1003
G1 X132.593 Y125.839 E0.10449
G1 X130.459 Y127.484 E0.10688
G1 X129.984 Y127.959 E0.02663
; printing object Part_1-_TPU_Print_-_FLEX_-_3D_Printer_Anti_Vibration_Damper_Feet_v2.stl id:0 copy 0
G1 X163.323 Y160.575 F9000
;TYPE:Internal perimeter
;WIDTH:0.5
G1 F1800
G1 X163.173 Y160.673 E0.00679
G1 X162.445 Y161.781 E0.05039
G1 X162.215 Y163 E0.04715
G1 X162.445 Y164.217 E0.04706
G1 X163.173 Y165.325 E0.05038
G1 X164.281 Y166.053 E0.05039
G1 X165.5 Y166.283 E0.04715
G1 X166.717 Y166.053 E0.04706
G1 X167.825 Y165.325 E0.05038
G1 X168.553 Y164.217 E0.05038
G1 X168.783 Y163 E0.04706
G1 X168.553 Y161.781 E0.04715
G1 X167.825 Y160.673 E0.05039
G1 X166.717 Y159.945 E0.05038
G1 X165.5 Y159.715 E0.04706
G1 X164.897 Y159.829 E0.02332
G1 X164.281 Y159.945 E0.02382
G1 X163.323 Y160.575 E0.0436
G1 X163.574 Y160.957 F9000
G1 F1800
G1 X163.503 Y161.003 E0.0032
G1 X162.877 Y161.956 E0.04332
G1 X162.68 Y163 E0.04039
G1 X162.878 Y164.042 E0.04031
G1 X163.503 Y164.995 E0.04331
G1 X164.456 Y165.621 E0.04332
G1 X165.5 Y165.818 E0.04039
G1 X166.542 Y165.621 E0.04031
G1 X167.495 Y164.995 E0.04331
G1 X168.121 Y164.042 E0.04331
G1 X168.318 Y163 E0.04031
G1 X168.121 Y161.956 E0.04039
G1 X167.495 Y161.003 E0.04332
G1 X166.542 Y160.378 E0.04331
G1 X165.5 Y160.18 E0.04031
G1 X164.982 Y160.278 E0.02004
G1 X164.456 Y160.377 E0.02035
G1 X163.574 Y160.957 E0.04012
G1 X163.797 Y161.297 F9000
;TYPE:External perimeter
;WIDTH:0.4
G1 F1800
G1 X163.262 Y162.111 E0.02892
G1 X163.095 Y163 E0.02685
G1 X163.262 Y163.887 E0.02679
G1 X163.797 Y164.701 E0.02892
G1 X164.611 Y165.236 E0.02892
G1 X165.5 Y165.403 E0.02685
G1 X166.387 Y165.236 E0.02679
G1 X167.201 Y164.701 E0.02892
G1 X167.736 Y163.887 E0.02892
G1 X167.903 Y163 E0.02679
G1 X167.736 Y162.111 E0.02685
G1 X167.201 Y161.297 E0.02892
G1 X166.387 Y160.762 E0.02892
G1 X165.5 Y160.595 E0.02679
G1 X165.057 Y160.678 E0.01338
G1 X164.611 Y160.762 E0.01348
G1 X163.797 Y161.297 E0.02892
;WIPE_START
M204 S3000
G1 X163.405 Y161.22 F9000
;WIPE_END
M204 S1000
G1 X158.836 Y157.273
;TYPE:Internal perimeter
;WIDTH:0.5
G1 F1800
G1 X159.256 Y156.756 E0.0253
G1 X160.669 Y155.609 E0.06918
G1 X162.251 Y154.789 E0.06772
G1 X163.896 Y154.315 E0.06505
G1 X165.5 Y154.169 E0.06122
G1 X165.849 Y154.201 E0.01331
G1 X167.102 Y154.315 E0.04784
G1 X168.747 Y154.789 E0.06505
G1 X170.329 Y155.609 E0.06772
G1 X171.742 Y156.756 E0.06918
G1 X172.889 Y158.169 E0.06918
G1 X173.709 Y159.751 E0.06772
G1 X174.183 Y161.396 E0.06507
G1 X174.331 Y163 E0.0612
G1 X174.183 Y164.602 E0.06113
G1 X173.709 Y166.247 E0.06507
G1 X172.889 Y167.829 E0.06772
G1 X171.742 Y169.242 E0.06918
G1 X170.329 Y170.389 E0.06918
G1 X168.747 Y171.209 E0.06772
G1 X167.102 Y171.683 E0.06507
G1 X165.5 Y171.831 E0.06113
G1 X163.896 Y171.683 E0.0612
G1 X162.251 Y171.209 E0.06507
G1 X160.669 Y170.389 E0.06772
G1 X159.256 Y169.242 E0.06918
G1 X158.109 Y167.829 E0.06918
G1 X157.289 Y166.247 E0.06772
G1 X156.815 Y164.602 E0.06505
G1 X156.669 Y163 E0.06115
G1 X156.815 Y161.396 E0.06122
G1 X157.289 Y159.751 E0.06505
G1 X158.109 Y158.169 E0.06772
G1 X158.836 Y157.273 E0.04388
G1 X158.481 Y156.985 F9000
G1 F1800
G1 X158.931 Y156.431 E0.02711
G1 X160.417 Y155.225 E0.07276
G1 X162.081 Y154.362 E0.07122
G1 X163.811 Y153.864 E0.06842
G1 X165.5 Y153.71 E0.06445
G1 X165.89 Y153.746 E0.01489
G1 X167.187 Y153.864 E0.04949
G1 X168.917 Y154.362 E0.06842
G1 X170.581 Y155.225 E0.07122
G1 X172.067 Y156.431 E0.07276
G1 X173.273 Y157.917 E0.07276
G1 X174.136 Y159.581 E0.07122
G1 X174.634 Y161.311 E0.06844
G1 X174.79 Y163 E0.06445
G1 X174.634 Y164.687 E0.06437
G1 X174.136 Y166.417 E0.06844
G1 X173.273 Y168.081 E0.07122
G1 X172.067 Y169.567 E0.07276
G1 X170.581 Y170.773 E0.07276
G1 X168.917 Y171.636 E0.07122
G1 X167.187 Y172.134 E0.06844
G1 X165.5 Y172.29 E0.06437
G1 X163.811 Y172.134 E0.06445
G1 X162.081 Y171.636 E0.06844
G1 X160.417 Y170.773 E0.07122
G1 X158.931 Y169.567 E0.07276
G1 X157.725 Y168.081 E0.07276
G1 X156.862 Y166.417 E0.07122
G1 X156.364 Y164.687 E0.06842
G1 X156.21 Y163 E0.06438
G1 X156.364 Y161.311 E0.06445
G1 X156.862 Y159.581 E0.06842
G1 X157.725 Y157.917 E0.07122
G1 X158.481 Y156.985 E0.04565
G1 X158.165 Y156.728 F9000
;TYPE:External perimeter
;WIDTH:0.4
G1 F1800
G1 X158.641 Y156.141 E0.02244
G1 X160.193 Y154.882 E0.05934
G1 X161.93 Y153.982 E0.05807
G1 X163.736 Y153.462 E0.0558
G1 X165.5 Y153.301 E0.0526
G1 X165.927 Y153.34 E0.01274
G1 X167.262 Y153.462 E0.03981
G1 X169.068 Y153.982 E0.0558
G1 X170.805 Y154.882 E0.05807
G1 X172.357 Y156.141 E0.05934
G1 X173.616 Y157.693 E0.05934
G1 X174.516 Y159.43 E0.05807
G1 X175.036 Y161.236 E0.0558
G1 X175.199 Y163 E0.0526
G1 X175.036 Y164.762 E0.05255
G1 X174.516 Y166.568 E0.05581
G1 X173.616 Y168.305 E0.05807
G1 X172.357 Y169.857 E0.05934
G1 X170.805 Y171.116 E0.05934
G1 X169.068 Y172.016 E0.05807
G1 X167.262 Y172.536 E0.05581
G1 X165.5 Y172.699 E0.05255
G1 X163.736 Y172.536 E0.0526
G1 X161.93 Y172.016 E0.0558
G1 X160.193 Y171.116 E0.05807
G1 X158.641 Y169.857 E0.05934
G1 X157.382 Y168.305 E0.05934
G1 X156.482 Y166.568 E0.05807
G1 X155.962 Y164.762 E0.0558
G1 X155.801 Y163 E0.05255
G1 X155.962 Y161.236 E0.0526
G1 X156.482 Y159.43 E0.0558
G1 X157.382 Y157.693 E0.05807
G1 X158.165 Y156.728 E0.0369
;WIPE_START
M204 S3000
G1 X158.56 Y156.791 F9000
;WIPE_END
M204 S1000
G1 X172.908 Y158.335
;TYPE:Solid infill
;WIDTH:0.537859
G1 F1800
G1 X171.474 Y156.901 E0.08373
G1 X170.174 Y155.846 E0.06916
G1 X169.165 Y155.323 E0.04692
G1 X173.175 Y159.333 E0.2342
G1 X173.446 Y159.856 E0.02432
G1 X173.64 Y160.529 E0.02893
G1 X167.969 Y154.858 E0.33121
G1 X167.05 Y154.594 E0.03948
G1 X166.965 Y154.586 E0.00351
G1 X173.912 Y161.533 E0.40572
M73 P1 R71
G1 X173.987 Y162.339 E0.03341
G1 X166.16 Y154.512 E0.45706
G1 X165.823 Y154.482 E0.01399
G1 X165.5 Y154.452 E0.0134
G1 X165.38 Y154.463 E0.00498
G1 X174.037 Y163.12 E0.50557
G1 X173.975 Y163.789 E0.02776
G1 X164.71 Y154.524 E0.54109
G1 X164.04 Y154.585 E0.02779
G1 X173.913 Y164.459 E0.57661
G1 X173.905 Y164.549 E0.00375
G1 X173.763 Y165.04 E0.02111
G1 X163.458 Y154.735 E0.60185
G1 X162.89 Y154.898 E0.0244
G1 X173.6 Y165.608 E0.62546
G1 X173.446 Y166.142 E0.02294
G1 X173.431 Y166.171 E0.00134
G1 X162.327 Y155.067 E0.64847
G1 X161.846 Y155.316 E0.0224
G1 X166.064 Y159.535 E0.24637
G1 X165.5 Y159.428 E0.0237
G1 X165.27 Y159.472 E0.00969
G1 X161.364 Y155.566 E0.2281
G1 X160.883 Y155.816 E0.0224
G1 X164.655 Y159.588 E0.22029
G1 X164.174 Y159.679 E0.02022
G1 X164.077 Y159.742 E0.00475
G1 X160.469 Y156.134 E0.21071
G1 X160.066 Y156.461 E0.02147
G1 X163.636 Y160.032 E0.20852
G1 X163.195 Y160.322 E0.0218
G1 X159.662 Y156.789 E0.20633
G1 X159.456 Y156.956 E0.01095
G1 X159.296 Y157.154 E0.01052
G1 X162.828 Y160.686 E0.20628
G1 X162.538 Y161.127 E0.0218
G1 X158.968 Y157.558 E0.20847
G1 X158.641 Y157.961 E0.02147
G1 X162.248 Y161.569 E0.21066
G1 X162.179 Y161.674 E0.00519
G1 X162.09 Y162.142 E0.0197
G1 X158.321 Y158.373 E0.22014
G1 X158.071 Y158.854 E0.0224
G1 X161.974 Y162.758 E0.22794
G1 X161.928 Y163 E0.0102
G1 X162.032 Y163.546 E0.02294
G1 X157.657 Y159.171 E0.25551
G1 X168.684 Y162.155 F9000
G1 F1800
G1 X173.182 Y166.652 E0.26267
G1 X172.932 Y167.134 E0.0224
G1 X169.026 Y163.228 E0.22808
G1 X168.91 Y163.843 E0.02585
G1 X172.682 Y167.615 E0.22029
G1 X172.652 Y167.674 E0.0027
G1 X172.364 Y168.029 E0.01888
G1 X168.756 Y164.421 E0.21071
G1 X168.466 Y164.862 E0.0218
G1 X172.037 Y168.432 E0.20852
G1 X171.709 Y168.836 E0.02147
G1 X168.176 Y165.303 E0.20633
G1 X168.028 Y165.528 E0.01112
G1 X167.812 Y165.67 E0.01068
G1 X171.344 Y169.202 E0.20628
G1 X170.94 Y169.53 E0.02147
G1 X167.371 Y165.96 E0.20847
G1 X166.929 Y166.25 E0.0218
G1 X170.537 Y169.858 E0.21066
G1 X170.174 Y170.152 E0.01931
G1 X170.125 Y170.177 E0.00225
G1 X166.356 Y166.408 E0.22013
G1 X165.741 Y166.524 E0.02585
G1 X169.644 Y170.427 E0.22792
G1 X169.162 Y170.677 E0.0224
G1 X164.673 Y166.187 E0.26218
G1 X168.845 Y171.091 F9000
G1 F1800
G1 X157.572 Y159.818 E0.65838
G1 X157.552 Y159.856 E0.00179
G1 X157.401 Y160.379 E0.02246
G1 X168.119 Y171.097 E0.62593
G1 X167.552 Y171.26 E0.0244
G1 X157.238 Y160.946 E0.60232
G1 X157.094 Y161.448 E0.02156
G1 X157.086 Y161.526 E0.00324
G1 X166.972 Y171.412 E0.57733
G1 X166.303 Y171.474 E0.02776
G1 X157.025 Y162.196 E0.5418
G1 X156.964 Y162.866 E0.02779
G1 X165.633 Y171.535 E0.50628
G1 X165.5 Y171.548 E0.00553
G1 X164.855 Y171.488 E0.02675
G1 X157.011 Y163.644 E0.45809
G1 X157.084 Y164.449 E0.03337
G1 X164.049 Y171.414 E0.40675
G1 X163.949 Y171.405 E0.00416
G1 X163.05 Y171.146 E0.03863
G1 X157.352 Y165.448 E0.33275
G1 X157.552 Y166.142 E0.02982
G1 X157.807 Y166.634 E0.0229
G1 X161.864 Y170.691 E0.2369
G1 X160.824 Y170.152 E0.04834
G1 X159.601 Y169.16 E0.06503
G1 X158.074 Y167.633 E0.08918
; stop printing object Part_1-_TPU_Print_-_FLEX_-_3D_Printer_Anti_Vibration_Damper_Feet_v2.stl id:0 copy 0
; printing object Part_1-_TPU_Print_-_FLEX_-_3D_Printer_Anti_Vibration_Damper_Feet_v2.stl id:2 copy 0
G1 X142.585 Y164.047 F9000
;TYPE:Internal perimeter
;WIDTH:0.5
G1 F1800
G1 X142.783 Y163 E0.0405
G1 X142.553 Y161.781 E0.04715
G1 X141.825 Y160.673 E0.05039
G1 X140.717 Y159.945 E0.05038
G1 X139.5 Y159.715 E0.04706
G1 X138.897 Y159.829 E0.02332
G1 X138.281 Y159.945 E0.02382
G1 X137.173 Y160.673 E0.05039
G1 X136.445 Y161.781 E0.05039
G1 X136.215 Y163 E0.04715
G1 X136.445 Y164.217 E0.04706
G1 X137.173 Y165.325 E0.05038
G1 X138.281 Y166.053 E0.05039
G1 X139.5 Y166.283 E0.04715
G1 X140.717 Y166.053 E0.04706
G1 X141.825 Y165.325 E0.05038
G1 X142.553 Y164.217 E0.05038
G1 X142.585 Y164.047 E0.00657
G1 X142.076 Y164.11 F9000
G1 F1800
G1 X142.12 Y164.042 E0.00309
G1 X142.318 Y163 E0.04031
G1 X142.121 Y161.956 E0.04039
G1 X141.495 Y161.003 E0.04332
G1 X140.542 Y160.378 E0.04331
G1 X139.5 Y160.18 E0.04031
G1 X138.982 Y160.278 E0.02004
G1 X138.456 Y160.377 E0.02035
G1 X137.503 Y161.003 E0.04332
G1 X136.877 Y161.956 E0.04332
G1 X136.68 Y163 E0.04039
G1 X136.877 Y164.042 E0.04031
G1 X137.503 Y164.995 E0.04331
G1 X138.456 Y165.621 E0.04332
G1 X139.5 Y165.818 E0.04039
G1 X140.542 Y165.621 E0.04031
G1 X141.495 Y164.995 E0.04331
G1 X142.076 Y164.11 E0.04022
G1 X141.736 Y163.887 F9000
;TYPE:External perimeter
;WIDTH:0.4
G1 F1800
