; generated by SuperSlicer 2.4 on 2022-11-13 at 03:38:09 UTC


;
;

;
;
; 

; external perimeters extrusion width = 0.40mm
; perimeters extrusion width = 0.46mm
; infill extrusion width = 0.64mm
; solid infill extrusion width = 0.56mm
; top infill extrusion width = 0.40mm
; support material extrusion width = 0.46mm
; first layer extrusion width = 0.50mm

; external perimeters extrusion width = 0.40mm
; perimeters extrusion width = 0.46mm
; infill extrusion width = 0.64mm
; solid infill extrusion width = 0.56mm
; top infill extrusion width = 0.40mm
; support material extrusion width = 0.46mm
; first layer extrusion width = 0.50mm

; external perimeters extrusion width = 0.40mm
; perimeters extrusion width = 0.46mm
; infill extrusion width = 0.64mm
; solid infill extrusion width = 0.56mm
; top infill extrusion width = 0.40mm
; support material extrusion width = 0.46mm
; first layer extrusion width = 0.50mm

; object:{"name":"Sensor_Lid_Final","id":"Sensor_Lid_Final.STL id:0 copy 0","object_center":[152.499817,168.000000,0.000000],"boundingbox_center":[152.499817,168.000000,3.750000],"boundingbox_size":[31.000002,33.590000,7.500000]}
; object:{"name":"Lack-Table-Filament-Sensor(1)","id":"Lack-Table-Filament-Sensor(1).stl id:1 copy 0","object_center":[152.499817,130.205000,0.000000],"boundingbox_center":[152.499817,130.205000,31.093000],"boundingbox_size":[75.000000,30.000000,62.186001]}
; object:{"name":"Filament_runout_sensor_for_Bontech_BMG_v3","id":"Filament_runout_sensor_for_Bontech_BMG_v3.stl id:2 copy 0","object_center":[182.000001,161.527455,0.000000],"boundingbox_center":[182.000001,161.527455,16.803565],"boundingbox_size":[16.000367,45.699999,33.607130]}
; plater:{"center":[152.500001,150.000000,0.000000],"boundingbox_center":[152.500001,150.000000,31.093000],"boundingbox_size":[75.000368,69.590000,62.186001]}

M73 P0 R126


; Pre-Processed for Cancel-Object support by preprocess_cancellation v0.2.0
; 3 known objects
EXCLUDE_OBJECT_DEFINE NAME=Sensor_Lid_Final_STL_id_0_copy_0 CENTER=153.044,163.809 POLYGON=[[135.434,151.405],[135.434,185.065],[169.565,185.065],[169.565,151.405]]
EXCLUDE_OBJECT_DEFINE NAME=Filament_runout_sensor_for_Bontech_BMG_v3_stl_id_2_copy_0 CENTER=182.274,162.225 POLYGON=[[172.436,137.628],[172.436,188.177],[191.564,188.177],[191.564,137.628]]
EXCLUDE_OBJECT_DEFINE NAME=Lack_Table_Filament_Sensor_1_stl_id_1_copy_0 CENTER=156.241,122.505 POLYGON=[[115.2,113.807],[115.2,145.005],[189.8,145.005],[189.8,113.807]]
;TYPE:Custom
START_PRINT T_BED=60 T_EXTRUDER=200
M107
G21 ; set units to millimeters
G90 ; use absolute coordinates
M83 ; use relative distances for extrusion
; Filament gcode
;_TOOLCHANGE 0
M104 S200 ; set temperature
M109 S200 ; set temperature and wait for it to be reached
M190 S60 ; set bed temperature and wait for it to be reached
M107
;LAYER_CHANGE
;Z:0.2
;HEIGHT:0.2
G1 Z0.2 F9000
G92 E0
G1 E-0.8 F3000
M204 S1000
G1 X128.378 Y114.544 F9000
G1 E0.8 F1800
;TYPE:Skirt
;WIDTH:0.52
G1 X127.807 Y116.159 E0.06657
G1 X127.084 Y122.874 E0.26256
G1 X127.073 Y123.63 E0.02942
G1 X131.729 Y185.345 E2.40603
G1 X132.28 Y187.029 E0.06888
G1 X133.496 Y188.235 E0.06657
G1 X135.123 Y188.768 E0.06657
G1 X172.436 Y191.892 E1.45565
G1 X191.564 Y191.892 E0.74362
G1 X193.785 Y191.156 E0.09097
G1 X194.885 Y189.843 E0.06657
G1 X195.28 Y188.177 E0.06657
G1 X195.28 Y141.712 E1.80636
G1 X194.448 Y139.37 E0.09664
G1 X171.782 Y111.464 E1.39762
G1 X170.564 Y110.486 E0.06073
G1 X168.898 Y110.091 E0.06657
G1 X136.102 Y110.091 E1.27499
G1 X134.195 Y110.618 E0.07689
G1 X129.595 Y113.367 E0.20834
G1 X128.378 Y114.544 E0.06581
G1 X128.838 Y114.715 F9000
G1 F1800
G1 X128.282 Y116.21 E0.06199
G1 X127.558 Y122.925 E0.26256
G1 X127.549 Y123.594 E0.02604
G1 X132.205 Y185.309 E2.40603
M73 P0 R126
G1 X132.577 Y186.59 E0.05187
G1 X133.654 Y187.77 E0.06209
G1 X135.163 Y188.293 E0.06209
G1 X172.436 Y191.415 E1.4541
G1 X191.564 Y191.415 E0.74362
G1 X193.323 Y190.896 E0.0713
G1 X194.409 Y189.725 E0.06209
G1 X194.803 Y188.177 E0.06209
G1 X194.803 Y141.712 E1.80636
G1 X194.078 Y139.67 E0.08423
G1 X171.412 Y111.765 E1.39762
G1 X170.446 Y110.962 E0.04883
G1 X168.898 Y110.568 E0.06209
G1 X136.102 Y110.568 E1.27499
G1 X134.44 Y111.027 E0.06702
G1 X129.84 Y113.777 E0.20834
G1 X128.838 Y114.715 E0.05336
G1 E-0.8 F3000
; printing object Sensor_Lid_Final.STL id:0 copy 0
EXCLUDE_OBJECT_START NAME=Sensor_Lid_Final_STL_id_0_copy_0
G1 X135.434 Y181.688 F9000
G1 E0.8 F1800
;TYPE:Support material interface
;WIDTH:0.5

G1 X137.921 Y181.688 E0.09263
G1 X137.921 Y183.388 E0.06331
G1 X138.407 Y183.874 E0.02556
G1 X138.812 Y183.874 E0.01508
G1 X138.812 Y185.065 E0.04439
G1 X135.434 Y185.065 E0.12578
G1 X135.434 Y181.688 E0.12578
G1 E-0.8 F3000
G1 X137.807 Y182.22 F9000
G1 E0.8 F1800

G1 X135.745 Y182.22 E0.07679
G1 X135.745 Y182.728 E0.01892
G1 X137.61 Y182.728 E0.06947
G1 X137.61 Y183.236 E0.01892
G1 X135.745 Y183.236 E0.06947
G1 X135.745 Y183.744 E0.01892
G1 X137.837 Y183.744 E0.07793
G1 X138.278 Y184.184 E0.0232
G1 X138.501 Y184.184 E0.0083
G1 X138.501 Y184.252 E0.00251
G1 X135.549 Y184.252 E0.10995
G1 E-0.8 F3000
G1 X166.188 Y184.252 F9000
G1 E0.8 F1800

G1 X166.188 Y183.874 E0.01409
G1 X166.593 Y183.874 E0.01508
G1 X167.078 Y183.388 E0.02556
G1 X167.078 Y181.688 E0.06331
G1 X169.565 Y181.688 E0.09262
G1 X169.565 Y185.065 E0.12578
G1 X166.188 Y185.065 E0.12578
G1 X166.188 Y184.252 E0.03031
G1 E-0.8 F3000
G1 X169.451 Y182.22 F9000
G1 E0.8 F1800

G1 X167.389 Y182.22 E0.07679
G1 X167.389 Y182.728 E0.01892
G1 X169.254 Y182.728 E0.06947
G1 X169.254 Y183.236 E0.01892
G1 X167.389 Y183.236 E0.06947
G1 X167.389 Y183.517 E0.01046
G1 X167.162 Y183.744 E0.01195
G1 X169.254 Y183.744 E0.07792
G1 X169.254 Y184.252 E0.01892
G1 X166.302 Y184.252 E0.10995
G1 E-0.8 F3000
G1 X164.836 Y181.631 F9000
G1 E0.8 F1800
;TYPE:Internal perimeter
G1 X140.164 Y181.631 E0.91893
G1 X140.164 Y157.255 E0.90792
G1 X140.203 Y156.762 E0.01841
G1 X140.306 Y156.33 E0.01655
G1 X140.477 Y155.919 E0.01655
G1 X140.709 Y155.54 E0.01655
G1 X140.997 Y155.203 E0.01655
G1 X141.335 Y154.914 E0.01655
G1 X141.714 Y154.682 E0.01655
G1 X142.125 Y154.512 E0.01655
G1 X142.557 Y154.408 E0.01655
G1 X143.049 Y154.369 E0.01841
G1 X161.95 Y154.369 E0.70398
G1 X162.443 Y154.408 E0.01841
G1 X162.875 Y154.512 E0.01655
G1 X163.285 Y154.682 E0.01655
G1 X163.664 Y154.914 E0.01655
G1 X164.002 Y155.203 E0.01655
G1 X164.291 Y155.54 E0.01655
G1 X164.523 Y155.919 E0.01655
G1 X164.693 Y156.33 E0.01655
G1 X164.797 Y156.762 E0.01655
G1 X164.836 Y157.255 E0.01841
G1 X164.836 Y181.631 E0.90792
G1 X165.293 Y182.088 F9000
G1 F1800
G1 X139.707 Y182.088 E0.95298
G1 X139.707 Y157.237 E0.92561
G1 X139.75 Y156.69 E0.02042
G1 X139.87 Y156.188 E0.01923
G1 X140.068 Y155.711 E0.01923
G1 X140.338 Y155.271 E0.01923
G1 X140.673 Y154.878 E0.01923
G1 X141.066 Y154.543 E0.01923
G1 X141.506 Y154.273 E0.01923
G1 X141.983 Y154.076 E0.01923
G1 X142.485 Y153.955 E0.01923
G1 X143.032 Y153.912 E0.02042
G1 X161.968 Y153.912 E0.70532
G1 X162.515 Y153.955 E0.02042
G1 X163.017 Y154.076 E0.01923
G1 X163.494 Y154.273 E0.01923
G1 X163.934 Y154.543 E0.01923
G1 X164.327 Y154.878 E0.01923
G1 X164.662 Y155.271 E0.01923
G1 X164.932 Y155.711 E0.01923
G1 X165.129 Y156.188 E0.01923
G1 X165.25 Y156.69 E0.01923
G1 X165.293 Y157.237 E0.02042
G1 X165.293 Y182.088 E0.92561
G1 X165.75 Y182.545 F9000
;TYPE:External perimeter
G1 F1800
G1 X139.25 Y182.545 E0.98702
G1 X139.25 Y157.219 E0.94331
G1 X139.297 Y156.619 E0.02242
G1 X139.434 Y156.047 E0.02191
G1 X139.66 Y155.503 E0.02191
G1 X139.967 Y155.001 E0.02191
G1 X140.349 Y154.554 E0.02191
G1 X140.796 Y154.172 E0.02191
G1 X141.298 Y153.865 E0.02191
G1 X141.841 Y153.64 E0.02191
G1 X142.413 Y153.502 E0.02191
G1 X143.014 Y153.455 E0.02242
G1 X161.986 Y153.455 E0.70665
G1 X162.586 Y153.502 E0.02242
G1 X163.158 Y153.64 E0.02191
G1 X163.702 Y153.865 E0.02191
G1 X164.203 Y154.172 E0.02191
G1 X164.651 Y154.554 E0.02191
G1 X165.033 Y155.001 E0.02191
G1 X165.34 Y155.503 E0.02191
G1 X165.565 Y156.047 E0.02191
G1 X165.703 Y156.619 E0.02191
G1 X165.75 Y157.219 E0.02242
G1 X165.75 Y182.545 E0.94331
;WIPE_START
M204 S3000
G1 X165.403 Y182.345 F9000
;WIPE_END
G1 E-0.8 F3000
M204 S1000
G1 X163.107 Y154.696 F9000
G1 E0.8 F1800
;TYPE:Solid infill
;WIDTH:0.495848
G1 F2400
G1 X164.509 Y156.098 E0.07325
G1 X164.729 Y156.964 F9000
G1 F2400
G1 X162.241 Y154.476 E0.12996
G1 X161.593 Y154.475 F9000
G1 F2400
G1 X164.73 Y157.611 E0.16385
G1 X164.731 Y158.259 F9000
G1 F2400
G1 X160.945 Y154.473 E0.19773
G1 X160.298 Y154.472 F9000
G1 F2400
G1 X164.732 Y158.906 E0.23162
G1 X164.733 Y159.554 F9000
G1 F2400
G1 X159.65 Y154.471 E0.26551
G1 X159.002 Y154.47 F9000
G1 F2400
G1 X164.734 Y160.201 E0.29939
G1 X164.735 Y160.848 F9000
G1 F2400
G1 X158.355 Y154.468 E0.33328
G1 X157.707 Y154.467 F9000
G1 F2400
G1 X164.736 Y161.496 E0.36717
G1 X164.737 Y162.143 F9000
G1 F2400
G1 X157.059 Y154.466 E0.40105
G1 X156.411 Y154.464 F9000
G1 F2400
G1 X164.738 Y162.791 E0.43494
G1 X164.739 Y163.438 F9000
G1 F2400
G1 X155.764 Y154.463 E0.46883
G1 X155.116 Y154.462 F9000
G1 F2400
G1 X164.74 Y164.086 E0.50271
G1 X164.741 Y164.733 F9000
G1 F2400
G1 X154.468 Y154.461 E0.5366
G1 X153.821 Y154.459 F9000
G1 F2400
G1 X164.742 Y165.38 E0.57049
G1 X164.743 Y166.028 F9000
G1 F2400
G1 X153.173 Y154.458 E0.60437
G1 X152.525 Y154.457 F9000
G1 F2400
G1 X164.744 Y166.675 E0.63826
G1 X164.745 Y167.323 F9000
G1 F2400
G1 X151.878 Y154.455 E0.67215
G1 X151.23 Y154.454 F9000
G1 F2400
G1 X164.746 Y167.97 E0.70603
G1 X164.747 Y168.617 F9000
G1 F2400
G1 X150.582 Y154.453 E0.73992
G1 X149.934 Y154.451 F9000
G1 F2400
G1 X164.748 Y169.265 E0.7738
G1 X164.749 Y169.912 F9000
G1 F2400
G1 X149.287 Y154.45 E0.80769
G1 X148.639 Y154.449 F9000
G1 F2400
G1 X164.75 Y170.56 E0.84158
G1 X164.751 Y171.207 F9000
G1 F2400
G1 X147.991 Y154.448 E0.87546
G1 X147.344 Y154.446 F9000
G1 F2400
G1 X164.752 Y171.855 E0.90935
G1 X164.753 Y172.502 F9000
G1 F2400
G1 X146.696 Y154.445 E0.94324
G1 X146.048 Y154.444 F9000
G1 F2400
G1 X164.754 Y173.149 E0.97712
G1 X164.755 Y173.797 F9000
G1 F2400
G1 X145.4 Y154.442 E1.01101
G1 X144.753 Y154.441 F9000
G1 F2400
G1 X164.756 Y174.444 E1.0449
G1 X164.757 Y175.092 F9000
G1 F2400
G1 X144.105 Y154.44 E1.07878
G1 X143.457 Y154.439 F9000
G1 F2400
G1 X164.758 Y175.739 E1.11267
G1 X164.759 Y176.386 F9000
G1 F2400
G1 X142.828 Y154.455 E1.14561
G1 X142.292 Y154.566 F9000
G1 F2400
G1 X164.76 Y177.034 E1.17365
G1 X164.761 Y177.681 F9000
G1 F2400
G1 X141.804 Y154.725 E1.19919
G1 X141.392 Y154.959 F9000
G1 F2400
G1 X164.762 Y178.329 E1.22075
G1 X164.763 Y178.976 F9000
G1 F2400
G1 X141.066 Y155.28 E1.23783
G1 X140.75 Y155.61 F9000
G1 F2400
G1 X164.764 Y179.624 E1.2544
M73 P1 R125
G1 X164.765 Y180.271 F9000
G1 F2400
G1 X140.532 Y156.038 E1.26585
G1 X140.349 Y156.502 F9000
G1 F2400
G1 X164.766 Y180.918 E1.27545
G1 X164.764 Y181.562 F9000
G1 F2400
G1 X140.263 Y157.062 E1.27982
G1 X140.233 Y157.678 F9000
G1 F2400
G1 X164.117 Y181.562 E1.24765
G1 X163.471 Y181.562 F9000
G1 F2400
G1 X140.233 Y158.324 E1.21389
G1 X140.233 Y158.971 F9000
G1 F2400
G1 X162.824 Y181.562 E1.18012
G1 X162.178 Y181.562 F9000
G1 F2400
G1 X140.233 Y159.617 E1.14635
G1 X140.233 Y160.263 F9000
G1 F2400
G1 X161.531 Y181.562 E1.11259
G1 X160.885 Y181.562 F9000
G1 F2400
G1 X140.233 Y160.91 E1.07882
G1 X140.233 Y161.556 F9000
G1 F2400
G1 X160.239 Y181.562 E1.04505
G1 X159.592 Y181.562 F9000
G1 F2400
G1 X140.233 Y162.203 E1.01129
G1 X140.233 Y162.849 F9000
G1 F2400
G1 X158.946 Y181.562 E0.97752
G1 X158.299 Y181.562 F9000
G1 F2400
G1 X140.233 Y163.495 E0.94376
G1 X140.233 Y164.142 F9000
G1 F2400
G1 X157.653 Y181.562 E0.90999
G1 X157.007 Y181.562 F9000
G1 F2400
G1 X140.233 Y164.788 E0.87622
G1 X140.233 Y165.435 F9000
G1 F2400
G1 X156.36 Y181.562 E0.84246
G1 X155.714 Y181.562 F9000
G1 F2400
G1 X140.233 Y166.081 E0.80869
G1 X140.233 Y166.727 F9000
G1 F2400
G1 X155.067 Y181.562 E0.77493
G1 X154.421 Y181.562 F9000
G1 F2400
G1 X140.233 Y167.374 E0.74116
G1 X140.233 Y168.02 F9000
G1 F2400
G1 X153.775 Y181.562 E0.70739
G1 X153.128 Y181.562 F9000
G1 F2400
G1 X140.233 Y168.667 E0.67363
G1 X140.233 Y169.313 F9000
G1 F2400
G1 X152.482 Y181.562 E0.63986
G1 X151.835 Y181.562 F9000
G1 F2400
G1 X140.233 Y169.959 E0.60609
G1 X140.233 Y170.606 F9000
G1 F2400
G1 X151.189 Y181.562 E0.57233
G1 X150.543 Y181.562 F9000
G1 F2400
G1 X140.233 Y171.252 E0.53856
G1 X140.233 Y171.899 F9000
G1 F2400
G1 X149.896 Y181.562 E0.5048
G1 X149.25 Y181.562 F9000
G1 F2400
G1 X140.233 Y172.545 E0.47103
G1 X140.233 Y173.191 F9000
G1 F2400
G1 X148.603 Y181.562 E0.43726
M73 P1 R125
G1 X147.957 Y181.562 F9000
G1 F2400
G1 X140.233 Y173.838 E0.4035
G1 X140.233 Y174.484 F9000
G1 F2400
G1 X147.311 Y181.562 E0.36973
G1 X146.664 Y181.562 F9000
G1 F2400
G1 X140.233 Y175.131 E0.33596
G1 X140.233 Y175.777 F9000
G1 F2400
G1 X146.018 Y181.562 E0.3022
G1 X145.371 Y181.562 F9000
G1 F2400
G1 X140.233 Y176.424 E0.26843
G1 X140.233 Y177.07 F9000
G1 F2400
G1 X144.725 Y181.562 E0.23467
G1 X144.078 Y181.562 F9000
G1 F2400
G1 X140.233 Y177.716 E0.2009
G1 X140.233 Y178.363 F9000
G1 F2400
G1 X143.432 Y181.562 E0.16713
G1 X142.786 Y181.562 F9000
G1 F2400
G1 X140.233 Y179.009 E0.13337
G1 X140.233 Y179.656 F9000
G1 F2400
G1 X142.139 Y181.562 E0.0996
G1 X141.493 Y181.562 F9000
G1 F2400
G1 X140.233 Y180.302 E0.06584
G1 X140.233 Y180.948 F9000
G1 F2400
G1 X140.846 Y181.562 E0.03207
G1 E-0.8 F3000
; stop printing object Sensor_Lid_Final.STL id:0 copy 0
EXCLUDE_OBJECT_END NAME=Sensor_Lid_Final_STL_id_0_copy_0
; printing object Filament_runout_sensor_for_Bontech_BMG_v3.stl id:2 copy 0
EXCLUDE_OBJECT_START NAME=Filament_runout_sensor_for_Bontech_BMG_v3_stl_id_2_copy_0
G1 X175.186 Y141.005 F9000
G1 E0.8 F1800
;TYPE:Support material interface
;WIDTH:0.5

G1 X175.186 Y137.628 E0.12578
G1 X181.98 Y137.628 E0.25306
G1 X181.98 Y139.609 E0.07379
G1 X181.672 Y139.609 E0.01148
G1 X181.184 Y139.61 E0.01815
G1 X180.21 Y139.611 E0.03631
G1 X179.722 Y139.612 E0.01815
G1 X179.235 Y139.613 E0.01815
G1 X178.454 Y139.614 E0.02907
G1 X177.97 Y140.099 E0.02554
G1 X177.97 Y140.888 E0.0294
G1 X177.97 Y141.005 E0.00436
G1 X175.186 Y141.005 E0.10369
G1 E-0.8 F3000
G1 X181.866 Y138.166 F9000
G1 E0.8 F1800

G1 X175.497 Y138.166 E0.23722
G1 X175.497 Y138.673 E0.01892
G1 X181.669 Y138.673 E0.2299
G1 X181.669 Y139.181 E0.01892
G1 X175.497 Y139.181 E0.2299
G1 X175.497 Y139.689 E0.01892
G1 X177.94 Y139.689 E0.09099
G1 X177.659 Y139.97 E0.01479
G1 X177.659 Y140.197 E0.00845
G1 X175.3 Y140.197 E0.08786
G1 E-0.8 F3000
G1 X175.3 Y165.632 F9000
G1 E0.8 F1800
;TYPE:Support material
G1 X177.969 Y165.632 E0.09942
G1 X177.969 Y165.734 E0.0038
G1 X177.969 Y166.227 E0.01836
G1 X177.969 Y166.72 E0.01836
G1 X177.969 Y167.213 E0.01836
G1 X177.969 Y167.706 E0.01836
G1 X177.969 Y168.199 E0.01836
G1 X177.969 Y168.691 E0.01836
G1 X177.969 Y170.024 E0.04964
G1 X178.601 Y170.656 E0.03328
G1 X187.381 Y170.656 E0.32702
G1 X188.013 Y170.024 E0.03328
G1 X188.013 Y168.689 E0.04974
G1 X188.013 Y168.194 E0.01841
G1 X188.013 Y167.206 E0.03683
G1 X188.013 Y166.711 E0.01841
G1 X188.013 Y166.227 E0.01805
G1 X188.013 Y165.632 E0.02216
G1 X191.564 Y165.632 E0.13227
G1 X191.564 Y188.177 E0.83972
G1 X172.436 Y188.177 E0.71245
G1 X172.436 Y165.632 E0.83972
G1 X175.3 Y165.632 E0.10668
G1 X191.142 Y188.063 F9000
G1 F1800
G1 X191.142 Y165.942 E0.82389
G1 X190.634 Y165.942 E0.01892
G1 X190.634 Y187.866 E0.81657
G1 X190.126 Y187.866 E0.01892
G1 X190.126 Y165.942 E0.81657
G1 X189.618 Y165.942 E0.01892
G1 X189.618 Y187.866 E0.81657
G1 X189.11 Y187.866 E0.01892
G1 X189.11 Y165.942 E0.81657
G1 X188.602 Y165.942 E0.01892
G1 X188.602 Y187.866 E0.81657
G1 X188.094 Y187.866 E0.01892
G1 X188.094 Y170.382 E0.6512
G1 X187.587 Y170.89 E0.02675
G1 X187.587 Y187.866 E0.63228
G1 X187.079 Y187.866 E0.01892
G1 X187.079 Y170.967 E0.62943
G1 X186.571 Y170.967 E0.01892
G1 X186.571 Y187.866 E0.62943
G1 X186.063 Y187.866 E0.01892
G1 X186.063 Y170.967 E0.62943
G1 X185.555 Y170.967 E0.01892
G1 X185.555 Y187.866 E0.62943
G1 X185.047 Y187.866 E0.01892
G1 X185.047 Y170.967 E0.62943
G1 X184.539 Y170.967 E0.01892
G1 X184.539 Y187.866 E0.62943
G1 X184.031 Y187.866 E0.01892
