; generated by SuperSlicer 2.4 on 2022-08-23 at 18:22:52 UTC


;
;

;
;
; 

; external perimeters extrusion width = 0.40mm
; perimeters extrusion width = 0.45mm
; infill extrusion width = 0.72mm
; solid infill extrusion width = 0.56mm
; top infill extrusion width = 0.40mm
; support material extrusion width = 0.42mm
; first layer extrusion width = 0.48mm

; object:{"name":"fitbit_inspire_stand_nosupport","id":"fitbit_inspire_stand_nosupport.stl id:0 copy 0","object_center":[152.500000,150.000000,0.000000],"boundingbox_center":[152.500000,150.000000,16.999001],"boundingbox_size":[39.995998,45.000000,33.998001]}
; plater:{"center":[152.500000,150.000000,0.000000],"boundingbox_center":[152.500000,150.000000,16.999001],"boundingbox_size":[39.995998,45.000000,33.998001]}

M73 P0 R47
;TYPE:Custom
START_PRINT T_BED=60 T_EXTRUDER=200
M107
G21 ; set units to millimeters
G90 ; use absolute coordinates
M83 ; use relative distances for extrusion
; Filament gcode
M104 S200 ; set temperature
M109 S200 ; set temperature and wait for it to be reached
M190 S60 ; set bed temperature and wait for it to be reached
M107
;LAYER_CHANGE
;Z:0.2
;HEIGHT:0.2
G1 Z0.2 F9000
G92 E0
M73 P0 R47
G1 E-0.8 F3000
M204 S1000
G1 X133.723 Y130.002 F9000
G1 E0.8 F1800
;TYPE:Skirt
;WIDTH:0.52
G1 X132.471 Y131.534 E0.07688
G1 X131.484 Y133.02 E0.06938
G1 X130.861 Y134.157 E0.05042
G1 X129.988 Y136.226 E0.08727
G1 X129.397 Y138.208 E0.08042
G1 X129.013 Y140.442 E0.08814
G1 X128.892 Y142.264 E0.07097
G1 X128.886 Y172.4 E1.17157
G1 X129.623 Y174.621 E0.09097
G1 X130.936 Y175.721 E0.06657
G1 X132.602 Y176.116 E0.06657
G1 X172.398 Y176.116 E1.54711
G1 X174.619 Y175.379 E0.09097
G1 X175.719 Y174.066 E0.06657
G1 X176.114 Y172.4 E0.06657
G1 X176.114 Y142.466 E1.16371
G1 X175.987 Y140.442 E0.07882
G1 X175.681 Y138.571 E0.07373
G1 X175.106 Y136.462 E0.08497
G1 X174.598 Y135.156 E0.05448
G1 X173.735 Y133.406 E0.07586
G1 X172.521 Y131.525 E0.08705
G1 X170.786 Y129.464 E0.10472
G1 X169.822 Y128.551 E0.05162
G1 X168.552 Y127.537 E0.06319
G1 X166.536 Y126.237 E0.09326
G1 X164.018 Y125.078 E0.10776
G1 X162.085 Y124.464 E0.07884
G1 X160.226 Y124.093 E0.0737
G1 X157.739 Y123.892 E0.09699
G1 X146.405 Y123.918 E0.44064
G1 X145.127 Y124.039 E0.04989
G1 X143.538 Y124.325 E0.06277
G1 X141.32 Y124.945 E0.08951
G1 X139.609 Y125.652 E0.07199
G1 X137.966 Y126.518 E0.0722
G1 X136.485 Y127.507 E0.06922
G1 X135.073 Y128.646 E0.07055
G1 X133.723 Y130.002 E0.07439
G1 X134.091 Y130.305 F9000
G1 F1800
G1 X132.847 Y131.828 E0.07647
G1 X131.884 Y133.281 E0.06777
G1 X131.281 Y134.382 E0.0488
G1 X130.445 Y136.364 E0.08363
G1 X129.857 Y138.332 E0.07982
G1 X129.483 Y140.519 E0.08629
G1 X129.363 Y142.466 E0.07582
G1 X129.363 Y172.4 E1.16371
M73 P0 R47
G1 X129.883 Y174.159 E0.0713
G1 X131.054 Y175.245 E0.06209
G1 X132.602 Y175.639 E0.06209
G1 X172.398 Y175.639 E1.54711
G1 X174.157 Y175.119 E0.0713
G1 X175.243 Y173.948 E0.06209
G1 X175.637 Y172.4 E0.06209
G1 X175.637 Y142.466 E1.16371
G1 X175.517 Y140.519 E0.07582
G1 X175.211 Y138.648 E0.07373
G1 X174.659 Y136.629 E0.08136
G1 X174.171 Y135.367 E0.0526
G1 X173.307 Y133.617 E0.07586
G1 X172.147 Y131.82 E0.08317
G1 X170.438 Y129.79 E0.10316
G1 X169.496 Y128.899 E0.05039
G1 X168.258 Y127.912 E0.06157
G1 X166.333 Y126.668 E0.08911
G1 X163.867 Y125.531 E0.10556
G1 X161.992 Y124.932 E0.07654
G1 X160.132 Y124.56 E0.0737
G1 X157.708 Y124.368 E0.09455
G1 X146.42 Y124.395 E0.43883
G1 X145.175 Y124.514 E0.04862
G1 X143.626 Y124.794 E0.06121
G1 X141.499 Y125.387 E0.08586
G1 X139.827 Y126.076 E0.0703
G1 X138.228 Y126.917 E0.07023
G1 X136.78 Y127.882 E0.06763
G1 X135.407 Y128.987 E0.06852
G1 X134.091 Y130.305 E0.0724
G1 E-0.8 F3000
; printing object fitbit_inspire_stand_nosupport.stl id:0 copy 0
G1 X139.389 Y135.505 F9000
G1 E0.8 F1800
;TYPE:Internal perimeter
;WIDTH:0.48
G1 X139.338 Y135.545 E0.00229
G1 X138.47 Y136.45 E0.04469
G1 X137.749 Y137.456 E0.04406
G1 X137.152 Y138.54 E0.04409
G1 X136.715 Y139.699 E0.04411
G1 X136.42 Y140.9 E0.04403
G1 X136.298 Y142.157 E0.04497
G1 X136.364 Y143.679 E0.05428
G1 X136.62 Y145.001 E0.04795
G1 X137.188 Y146.541 E0.05846
G1 X137.983 Y147.913 E0.05649
G1 X138.571 Y148.665 E0.03398
G1 X139.426 Y149.528 E0.04327
G1 X140.272 Y150.218 E0.03889
G1 X141.036 Y150.71 E0.03235
G1 X142.423 Y151.36 E0.05455
G1 X143.682 Y151.732 E0.04676
G1 X145.598 Y151.961 E0.06875
G1 X159.276 Y151.964 E0.48715
G1 X160.101 Y151.929 E0.02942
G1 X161.701 Y151.646 E0.05784
G1 X163.251 Y151.082 E0.05878
G1 X164.636 Y150.284 E0.05691
G1 X165.607 Y149.504 E0.04436
G1 X166.503 Y148.585 E0.04571
G1 X167.261 Y147.53 E0.04628
G1 X168.008 Y146.079 E0.05815
G1 X168.492 Y144.519 E0.05814
G1 X168.684 Y143.281 E0.04463
G1 X168.698 Y142.219 E0.03783
G1 X168.695 Y142.013 E0.00736
G1 X168.496 Y140.494 E0.05456
G1 X168.008 Y138.921 E0.05864
G1 X167.264 Y137.476 E0.05792
G1 X167.109 Y137.254 E0.00963
G1 X166.197 Y136.077 E0.05303
G1 X165.056 Y135.032 E0.05511
G1 X164.036 Y134.334 E0.04401
G1 X163.23 Y133.911 E0.03242
G1 X161.767 Y133.376 E0.05549
G1 X160.871 Y133.173 E0.03272
G1 X159.303 Y133.036 E0.05606
G1 X145.724 Y133.036 E0.48364
G1 X144.983 Y133.068 E0.02641
G1 X143.346 Y133.343 E0.05913
G1 X141.797 Y133.898 E0.05861
G1 X140.617 Y134.554 E0.04807
G1 X139.389 Y135.505 E0.05532
G1 X139.657 Y135.851 F9000
G1 F1800
G1 X139.631 Y135.871 E0.00115
G1 X138.807 Y136.731 E0.04244
G1 X138.119 Y137.689 E0.04202
G1 X137.55 Y138.724 E0.04205
G1 X137.134 Y139.829 E0.04207
G1 X136.852 Y140.974 E0.04198
G1 X136.749 Y141.994 E0.03652
G1 X136.736 Y142.168 E0.00624
G1 X136.799 Y143.628 E0.05203
G1 X137.042 Y144.883 E0.04553
G1 X137.585 Y146.354 E0.05586
G1 X138.346 Y147.668 E0.05408
G1 X138.899 Y148.376 E0.03199
G1 X139.72 Y149.204 E0.04152
G1 X140.529 Y149.864 E0.03719
G1 X141.248 Y150.326 E0.03044
G1 X142.578 Y150.95 E0.05233
G1 X143.77 Y151.302 E0.04427
G1 X145.624 Y151.524 E0.06651
G1 X159.267 Y151.527 E0.48589
G1 X160.054 Y151.493 E0.02806
G1 X161.587 Y151.222 E0.05546
G1 X163.066 Y150.684 E0.05607
G1 X164.389 Y149.923 E0.05435
G1 X165.312 Y149.18 E0.04221
G1 X166.167 Y148.304 E0.0436
G1 X166.887 Y147.301 E0.04396
G1 X167.602 Y145.913 E0.05563
G1 X168.065 Y144.421 E0.05563
G1 X168.247 Y143.245 E0.04239
G1 X168.261 Y142.219 E0.03652
G1 X168.259 Y142.044 E0.00624
G1 X168.067 Y140.588 E0.05232
G1 X167.602 Y139.087 E0.05595
G1 X166.889 Y137.702 E0.0555
G1 X166.757 Y137.513 E0.0082
G1 X165.874 Y136.374 E0.05134
G1 X164.784 Y135.375 E0.05268
G1 X163.81 Y134.71 E0.042
G1 X163.053 Y134.311 E0.03048
G1 X161.643 Y133.796 E0.05345
G1 X160.803 Y133.605 E0.03067
G1 X159.284 Y133.473 E0.05432
G1 X145.733 Y133.473 E0.48262
G1 X145.029 Y133.503 E0.02511
G1 X143.457 Y133.768 E0.05678
G1 X141.978 Y134.298 E0.05596
G1 X140.858 Y134.92 E0.04561
G1 X139.657 Y135.851 E0.05414
G1 X139.925 Y136.196 F9000
;TYPE:External perimeter
G1 F1800
G1 X139.144 Y137.011 E0.04018
G1 X138.489 Y137.923 E0.03998
G1 X137.948 Y138.907 E0.04001
G1 X137.552 Y139.959 E0.04003
G1 X137.284 Y141.048 E0.03996
G1 X137.184 Y142.032 E0.0352
G1 X137.174 Y142.175 E0.00511
G1 X137.234 Y143.577 E0.04997
G1 X137.464 Y144.765 E0.0431
G1 X137.982 Y146.167 E0.05326
G1 X138.71 Y147.423 E0.05167
G1 X139.228 Y148.087 E0.03
G1 X140.014 Y148.88 E0.03978
G1 X140.786 Y149.509 E0.03549
G1 X141.46 Y149.943 E0.02853
G1 X142.734 Y150.54 E0.0501
G1 X143.859 Y150.873 E0.04177
G1 X145.651 Y151.087 E0.06428
G1 X159.257 Y151.09 E0.48462
G1 X160.006 Y151.058 E0.02669
G1 X161.473 Y150.799 E0.05307
G1 X162.881 Y150.286 E0.05335
G1 X164.141 Y149.561 E0.05179
G1 X165.018 Y148.856 E0.04007
G1 X165.831 Y148.022 E0.04149
G1 X166.513 Y147.073 E0.04164
G1 X167.196 Y145.747 E0.05312
G1 X167.638 Y144.322 E0.05312
G1 X167.81 Y143.208 E0.04015
G1 X167.824 Y142.219 E0.03521
G1 X167.822 Y142.076 E0.00511
G1 X167.639 Y140.682 E0.05008
G1 X167.196 Y139.253 E0.05326
G1 X166.514 Y137.928 E0.05308
G1 X166.405 Y137.773 E0.00676
G1 X165.551 Y136.672 E0.04964
G1 X164.511 Y135.718 E0.05025
G1 X163.584 Y135.085 E0.03999
G1 X162.875 Y134.711 E0.02854
G1 X161.519 Y134.216 E0.05142
G1 X160.736 Y134.038 E0.02862
G1 X159.265 Y133.91 E0.05259
G1 X145.743 Y133.91 E0.48161
G1 X145.075 Y133.939 E0.02382
G1 X143.567 Y134.192 E0.05443
G1 X142.159 Y134.697 E0.0533
G1 X141.1 Y135.286 E0.04315
G1 X139.925 Y136.196 E0.05295
;WIPE_START
M204 S3000
G1 X139.541 Y136.082 F9000
;WIPE_END
G1 E-0.8 F3000
M204 S1000
G1 X171.284 Y171.286 F9000
G1 E0.8 F1800
;TYPE:Internal perimeter
G1 X133.716 Y171.286 E1.33803
G1 X133.716 Y142.496 E1.02538
G1 X133.789 Y141.162 E0.04758
G1 X134.076 Y139.404 E0.06344
G1 X134.111 Y139.273 E0.00484
G1 X134.593 Y137.685 E0.05912
G1 X135.143 Y136.391 E0.05007
G1 X135.554 Y135.623 E0.031
G1 X136.389 Y134.366 E0.05375
G1 X137.418 Y133.112 E0.05779
G1 X138.413 Y132.135 E0.04967
G1 X139.434 Y131.332 E0.04625
G1 X140.566 Y130.589 E0.04823
G1 X141.769 Y129.972 E0.04816
G1 X143.067 Y129.448 E0.04983
G1 X144.475 Y129.063 E0.05201
G1 X145.663 Y128.84 E0.04304
G1 X146.6 Y128.744 E0.03357
G1 X147.52 Y128.714 E0.03276
G1 X157.46 Y128.714 E0.35405
G1 X157.855 Y128.74 E0.01407
G1 X159.349 Y128.843 E0.05336
G1 X161.07 Y129.187 E0.0625
G1 X162.428 Y129.639 E0.051
G1 X164.404 Y130.571 E0.07778
G1 X165.608 Y131.366 E0.05138
G1 X166.557 Y132.11 E0.04298
G1 X167.285 Y132.792 E0.0355
G1 X167.82 Y133.363 E0.02787
G1 X168.699 Y134.477 E0.05056
G1 X169.433 Y135.602 E0.04785
G1 X170.242 Y137.242 E0.0651
G1 X170.564 Y138.105 E0.03279
G1 X170.925 Y139.409 E0.04822
G1 X171.211 Y141.162 E0.06326
G1 X171.284 Y142.496 E0.04758
G1 X171.284 Y171.286 E1.02538
G1 X171.721 Y171.723 F9000
G1 F1800
G1 X133.279 Y171.723 E1.36916
G1 X133.279 Y142.484 E1.04137
G1 X133.354 Y141.115 E0.04884
G1 X133.648 Y139.312 E0.06506
G1 X133.691 Y139.153 E0.00587
G1 X134.181 Y137.535 E0.06021
G1 X134.749 Y136.202 E0.0516
G1 X135.178 Y135.399 E0.03244
G1 X136.037 Y134.106 E0.05528
G1 X137.095 Y132.817 E0.05941
G1 X138.124 Y131.806 E0.05136
G1 X139.178 Y130.977 E0.04778
G1 X140.346 Y130.211 E0.04973
G1 X141.587 Y129.574 E0.0497
G1 X142.927 Y129.034 E0.05145
G1 X144.377 Y128.637 E0.05354
G1 X145.6 Y128.407 E0.04433
G1 X146.571 Y128.308 E0.03476
G1 X147.513 Y128.277 E0.03355
G1 X157.475 Y128.277 E0.35481
G1 X157.884 Y128.304 E0.0146
G1 X159.407 Y128.408 E0.05439
G1 X161.182 Y128.764 E0.06447
G1 X162.591 Y129.233 E0.0529
G1 X164.618 Y130.189 E0.07983
G1 X165.863 Y131.011 E0.05313
G1 X166.842 Y131.778 E0.04429
G1 X167.594 Y132.482 E0.03669
G1 X168.151 Y133.078 E0.02904
G1 X169.054 Y134.222 E0.05192
G1 X169.814 Y135.386 E0.04949
G1 X170.644 Y137.068 E0.06683
G1 X170.98 Y137.97 E0.03426
G1 X171.352 Y139.315 E0.04974
G1 X171.646 Y141.115 E0.06494
G1 X171.721 Y142.484 E0.04884
G1 X171.721 Y171.723 E1.04137
G1 X172.158 Y172.16 F9000
;TYPE:External perimeter
G1 F1800
G1 X132.842 Y172.16 E1.4003
G1 X132.842 Y142.473 E1.05736
G1 X132.919 Y141.068 E0.05011
G1 X133.22 Y139.22 E0.06667
G1 X133.271 Y139.033 E0.0069
G1 X133.77 Y137.386 E0.06131
G1 X134.354 Y136.013 E0.05313
G1 X134.802 Y135.174 E0.03387
G1 X135.685 Y133.846 E0.05681
G1 X136.772 Y132.521 E0.06103
G1 X137.835 Y131.478 E0.05305
G1 X138.923 Y130.622 E0.0493
G1 X140.125 Y129.833 E0.05123
G1 X141.405 Y129.176 E0.05124
G1 X142.787 Y128.619 E0.05306
G1 X144.278 Y128.21 E0.05508
G1 X145.537 Y127.974 E0.04562
G1 X146.542 Y127.871 E0.03596
G1 X147.506 Y127.84 E0.03434
G1 X157.489 Y127.84 E0.35557
G1 X157.913 Y127.868 E0.01514
G1 X159.465 Y127.974 E0.05542
G1 X161.295 Y128.34 E0.06644
G1 X162.754 Y128.826 E0.05479
G1 X164.833 Y129.807 E0.08187
G1 X166.119 Y130.656 E0.05488
M73 P1 R46
G1 X167.127 Y131.446 E0.04561
G1 X167.903 Y132.173 E0.03789
G1 X168.483 Y132.792 E0.03021
G1 X169.41 Y133.967 E0.05328
G1 X170.194 Y135.169 E0.05112
G1 X171.045 Y136.895 E0.06855
G1 X171.396 Y137.835 E0.03572
G1 X171.78 Y139.222 E0.05125
G1 X172.081 Y141.068 E0.06662
G1 X172.158 Y142.473 E0.05011
G1 X172.158 Y172.16 E1.05736
;WIPE_START
M204 S3000
G1 X171.812 Y171.96 F9000
;WIPE_END
G1 E-0.8 F3000
M204 S1000
G1 X165.487 Y131.365 F9000
G1 E0.8 F1800
;TYPE:Solid infill
;WIDTH:0.471169
G1 F2400
G1 X167.164 Y133.041 E0.08291
G1 X168.495 Y134.629 E0.07243
G1 X169.176 Y135.672 E0.04355
G1 X164.331 Y130.827 E0.23954
G1 X164.279 Y130.793 E0.00218
G1 X163.142 Y130.256 E0.04394
G1 X169.795 Y136.909 E0.32893
G1 X170.009 Y137.342 E0.01689
G1 X170.246 Y137.978 E0.02371
G1 X162.047 Y129.78 E0.40535
G1 X161.121 Y129.471 E0.03416
G1 X170.51 Y138.86 E0.46422
G1 X170.677 Y139.464 E0.0219
G1 X170.712 Y139.681 E0.00768
G1 X160.329 Y129.297 E0.51339
G1 X159.556 Y129.142 E0.02755
G1 X170.833 Y140.419 E0.55756
G1 X170.954 Y141.158 E0.02618
G1 X167.804 Y138.009 E0.15573
G1 X168.243 Y138.823 E0.03234
G1 X168.352 Y139.175 E0.01289
G1 X170.993 Y141.816 E0.13056
G1 X171.029 Y142.469 E0.02289
G1 X168.63 Y140.071 E0.11858
G1 X168.745 Y140.441 E0.01355
G1 X168.793 Y140.852 E0.01447
G1 X171.03 Y143.089 E0.11061
G1 X171.03 Y143.708 E0.02161
G1 X168.875 Y141.552 E0.10655
G1 X168.952 Y142.206 E0.02302
G1 X168.951 Y142.247 E0.00141
G1 X171.03 Y144.326 E0.10279
G1 X171.03 Y144.944 E0.02161
G1 X168.943 Y142.856 E0.10321
G1 X168.937 Y143.303 E0.0156
G1 X168.915 Y143.446 E0.00508
G1 X171.03 Y145.562 E0.10461
G1 X171.03 Y146.18 E0.02161
G1 X168.832 Y143.981 E0.10871
G1 X168.749 Y144.517 E0.01894
G1 X171.03 Y146.798 E0.11281
G1 X171.03 Y147.416 E0.02161
G1 X168.61 Y144.995 E0.11969
G1 X168.463 Y145.467 E0.01727
G1 X171.03 Y148.034 E0.12692
G1 X171.03 Y148.652 E0.02161
G1 X168.317 Y145.939 E0.13416
G1 X168.244 Y146.175 E0.00864
G1 X168.139 Y146.379 E0.00802
G1 X171.03 Y149.271 E0.14297
G1 X171.03 Y149.889 E0.02161
G1 X167.929 Y146.787 E0.15336
G1 X167.719 Y147.195 E0.01604
G1 X171.03 Y150.507 E0.16375
G1 X171.03 Y151.125 E0.02161
G1 X167.508 Y147.603 E0.17414
G1 X167.478 Y147.663 E0.00235
G1 X167.257 Y147.97 E0.01322
G1 X171.03 Y151.743 E0.18656
G1 X171.03 Y152.361 E0.02161
G1 X166.999 Y148.33 E0.19933
G1 X166.74 Y148.689 E0.01548
G1 X171.03 Y152.979 E0.21211
G1 X171.03 Y153.597 E0.02161
G1 X166.443 Y149.01 E0.22682
G1 X166.138 Y149.323 E0.01528
G1 X171.03 Y154.216 E0.24191
G1 X171.03 Y154.834 E0.02161
G1 X165.832 Y149.636 E0.257
G1 X165.777 Y149.692 E0.00275
G1 X165.496 Y149.918 E0.0126
G1 X171.03 Y155.452 E0.27361
G1 X171.03 Y156.07 E0.02161
G1 X165.154 Y150.193 E0.29055
G1 X164.811 Y150.469 E0.01537
G1 X171.03 Y156.688 E0.30749
G1 X171.03 Y157.306 E0.02161
G1 X164.424 Y150.699 E0.32666
G1 X164.031 Y150.925 E0.01582
G1 X171.03 Y157.924 E0.34605
G1 X171.03 Y158.542 E0.02161
G1 X163.639 Y151.151 E0.36545
G1 X163.359 Y151.313 E0.01131
G1 X163.229 Y151.36 E0.00481
G1 X171.03 Y159.161 E0.3857
G1 X171.03 Y159.779 E0.02161
G1 X162.776 Y151.525 E0.40811
G1 X162.323 Y151.689 E0.01686
G1 X171.03 Y160.397 E0.43051
G1 X171.03 Y161.015 E0.02161
G1 X161.87 Y151.854 E0.45292
G1 X161.766 Y151.892 E0.00385
G1 X161.361 Y151.964 E0.0144
G1 X171.03 Y161.633 E0.47808
G1 X171.03 Y162.251 E0.02161
G1 X160.836 Y152.056 E0.50406
G1 X160.31 Y152.149 E0.01865
G1 X171.03 Y162.869 E0.53003
G1 X171.03 Y163.487 E0.02161
G1 X159.726 Y152.183 E0.55893
G1 X159.109 Y152.184 E0.02156
G1 X171.03 Y164.106 E0.58942
G1 X171.03 Y164.724 E0.02161
M73 P2 R46
G1 X158.492 Y152.186 E0.61991
G1 X157.876 Y152.187 E0.02156
G1 X171.03 Y165.342 E0.65041
G1 X171.03 Y165.96 E0.02161
G1 X157.259 Y152.188 E0.6809
G1 X156.642 Y152.19 E0.02156
G1 X171.03 Y166.578 E0.7114
G1 X171.03 Y167.196 E0.02161
G1 X156.025 Y152.191 E0.74189
G1 X155.409 Y152.192 E0.02156
G1 X171.03 Y167.814 E0.77238
G1 X171.03 Y168.432 E0.02161
G1 X154.792 Y152.194 E0.80288
G1 X154.175 Y152.195 E0.02156
G1 X171.03 Y169.051 E0.83337
G1 X171.03 Y169.669 E0.02161
G1 X153.558 Y152.197 E0.86387
G1 X152.941 Y152.198 E0.02156
G1 X171.03 Y170.287 E0.89436
G1 X171.03 Y170.905 E0.02161
G1 X152.325 Y152.199 E0.92485
G1 X151.708 Y152.201 E0.02156
G1 X170.54 Y171.032 E0.93109
G1 X169.922 Y171.032 E0.02161
G1 X151.091 Y152.202 E0.93102
G1 X150.474 Y152.203 E0.02156
G1 X169.303 Y171.032 E0.93095
G1 X168.685 Y171.032 E0.02161
G1 X149.858 Y152.205 E0.93088
G1 X149.241 Y152.206 E0.02156
G1 X168.067 Y171.032 E0.93082
G1 X167.449 Y171.032 E0.02161
G1 X148.624 Y152.208 E0.93075
G1 X148.007 Y152.209 E0.02156
G1 X166.831 Y171.032 E0.93068
