; generated by SuperSlicer 2.3.56 on 2021-08-03 at 06:43:12 UTC


;
;

;
;
; 

; external perimeters extrusion width = 0.40mm
; perimeters extrusion width = 0.40mm
; infill extrusion width = 0.40mm
; solid infill extrusion width = 0.40mm
; top infill extrusion width = 0.40mm
; support material extrusion width = 0.40mm
; first layer extrusion width = 0.48mm


;TYPE:Custom
START_PRINT T_BED=70 T_EXTRUDER=235
M107
G21 ; set units to millimeters
G90 ; use absolute coordinates
M83 ; use relative distances for extrusion
M104 S235 ; set temperature
M109 S235 ; set temperature and wait for it to be reached
M190 S70 ; set bed temperature and wait for it to be reached
M107
;LAYER_CHANGE
;Z:0.24
;HEIGHT:0.24
G1 Z0.240000 F6000.000
G1 E-1.50000 F3000.000
G1 X122.639 Y138.174 F6000.000
G1 E1.50000 F1800.000
;TYPE:Skirt
;WIDTH:0.48
G1 F1200.000
G1 X124.408 Y136.762 E0.09677
G1 X125.368 Y136.199 E0.04760
G1 X127.415 Y135.378 E0.09429
G1 X128.251 Y135.196 E0.03660
G1 X130.437 Y134.957 E0.09401
G1 X146.286 Y135.869 E0.67878
G1 X147.889 Y136.067 E0.06906
G1 X148.932 Y136.318 E0.04585
G1 X150.549 Y136.982 E0.07474
G1 X151.287 Y137.392 E0.03610
G1 X152.159 Y138.044 E0.04653
G1 X153.179 Y139.046 E0.06114
G1 X153.899 Y140.154 E0.05649
G1 X154.350 Y141.267 E0.05134
G1 X154.597 Y142.601 E0.05801
G1 X154.566 Y149.705 E0.30375
G1 X154.382 Y150.615 E0.03968
G1 X154.137 Y151.343 E0.03284
G1 X153.707 Y152.194 E0.04076
G1 X153.267 Y152.845 E0.03360
G1 X152.365 Y153.787 E0.05577
G1 X151.061 Y154.749 E0.06926
G1 X149.145 Y155.604 E0.08971
G1 X148.125 Y155.894 E0.04535
G1 X130.696 Y157.036 E0.74678
G1 X129.893 Y157.017 E0.03435
G1 X128.220 Y156.800 E0.07213
G1 X127.085 Y156.512 E0.05009
G1 X124.938 Y155.580 E0.10003
G1 X123.130 Y154.259 E0.09575
G1 X122.296 Y153.453 E0.04959
G1 X120.969 Y151.692 E0.09429
G1 X120.565 Y150.917 E0.03735
G1 X119.773 Y148.891 E0.09301
G1 X119.432 Y146.707 E0.09450
G1 X119.389 Y145.852 E0.03660
G1 X119.650 Y143.663 E0.09429
G1 X119.937 Y142.605 E0.04685
G1 X120.682 Y140.825 E0.08252
G1 X121.271 Y139.873 E0.04785
G1 X122.601 Y138.221 E0.09068
G1 X122.917 Y138.503 F6000.000
G1 F1200.000
G1 X124.587 Y137.163 E0.09156
G1 X125.523 Y136.599 E0.04671
G1 X127.515 Y135.795 E0.09183
G1 X128.307 Y135.620 E0.03470
G1 X130.436 Y135.386 E0.09156
G1 X146.564 Y136.324 E0.69073
G1 X148.009 Y136.520 E0.06238
G1 X148.779 Y136.719 E0.03398
G1 X150.443 Y137.405 E0.07698
G1 X151.336 Y137.953 E0.04479
G1 X152.372 Y138.805 E0.05737
G1 X153.242 Y139.864 E0.05855
G1 X153.840 Y141.079 E0.05794
G1 X154.152 Y142.439 E0.05963
G1 X154.149 Y149.587 E0.30563
G1 X153.766 Y151.118 E0.06746
G1 X153.367 Y151.925 E0.03848
G1 X152.974 Y152.523 E0.03061
G1 X152.063 Y153.481 E0.05651
G1 X150.704 Y154.460 E0.07164
G1 X148.773 Y155.283 E0.08972
G1 X147.517 Y155.544 E0.05485
G1 X130.267 Y156.612 E0.73896
G1 X128.257 Y156.372 E0.08654
G1 X127.472 Y156.191 E0.03446
G1 X125.508 Y155.393 E0.09063
G1 X124.574 Y154.827 E0.04671
G1 X122.925 Y153.505 E0.09035
G1 X121.596 Y151.847 E0.09084
G1 X121.056 Y150.963 E0.04431
G1 X120.325 Y149.209 E0.08124
G1 X120.067 Y148.234 E0.04311
G1 X119.817 Y146.090 E0.09230
G1 X120.047 Y143.899 E0.09419
G1 X120.222 Y143.095 E0.03518
G1 X121.017 Y141.119 E0.09111
G1 X121.552 Y140.211 E0.04503
G1 X122.879 Y138.549 E0.09092
G1 E-1.50000 F3000.000
G1 X142.501 Y143.988 F6000.000
G1 E1.50000 F1800.000
;TYPE:Internal perimeter
G1 F1200.000
G1 X142.820 Y144.164 E0.01558
G1 X142.446 Y145.067 E0.04177
G1 X142.324 Y146.000 E0.04025
G1 X142.446 Y146.933 E0.04025
G1 X142.636 Y147.392 E0.02123
G1 X142.375 Y147.580 E0.01377
G1 X142.013 Y147.266 E0.02051
G1 X141.413 Y146.894 E0.03015
G1 X140.763 Y146.622 E0.03015
G1 X140.077 Y146.455 E0.03015
G1 X139.418 Y146.403 E0.02829
G1 X137.649 Y146.403 E0.07562
G1 X137.037 Y146.460 E0.02628
G1 X136.397 Y146.644 E0.02847
G1 X135.802 Y146.944 E0.02848
G1 X135.314 Y147.317 E0.02628
G1 X135.033 Y147.576 E0.01637
G1 X134.465 Y148.342 E0.04077
G1 X133.922 Y148.895 E0.03311
G1 X133.308 Y149.367 E0.03311
G1 X132.635 Y149.750 E0.03311
G1 X131.916 Y150.037 E0.03311
G1 X131.164 Y150.222 E0.03311
G1 X130.446 Y150.296 E0.03086
G1 X129.319 Y150.147 E0.04860
G1 X128.283 Y149.718 E0.04792
G1 X127.394 Y149.036 E0.04792
G1 X126.712 Y148.147 E0.04792
G1 X126.283 Y147.111 E0.04792
G1 X126.136 Y146.000 E0.04792
G1 X126.283 Y144.889 E0.04792
G1 X126.712 Y143.853 E0.04792
G1 X127.394 Y142.964 E0.04792
G1 X128.283 Y142.282 E0.04792
G1 X129.319 Y141.853 E0.04792
G1 X130.446 Y141.704 E0.04860
G1 X131.164 Y141.778 E0.03086
G1 X131.916 Y141.963 E0.03311
G1 X132.635 Y142.250 E0.03311
G1 X133.308 Y142.633 E0.03311
G1 X133.922 Y143.105 E0.03311
G1 X134.465 Y143.658 E0.03311
G1 X135.033 Y144.424 E0.04077
G1 X135.315 Y144.684 E0.01641
G1 X135.803 Y145.056 E0.02625
G1 X136.397 Y145.356 E0.02847
G1 X137.037 Y145.540 E0.02847
G1 X137.649 Y145.597 E0.02628
G1 X139.629 Y145.597 E0.08462
G1 X140.234 Y145.539 E0.02601
G1 X140.868 Y145.351 E0.02827
G1 X141.455 Y145.047 E0.02827
G1 X141.974 Y144.636 E0.02827
G1 X142.370 Y144.174 E0.02602
G1 X142.466 Y144.037 E0.00718
G1 E-1.50000 F3000.000
G1 X148.351 Y143.077 F6000.000
G1 E1.50000 F1800.000
G1 F1200.000
G1 X148.111 Y143.260 E0.01292
G1 X147.917 Y143.324 E0.00876
G1 X147.712 Y143.320 E0.00875
G1 X147.423 Y143.212 E0.01319
G1 X146.752 Y142.934 E0.03108
G1 X145.930 Y142.826 E0.03543
G1 X145.108 Y142.934 E0.03543
G1 X144.343 Y143.251 E0.03543
G1 X143.685 Y143.755 E0.03543
G1 X143.181 Y144.413 E0.03543
G1 X142.864 Y145.178 E0.03543
G1 X142.756 Y146.000 E0.03543
G1 X142.864 Y146.822 E0.03543
G1 X143.181 Y147.587 E0.03543
G1 X143.685 Y148.245 E0.03543
G1 X144.343 Y148.749 E0.03543
G1 X145.108 Y149.066 E0.03543
G1 X145.930 Y149.174 E0.03543
G1 X146.752 Y149.066 E0.03543
G1 X147.425 Y148.787 E0.03116
G1 X147.712 Y148.680 E0.01310
G1 X147.917 Y148.676 E0.00875
G1 X148.111 Y148.740 E0.00875
G1 X148.351 Y148.923 E0.01292
G1 X147.843 Y149.313 E0.02740
G1 X146.940 Y149.687 E0.04179
G1 X146.205 Y149.738 E0.03147
G1 X145.411 Y149.678 E0.03408
G1 X144.632 Y149.505 E0.03408
G1 X143.887 Y149.222 E0.03408
G1 X143.190 Y148.836 E0.03408
G1 X142.555 Y148.354 E0.03408
G1 X142.219 Y148.012 E0.02048
G1 X141.758 Y147.612 E0.02610
G1 X141.216 Y147.276 E0.02724
G1 X140.629 Y147.030 E0.02724
G1 X140.010 Y146.880 E0.02724
G1 X139.401 Y146.831 E0.02610
G1 X137.669 Y146.831 E0.07404
G1 X137.117 Y146.883 E0.02371
G1 X136.554 Y147.045 E0.02505
G1 X136.031 Y147.308 E0.02505
G1 X135.590 Y147.645 E0.02372
G1 X135.353 Y147.864 E0.01381
G1 X134.791 Y148.621 E0.04032
G1 X134.207 Y149.216 E0.03565
G1 X133.546 Y149.725 E0.03565
G1 X132.821 Y150.137 E0.03565
G1 X132.047 Y150.446 E0.03565
G1 X131.237 Y150.645 E0.03565
G1 X130.440 Y150.727 E0.03428
G1 X129.207 Y150.565 E0.05316
G1 X128.067 Y150.093 E0.05275
G1 X127.088 Y149.342 E0.05275
G1 X126.337 Y148.363 E0.05275
G1 X125.865 Y147.223 E0.05275
G1 X125.704 Y146.000 E0.05275
G1 X125.865 Y144.777 E0.05275
G1 X126.337 Y143.637 E0.05275
G1 X127.088 Y142.658 E0.05275
G1 X128.067 Y141.907 E0.05275
G1 X129.207 Y141.435 E0.05275
G1 X130.440 Y141.273 E0.05316
G1 X131.237 Y141.355 E0.03428
G1 X132.047 Y141.554 E0.03565
G1 X132.821 Y141.863 E0.03565
G1 X133.546 Y142.275 E0.03565
G1 X134.207 Y142.784 E0.03565
G1 X134.791 Y143.378 E0.03565
G1 X135.353 Y144.136 E0.04032
G1 X135.591 Y144.355 E0.01384
G1 X136.031 Y144.692 E0.02369
G1 X136.554 Y144.955 E0.02505
G1 X137.117 Y145.117 E0.02505
G1 X137.669 Y145.168 E0.02371
G1 X139.608 Y145.168 E0.08289
G1 X140.152 Y145.116 E0.02338
G1 X140.708 Y144.952 E0.02475
G1 X141.221 Y144.686 E0.02475
G1 X141.675 Y144.326 E0.02475
G1 X142.031 Y143.911 E0.02338
G1 X142.259 Y143.587 E0.01693
G1 X142.730 Y143.111 E0.02865
G1 X143.273 Y142.718 E0.02865
G1 X143.874 Y142.421 E0.02865
G1 X144.515 Y142.226 E0.02865
G1 X145.180 Y142.141 E0.02865
G1 X145.874 Y142.167 E0.02969
G1 X146.920 Y142.305 E0.04513
G1 X147.843 Y142.687 E0.04270
G1 X148.304 Y143.040 E0.02483
G1 X148.674 Y143.317 F6000.000
;TYPE:External perimeter
G1 F1200.000
G1 X148.595 Y143.430 E0.00591
G1 X148.314 Y143.645 E0.01514
G1 X147.981 Y143.754 E0.01498
G1 X147.630 Y143.747 E0.01498
G1 X147.266 Y143.611 E0.01663
G1 X146.640 Y143.351 E0.02899
G1 X145.930 Y143.258 E0.03061
G1 X145.220 Y143.351 E0.03061
G1 X144.559 Y143.625 E0.03061
G1 X143.991 Y144.061 E0.03061
G1 X143.555 Y144.629 E0.03061
G1 X143.281 Y145.290 E0.03061
G1 X143.188 Y146.000 E0.03061
G1 X143.281 Y146.710 E0.03061
G1 X143.555 Y147.371 E0.03061
G1 X143.991 Y147.939 E0.03061
G1 X144.559 Y148.375 E0.03061
G1 X145.220 Y148.649 E0.03061
G1 X145.930 Y148.742 E0.03061
G1 X146.640 Y148.649 E0.03061
G1 X147.268 Y148.388 E0.02907
G1 X147.630 Y148.253 E0.01654
G1 X147.981 Y148.246 E0.01498
G1 X148.314 Y148.355 E0.01498
G1 X148.595 Y148.570 E0.01514
G1 X148.674 Y148.683 E0.00591
G1 X148.721 Y148.817 E0.00607
G1 X148.729 Y148.959 E0.00607
G1 X148.697 Y149.098 E0.00607
G1 X148.629 Y149.222 E0.00607
G1 X148.518 Y149.335 E0.00679
G1 X148.059 Y149.687 E0.02473
G1 X147.039 Y150.110 E0.04720
G1 X146.204 Y150.167 E0.03578
G1 X145.348 Y150.103 E0.03672
G1 X144.509 Y149.917 E0.03672
G1 X143.706 Y149.612 E0.03672
G1 X142.955 Y149.196 E0.03672
G1 X142.271 Y148.676 E0.03672
G1 X141.926 Y148.325 E0.02107
G1 X141.503 Y147.958 E0.02392
G1 X141.019 Y147.658 E0.02433
G1 X140.495 Y147.439 E0.02433
G1 X139.942 Y147.304 E0.02433
G1 X139.384 Y147.260 E0.02392
G1 X137.689 Y147.260 E0.07245
G1 X137.197 Y147.306 E0.02114
G1 X136.711 Y147.446 E0.02162
G1 X136.259 Y147.673 E0.02162
G1 X135.866 Y147.974 E0.02116
G1 X135.673 Y148.152 E0.01124
G1 X135.117 Y148.901 E0.03986
G1 X134.491 Y149.538 E0.03819
G1 X133.784 Y150.082 E0.03819
G1 X133.007 Y150.524 E0.03819
G1 X132.178 Y150.855 E0.03819
G1 X131.310 Y151.068 E0.03819
G1 X130.433 Y151.158 E0.03769
G1 X129.095 Y150.982 E0.05772
G1 X127.851 Y150.467 E0.05757
G1 X126.783 Y149.647 E0.05757
G1 X125.963 Y148.579 E0.05757
G1 X125.448 Y147.335 E0.05757
G1 X125.272 Y146.000 E0.05757
G1 X125.448 Y144.665 E0.05757
G1 X125.963 Y143.421 E0.05757
G1 X126.783 Y142.353 E0.05757
G1 X127.851 Y141.533 E0.05757
G1 X129.095 Y141.018 E0.05757
G1 X130.433 Y140.842 E0.05772
G1 X131.310 Y140.932 E0.03769
G1 X132.178 Y141.145 E0.03819
G1 X133.007 Y141.476 E0.03819
G1 X133.784 Y141.918 E0.03819
G1 X134.491 Y142.462 E0.03819
G1 X135.117 Y143.099 E0.03819
G1 X135.673 Y143.848 E0.03986
G1 X135.867 Y144.027 E0.01127
G1 X136.259 Y144.327 E0.02113
G1 X136.711 Y144.554 E0.02162
G1 X137.197 Y144.694 E0.02162
G1 X137.689 Y144.740 E0.02114
G1 X139.588 Y144.740 E0.08116
G1 X140.070 Y144.694 E0.02074
G1 X140.547 Y144.553 E0.02123
G1 X140.988 Y144.324 E0.02123
G1 X141.377 Y144.016 E0.02123
G1 X141.693 Y143.648 E0.02074
G1 X141.929 Y143.311 E0.01757
G1 X142.450 Y142.784 E0.03170
G1 X143.051 Y142.350 E0.03170
G1 X143.716 Y142.021 E0.03170
G1 X144.425 Y141.806 E0.03170
G1 X145.160 Y141.711 E0.03170
G1 X145.910 Y141.739 E0.03207
G1 X147.032 Y141.887 E0.04840
G1 X148.059 Y142.313 E0.04752
G1 X148.518 Y142.665 E0.02473
G1 X148.629 Y142.778 E0.00679
G1 X148.697 Y142.902 E0.00607
G1 X148.729 Y143.041 E0.00607
G1 X148.721 Y143.183 E0.00607
G1 X148.694 Y143.260 E0.00350
G1 X148.536 Y143.317 F6000.000
G1 X147.990 Y143.093
;TYPE:Gap fill
;WIDTH:0.198173
G1 F1200.000
G1 X147.876 Y143.053 E0.00176
G1 X147.823 Y143.034 E0.00082
;WIDTH:0.268281
G1 X147.770 Y143.016 E0.00122
G1 X147.726 Y142.991 E0.00110
;WIDTH:0.298348
G1 X147.681 Y142.967 E0.00125
G1 X147.611 Y142.939 E0.00185
G1 X147.541 Y142.911 E0.00185
G1 X146.851 Y142.626 E0.01840
G1 X146.836 Y142.620 E0.00041
G1 X146.819 Y142.617 E0.00041
G1 X146.383 Y142.560 E0.01084
G1 X145.946 Y142.502 E0.01084
G1 X145.879 Y142.500 E0.00165
;WIDTH:0.325712
G1 X145.846 Y142.500 E0.00093
G1 X145.684 Y142.508 E0.00444
;WIDTH:0.362107
G1 X145.521 Y142.515 E0.00503
;WIDTH:0.398502
G1 X145.359 Y142.523 E0.00562
;WIDTH:0.434897
G1 X145.197 Y142.530 E0.00621
G1 X145.115 Y142.541 E0.00319
G1 X145.032 Y142.552 E0.00319
G1 X144.982 Y142.562 E0.00194
G1 X144.889 Y142.587 E0.00370
;WIDTH:0.476142
G1 X144.795 Y142.611 E0.00410
;WIDTH:0.510156
G1 X144.702 Y142.636 E0.00443
;WIDTH:0.544169
G1 X144.608 Y142.661 E0.00476
G1 X144.374 Y142.745 E0.01223
;WIDTH:0.593211
G1 X144.140 Y142.829 E0.01344
G1 X144.074 Y142.858 E0.00391
G1 X144.062 Y142.863 E0.00068
;WIDTH:0.618827
G1 X144.051 Y142.869 E0.00071
G1 X143.926 Y142.947 E0.00833
;WIDTH:0.656931
G1 X143.802 Y143.025 E0.00888
;WIDTH:0.695035
G1 X143.677 Y143.102 E0.00944
;WIDTH:0.73314
G1 X143.552 Y143.180 E0.01000
G1 X143.444 Y143.261 E0.00919
G1 X143.335 Y143.342 E0.00919
G1 X143.300 Y143.371 E0.00310
G1 X143.266 Y143.401 E0.00310
G1 X143.188 Y143.477 E0.00742
;WIDTH:0.818734
G1 X143.109 Y143.553 E0.00835
G1 X143.079 Y143.587 E0.00347
G1 X143.050 Y143.621 E0.00347
G1 X143.055 Y143.648 E0.00214
;WIDTH:0.738073
G1 X143.067 Y143.703 E0.00396
;WIDTH:0.646115
G1 X143.078 Y143.758 E0.00345
;WIDTH:0.554158
G1 X143.090 Y143.813 E0.00293
;WIDTH:0.4622
G1 X143.101 Y143.868 E0.00242
;WIDTH:0.370242
G1 X143.113 Y143.922 E0.00191
;WIDTH:0.278285
G1 X143.124 Y143.977 E0.00135
G1 X143.122 Y144.007 E0.00071
;WIDTH:0.192401
G1 X143.117 Y144.066 E0.00096
;WIDTH:0.149459
G1 X143.115 Y144.095 E0.00029
G1 X143.081 Y144.154 E0.00066
G1 E-1.50000 F3000.000
G1 X142.878 Y147.460 F6000.000
G1 E1.50000 F1800.000
;WIDTH:0.473989
G1 F1200.000
G1 X142.814 Y147.767 E0.01322
G1 X142.810 Y147.788 E0.00089
;WIDTH:0.549388
G1 X142.801 Y147.829 E0.00201
;WIDTH:0.587088
G1 X142.794 Y147.869 E0.00220
;WIDTH:0.645065
G1 X142.791 Y147.889 E0.00120
G1 X142.834 Y147.939 E0.00388
G1 X142.877 Y147.988 E0.00388
G1 X142.980 Y148.091 E0.00862
;WIDTH:0.580633
G1 X143.083 Y148.194 E0.00769
;WIDTH:0.532273
G1 X143.186 Y148.296 E0.00699
;WIDTH:0.483913
G1 X143.289 Y148.399 E0.00628
;WIDTH:0.435553
G1 X143.393 Y148.502 E0.00558
G1 X143.402 Y148.511 E0.00049
G1 X143.432 Y148.532 E0.00142
G1 X143.580 Y148.630 E0.00681
;WIDTH:0.388349
G1 X143.729 Y148.727 E0.00597
;WIDTH:0.353223
G1 X143.878 Y148.825 E0.00535
;WIDTH:0.318098
G1 X144.026 Y148.922 E0.00473
G1 X144.102 Y148.964 E0.00231
;WIDTH:0.267594
G1 X144.178 Y149.007 E0.00187
G1 X144.203 Y149.019 E0.00060
G1 X144.460 Y149.121 E0.00596
G1 X144.717 Y149.222 E0.00596
G1 X144.874 Y149.272 E0.00355
;WIDTH:0.189137
G1 X145.031 Y149.321 E0.00226
G1 X145.048 Y149.326 E0.00025
G1 X145.250 Y149.361 E0.00282
;WIDTH:0.224365
G1 X145.452 Y149.397 E0.00354
G1 X145.686 Y149.421 E0.00406
;WIDTH:0.19805
G1 X145.920 Y149.445 E0.00344
G1 X145.940 Y149.446 E0.00028
G1 X146.073 Y149.442 E0.00195
;WIDTH:0.254346
G1 X146.206 Y149.439 E0.00270
G1 X146.513 Y149.408 E0.00623
;WIDTH:0.292599
G1 X146.819 Y149.377 E0.00740
G1 X146.865 Y149.369 E0.00113
G1 X147.543 Y149.088 E0.01766
G1 X147.681 Y149.033 E0.00357
G1 X147.726 Y149.009 E0.00122
G1 X147.770 Y148.984 E0.00122
G1 X147.823 Y148.966 E0.00135
;WIDTH:0.198173
G1 X147.876 Y148.947 E0.00082
G1 X147.990 Y148.907 E0.00176
G1 E-1.50000 F3000.000
G1 X135.442 Y144.969 F6000.000
G1 E1.50000 F1800.000
;TYPE:Solid infill
;WIDTH:0.511875
G1 X136.679 Y146.207 E0.07978
G1 X136.272 Y146.323 E0.01930
G1 X136.217 Y146.351 E0.00279
G1 X132.386 Y142.519 E0.24706
G1 X131.811 Y142.290 E0.02822
G1 X131.466 Y142.206 E0.01619
G1 X135.814 Y146.554 E0.28038
G1 X135.620 Y146.652 E0.00993
G1 X135.442 Y146.788 E0.01020
G1 X130.733 Y142.079 E0.30364
G1 X130.450 Y142.049 E0.01295
G1 X130.139 Y142.091 E0.01433
G1 X135.099 Y147.050 E0.31981
G1 X135.094 Y147.054 E0.00029
G1 X134.783 Y147.341 E0.01926
G1 X129.603 Y142.161 E0.33398
G1 X129.408 Y142.187 E0.00898
G1 X129.136 Y142.299 E0.01344
G1 X134.524 Y147.687 E0.34741
G1 X134.266 Y148.035 E0.01975
G1 X128.707 Y142.477 E0.35840
G1 X128.456 Y142.581 E0.01240
G1 X128.314 Y142.690 E0.00815
G1 X133.975 Y148.351 E0.36503
G1 X133.694 Y148.638 E0.01832
G1 X133.672 Y148.654 E0.00123
G1 X127.971 Y142.953 E0.36761
G1 X127.638 Y143.208 E0.01914
G1 X127.631 Y143.218 E0.00057
G1 X133.330 Y148.918 E0.36749
G1 X133.118 Y149.081 E0.01221
G1 X132.971 Y149.164 E0.00770
G1 X127.368 Y143.561 E0.36130
G1 X127.105 Y143.904 E0.01971
G1 X132.585 Y149.384 E0.35336
G1 X132.486 Y149.441 E0.00518
G1 X132.164 Y149.569 E0.01583
G1 X126.897 Y144.302 E0.33961
G1 X126.719 Y144.731 E0.02115
