; generated by SuperSlicer 2.5.59 on 2022-11-30 at 18:25:27 UTC


;
;

;
;
; 

; external perimeters extrusion width = 0.15mm
; perimeters extrusion width = 0.17mm
; infill extrusion width = 0.24mm
; solid infill extrusion width = 0.21mm
; top infill extrusion width = 0.15mm
; first layer extrusion width = 0.19mm

; object:{"name":"Flag_base_250mm","id":"Flag_base_250mm.STL id:0 copy 0","object_center":[152.500000,150.000000,0.000000],"boundingbox_center":[152.500000,150.000000,22.655563],"boundingbox_size":[15.069005,4.190720,45.311127]}
; plater:{"center":[152.500000,150.000000,0.000000],"boundingbox_center":[152.500000,150.000000,22.655563],"boundingbox_size":[15.069005,4.190720,45.311127]}

M73 P0 R31


; Pre-Processed for Cancel-Object support by preprocess_cancellation v0.2.0
; 1 known objects
EXCLUDE_OBJECT_DEFINE NAME=Flag_base_250mm_STL_id_0_copy_0 CENTER=147.661,149.980 POLYGON=[[145.042,147.98],[145.042,152.02],[159.96,152.02],[159.96,147.98]]
;TYPE:Custom
START_PRINT T_BED=60 T_EXTRUDER=200
M107
G21 ; set units to millimeters
G90 ; use absolute coordinates
M83 ; use relative distances for extrusion
; Filament gcode
;_TOOLCHANGE 0
M109 S200 ; set temperature and wait for it to be reached
M190 S60 ; set bed temperature and wait for it to be reached
M107
;LAYER_CHANGE
;Z:0.1
;HEIGHT:0.1
G1 Z0.1 F9000
G92 E0
M73 P0 R31
G1 E-0.8 F3000
M204 S1000
G1 X142.341 Y145.195 F9000
G1 E0.8 F1800
;TYPE:Skirt
;WIDTH:0.195
G1 X141.536 Y146.155 E0.00868
G1 X140.985 Y147.11 E0.00764
G1 X140.556 Y148.287 E0.00868
G1 X140.365 Y149.374 E0.00764
G1 X140.365 Y150.626 E0.00868
G1 X140.556 Y151.713 E0.00764
G1 X140.985 Y152.89 E0.00868
G1 X141.536 Y153.845 E0.00764
G1 X142.341 Y154.805 E0.00868
G1 X143.186 Y155.514 E0.00764
G1 X144.271 Y156.14 E0.00868
G1 X145.308 Y156.518 E0.00764
G1 X146.542 Y156.735 E0.00868
G1 X147.645 Y156.735 E0.00764
G1 X148.879 Y156.518 E0.00868
G1 X149.915 Y156.14 E0.00764
G1 X151 Y155.514 E0.00868
G1 X151.845 Y154.805 E0.00764
G1 X152.65 Y153.845 E0.00868
G1 X153.202 Y152.89 E0.00764
G1 X153.63 Y151.713 E0.00868
G1 X153.822 Y150.626 E0.00764
G1 X153.822 Y149.374 E0.00868
G1 X153.63 Y148.287 E0.00764
G1 X153.202 Y147.11 E0.00868
G1 X152.65 Y146.155 E0.00764
G1 X151.845 Y145.195 E0.00868
G1 X151 Y144.486 E0.00764
G1 X149.915 Y143.86 E0.00868
G1 X148.878 Y143.482 E0.00764
G1 X147.645 Y143.265 E0.00868
G1 X146.542 Y143.265 E0.00764
G1 X145.308 Y143.482 E0.00868
G1 X144.271 Y143.86 E0.00764
G1 X143.186 Y144.486 E0.00868
G1 X142.341 Y145.195 E0.00764
G1 X142.453 Y145.328 F9000
G1 F1800
G1 X141.686 Y146.242 E0.00826
G1 X141.135 Y147.197 E0.00764
G1 X140.727 Y148.317 E0.00826
G1 X140.535 Y149.404 E0.00764
G1 X140.535 Y150.596 E0.00826
G1 X140.727 Y151.683 E0.00764
G1 X141.135 Y152.803 E0.00826
G1 X141.686 Y153.758 E0.00764
G1 X142.453 Y154.672 E0.00826
G1 X143.298 Y155.381 E0.00764
G1 X144.331 Y155.977 E0.00826
G1 X145.367 Y156.355 E0.00764
G1 X146.542 Y156.562 E0.00826
G1 X147.645 Y156.562 E0.00764
G1 X148.819 Y156.355 E0.00826
G1 X149.856 Y155.977 E0.00764
G1 X150.888 Y155.381 E0.00826
G1 X151.733 Y154.672 E0.00764
G1 X152.5 Y153.758 E0.00826
G1 X153.051 Y152.803 E0.00764
G1 X153.459 Y151.683 E0.00826
G1 X153.651 Y150.596 E0.00764
G1 X153.651 Y149.404 E0.00826
G1 X153.459 Y148.317 E0.00764
G1 X153.051 Y147.197 E0.00826
G1 X152.5 Y146.242 E0.00764
G1 X151.733 Y145.328 E0.00826
G1 X150.888 Y144.619 E0.00764
G1 X149.856 Y144.023 E0.00826
G1 X148.819 Y143.645 E0.00764
G1 X147.645 Y143.438 E0.00826
G1 X146.542 Y143.438 E0.00764
G1 X145.367 Y143.645 E0.00826
G1 X144.331 Y144.023 E0.00764
G1 X143.298 Y144.619 E0.00826
G1 X142.453 Y145.328 E0.00764
G1 X142.564 Y145.461 F9000
G1 F1800
G1 X141.837 Y146.328 E0.00784
G1 X141.285 Y147.284 E0.00764
G1 X140.898 Y148.348 E0.00784
G1 X140.706 Y149.434 E0.00764
G1 X140.706 Y150.566 E0.00784
G1 X140.898 Y151.652 E0.00764
G1 X141.285 Y152.716 E0.00784
G1 X141.837 Y153.672 E0.00764
G1 X142.565 Y154.539 E0.00784
G1 X143.41 Y155.248 E0.00764
G1 X144.39 Y155.814 E0.00784
G1 X145.426 Y156.191 E0.00764
G1 X146.542 Y156.388 E0.00784
G1 X147.645 Y156.388 E0.00764
G1 X148.76 Y156.191 E0.00784
G1 X149.796 Y155.814 E0.00764
G1 X150.777 Y155.248 E0.00784
G1 X151.622 Y154.539 E0.00764
G1 X152.35 Y153.672 E0.00784
G1 X152.901 Y152.716 E0.00764
G1 X153.288 Y151.652 E0.00784
G1 X153.48 Y150.566 E0.00764
G1 X153.48 Y149.434 E0.00784
G1 X153.288 Y148.348 E0.00764
G1 X152.901 Y147.284 E0.00784
G1 X152.35 Y146.328 E0.00764
G1 X151.622 Y145.461 E0.00784
G1 X150.777 Y144.752 E0.00764
G1 X149.796 Y144.186 E0.00784
G1 X148.76 Y143.809 E0.00764
G1 X147.645 Y143.612 E0.00784
G1 X146.542 Y143.612 E0.00764
G1 X145.427 Y143.809 E0.00784
G1 X144.39 Y144.186 E0.00764
G1 X143.409 Y144.752 E0.00784
G1 X142.564 Y145.461 E0.00764
G1 X142.676 Y145.594 F9000
G1 F1800
G1 X141.987 Y146.415 E0.00742
G1 X141.435 Y147.37 E0.00764
G1 X141.069 Y148.378 E0.00743
G1 X140.877 Y149.464 E0.00764
G1 X140.877 Y150.536 E0.00743
G1 X141.069 Y151.622 E0.00764
G1 X141.435 Y152.63 E0.00742
G1 X141.987 Y153.585 E0.00764
G1 X142.676 Y154.406 E0.00743
G1 X143.521 Y155.115 E0.00764
G1 X144.449 Y155.651 E0.00742
G1 X145.486 Y156.028 E0.00764
G1 X146.542 Y156.215 E0.00743
G1 X147.645 Y156.215 E0.00764
G1 X148.701 Y156.028 E0.00743
G1 X149.737 Y155.651 E0.00764
G1 X150.665 Y155.115 E0.00742
G1 X151.51 Y154.406 E0.00764
G1 X152.199 Y153.585 E0.00743
G1 X152.751 Y152.63 E0.00764
G1 X153.118 Y151.622 E0.00742
G1 X153.309 Y150.536 E0.00764
G1 X153.309 Y149.464 E0.00743
G1 X153.118 Y148.378 E0.00764
G1 X152.751 Y147.37 E0.00743
G1 X152.199 Y146.415 E0.00764
G1 X151.51 Y145.594 E0.00742
G1 X150.665 Y144.885 E0.00764
G1 X149.737 Y144.349 E0.00743
G1 X148.7 Y143.972 E0.00764
G1 X147.645 Y143.785 E0.00743
G1 X146.542 Y143.785 E0.00764
G1 X145.486 Y143.972 E0.00743
G1 X144.449 Y144.349 E0.00764
G1 X143.521 Y144.885 E0.00743
G1 X142.676 Y145.594 E0.00764
G1 E-0.8 F3000
G1 X144.892 Y148.044 F9000
G1 E0.8 F1800
;WIDTH:0.1875
G1 X145.43 Y147.558 E0.00481
G1 X146.504 Y147.106 E0.00772
G1 X147.664 Y147.102 E0.00769
G1 X148.698 Y147.521 E0.0074
G1 X149.499 Y148.285 E0.00733
G1 X149.939 Y149.207 E0.00677
G1 X150.045 Y150.069 E0.00575
G1 X149.903 Y150.911 E0.00566
G1 X149.38 Y151.867 E0.00722
G1 X148.576 Y152.553 E0.007
G1 X147.569 Y152.915 E0.00709
G1 X146.514 Y152.897 E0.00699
G1 X145.515 Y152.496 E0.00713
G1 X144.726 Y151.767 E0.00712
G1 X144.252 Y150.805 E0.0071
G1 X144.152 Y149.737 E0.00711
G1 X144.404 Y148.778 E0.00657
G1 X144.839 Y148.092 E0.00538
G1 X144.892 Y148.044 E0.00047
G1 X145.003 Y148.167 F9000
G1 F1800
G1 X145.531 Y147.69 E0.00471
G1 X146.552 Y147.266 E0.00733
G1 X147.648 Y147.268 E0.00726
G1 X148.596 Y147.652 E0.00678
G1 X149.356 Y148.371 E0.00693
G1 X149.776 Y149.241 E0.00641
G1 X149.879 Y150.053 E0.00542
G1 X149.742 Y150.87 E0.00549
G1 X149.261 Y151.751 E0.00666
G1 X148.505 Y152.402 E0.00661
G1 X147.557 Y152.749 E0.00669
G1 X146.532 Y152.731 E0.00679
G1 X145.616 Y152.364 E0.00654
G1 X144.867 Y151.679 E0.00673
G1 X144.415 Y150.774 E0.0067
G1 X144.316 Y149.764 E0.00673
G1 X144.551 Y148.856 E0.00622
G1 X144.959 Y148.208 E0.00507
G1 X145.003 Y148.167 E0.0004
G1 X145.112 Y148.289 F9000
G1 F1800
G1 X145.631 Y147.823 E0.00462
G1 X146.569 Y147.432 E0.00674
G1 X147.601 Y147.428 E0.00684
G1 X148.493 Y147.784 E0.00637
G1 X149.213 Y148.457 E0.00653
G1 X149.613 Y149.276 E0.00604
G1 X149.713 Y150.062 E0.00525
G1 X149.581 Y150.828 E0.00515
G1 X149.14 Y151.636 E0.0061
G1 X148.433 Y152.252 E0.00621
G1 X147.543 Y152.582 E0.00629
G1 X146.58 Y152.571 E0.00639
G1 X145.692 Y152.215 E0.00634
G1 X144.991 Y151.567 E0.00633
G1 X144.571 Y150.714 E0.0063
G1 X144.481 Y149.791 E0.00615
G1 X144.699 Y148.933 E0.00587
G1 X145.093 Y148.306 E0.00491
G1 X145.112 Y148.289 E0.00017
G1 X145.223 Y148.412 F9000
G1 F1800
G1 X145.731 Y147.956 E0.00453
G1 X146.618 Y147.591 E0.00635
G1 X147.555 Y147.588 E0.00621
G1 X148.392 Y147.917 E0.00596
G1 X149.071 Y148.544 E0.00613
G1 X149.45 Y149.311 E0.00567
G1 X149.547 Y150.046 E0.00491
G1 X149.419 Y150.786 E0.00498
G1 X149.002 Y151.543 E0.00573
G1 X148.361 Y152.101 E0.00563
G1 X147.5 Y152.421 E0.00609
G1 X146.598 Y152.405 E0.00598
G1 X145.793 Y152.083 E0.00574
G1 X145.133 Y151.48 E0.00593
G1 X144.735 Y150.682 E0.00591
G1 X144.645 Y149.817 E0.00576
G1 X144.846 Y149.01 E0.00551
G1 X145.213 Y148.421 E0.00459
G1 X145.223 Y148.412 E0.00009
G1 X145.347 Y148.519 F9000
G1 F1800
G1 X145.831 Y148.09 E0.00429
G1 X146.665 Y147.751 E0.00596
G1 X147.539 Y147.754 E0.00579
G1 X148.316 Y148.065 E0.00555
G1 X148.929 Y148.632 E0.00553
G1 X149.287 Y149.347 E0.0053
G1 X149.381 Y150.055 E0.00473
G1 X149.258 Y150.744 E0.00463
G1 X148.881 Y151.428 E0.00518
G1 X148.288 Y151.951 E0.00524
G1 X147.487 Y152.255 E0.00568
G1 X146.616 Y152.24 E0.00577
G1 X145.87 Y151.935 E0.00534
G1 X145.257 Y151.368 E0.00553
G1 X144.898 Y150.65 E0.00532
G1 X144.81 Y149.842 E0.00538
G1 X144.994 Y149.086 E0.00516
G1 X145.347 Y148.519 E0.00443
G1 X145.467 Y148.635 F9000
G1 F1800
G1 X145.931 Y148.223 E0.00411
G1 X146.682 Y147.917 E0.00537
G1 X147.493 Y147.914 E0.00537
G1 X148.216 Y148.198 E0.00515
G1 X148.788 Y148.721 E0.00514
G1 X149.125 Y149.382 E0.00492
G1 X149.215 Y150.064 E0.00456
G1 X149.097 Y150.7 E0.00429
G1 X148.76 Y151.313 E0.00464
G1 X148.214 Y151.802 E0.00485
G1 X147.473 Y152.089 E0.00527
G1 X146.663 Y152.08 E0.00537
G1 X145.971 Y151.802 E0.00495
G1 X145.398 Y151.279 E0.00514
G1 X145.061 Y150.616 E0.00493
G1 X144.975 Y149.867 E0.005
G1 X145.143 Y149.162 E0.0048
G1 X145.467 Y148.635 E0.0041
G1 X145.602 Y148.733 F9000
G1 F1800
G1 X146.03 Y148.357 E0.00377
G1 X146.728 Y148.077 E0.00499
G1 X147.477 Y148.08 E0.00496
G1 X148.116 Y148.331 E0.00455
G1 X148.648 Y148.81 E0.00474
G1 X148.962 Y149.418 E0.00454
G1 X149.048 Y150.072 E0.00437
G1 X148.937 Y150.656 E0.00394
G1 X148.638 Y151.2 E0.00411
G1 X148.139 Y151.653 E0.00447
G1 X147.458 Y151.923 E0.00485
G1 X146.71 Y151.92 E0.00496
G1 X146.071 Y151.669 E0.00455
G1 X145.539 Y151.19 E0.00474
G1 X145.224 Y150.581 E0.00454
G1 X145.14 Y149.89 E0.00461
G1 X145.291 Y149.238 E0.00444
G1 X145.602 Y148.733 E0.00393
G1 X145.721 Y148.849 F9000
G1 F1800
G1 X146.129 Y148.492 E0.0036
G1 X146.745 Y148.243 E0.0044
G1 X147.431 Y148.241 E0.00455
G1 X148.017 Y148.466 E0.00415
G1 X148.508 Y148.901 E0.00435
G1 X148.799 Y149.455 E0.00415
G1 X148.882 Y150.081 E0.00418
G1 X148.776 Y150.612 E0.00359
G1 X148.516 Y151.087 E0.00359
G1 X148.063 Y151.505 E0.00408
G1 X147.442 Y151.757 E0.00444
G1 X146.755 Y151.759 E0.00455
G1 X146.17 Y151.534 E0.00415
G1 X145.679 Y151.099 E0.00435
G1 X145.387 Y150.545 E0.00415
G1 X145.305 Y149.912 E0.00423
G1 X145.44 Y149.312 E0.00408
G1 X145.721 Y148.849 E0.00359
G1 X145.856 Y148.947 F9000
G1 F1800
G1 X146.227 Y148.626 E0.00325
G1 X146.791 Y148.403 E0.00402
G1 X147.387 Y148.402 E0.00395
G1 X147.919 Y148.601 E0.00376
G1 X148.368 Y148.993 E0.00395
G1 X148.637 Y149.492 E0.00376
G1 X148.716 Y150.062 E0.00381
G1 X148.616 Y150.567 E0.00341
G1 X148.377 Y150.994 E0.00325
G1 X147.962 Y151.372 E0.00372
G1 X147.395 Y151.597 E0.00404
G1 X146.799 Y151.598 E0.00395
G1 X146.268 Y151.399 E0.00376
G1 X145.818 Y151.007 E0.00395
G1 X145.55 Y150.508 E0.00376
G1 X145.471 Y149.933 E0.00384
G1 X145.589 Y149.386 E0.00371
G1 X145.856 Y148.947 E0.00341
G1 X145.975 Y149.064 F9000
G1 F1800
G1 X146.325 Y148.761 E0.00307
G1 X146.809 Y148.569 E0.00345
G1 X147.345 Y148.563 E0.00355
G1 X147.822 Y148.736 E0.00337
G1 X148.23 Y149.086 E0.00356
G1 X148.475 Y149.531 E0.00337
G1 X148.55 Y150.045 E0.00344
G1 X148.465 Y150.497 E0.00305
G1 X148.239 Y150.901 E0.00307
G1 X147.862 Y151.238 E0.00335
G1 X147.378 Y151.431 E0.00346
G1 X146.842 Y151.437 E0.00355
G1 X146.364 Y151.264 E0.00337
G1 X145.956 Y150.914 E0.00356
G1 X145.712 Y150.469 E0.00337
G1 X145.636 Y149.953 E0.00346
G1 X145.739 Y149.459 E0.00334
G1 X145.975 Y149.064 E0.00305
G1 X146.094 Y149.18 F9000
G1 F1800
G1 X146.422 Y148.896 E0.00288
G1 X146.854 Y148.729 E0.00307
G1 X147.303 Y148.724 E0.00298
G1 X147.727 Y148.873 E0.00298
G1 X148.093 Y149.18 E0.00316
G1 X148.313 Y149.572 E0.00298
G1 X148.385 Y150.029 E0.00307
G1 X148.313 Y150.428 E0.00269
G1 X148.101 Y150.808 E0.00288
G1 X147.764 Y151.104 E0.00297
G1 X147.332 Y151.271 E0.00307
G1 X146.883 Y151.276 E0.00298
G1 X146.459 Y151.127 E0.00298
G1 X146.094 Y150.82 E0.00316
G1 X145.873 Y150.428 E0.00298
G1 X145.802 Y149.971 E0.00307
G1 X145.89 Y149.531 E0.00297
G1 X146.094 Y149.18 E0.00269
G1 X146.225 Y149.281 F9000
G1 F1800
G1 X146.235 Y149.27 E0.0001
G1 X146.524 Y149.028 E0.0025
G1 X146.536 Y149.021 E0.0001
G1 X146.89 Y148.892 E0.0025
G1 X146.905 Y148.889 E0.0001
G1 X147.282 Y148.889 E0.0025
G1 X147.296 Y148.892 E0.0001
G1 X147.65 Y149.021 E0.0025
G1 X147.663 Y149.028 E0.0001
G1 X147.952 Y149.27 E0.0025
G1 X147.961 Y149.281 E0.0001
G1 X148.149 Y149.608 E0.0025
G1 X148.154 Y149.621 E0.0001
G1 X148.22 Y149.993 E0.0025
G1 X148.22 Y150.007 E0.0001
G1 X148.154 Y150.379 E0.0025
G1 X148.149 Y150.392 E0.0001
G1 X147.961 Y150.719 E0.0025
G1 X147.952 Y150.73 E0.0001
G1 X147.663 Y150.972 E0.0025
G1 X147.65 Y150.979 E0.0001
G1 X147.296 Y151.108 E0.0025
G1 X147.282 Y151.111 E0.0001
G1 X146.905 Y151.111 E0.0025
G1 X146.89 Y151.108 E0.0001
G1 X146.536 Y150.979 E0.0025
G1 X146.524 Y150.972 E0.0001
G1 X146.235 Y150.73 E0.0025
G1 X146.225 Y150.719 E0.0001
G1 X146.037 Y150.392 E0.0025
G1 X146.032 Y150.379 E0.0001
G1 X145.967 Y150.007 E0.0025
G1 X145.967 Y149.993 E0.0001
G1 X146.032 Y149.621 E0.0025
G1 X146.037 Y149.608 E0.0001
G1 X146.225 Y149.281 E0.0025
; printing object Flag_base_250mm.STL id:0 copy 0
EXCLUDE_OBJECT_START NAME=Flag_base_250mm_STL_id_0_copy_0
G1 X146.547 Y149.542 F9000
;TYPE:Internal perimeter
G1 F1800
G1 X146.737 Y149.383 E0.00164
G1 X146.969 Y149.298 E0.00164
G1 X147.217 Y149.298 E0.00164
G1 X147.345 Y149.345 E0.0009
G1 X147.45 Y149.383 E0.00074
G1 X147.639 Y149.542 E0.00164
G1 X147.763 Y149.756 E0.00164
G1 X147.806 Y150 E0.00164
G1 X147.763 Y150.244 E0.00164
G1 X147.639 Y150.458 E0.00164
G1 X147.45 Y150.617 E0.00164
G1 X147.217 Y150.702 E0.00164
G1 X146.969 Y150.702 E0.00164
G1 X146.737 Y150.617 E0.00164
G1 X146.547 Y150.458 E0.00164
G1 X146.423 Y150.244 E0.00164
G1 X146.38 Y150 E0.00164
G1 X146.423 Y149.756 E0.00164
G1 X146.547 Y149.542 E0.00164
G1 X146.403 Y149.459 F9000
G1 F1800
G1 X146.418 Y149.433 E0.00019
G1 X146.652 Y149.237 E0.00203
G1 X146.94 Y149.132 E0.00203
G1 X147.246 Y149.132 E0.00203
G1 X147.402 Y149.189 E0.0011
G1 X147.534 Y149.237 E0.00093
G1 X147.768 Y149.433 E0.00203
G1 X147.921 Y149.699 E0.00203
G1 X147.975 Y150 E0.00203
G1 X147.921 Y150.301 E0.00203
G1 X147.768 Y150.567 E0.00203
G1 X147.534 Y150.763 E0.00203
G1 X147.246 Y150.868 E0.00203
G1 X146.94 Y150.868 E0.00203
G1 X146.652 Y150.763 E0.00203
G1 X146.418 Y150.567 E0.00203
G1 X146.265 Y150.301 E0.00203
G1 X146.212 Y150 E0.00203
G1 X146.265 Y149.699 E0.00203
G1 X146.403 Y149.459 E0.00183
G1 X146.289 Y149.325 F9000
;TYPE:External perimeter
G1 F1800
G1 X146.568 Y149.091 E0.00242
G1 X146.911 Y148.966 E0.00242
G1 X147.276 Y148.966 E0.00242
G1 X147.458 Y149.033 E0.00129
G1 X147.618 Y149.091 E0.00113
G1 X147.898 Y149.325 E0.00242
G1 X148.08 Y149.641 E0.00242
G1 X148.143 Y150 E0.00242
G1 X148.08 Y150.359 E0.00242
G1 X147.898 Y150.675 E0.00242
G1 X147.618 Y150.909 E0.00242
G1 X147.276 Y151.034 E0.00242
G1 X146.911 Y151.034 E0.00242
G1 X146.568 Y150.909 E0.00242
G1 X146.289 Y150.675 E0.00242
G1 X146.107 Y150.359 E0.00242
G1 X146.043 Y150 E0.00242
G1 X146.107 Y149.641 E0.00242
G1 X146.289 Y149.325 E0.00242
;WIPE_START
M204 S3000
G1 X146.435 Y149.36 F9000
;WIPE_END
M204 S1000
G1 X147.738 Y149.782
;TYPE:Solid infill
;WIDTH:0.208899
G1 F2400
G1 X147.323 Y149.367 E0.00434
G1 X147.055 Y149.334 F9000
G1 F2400
G1 X147.738 Y150.017 E0.00714
G1 X147.733 Y150.246 F9000
G1 F2400
G1 X146.853 Y149.367 E0.00918
G1 X146.708 Y149.456 F9000
G1 F2400
G1 X147.647 Y150.395 E0.00981
G1 X147.517 Y150.5 F9000
G1 F2400
G1 X146.6 Y149.584 E0.00957
G1 X146.493 Y149.712 F9000
G1 F2400
G1 X147.368 Y150.586 E0.00913
G1 X147.219 Y150.672 F9000
G1 F2400
G1 X146.448 Y149.901 E0.00805
G1 X146.448 Y150.136 F9000
G1 F2400
G1 X146.94 Y150.628 E0.00513
;LAYER_CHANGE
;Z:0.2
;HEIGHT:0.1
