; generated by SuperSlicer 2.4 on 2022-08-27 at 19:13:17 UTC


;
;

;
;
; 

; external perimeters extrusion width = 0.40mm
; perimeters extrusion width = 0.50mm
; infill extrusion width = 0.72mm
; solid infill extrusion width = 0.56mm
; top infill extrusion width = 0.40mm
; support material extrusion width = 0.50mm

; external perimeters extrusion width = 0.40mm
; perimeters extrusion width = 0.50mm
; infill extrusion width = 0.72mm
; solid infill extrusion width = 0.56mm
; top infill extrusion width = 0.40mm
; support material extrusion width = 0.50mm

; external perimeters extrusion width = 0.40mm
; perimeters extrusion width = 0.50mm
; infill extrusion width = 0.72mm
; solid infill extrusion width = 0.56mm
; top infill extrusion width = 0.40mm
; support material extrusion width = 0.50mm

; object:{"name":"Flex_Strap","id":"Flex_Strap.stl id:0 copy 0","object_center":[165.000000,144.000000,0.000000],"boundingbox_center":[165.000000,144.000000,3.000000],"boundingbox_size":[150.000000,15.000000,6.000000]}
; object:{"name":"Flex_Strap","id":"Flex_Strap.stl id:1 copy 0","object_center":[165.000000,165.000000,0.000000],"boundingbox_center":[165.000000,165.000000,3.000000],"boundingbox_size":[150.000000,15.000000,6.000000]}
; object:{"name":"Flex_Strap","id":"Flex_Strap.stl id:2 copy 0","object_center":[165.000000,186.000000,0.000000],"boundingbox_center":[165.000000,186.000000,3.000000],"boundingbox_size":[150.000000,15.000000,6.000000]}
; plater:{"center":[165.000000,165.000000,0.000000],"boundingbox_center":[165.000000,165.000000,3.000000],"boundingbox_size":[150.000000,57.000000,6.000000]}

M73 P0 R84
;TYPE:Custom
START_PRINT T_BED=60 T_EXTRUDER=220
M107
G21 ; set units to millimeters
G90 ; use absolute coordinates
M83 ; use relative distances for extrusion
; Filament gcode
;_TOOLCHANGE 0
M104 S220 ; set temperature
M109 S220 ; set temperature and wait for it to be reached
M190 S60 ; set bed temperature and wait for it to be reached
M107
;LAYER_CHANGE
;Z:0.2
;HEIGHT:0.2
G1 Z0.2 F9000
G92 E0
M204 S1000
M73 P0 R84
G1 X88.789 Y133.907
;TYPE:Skirt
;WIDTH:0.52
G1 F1800
G1 X88.395 Y134.209 E0.01967
G1 X87.407 Y135.289 E0.05803
G1 X86.733 Y136.587 E0.05803
G1 X86.482 Y137.524 E0.03848
G1 X86.384 Y138.507 E0.03919
G1 X86.384 Y191.493 E2.10195
G1 X86.482 Y192.476 E0.03919
G1 X86.733 Y193.413 E0.03848
G1 X86.923 Y193.872 E0.01967
G1 X87.709 Y195.105 E0.05803
G1 X88.789 Y196.093 E0.05804
G1 X90.087 Y196.767 E0.05803
G1 X91.023 Y197.018 E0.03848
G1 X92.007 Y197.116 E0.03919
G1 X237.993 Y197.116 E5.7912
G1 X238.977 Y197.018 E0.03919
G1 X239.913 Y196.767 E0.03848
G1 X241.211 Y196.093 E0.05803
G1 X241.605 Y195.791 E0.01967
G1 X242.592 Y194.712 E0.05803
G1 X243.267 Y193.413 E0.05803
G1 X243.518 Y192.476 E0.03848
G1 X243.616 Y191.493 E0.03919
G1 X243.616 Y138.507 E2.10195
G1 X243.518 Y137.524 E0.03919
G1 X243.267 Y136.587 E0.03848
G1 X242.592 Y135.288 E0.05803
G1 X242.291 Y134.895 E0.01967
G1 X241.211 Y133.907 E0.05803
G1 X240.371 Y133.423 E0.03848
G1 X238.977 Y132.982 E0.05803
G1 X238.478 Y132.916 E0.01993
G1 X92.007 Y132.884 E5.81044
G1 X91.023 Y132.982 E0.03919
G1 X90.087 Y133.233 E0.03848
G1 X88.789 Y133.907 E0.05803
G1 X89.079 Y134.286 F9000
G1 F1800
G1 X88.686 Y134.588 E0.01967
G1 X87.786 Y135.579 E0.0531
G1 X87.174 Y136.769 E0.0531
G1 X86.955 Y137.586 E0.03354
G1 X86.861 Y138.507 E0.03671
G1 X86.861 Y191.493 E2.10195
G1 X86.955 Y192.414 E0.03671
G1 X87.174 Y193.231 E0.03354
G1 X87.363 Y193.689 E0.01967
G1 X88.088 Y194.814 E0.0531
G1 X89.079 Y195.714 E0.0531
G1 X90.269 Y196.326 E0.0531
G1 X91.086 Y196.545 E0.03354
G1 X92.007 Y196.639 E0.03671
G1 X237.993 Y196.639 E5.7912
G1 X238.914 Y196.545 E0.03671
G1 X239.731 Y196.326 E0.03354
G1 X240.921 Y195.714 E0.0531
G1 X241.314 Y195.412 E0.01967
G1 X242.214 Y194.421 E0.0531
G1 X242.826 Y193.231 E0.0531
G1 X243.045 Y192.414 E0.03354
G1 X243.139 Y191.493 E0.03671
G1 X243.139 Y138.507 E2.10195
G1 X243.045 Y137.586 E0.03671
G1 X242.826 Y136.769 E0.03354
G1 X242.214 Y135.579 E0.0531
G1 X241.912 Y135.186 E0.01967
G1 X240.921 Y134.286 E0.0531
G1 X240.189 Y133.863 E0.03354
G1 X238.914 Y133.455 E0.0531
G1 X238.416 Y133.389 E0.01993
G1 X92.007 Y133.361 E5.80797
M73 P1 R83
G1 X91.086 Y133.455 E0.03671
G1 X90.269 Y133.674 E0.03354
G1 X89.079 Y134.286 E0.0531
; printing object Flex_Strap.stl id:0 copy 0
G1 X162.818 Y137.664 F9000
;TYPE:Internal perimeter
;WIDTH:0.5
G1 F1800
G1 X167.182 Y137.664 E0.16584
G1 X166.128 Y138.718 E0.05663
G1 X166.128 Y149.282 E0.40151
G1 X167.182 Y150.336 E0.05663
G1 X162.818 Y150.336 E0.16584
G1 X163.872 Y149.282 E0.05663
G1 X163.872 Y138.718 E0.40151
G1 X162.818 Y137.664 E0.05663
G1 X166.704 Y138.788 F9000
G1 F1800
G1 X166.585 Y138.907 E0.00641
G1 X166.585 Y149.093 E0.38712
G1 X167.099 Y149.607 E0.02764
G1 X173.285 Y149.607 E0.2351
G1 X173.799 Y149.093 E0.02764
G1 X173.799 Y138.907 E0.38712
G1 X173.285 Y138.393 E0.02764
G1 X167.099 Y138.393 E0.2351
G1 X166.704 Y138.788 E0.02123
G1 X166.992 Y139.076 F9000
;TYPE:External perimeter
;WIDTH:0.4
G1 F1800
G1 X166.992 Y148.924 E0.29242
G1 X167.268 Y149.2 E0.01158
G1 X173.117 Y149.2 E0.17365
G1 X173.392 Y148.924 E0.01158
G1 X173.392 Y139.076 E0.29242
G1 X173.117 Y138.8 E0.01158
G1 X167.268 Y138.8 E0.17365
G1 X166.992 Y139.076 E0.01158
;WIPE_START
M204 S3000
G1 X166.606 Y139.179 F9000
;WIPE_END
M204 S1000
G1 X177.566 Y137.664
;TYPE:Internal perimeter
;WIDTH:0.5
G1 F1800
G1 X176.513 Y138.718 E0.05663
G1 X176.513 Y149.282 E0.40151
G1 X177.566 Y150.336 E0.05663
G1 X173.203 Y150.336 E0.16584
G1 X174.256 Y149.282 E0.05663
G1 X174.256 Y138.718 E0.40151
G1 X173.203 Y137.664 E0.05663
G1 X177.566 Y137.664 E0.16584
G1 X177.089 Y138.788 F9000
G1 F1800
G1 X176.97 Y138.907 E0.00641
G1 X176.97 Y149.093 E0.38712
G1 X177.484 Y149.607 E0.02764
G1 X183.67 Y149.607 E0.2351
G1 X184.184 Y149.093 E0.02764
G1 X184.184 Y138.907 E0.38712
G1 X183.67 Y138.393 E0.02764
G1 X177.484 Y138.393 E0.2351
G1 X177.089 Y138.788 E0.02123
G1 X177.377 Y139.076 F9000
;TYPE:External perimeter
;WIDTH:0.4
G1 F1800
G1 X177.377 Y148.924 E0.29242
G1 X177.653 Y149.2 E0.01158
G1 X183.501 Y149.2 E0.17365
G1 X183.777 Y148.924 E0.01158
G1 X183.777 Y139.076 E0.29242
G1 X183.501 Y138.8 E0.01158
G1 X177.653 Y138.8 E0.17365
G1 X177.377 Y139.076 E0.01158
;WIPE_START
M204 S3000
G1 X176.991 Y139.179 F9000
;WIPE_END
M204 S1000
G1 X187.951 Y137.664
;TYPE:Internal perimeter
;WIDTH:0.5
G1 F1800
G1 X186.897 Y138.718 E0.05663
G1 X186.897 Y149.282 E0.40151
G1 X187.951 Y150.336 E0.05663
G1 X183.587 Y150.336 E0.16584
G1 X184.641 Y149.282 E0.05663
G1 X184.641 Y138.718 E0.40151
G1 X183.587 Y137.664 E0.05663
G1 X187.951 Y137.664 E0.16584
G1 X187.474 Y138.788 F9000
G1 F1800
G1 X187.354 Y138.907 E0.00641
G1 X187.354 Y149.093 E0.38712
G1 X187.869 Y149.607 E0.02764
G1 X194.054 Y149.607 E0.2351
G1 X194.569 Y149.093 E0.02764
G1 X194.569 Y138.907 E0.38712
G1 X194.054 Y138.393 E0.02764
G1 X187.869 Y138.393 E0.2351
G1 X187.474 Y138.788 E0.02123
G1 X187.762 Y139.076 F9000
;TYPE:External perimeter
;WIDTH:0.4
G1 F1800
G1 X187.762 Y148.924 E0.29242
G1 X188.037 Y149.2 E0.01158
G1 X193.886 Y149.2 E0.17365
G1 X194.162 Y148.924 E0.01158
G1 X194.162 Y139.076 E0.29242
G1 X193.886 Y138.8 E0.01158
G1 X188.037 Y138.8 E0.17365
G1 X187.762 Y139.076 E0.01158
;WIPE_START
M204 S3000
G1 X187.375 Y139.179 F9000
;WIPE_END
M204 S1000
G1 X198.336 Y137.664
;TYPE:Internal perimeter
;WIDTH:0.5
G1 F1800
G1 X197.282 Y138.718 E0.05663
G1 X197.282 Y149.282 E0.40151
G1 X198.336 Y150.336 E0.05663
G1 X193.972 Y150.336 E0.16584
G1 X195.026 Y149.282 E0.05663
G1 X195.026 Y138.718 E0.40151
G1 X193.972 Y137.664 E0.05663
G1 X198.336 Y137.664 E0.16584
G1 X197.858 Y138.788 F9000
G1 F1800
G1 X197.739 Y138.907 E0.00641
G1 X197.739 Y149.093 E0.38712
G1 X198.253 Y149.607 E0.02764
G1 X204.439 Y149.607 E0.2351
G1 X204.953 Y149.093 E0.02764
G1 X204.953 Y138.907 E0.38712
G1 X204.439 Y138.393 E0.02764
G1 X198.253 Y138.393 E0.2351
G1 X197.858 Y138.788 E0.02123
G1 X198.146 Y139.076 F9000
;TYPE:External perimeter
;WIDTH:0.4
G1 F1800
G1 X198.146 Y148.924 E0.29242
G1 X198.422 Y149.2 E0.01158
G1 X204.27 Y149.2 E0.17365
G1 X204.546 Y148.924 E0.01158
G1 X204.546 Y139.076 E0.29242
G1 X204.27 Y138.8 E0.01158
G1 X198.422 Y138.8 E0.17365
G1 X198.146 Y139.076 E0.01158
;WIPE_START
M204 S3000
G1 X197.76 Y139.179 F9000
;WIPE_END
M204 S1000
G1 X208.72 Y137.664
;TYPE:Internal perimeter
;WIDTH:0.5
G1 F1800
G1 X207.667 Y138.718 E0.05663
G1 X207.667 Y149.282 E0.40151
G1 X208.72 Y150.336 E0.05663
G1 X204.357 Y150.336 E0.16584
G1 X205.41 Y149.282 E0.05663
G1 X205.41 Y138.718 E0.40151
M73 P1 R83
G1 X204.357 Y137.664 E0.05663
G1 X208.72 Y137.664 E0.16584
G1 X208.243 Y138.788 F9000
G1 F1800
G1 X208.124 Y138.907 E0.00641
G1 X208.124 Y149.093 E0.38712
G1 X208.638 Y149.607 E0.02764
G1 X214.824 Y149.607 E0.2351
G1 X215.338 Y149.093 E0.02764
G1 X215.338 Y138.907 E0.38712
G1 X214.824 Y138.393 E0.02764
G1 X208.638 Y138.393 E0.2351
G1 X208.243 Y138.788 E0.02123
G1 X208.531 Y139.076 F9000
;TYPE:External perimeter
;WIDTH:0.4
G1 F1800
G1 X208.531 Y148.924 E0.29242
G1 X208.807 Y149.2 E0.01158
G1 X214.655 Y149.2 E0.17365
G1 X214.931 Y148.924 E0.01158
G1 X214.931 Y139.076 E0.29242
G1 X214.655 Y138.8 E0.01158
G1 X208.807 Y138.8 E0.17365
G1 X208.531 Y139.076 E0.01158
;WIPE_START
M204 S3000
G1 X208.144 Y139.179 F9000
;WIPE_END
M204 S1000
G1 X219.105 Y137.664
;TYPE:Internal perimeter
;WIDTH:0.5
G1 F1800
G1 X218.051 Y138.718 E0.05663
G1 X218.051 Y149.282 E0.40151
G1 X219.105 Y150.336 E0.05663
G1 X214.741 Y150.336 E0.16584
G1 X215.795 Y149.282 E0.05663
G1 X215.795 Y138.718 E0.40151
G1 X214.741 Y137.664 E0.05663
G1 X219.105 Y137.664 E0.16584
G1 X218.628 Y138.788 F9000
G1 F1800
G1 X218.508 Y138.907 E0.00641
G1 X218.508 Y149.093 E0.38712
G1 X219.023 Y149.607 E0.02764
G1 X225.208 Y149.607 E0.2351
G1 X225.722 Y149.093 E0.02764
G1 X225.722 Y138.907 E0.38712
G1 X225.208 Y138.393 E0.02764
G1 X219.023 Y138.393 E0.2351
G1 X218.628 Y138.788 E0.02123
G1 X218.915 Y139.076 F9000
;TYPE:External perimeter
;WIDTH:0.4
G1 F1800
G1 X218.915 Y148.924 E0.29242
G1 X219.191 Y149.2 E0.01158
G1 X225.04 Y149.2 E0.17365
G1 X225.315 Y148.924 E0.01158
G1 X225.315 Y139.076 E0.29242
G1 X225.04 Y138.8 E0.01158
G1 X219.191 Y138.8 E0.17365
G1 X218.915 Y139.076 E0.01158
;WIPE_START
M204 S3000
G1 X218.529 Y139.179 F9000
;WIPE_END
M204 S1000
G1 X229.489 Y137.664
;TYPE:Internal perimeter
;WIDTH:0.5
G1 F1800
G1 X228.436 Y138.718 E0.05663
G1 X228.436 Y149.282 E0.40151
G1 X229.489 Y150.336 E0.05663
G1 X225.126 Y150.336 E0.16584
G1 X226.18 Y149.282 E0.05663
G1 X226.18 Y138.718 E0.40151
G1 X225.126 Y137.664 E0.05663
G1 X229.489 Y137.664 E0.16584
G1 X229.012 Y138.788 F9000
G1 F1800
G1 X228.893 Y138.907 E0.00641
G1 X228.893 Y149.093 E0.38712
G1 X229.407 Y149.607 E0.02764
G1 X235.593 Y149.607 E0.2351
G1 X236.107 Y149.093 E0.02764
G1 X236.107 Y138.907 E0.38712
G1 X235.593 Y138.393 E0.02764
G1 X229.407 Y138.393 E0.2351
G1 X229.012 Y138.788 E0.02123
G1 X229.3 Y139.076 F9000
;TYPE:External perimeter
;WIDTH:0.4
G1 F1800
G1 X229.3 Y148.924 E0.29242
G1 X229.576 Y149.2 E0.01158
G1 X235.424 Y149.2 E0.17365
G1 X235.7 Y148.924 E0.01158
G1 X235.7 Y139.076 E0.29242
G1 X235.424 Y138.8 E0.01158
G1 X229.576 Y138.8 E0.17365
G1 X229.3 Y139.076 E0.01158
;WIPE_START
M204 S3000
G1 X228.914 Y139.179 F9000
;WIPE_END
M204 S1000
G1 X235.511 Y137.664
;TYPE:Internal perimeter
;WIDTH:0.5
G1 F1800
G1 X237.924 Y137.664 E0.09172
G1 X238.214 Y137.702 E0.01112
G1 X238.413 Y137.785 E0.00819
G1 X238.584 Y137.916 E0.00819
G1 X238.715 Y138.087 E0.00819
G1 X238.798 Y138.286 E0.00819
G1 X238.836 Y138.576 E0.01112
G1 X238.836 Y149.424 E0.41227
G1 X238.798 Y149.714 E0.01112
G1 X238.715 Y149.913 E0.00819
G1 X238.584 Y150.084 E0.00819
G1 X238.413 Y150.215 E0.00819
G1 X238.214 Y150.298 E0.00819
G1 X237.924 Y150.336 E0.01112
G1 X235.511 Y150.336 E0.09172
G1 X236.564 Y149.282 E0.05663
G1 X236.564 Y138.718 E0.40151
G1 X235.511 Y137.664 E0.05663
G1 X163.296 Y138.788 F9000
G1 F1800
G1 X162.901 Y138.393 E0.02123
G1 X156.715 Y138.393 E0.2351
G1 X156.201 Y138.907 E0.02764
G1 X156.201 Y149.093 E0.38712
G1 X156.715 Y149.607 E0.02764
G1 X162.901 Y149.607 E0.2351
G1 X163.415 Y149.093 E0.02764
G1 X163.415 Y138.907 E0.38712
G1 X163.296 Y138.788 E0.00641
G1 X163.008 Y139.076 F9000
;TYPE:External perimeter
;WIDTH:0.4
G1 F1800
G1 X162.732 Y138.8 E0.01158
G1 X156.883 Y138.8 E0.17365
G1 X156.608 Y139.076 E0.01158
G1 X156.608 Y148.924 E0.29242
G1 X156.883 Y149.2 E0.01158
G1 X162.732 Y149.2 E0.17365
G1 X163.008 Y148.924 E0.01158
G1 X163.008 Y139.076 E0.29242
;WIPE_START
M204 S3000
G1 X163.208 Y138.729 F9000
;WIPE_END
M204 S1000
G1 X152.434 Y137.664
;TYPE:Internal perimeter
;WIDTH:0.5
G1 F1800
G1 X156.797 Y137.664 E0.16584
G1 X155.744 Y138.718 E0.05663
G1 X155.744 Y149.282 E0.40151
G1 X156.797 Y150.336 E0.05663
G1 X152.434 Y150.336 E0.16584
G1 X153.487 Y149.282 E0.05663
G1 X153.487 Y138.718 E0.40151
G1 X152.434 Y137.664 E0.05663
G1 X152.911 Y138.788 F9000
G1 F1800
G1 X152.516 Y138.393 E0.02123
G1 X146.33 Y138.393 E0.2351
G1 X145.816 Y138.907 E0.02764
G1 X145.816 Y149.093 E0.38712
G1 X146.33 Y149.607 E0.02764
G1 X152.516 Y149.607 E0.2351
G1 X153.03 Y149.093 E0.02764
G1 X153.03 Y138.907 E0.38712
G1 X152.911 Y138.788 E0.00641
G1 X152.623 Y139.076 F9000
;TYPE:External perimeter
;WIDTH:0.4
G1 F1800
G1 X152.347 Y138.8 E0.01158
G1 X146.499 Y138.8 E0.17365
G1 X146.223 Y139.076 E0.01158
G1 X146.223 Y148.924 E0.29242
G1 X146.499 Y149.2 E0.01158
G1 X152.347 Y149.2 E0.17365
G1 X152.623 Y148.924 E0.01158
G1 X152.623 Y139.076 E0.29242
;WIPE_START
M204 S3000
G1 X152.823 Y138.729 F9000
;WIPE_END
M204 S1000
G1 X142.049 Y137.664
;TYPE:Internal perimeter
;WIDTH:0.5
G1 F1800
G1 X146.413 Y137.664 E0.16584
G1 X145.359 Y138.718 E0.05663
G1 X145.359 Y149.282 E0.40151
G1 X146.413 Y150.336 E0.05663
G1 X142.049 Y150.336 E0.16584
G1 X143.103 Y149.282 E0.05663
G1 X143.103 Y138.718 E0.40151
G1 X142.049 Y137.664 E0.05663
G1 X142.526 Y138.788 F9000
G1 F1800
G1 X142.131 Y138.393 E0.02123
G1 X135.946 Y138.393 E0.2351
G1 X135.431 Y138.907 E0.02764
G1 X135.431 Y149.093 E0.38712
G1 X135.946 Y149.607 E0.02764
G1 X142.131 Y149.607 E0.2351
G1 X142.646 Y149.093 E0.02764
G1 X142.646 Y138.907 E0.38712
G1 X142.526 Y138.788 E0.00641
G1 X142.238 Y139.076 F9000
;TYPE:External perimeter
;WIDTH:0.4
G1 F1800
G1 X141.963 Y138.8 E0.01158
G1 X136.114 Y138.8 E0.17365
G1 X135.838 Y139.076 E0.01158
G1 X135.838 Y148.924 E0.29242
G1 X136.114 Y149.2 E0.01158
G1 X141.963 Y149.2 E0.17365
G1 X142.238 Y148.924 E0.01158
G1 X142.238 Y139.076 E0.29242
;WIPE_START
M204 S3000
G1 X142.438 Y138.729 F9000
;WIPE_END
M204 S1000
G1 X131.664 Y137.664
;TYPE:Internal perimeter
;WIDTH:0.5
G1 F1800
G1 X136.028 Y137.664 E0.16584
G1 X134.974 Y138.718 E0.05663
G1 X134.974 Y149.282 E0.40151
G1 X136.028 Y150.336 E0.05663
G1 X131.664 Y150.336 E0.16584
G1 X132.718 Y149.282 E0.05663
G1 X132.718 Y138.718 E0.40151
G1 X131.664 Y137.664 E0.05663
G1 X132.142 Y138.788 F9000
G1 F1800
G1 X131.747 Y138.393 E0.02123
G1 X125.561 Y138.393 E0.2351
G1 X125.047 Y138.907 E0.02764
G1 X125.047 Y149.093 E0.38712
G1 X125.561 Y149.607 E0.02764
G1 X131.747 Y149.607 E0.2351
G1 X132.261 Y149.093 E0.02764
G1 X132.261 Y138.907 E0.38712
G1 X132.142 Y138.788 E0.00641
G1 X131.854 Y139.076 F9000
;TYPE:External perimeter
;WIDTH:0.4
G1 F1800
G1 X131.578 Y138.8 E0.01158
G1 X125.73 Y138.8 E0.17365
G1 X125.454 Y139.076 E0.01158
G1 X125.454 Y148.924 E0.29242
G1 X125.73 Y149.2 E0.01158
G1 X131.578 Y149.2 E0.17365
G1 X131.854 Y148.924 E0.01158
G1 X131.854 Y139.076 E0.29242
;WIPE_START
M204 S3000
G1 X132.054 Y138.729 F9000
;WIPE_END
M204 S1000
G1 X121.28 Y137.664
;TYPE:Internal perimeter
;WIDTH:0.5
G1 F1800
G1 X125.643 Y137.664 E0.16584
G1 X124.59 Y138.718 E0.05663
G1 X124.59 Y149.282 E0.40151
G1 X125.643 Y150.336 E0.05663
G1 X121.28 Y150.336 E0.16584
G1 X122.333 Y149.282 E0.05663
G1 X122.333 Y138.718 E0.40151
G1 X121.28 Y137.664 E0.05663
G1 X121.757 Y138.788 F9000
G1 F1800
G1 X121.362 Y138.393 E0.02123
G1 X115.176 Y138.393 E0.2351
G1 X114.662 Y138.907 E0.02764
G1 X114.662 Y149.093 E0.38712
G1 X115.176 Y149.607 E0.02764
G1 X121.362 Y149.607 E0.2351
G1 X121.876 Y149.093 E0.02764
G1 X121.876 Y138.907 E0.38712
