; generated by SuperSlicer 2.3.57 on 2022-01-15 at 00:48:09 UTC


;
;

;
;
; 

; external perimeters extrusion width = 0.40mm
; perimeters extrusion width = 0.40mm
; infill extrusion width = 0.40mm
; solid infill extrusion width = 0.40mm
; top infill extrusion width = 0.40mm
; first layer extrusion width = 0.48mm

; external perimeters extrusion width = 0.40mm
; perimeters extrusion width = 0.40mm
; infill extrusion width = 0.40mm
; solid infill extrusion width = 0.40mm
; top infill extrusion width = 0.40mm
; first layer extrusion width = 0.48mm

; external perimeters extrusion width = 0.40mm
; perimeters extrusion width = 0.40mm
; infill extrusion width = 0.40mm
; solid infill extrusion width = 0.40mm
; top infill extrusion width = 0.40mm
; first layer extrusion width = 0.48mm

; external perimeters extrusion width = 0.40mm
; perimeters extrusion width = 0.40mm
; infill extrusion width = 0.40mm
; solid infill extrusion width = 0.40mm
; top infill extrusion width = 0.40mm
; first layer extrusion width = 0.48mm

; external perimeters extrusion width = 0.40mm
; perimeters extrusion width = 0.40mm
; infill extrusion width = 0.40mm
; solid infill extrusion width = 0.40mm
; top infill extrusion width = 0.40mm
; first layer extrusion width = 0.48mm


M140 S60 ; set bed temperature
M104 S200 ; set temperature
;TYPE:Custom
START_PRINT T_BED=60 T_EXTRUDER=200
M107
G21 ; set units to millimeters
G90 ; use absolute coordinates
M83 ; use relative distances for extrusion
; Filament gcode
M109 S200 ; set temperature and wait for it to be reached
M190 S60 ; set bed temperature and wait for it to be reached
;LAYER_CHANGE
;Z:0.24
;HEIGHT:0.24
G1 Z0.24 F9000
G1 E-0.6 F3000
M204 P1500
G1 X119.2 Y91.077 F9000
G1 E0.6 F1800
;TYPE:Skirt
;WIDTH:0.48
G1 F900
G1 X118.828 Y91.728 E0.03209
G1 X118.406 Y92.914 E0.05383
G1 X118.257 Y94.171 E0.05408
G1 X118.259 Y205.925 E4.77812
G1 X118.328 Y206.69 E0.03284
G1 X118.502 Y207.444 E0.03309
G1 X118.778 Y208.168 E0.03309
G1 X119.147 Y208.841 E0.03284
G1 X119.608 Y209.463 E0.03309
G1 X120.15 Y210.016 E0.03309
G1 X120.762 Y210.49 E0.03309
G1 X121.428 Y210.872 E0.03284
G1 X122.603 Y211.292 E0.05334
G1 X123.847 Y211.442 E0.05359
G1 X181.484 Y211.43 E2.46431
G1 X182.446 Y211.28 E0.0416
G1 X193.127 Y208.566 E0.4712
G1 X194.072 Y208.097 E0.0451
G1 X194.913 Y207.46 E0.0451
G1 X195.62 Y206.677 E0.0451
G1 X196.172 Y205.772 E0.04535
G1 X196.594 Y204.586 E0.05383
G1 X196.743 Y203.329 E0.05408
G1 X196.697 Y95.981 E4.58971
G1 X196.346 Y94.621 E0.06006
G1 X195.67 Y93.39 E0.06006
G1 X194.71 Y92.363 E0.06006
G1 X193.527 Y91.606 E0.06006
G1 X192.525 Y91.24 E0.0456
G1 X182.443 Y88.719 E0.44436
G1 X181.106 Y88.557 E0.05757
G1 X123.611 Y88.565 E2.45824
G1 X122.865 Y88.653 E0.03209
G1 X122.138 Y88.839 E0.03209
G1 X121.437 Y89.123 E0.03234
G1 X120.785 Y89.495 E0.03209
G1 X120.188 Y89.95 E0.03209
G1 X119.657 Y90.481 E0.03209
G1 X119.237 Y91.029 E0.02953
G1 X119.433 Y91.16 F9000
M204 P700
G1 X119.629 Y91.291
G1 F900
G1 X119.217 Y91.906 E0.03165
G1 X118.822 Y93.014 E0.0503
G1 X118.686 Y94.177 E0.05006
G1 X118.687 Y205.906 E4.77702
G1 X118.75 Y206.614 E0.03037
G1 X118.91 Y207.312 E0.03061
G1 X119.161 Y207.976 E0.03037
G1 X119.504 Y208.604 E0.03061
G1 X119.93 Y209.18 E0.03061
G1 X120.426 Y209.688 E0.03037
G1 X120.991 Y210.127 E0.03061
G1 X121.606 Y210.483 E0.03037
G1 X122.703 Y210.875 E0.04982
G1 X123.855 Y211.014 E0.04958
G1 X181.441 Y211.003 E2.46211
G1 X182.343 Y210.864 E0.03902
G1 X192.943 Y208.178 E0.46753
G1 X193.828 Y207.744 E0.04215
G1 X194.611 Y207.155 E0.04191
G1 X195.271 Y206.43 E0.04191
G1 X195.783 Y205.594 E0.04191
G1 X196.178 Y204.486 E0.0503
G1 X196.314 Y203.323 E0.05006
G1 X196.274 Y96.05 E4.58647
G1 X195.948 Y94.781 E0.05605
G1 X195.313 Y93.627 E0.05629
G1 X194.409 Y92.67 E0.05629
G1 X193.299 Y91.972 E0.05605
G1 X192.408 Y91.653 E0.04047
G1 X182.34 Y89.135 E0.44371
G1 X181.106 Y88.986 E0.05318
G1 X123.653 Y88.992 E2.45643
G1 X122.286 Y89.242 E0.0594
G1 X121.039 Y89.841 E0.05916
G1 X119.989 Y90.751 E0.0594
G1 X119.662 Y91.241 E0.02518
G1 E-0.6 F3000
M204 P1500
G1 X122.011 Y93.133 F9000
M204 P700
G1 X124.359 Y95.026
G1 E0.6 F1800
G1 F900
G1 X124.726 Y94.659 E0.02217
G1 X125.041 Y94.529 E0.01458
G1 X135.559 Y94.529 E0.44972
G1 X135.874 Y94.659 E0.01458
G1 X136.241 Y95.026 E0.02217
G1 X136.371 Y95.341 E0.01458
G1 X136.371 Y97.029 E0.07217
G1 X145.559 Y97.029 E0.39284
G1 X145.874 Y97.159 E0.01458
G1 X146.241 Y97.526 E0.02217
G1 X146.371 Y97.841 E0.01458
G1 X146.371 Y113.359 E0.6635
G1 X146.241 Y113.674 E0.01458
G1 X145.874 Y114.041 E0.02217
G1 X145.559 Y114.171 E0.01458
G1 X136.371 Y114.171 E0.39284
G1 X136.371 Y115.859 E0.07217
G1 X136.241 Y116.174 E0.01458
G1 X135.874 Y116.541 E0.02217
G1 X135.559 Y116.671 E0.01458
G1 X125.041 Y116.671 E0.44972
G1 X124.726 Y116.541 E0.01458
G1 X124.359 Y116.174 E0.02217
G1 X124.229 Y115.859 E0.01458
G1 X124.229 Y95.341 E0.87728
G1 X124.336 Y95.081 E0.01201
M204 P1500
G1 X124.529 Y95.175 F9000
M204 P700
G1 X124.722 Y95.269
G1 F900
G1 X124.969 Y95.022 E0.01488
G1 X125.126 Y94.957 E0.00729
G1 X135.474 Y94.957 E0.44243
G1 X135.631 Y95.022 E0.00729
G1 X135.878 Y95.269 E0.01488
G1 X135.943 Y95.426 E0.00729
G1 X135.943 Y97.457 E0.08685
G1 X145.474 Y97.457 E0.40751
G1 X145.631 Y97.522 E0.00729
G1 X145.878 Y97.769 E0.01488
G1 X145.943 Y97.926 E0.00729
G1 X145.943 Y113.274 E0.65621
G1 X145.878 Y113.431 E0.00729
G1 X145.631 Y113.678 E0.01488
G1 X145.474 Y113.743 E0.00729
G1 X135.943 Y113.743 E0.40751
G1 X135.943 Y115.774 E0.08685
G1 X135.878 Y115.931 E0.00729
G1 X135.631 Y116.178 E0.01488
G1 X135.474 Y116.243 E0.00729
G1 X125.126 Y116.243 E0.44243
G1 X124.969 Y116.178 E0.00729
G1 X124.722 Y115.931 E0.01488
G1 X124.657 Y115.774 E0.00729
G1 X124.657 Y95.426 E0.86999
G1 X124.7 Y95.324 E0.00472
M204 P1500
G1 X124.893 Y95.418 F9000
M204 P700
G1 X125.086 Y95.511
G1 F900
G1 X125.211 Y95.386 E0.00759
G1 X135.389 Y95.386 E0.43514
G1 X135.514 Y95.511 E0.00759
G1 X135.514 Y97.886 E0.10152
G1 X145.389 Y97.886 E0.42219
G1 X145.514 Y98.011 E0.00759
G1 X145.514 Y113.189 E0.64892
G1 X145.389 Y113.314 E0.00759
G1 X135.514 Y113.314 E0.42219
G1 X135.514 Y115.689 E0.10152
G1 X135.389 Y115.814 E0.00759
G1 X125.211 Y115.814 E0.43514
G1 X125.086 Y115.689 E0.00759
G1 X125.086 Y95.571 E0.86013
G1 E-0.6 F3000
M204 P1500
G1 X130.073 Y96.956 F9000
M204 P700
G1 X135.06 Y98.34
G1 E0.6 F1800
;TYPE:External perimeter
G1 F900
G1 X145.06 Y98.34 E0.39335
G1 X145.06 Y112.86 E0.57114
G1 X135.06 Y112.86 E0.39335
G1 X135.06 Y115.36 E0.09834
G1 X125.54 Y115.36 E0.37447
G1 X125.54 Y95.84 E0.76782
G1 X135.06 Y95.84 E0.37447
G1 X135.06 Y98.28 E0.09598
;WIPE_START
G1 X135.06 Y98.74 F9000
;WIPE_END
M204 P1500
G1 X134.846 Y98.754
M204 P700
G1 X134.632 Y98.768
;TYPE:Internal perimeter
G1 F900
G1 X144.632 Y98.768 E0.39335
G1 X144.632 Y112.432 E0.53743
G1 X134.632 Y112.432 E0.39335
G1 X134.632 Y114.932 E0.09834
G1 X125.968 Y114.932 E0.34076
G1 X125.968 Y96.268 E0.73411
G1 X134.632 Y96.268 E0.34076
G1 X134.632 Y98.708 E0.09598
M204 P1500
G1 X134.417 Y98.953 F9000
M204 P700
G1 X134.203 Y99.197
G1 F900
G1 X144.203 Y99.197 E0.39335
G1 X144.203 Y112.003 E0.50373
G1 X134.203 Y112.003 E0.39335
G1 X134.203 Y114.503 E0.09834
G1 X126.397 Y114.503 E0.30705
G1 X126.397 Y96.697 E0.7004
G1 X134.203 Y96.697 E0.30705
G1 X134.203 Y99.137 E0.09598
G1 E-0.6 F3000
M204 P1500
G1 X139.128 Y99.675 F9000
M204 P700
G1 X144.053 Y100.213
G1 E0.6 F1800
;TYPE:Solid infill
;WIDTH:0.482155
G1 X143.371 Y99.531 E0.03811
G1 X142.765 Y99.531 E0.02394
G1 X143.869 Y100.635 E0.06167
G1 X143.869 Y101.241 E0.02394
G1 X142.159 Y99.531 E0.09553
G1 X141.553 Y99.531 E0.02394
G1 X143.869 Y101.847 E0.12939
G1 X143.869 Y102.453 E0.02394
G1 X140.947 Y99.531 E0.16325
G1 X140.341 Y99.531 E0.02394
G1 X143.869 Y103.059 E0.19712
G1 X143.869 Y103.665 E0.02394
G1 X139.735 Y99.531 E0.23098
G1 X139.129 Y99.531 E0.02394
G1 X143.869 Y104.271 E0.26484
G1 X143.869 Y104.877 E0.02394
G1 X138.523 Y99.531 E0.2987
G1 X137.917 Y99.531 E0.02394
G1 X143.869 Y105.483 E0.33256
G1 X143.869 Y106.089 E0.02394
G1 X137.311 Y99.531 E0.36642
G1 X136.705 Y99.531 E0.02394
G1 X143.869 Y106.695 E0.40028
G1 X143.869 Y107.301 E0.02394
G1 X136.099 Y99.531 E0.43414
G1 X135.493 Y99.531 E0.02394
G1 X143.869 Y107.907 E0.468
G1 X143.869 Y108.513 E0.02394
G1 X134.703 Y99.347 E0.51216
G1 E-0.6 F3000
M204 P1500
G1 X134.378 Y98.416 F9000
M204 P700
G1 X134.053 Y97.485
G1 E0.6 F1800
G1 X133.599 Y97.031 E0.02535
G1 X132.993 Y97.031 E0.02394
G1 X133.869 Y97.907 E0.04892
G1 X133.869 Y98.513 E0.02394
G1 X132.387 Y97.031 E0.08278
G1 X131.781 Y97.031 E0.02394
G1 X133.869 Y99.119 E0.11664
G1 X133.869 Y99.531 E0.0163
G1 X134.281 Y99.531 E0.0163
G1 X143.869 Y109.119 E0.53573
G1 X143.869 Y109.725 E0.02394
G1 X131.175 Y97.031 E0.70928
G1 X130.569 Y97.031 E0.02394
G1 X143.869 Y110.331 E0.74314
G1 X143.869 Y110.937 E0.02394
G1 X129.963 Y97.031 E0.777
G1 X129.357 Y97.031 E0.02394
G1 X143.869 Y111.543 E0.81086
G1 X143.869 Y111.669 E0.00499
G1 X143.389 Y111.669 E0.01896
G1 X128.751 Y97.031 E0.81792
G1 X128.145 Y97.031 E0.02394
G1 X142.783 Y111.669 E0.81792
G1 X142.177 Y111.669 E0.02394
G1 X127.539 Y97.031 E0.81792
G1 X126.933 Y97.031 E0.02394
G1 X141.571 Y111.669 E0.81792
G1 X140.965 Y111.669 E0.02394
G1 X126.731 Y97.435 E0.79536
G1 X126.731 Y98.041 E0.02394
G1 X140.359 Y111.669 E0.7615
G1 X139.753 Y111.669 E0.02394
G1 X126.731 Y98.647 E0.72764
G1 X126.731 Y99.253 E0.02394
G1 X139.147 Y111.669 E0.69378
G1 X138.541 Y111.669 E0.02394
G1 X126.731 Y99.859 E0.65992
G1 X126.731 Y100.465 E0.02394
G1 X137.935 Y111.669 E0.62606
G1 X137.329 Y111.669 E0.02394
G1 X126.731 Y101.071 E0.59219
G1 X126.731 Y101.677 E0.02394
G1 X136.723 Y111.669 E0.55833
G1 X136.117 Y111.669 E0.02394
G1 X126.731 Y102.283 E0.52447
G1 X126.731 Y102.889 E0.02394
G1 X135.511 Y111.669 E0.49061
G1 X134.905 Y111.669 E0.02394
G1 X126.731 Y103.495 E0.45675
G1 X126.731 Y104.101 E0.02394
G1 X134.299 Y111.669 E0.42289
G1 X133.869 Y111.669 E0.01701
G1 X133.869 Y111.844 E0.00693
G1 X126.731 Y104.707 E0.39883
G1 X126.731 Y105.313 E0.02394
G1 X133.869 Y112.45 E0.39883
G1 X133.869 Y113.056 E0.02394
G1 X126.731 Y105.919 E0.39883
G1 X126.731 Y106.525 E0.02394
G1 X133.869 Y113.662 E0.39883
G1 X133.869 Y114.169 E0.02002
G1 X133.769 Y114.169 E0.00393
G1 X126.731 Y107.131 E0.39328
G1 X126.731 Y107.737 E0.02394
G1 X133.163 Y114.169 E0.35942
G1 X132.557 Y114.169 E0.02394
G1 X126.731 Y108.343 E0.32556
G1 X126.731 Y108.949 E0.02394
G1 X131.951 Y114.169 E0.2917
G1 X131.345 Y114.169 E0.02394
G1 X126.731 Y109.555 E0.25783
G1 X126.731 Y110.161 E0.02394
G1 X130.739 Y114.169 E0.22397
G1 X130.133 Y114.169 E0.02394
G1 X126.731 Y110.767 E0.19011
G1 X126.731 Y111.372 E0.02394
G1 X129.527 Y114.169 E0.15625
G1 X128.922 Y114.169 E0.02394
G1 X126.731 Y111.978 E0.12239
G1 X126.731 Y112.584 E0.02394
G1 X128.316 Y114.169 E0.08853
G1 X127.71 Y114.169 E0.02394
G1 X126.731 Y113.19 E0.05467
G1 X126.731 Y113.796 E0.02394
G1 X127.288 Y114.353 E0.0311
;LAYER_CHANGE
;Z:0.44
;HEIGHT:0.2
G1 Z0.44 F9000
G1 E-0.6 F3000
M204 P1500
G1 X130.79 Y105.434 F9000
M204 P400
G1 X134.293 Y96.514
G1 E0.6 F1800
;TYPE:Internal perimeter
;WIDTH:0.4
G1 F2400
G1 X134.293 Y114.686 E0.49638
G1 X126.214 Y114.686 E0.22068
G1 X126.214 Y96.514 E0.49638
G1 X134.233 Y96.514 E0.21904
M204 P1500
G1 X134.488 Y96.336 F9000
M204 P400
G1 X134.743 Y96.157
G1 F2400
G1 X134.743 Y96.85 E0.01893
G1 X134.65 Y96.85 E0.00254
G1 X134.65 Y114.35 E0.47803
G1 X134.743 Y114.35 E0.00254
G1 X134.743 Y115.043 E0.01893
G1 X125.857 Y115.043 E0.24273
G1 X125.857 Y96.157 E0.51589
G1 X134.683 Y96.157 E0.24109
G1 E-0.6 F3000
M204 P1500
G1 X137.181 Y101.926 F9000
M204 P400
G1 X139.68 Y107.695
G1 E0.6 F1800
;TYPE:External perimeter
G1 F1314.2998
G1 X139.597 Y107.748 E0.00268
G1 X139.535 Y107.811 E0.00242
G1 X139.488 Y107.883 E0.00236
G1 X139.455 Y107.962 E0.00232
G1 X139.435 Y108.043 E0.00228
G1 X139.426 Y108.113 E0.00192
G1 X139.424 Y108.18 E0.00183
G1 X139.424 Y110.842 E0.07273
G1 X139.435 Y110.968 E0.00345
G1 X139.47 Y111.083 E0.00329
G1 X139.526 Y111.178 E0.00301
G1 X139.597 Y111.25 E0.00274
G1 X139.673 Y111.299 E0.00248
G1 X139.756 Y111.333 E0.00245
G1 X139.852 Y111.353 E0.00268
G1 X139.956 Y111.36 E0.00285
G1 X140.083 Y111.348 E0.00348
G1 X140.195 Y111.311 E0.00322
G1 X140.286 Y111.253 E0.00295
G1 X140.354 Y111.182 E0.00268
G1 X140.4 Y111.107 E0.00241
G1 X140.431 Y111.027 E0.00234
G1 X140.449 Y110.945 E0.00229
G1 X140.456 Y110.882 E0.00174
G1 X140.458 Y110.822 E0.00163
G1 X140.458 Y108.154 E0.07289
G1 X140.447 Y108.031 E0.00337
G1 X140.411 Y107.917 E0.00325
G1 X140.354 Y107.825 E0.00298
G1 X140.284 Y107.755 E0.0027
G1 X140.208 Y107.707 E0.00244
G1 X140.128 Y107.674 E0.00238
G1 X140.045 Y107.655 E0.00232
G1 X139.981 Y107.648 E0.00176
G1 X139.911 Y107.645 E0.00191
G1 X139.789 Y107.657 E0.00335
G1 X139.736 Y107.675 E0.00152
;WIPE_START
M204 P700
G1 X139.596 Y107.643 F9000
;WIPE_END
G1 E-0.6 F3000
M204 P1500
G1 X140.279 Y103.77 F9000
M204 P400
G1 X140.961 Y99.898
G1 E0.6 F1800
G1 F1760.2486
G1 X140.861 Y99.791 E0.004
G1 X140.57 Y99.574 E0.0099
G1 X140.273 Y99.43 E0.00901
G1 X139.97 Y99.349 E0.00858
G1 X139.659 Y99.323 E0.00853
G1 X138.885 Y99.323 E0.02112
G1 X138.58 Y99.353 E0.00839
G1 X138.276 Y99.448 E0.0087
G1 X137.96 Y99.622 E0.00985
G1 X137.763 Y99.774 E0.0068
G1 X137.574 Y99.956 E0.00717
G1 X137.376 Y100.212 E0.00884
G1 X137.231 Y100.503 E0.00886
G1 X137.145 Y100.822 E0.00903
G1 X137.117 Y101.164 E0.00939
G1 X137.147 Y101.567 E0.01104
G1 X137.239 Y101.923 E0.01003
G1 X137.375 Y102.196 E0.00832
G1 X137.459 Y102.313 E0.00396
G1 X137.552 Y102.418 E0.00382
G1 X137.861 Y102.691 E0.01127
G1 X138.185 Y102.892 E0.0104
G1 X138.487 Y103.005 E0.00879
G1 X138.679 Y103.042 E0.00534
G1 X138.862 Y103.054 E0.00503
G1 X139.695 Y103.054 E0.02275
G1 X140.009 Y103.024 E0.00862
G1 X140.321 Y102.93 E0.00889
G1 X140.644 Y102.757 E0.01001
G1 X140.896 Y102.561 E0.00874
G1 X140.976 Y102.478 E0.00314
G1 X141.061 Y102.571 E0.00343
G1 X141.338 Y102.777 E0.00943
G1 X141.671 Y102.935 E0.01006
G1 X142.026 Y103.025 E0.01002
G1 X142.413 Y103.055 E0.01059
G1 X142.751 Y103.024 E0.00926
G1 X143.066 Y102.93 E0.00899
G1 X143.364 Y102.763 E0.00934
G1 X143.57 Y102.588 E0.00738
G1 X143.753 Y102.378 E0.00761
G1 X143.956 Y102.062 E0.01028
G1 X144.095 Y101.73 E0.00983
G1 X144.157 Y101.457 E0.00763
G1 X144.178 Y101.18 E0.00761
G1 X144.152 Y100.844 E0.00919
G1 X144.072 Y100.535 E0.00873
G1 X143.938 Y100.257 E0.00843
G1 X143.712 Y99.948 E0.01044
G1 X143.451 Y99.701 E0.00982
G1 X143.174 Y99.524 E0.009
G1 X142.84 Y99.397 E0.00975
G1 X142.585 Y99.347 E0.00709
G1 X142.318 Y99.331 E0.0073
G1 X141.948 Y99.361 E0.01016
G1 X141.605 Y99.453 E0.00969
G1 X141.312 Y99.598 E0.00891
G1 X141.039 Y99.809 E0.00944
G1 X141.001 Y99.852 E0.00159
;WIPE_START
M204 P700
G1 X140.923 Y99.756 F9000
;WIPE_END
G1 E-0.6 F3000
M204 P1500
G1 X138.012 Y99.028 F9000
M204 P400
G1 X135.1 Y98.3
G1 E0.6 F1800
G1 X145.1 Y98.3 E0.27316
G1 X145.1 Y112.9 E0.39881
G1 X135.1 Y112.9 E0.27316
G1 X135.1 Y115.4 E0.06829
G1 X125.5 Y115.4 E0.26223
G1 X125.5 Y95.8 E0.53539
G1 X135.1 Y95.8 E0.26223
G1 X135.1 Y98.24 E0.06665
;WIPE_START
M204 P700
G1 X135.1 Y98.7 F9000
;WIPE_END
G1 E-0.6 F3000
M204 P1500
G1 X134.273 Y106.63 F9000
M204 P800
G1 X133.446 Y114.561
G1 E0.6 F1800
;TYPE:Solid infill
;WIDTH:0.404886
G1 X134.014 Y113.993 E0.02222
G1 X134.014 Y113.488 E0.01396
G1 X133.095 Y114.407 E0.03596
G1 X132.59 Y114.407 E0.01396
G1 X134.014 Y112.983 E0.05571
G1 X134.014 Y112.478 E0.01396
G1 X132.085 Y114.407 E0.07546
G1 X131.58 Y114.407 E0.01396
G1 X134.014 Y111.973 E0.0952
G1 X134.014 Y111.468 E0.01396
G1 X131.075 Y114.407 E0.11495
G1 X130.57 Y114.407 E0.01396
G1 X134.014 Y110.963 E0.1347
G1 X134.014 Y110.458 E0.01396
G1 X130.065 Y114.407 E0.15444
G1 X129.56 Y114.407 E0.01396
G1 X134.014 Y109.953 E0.17419
G1 X134.014 Y109.448 E0.01396
G1 X129.055 Y114.407 E0.19393
G1 X128.55 Y114.407 E0.01396
G1 X134.014 Y108.943 E0.21368
G1 X134.014 Y108.438 E0.01396
G1 X128.045 Y114.407 E0.23343
G1 X127.54 Y114.407 E0.01396
G1 X134.014 Y107.933 E0.25317
G1 X134.014 Y107.428 E0.01396
G1 X127.035 Y114.407 E0.27292
G1 X126.53 Y114.407 E0.01396
G1 X134.014 Y106.923 E0.29267
