; generated by SuperSlicer 2.3.57 on 2022-03-25 at 21:43:42 UTC


;
;

;
;
; 

; external perimeters extrusion width = 0.40mm
; perimeters extrusion width = 0.45mm
; infill extrusion width = 0.72mm
; solid infill extrusion width = 0.56mm
; top infill extrusion width = 0.40mm
; support material extrusion width = 0.42mm
; first layer extrusion width = 0.48mm

; external perimeters extrusion width = 0.42mm
; perimeters extrusion width = 0.45mm
; infill extrusion width = 0.72mm
; solid infill extrusion width = 0.56mm
; top infill extrusion width = 0.40mm
; support material extrusion width = 0.42mm
; first layer extrusion width = 0.48mm

; external perimeters extrusion width = 0.16mm
; perimeters extrusion width = 0.16mm
; infill extrusion width = 0.72mm
; solid infill extrusion width = 0.56mm
; top infill extrusion width = 0.40mm
; support material extrusion width = 0.42mm
; first layer extrusion width = 0.48mm

; object:{"name":"snapware_lid_frame_mod","id":"snapware_lid_frame_mod.stl id:0 copy 0","object_center":[152.500000,150.000000,0.000000],"boundingbox_center":[152.500000,150.000000,17.000000],"boundingbox_size":[111.600000,41.000000,34.000000]}
; plater:{"center":[152.500000,150.000000,0.000000],"boundingbox_center":[152.500000,150.000000,17.000000],"boundingbox_size":[111.600000,41.000000,34.000000]}

;TYPE:Custom
START_PRINT T_BED=60 T_EXTRUDER=200
M107
G21 ; set units to millimeters
G90 ; use absolute coordinates
M83 ; use relative distances for extrusion
; Filament gcode
M104 S200 ; set temperature
M109 S200 ; set temperature and wait for it to be reached
M190 S60 ; set bed temperature and wait for it to be reached
M107
;LAYER_CHANGE
;Z:0.24
;HEIGHT:0.24
G1 Z0.24 F9000
G1 E-0.8 F3000
G1 X94.549 Y126.736 F9000
G1 E0.8 F1800
; External perimeter
;Skirt
SET_VELOCITY_LIMIT ACCEL=300 ACCEL_TO_DECEL=3000 SQUARE_CORNER_VELOCITY=5

; Support material

;TYPE:Skirt
;WIDTH:0.48
G1 X93.833 Y127.487 E0.0444
G1 X93.357 Y128.41 E0.0444
G1 X93.161 Y129.435 E0.0446
G1 X93.157 Y170.421 E1.75239
G1 X93.224 Y171.096 E0.02899
G1 X93.417 Y171.751 E0.02919
G1 X93.95 Y172.669 E0.0454
G1 X94.73 Y173.397 E0.0456
G1 X95.686 Y173.868 E0.0456
G1 X96.734 Y174.042 E0.0454
G1 X208.207 Y174.043 E4.76609
G1 X208.891 Y173.977 E0.02939
G1 X209.551 Y173.783 E0.02939
G1 X210.447 Y173.267 E0.0442
G1 X211.162 Y172.52 E0.0442
G1 X211.638 Y171.603 E0.0442
G1 X211.838 Y170.589 E0.0442
G1 X211.841 Y129.499 E1.75682
G1 X211.754 Y128.803 E0.02999
G1 X211.536 Y128.136 E0.02999
G1 X211.193 Y127.524 E0.02999
G1 X210.74 Y126.989 E0.02999
G1 X210.196 Y126.553 E0.02979
G1 X209.575 Y126.227 E0.02999
G1 X208.903 Y126.026 E0.02999
G1 X208.205 Y125.957 E0.02999
G1 X96.793 Y125.957 E4.76346
G1 X96.109 Y126.023 E0.02939
G1 X95.449 Y126.217 E0.02939
G1 X94.601 Y126.706 E0.04184
G1 X94.819 Y127.069 F9000
G1 F1800
G1 X94.179 Y127.739 E0.03963
G1 X93.757 Y128.565 E0.03963
G1 X93.588 Y129.472 E0.03944
G1 X93.586 Y170.417 E1.75065
G1 X93.644 Y171.007 E0.02534
G1 X93.81 Y171.58 E0.02553
G1 X94.283 Y172.398 E0.04038
G1 X94.972 Y173.044 E0.04038
G1 X95.819 Y173.461 E0.04038
G1 X96.751 Y173.614 E0.04038
G1 X208.208 Y173.614 E4.7654
G1 X208.807 Y173.556 E0.02572
G1 X209.38 Y173.39 E0.02553
G1 X210.181 Y172.931 E0.03944
G1 X210.816 Y172.268 E0.03926
G1 X211.237 Y171.452 E0.03926
G1 X211.411 Y170.551 E0.03926
G1 X211.413 Y129.521 E1.75425
G1 X211.338 Y128.906 E0.02647
G1 X211.147 Y128.317 E0.02647
G1 X210.847 Y127.776 E0.02647
G1 X210.448 Y127.302 E0.02647
G1 X209.962 Y126.912 E0.02666
G1 X209.414 Y126.624 E0.02647
G1 X208.821 Y126.446 E0.02647
G1 X208.204 Y126.386 E0.02647
G1 X96.792 Y126.386 E4.76351
G1 X96.193 Y126.444 E0.02572
G1 X95.62 Y126.61 E0.02553
G1 X94.871 Y127.039 E0.03688
; INIT printing object snapware_lid_frame_mod.stl id:0 copy 0
G1 E-0.8 F3000
; printing object snapware_lid_frame_mod.stl id:0 copy 0
G1 X97.468 Y130.268 F9000
G1 E0.8 F1800
; External perimeter
;Perimeter
SET_VELOCITY_LIMIT ACCEL=2000 ACCEL_TO_DECEL=2000 SQUARE_CORNER_VELOCITY=5

; Overhang perimeter

;TYPE:Internal perimeter
G1 X207.532 Y130.268 E4.70579
G1 X207.532 Y131.592 E0.05659
G1 X97.468 Y131.592 E4.70579
G1 X97.468 Y130.328 E0.05402
G1 X97.468 Y168.408 F9000
G1 F1800
G1 X207.532 Y168.408 E4.70579
G1 X207.532 Y169.732 E0.05659
G1 X97.468 Y169.732 E4.70579
G1 X97.468 Y168.468 E0.05402
G1 X97.56 Y167.98 F9000
; External perimeter
;ExternalPerimeter
SET_VELOCITY_LIMIT ACCEL=1000 ACCEL_TO_DECEL=1000 SQUARE_CORNER_VELOCITY=5

; Perimeter

;TYPE:External perimeter
G1 F1800
G1 X207.44 Y167.98 E4.69797
G1 X207.44 Y167.86 E0.00458
G1 X207.44 Y167.62 E0.00971
G1 X207.44 Y132.02 E1.52205
G1 X207.32 Y132.02 E0.00458
G1 X207.08 Y132.02 E0.00971
G1 X97.56 Y132.02 E4.68258
G1 X97.56 Y132.14 E0.00458
G1 X97.56 Y132.38 E0.00971
G1 X97.56 Y167.92 E1.51949
;WIPE_START
G1 X97.56 Y168.38 F9000
;WIPE_END
G1 X207.96 Y170.16
G1 F1800
G1 X97.04 Y170.16 E4.74244
G1 X97.04 Y170.04 E0.00458
G1 X97.04 Y169.8 E0.00971
G1 X97.04 Y129.84 E1.70851
G1 X97.16 Y129.84 E0.00458
G1 X97.4 Y129.84 E0.00971
G1 X207.96 Y129.84 E4.72704
G1 X207.96 Y129.96 E0.00458
G1 X207.96 Y130.2 E0.00971
G1 X207.96 Y170.1 E1.70594
;WIPE_START
G1 X207.614 Y169.96 F9000
;WIPE_END
G1 X207.7 Y168.211
; External perimeter
;GapFill
SET_VELOCITY_LIMIT ACCEL=2000 ACCEL_TO_DECEL=2000 SQUARE_CORNER_VELOCITY=5

; Skirt

;TYPE:Gap fill
;WIDTH:0.177569
G1 F1800
G1 X207.7 Y168.148 E0.00079
G1 X207.7 Y131.789 E0.45735
G1 X206.601 Y130.333 F9000
; External perimeter
;SolidInfill
SET_VELOCITY_LIMIT ACCEL=2000 ACCEL_TO_DECEL=2000 SQUARE_CORNER_VELOCITY=5

; Bridge infill

;TYPE:Solid infill
;WIDTH:0.424418
G1 F2400
G1 X207.283 Y131.015 E0.03646
G1 X207.283 Y131.343 E0.01243
G1 X207.006 Y131.343 E0.01048
G1 X206.179 Y130.517 E0.04419
G1 X205.573 Y130.517 E0.02291
G1 X206.4 Y131.343 E0.04419
G1 X205.794 Y131.343 E0.02291
G1 X204.967 Y130.517 E0.04419
G1 X204.361 Y130.517 E0.02291
G1 X205.188 Y131.343 E0.04419
G1 X204.582 Y131.343 E0.02291
G1 X203.755 Y130.517 E0.04419
G1 X203.149 Y130.517 E0.02291
G1 X203.976 Y131.343 E0.04419
G1 X203.37 Y131.343 E0.02291
G1 X202.543 Y130.517 E0.04419
G1 X201.937 Y130.517 E0.02291
G1 X202.764 Y131.343 E0.04419
G1 X202.158 Y131.343 E0.02291
G1 X201.331 Y130.517 E0.04419
G1 X200.725 Y130.517 E0.02291
G1 X201.552 Y131.343 E0.04419
G1 X200.946 Y131.343 E0.02291
G1 X200.119 Y130.517 E0.04419
G1 X199.514 Y130.517 E0.02291
G1 X200.34 Y131.343 E0.04419
G1 X199.734 Y131.343 E0.02291
G1 X198.908 Y130.517 E0.04419
G1 X198.302 Y130.517 E0.02291
G1 X199.128 Y131.343 E0.04419
G1 X198.522 Y131.343 E0.02291
G1 X197.696 Y130.517 E0.04419
G1 X197.09 Y130.517 E0.02291
G1 X197.916 Y131.343 E0.04419
G1 X197.31 Y131.343 E0.02291
G1 X196.484 Y130.517 E0.04419
G1 X195.878 Y130.517 E0.02291
G1 X196.704 Y131.343 E0.04419
G1 X196.098 Y131.343 E0.02291
G1 X195.272 Y130.517 E0.04419
G1 X194.666 Y130.517 E0.02291
G1 X195.492 Y131.343 E0.04419
G1 X194.886 Y131.343 E0.02291
G1 X194.06 Y130.517 E0.04419
G1 X193.454 Y130.517 E0.02291
G1 X194.28 Y131.343 E0.04419
G1 X193.674 Y131.343 E0.02291
G1 X192.848 Y130.517 E0.04419
G1 X192.242 Y130.517 E0.02291
G1 X193.068 Y131.343 E0.04419
G1 X192.462 Y131.343 E0.02291
G1 X191.636 Y130.517 E0.04419
G1 X191.03 Y130.517 E0.02291
G1 X191.856 Y131.343 E0.04419
G1 X191.25 Y131.343 E0.02291
G1 X190.424 Y130.517 E0.04419
G1 X189.818 Y130.517 E0.02291
G1 X190.644 Y131.343 E0.04419
G1 X190.038 Y131.343 E0.02291
G1 X189.212 Y130.517 E0.04419
G1 X188.606 Y130.517 E0.02291
G1 X189.432 Y131.343 E0.04419
G1 X188.826 Y131.343 E0.02291
G1 X188 Y130.517 E0.04419
G1 X187.394 Y130.517 E0.02291
G1 X188.22 Y131.343 E0.04419
G1 X187.614 Y131.343 E0.02291
G1 X186.788 Y130.517 E0.04419
G1 X186.182 Y130.517 E0.02291
G1 X187.008 Y131.343 E0.04419
G1 X186.402 Y131.343 E0.02291
G1 X185.576 Y130.517 E0.04419
G1 X184.97 Y130.517 E0.02291
G1 X185.796 Y131.343 E0.04419
G1 X185.19 Y131.343 E0.02291
G1 X184.364 Y130.517 E0.04419
G1 X183.758 Y130.517 E0.02291
G1 X184.584 Y131.343 E0.04419
G1 X183.978 Y131.343 E0.02291
G1 X183.152 Y130.517 E0.04419
G1 X182.546 Y130.517 E0.02291
G1 X183.372 Y131.343 E0.04419
G1 X182.766 Y131.343 E0.02291
G1 X181.94 Y130.517 E0.04419
G1 X181.334 Y130.517 E0.02291
G1 X182.16 Y131.343 E0.04419
G1 X181.555 Y131.343 E0.02291
G1 X180.728 Y130.517 E0.04419
G1 X180.122 Y130.517 E0.02291
G1 X180.949 Y131.343 E0.04419
G1 X180.343 Y131.343 E0.02291
G1 X179.516 Y130.517 E0.04419
G1 X178.91 Y130.517 E0.02291
G1 X179.737 Y131.343 E0.04419
G1 X179.131 Y131.343 E0.02291
G1 X178.304 Y130.517 E0.04419
G1 X177.698 Y130.517 E0.02291
G1 X178.525 Y131.343 E0.04419
G1 X177.919 Y131.343 E0.02291
G1 X177.092 Y130.517 E0.04419
G1 X176.486 Y130.517 E0.02291
G1 X177.313 Y131.343 E0.04419
G1 X176.707 Y131.343 E0.02291
G1 X175.88 Y130.517 E0.04419
G1 X175.274 Y130.517 E0.02291
G1 X176.101 Y131.343 E0.04419
G1 X175.495 Y131.343 E0.02291
G1 X174.668 Y130.517 E0.04419
G1 X174.062 Y130.517 E0.02291
G1 X174.889 Y131.343 E0.04419
G1 X174.283 Y131.343 E0.02291
G1 X173.456 Y130.517 E0.04419
G1 X172.85 Y130.517 E0.02291
G1 X173.677 Y131.343 E0.04419
G1 X173.071 Y131.343 E0.02291
G1 X172.244 Y130.517 E0.04419
G1 X171.638 Y130.517 E0.02291
G1 X172.465 Y131.343 E0.04419
G1 X171.859 Y131.343 E0.02291
G1 X171.032 Y130.517 E0.04419
G1 X170.426 Y130.517 E0.02291
G1 X171.253 Y131.343 E0.04419
G1 X170.647 Y131.343 E0.02291
G1 X169.82 Y130.517 E0.04419
G1 X169.214 Y130.517 E0.02291
G1 X170.041 Y131.343 E0.04419
G1 X169.435 Y131.343 E0.02291
G1 X168.608 Y130.517 E0.04419
G1 X168.002 Y130.517 E0.02291
G1 X168.829 Y131.343 E0.04419
G1 X168.223 Y131.343 E0.02291
G1 X167.396 Y130.517 E0.04419
G1 X166.79 Y130.517 E0.02291
G1 X167.617 Y131.343 E0.04419
G1 X167.011 Y131.343 E0.02291
G1 X166.184 Y130.517 E0.04419
G1 X165.578 Y130.517 E0.02291
G1 X166.405 Y131.343 E0.04419
G1 X165.799 Y131.343 E0.02291
G1 X164.972 Y130.517 E0.04419
G1 X164.366 Y130.517 E0.02291
G1 X165.193 Y131.343 E0.04419
G1 X164.587 Y131.343 E0.02291
G1 X163.76 Y130.517 E0.04419
G1 X163.155 Y130.517 E0.02291
G1 X163.981 Y131.343 E0.04419
G1 X163.375 Y131.343 E0.02291
G1 X162.549 Y130.517 E0.04419
G1 X161.943 Y130.517 E0.02291
G1 X162.769 Y131.343 E0.04419
G1 X162.163 Y131.343 E0.02291
G1 X161.337 Y130.517 E0.04419
G1 X160.731 Y130.517 E0.02291
G1 X161.557 Y131.343 E0.04419
G1 X160.951 Y131.343 E0.02291
G1 X160.125 Y130.517 E0.04419
G1 X159.519 Y130.517 E0.02291
G1 X160.345 Y131.343 E0.04419
G1 X159.739 Y131.343 E0.02291
G1 X158.913 Y130.517 E0.04419
G1 X158.307 Y130.517 E0.02291
G1 X159.133 Y131.343 E0.04419
G1 X158.527 Y131.343 E0.02291
G1 X157.701 Y130.517 E0.04419
G1 X157.095 Y130.517 E0.02291
G1 X157.921 Y131.343 E0.04419
G1 X157.315 Y131.343 E0.02291
G1 X156.489 Y130.517 E0.04419
G1 X155.883 Y130.517 E0.02291
G1 X156.709 Y131.343 E0.04419
G1 X156.103 Y131.343 E0.02291
G1 X155.277 Y130.517 E0.04419
G1 X154.671 Y130.517 E0.02291
G1 X155.497 Y131.343 E0.04419
G1 X154.891 Y131.343 E0.02291
G1 X154.065 Y130.517 E0.04419
G1 X153.459 Y130.517 E0.02291
G1 X154.285 Y131.343 E0.04419
G1 X153.679 Y131.343 E0.02291
G1 X152.853 Y130.517 E0.04419
G1 X152.247 Y130.517 E0.02291
G1 X153.073 Y131.343 E0.04419
G1 X152.467 Y131.343 E0.02291
G1 X151.641 Y130.517 E0.04419
G1 X151.035 Y130.517 E0.02291
G1 X151.861 Y131.343 E0.04419
G1 X151.255 Y131.343 E0.02291
G1 X150.429 Y130.517 E0.04419
G1 X149.823 Y130.517 E0.02291
G1 X150.649 Y131.343 E0.04419
G1 X150.043 Y131.343 E0.02291
G1 X149.217 Y130.517 E0.04419
G1 X148.611 Y130.517 E0.02291
G1 X149.437 Y131.343 E0.04419
G1 X148.831 Y131.343 E0.02291
G1 X148.005 Y130.517 E0.04419
G1 X147.399 Y130.517 E0.02291
G1 X148.225 Y131.343 E0.04419
G1 X147.619 Y131.343 E0.02291
G1 X146.793 Y130.517 E0.04419
G1 X146.187 Y130.517 E0.02291
G1 X147.013 Y131.343 E0.04419
G1 X146.407 Y131.343 E0.02291
G1 X145.581 Y130.517 E0.04419
G1 X144.975 Y130.517 E0.02291
G1 X145.801 Y131.343 E0.04419
G1 X145.196 Y131.343 E0.02291
G1 X144.369 Y130.517 E0.04419
G1 X143.763 Y130.517 E0.02291
G1 X144.59 Y131.343 E0.04419
G1 X143.984 Y131.343 E0.02291
G1 X143.157 Y130.517 E0.04419
G1 X142.551 Y130.517 E0.02291
G1 X143.378 Y131.343 E0.04419
G1 X142.772 Y131.343 E0.02291
G1 X141.945 Y130.517 E0.04419
G1 X141.339 Y130.517 E0.02291
G1 X142.166 Y131.343 E0.04419
G1 X141.56 Y131.343 E0.02291
G1 X140.733 Y130.517 E0.04419
G1 X140.127 Y130.517 E0.02291
G1 X140.954 Y131.343 E0.04419
G1 X140.348 Y131.343 E0.02291
G1 X139.521 Y130.517 E0.04419
G1 X138.915 Y130.517 E0.02291
G1 X139.742 Y131.343 E0.04419
G1 X139.136 Y131.343 E0.02291
G1 X138.309 Y130.517 E0.04419
G1 X137.703 Y130.517 E0.02291
G1 X138.53 Y131.343 E0.04419
G1 X137.924 Y131.343 E0.02291
G1 X137.097 Y130.517 E0.04419
G1 X136.491 Y130.517 E0.02291
G1 X137.318 Y131.343 E0.04419
G1 X136.712 Y131.343 E0.02291
G1 X135.885 Y130.517 E0.04419
G1 X135.279 Y130.517 E0.02291
G1 X136.106 Y131.343 E0.04419
G1 X135.5 Y131.343 E0.02291
G1 X134.673 Y130.517 E0.04419
G1 X134.067 Y130.517 E0.02291
G1 X134.894 Y131.343 E0.04419
G1 X134.288 Y131.343 E0.02291
G1 X133.461 Y130.517 E0.04419
G1 X132.855 Y130.517 E0.02291
G1 X133.682 Y131.343 E0.04419
G1 X133.076 Y131.343 E0.02291
G1 X132.249 Y130.517 E0.04419
G1 X131.643 Y130.517 E0.02291
G1 X132.47 Y131.343 E0.04419
G1 X131.864 Y131.343 E0.02291
G1 X131.037 Y130.517 E0.04419
G1 X130.431 Y130.517 E0.02291
G1 X131.258 Y131.343 E0.04419
G1 X130.652 Y131.343 E0.02291
G1 X129.825 Y130.517 E0.04419
G1 X129.219 Y130.517 E0.02291
G1 X130.046 Y131.343 E0.04419
G1 X129.44 Y131.343 E0.02291
G1 X128.613 Y130.517 E0.04419
G1 X128.007 Y130.517 E0.02291
G1 X128.834 Y131.343 E0.04419
G1 X128.228 Y131.343 E0.02291
G1 X127.401 Y130.517 E0.04419
G1 X126.796 Y130.517 E0.02291
G1 X127.622 Y131.343 E0.04419
G1 X127.016 Y131.343 E0.02291
G1 X126.19 Y130.517 E0.04419
G1 X125.584 Y130.517 E0.02291
G1 X126.41 Y131.343 E0.04419
G1 X125.804 Y131.343 E0.02291
G1 X124.978 Y130.517 E0.04419
G1 X124.372 Y130.517 E0.02291
G1 X125.198 Y131.343 E0.04419
G1 X124.592 Y131.343 E0.02291
G1 X123.766 Y130.517 E0.04419
G1 X123.16 Y130.517 E0.02291
G1 X123.986 Y131.343 E0.04419
G1 X123.38 Y131.343 E0.02291
G1 X122.554 Y130.517 E0.04419
G1 X121.948 Y130.517 E0.02291
G1 X122.774 Y131.343 E0.04419
G1 X122.168 Y131.343 E0.02291
G1 X121.342 Y130.517 E0.04419
G1 X120.736 Y130.517 E0.02291
G1 X121.562 Y131.343 E0.04419
G1 X120.956 Y131.343 E0.02291
G1 X120.13 Y130.517 E0.04419
G1 X119.524 Y130.517 E0.02291
G1 X120.35 Y131.343 E0.04419
G1 X119.744 Y131.343 E0.02291
G1 X118.918 Y130.517 E0.04419
G1 X118.312 Y130.517 E0.02291
G1 X119.138 Y131.343 E0.04419
G1 X118.532 Y131.343 E0.02291
G1 X117.706 Y130.517 E0.04419
G1 X117.1 Y130.517 E0.02291
G1 X117.926 Y131.343 E0.04419
G1 X117.32 Y131.343 E0.02291
G1 X116.494 Y130.517 E0.04419
G1 X115.888 Y130.517 E0.02291
G1 X116.714 Y131.343 E0.04419
G1 X116.108 Y131.343 E0.02291
G1 X115.282 Y130.517 E0.04419
G1 X114.676 Y130.517 E0.02291
G1 X115.502 Y131.343 E0.04419
G1 X114.896 Y131.343 E0.02291
G1 X114.07 Y130.517 E0.04419
G1 X113.464 Y130.517 E0.02291
G1 X114.29 Y131.343 E0.04419
G1 X113.684 Y131.343 E0.02291
G1 X112.858 Y130.517 E0.04419
G1 X112.252 Y130.517 E0.02291
G1 X113.078 Y131.343 E0.04419
G1 X112.472 Y131.343 E0.02291
G1 X111.646 Y130.517 E0.04419
G1 X111.04 Y130.517 E0.02291
G1 X111.866 Y131.343 E0.04419
G1 X111.26 Y131.343 E0.02291
G1 X110.434 Y130.517 E0.04419
G1 X109.828 Y130.517 E0.02291
G1 X110.654 Y131.343 E0.04419
G1 X110.048 Y131.343 E0.02291
G1 X109.222 Y130.517 E0.04419
G1 X108.616 Y130.517 E0.02291
G1 X109.442 Y131.343 E0.04419
G1 X108.836 Y131.343 E0.02291
G1 X108.01 Y130.517 E0.04419
G1 X107.404 Y130.517 E0.02291
G1 X108.231 Y131.343 E0.04419
G1 X107.625 Y131.343 E0.02291
G1 X106.798 Y130.517 E0.04419
G1 X106.192 Y130.517 E0.02291
G1 X107.019 Y131.343 E0.04419
G1 X106.413 Y131.343 E0.02291
G1 X105.586 Y130.517 E0.04419
G1 X104.98 Y130.517 E0.02291
G1 X105.807 Y131.343 E0.04419
G1 X105.201 Y131.343 E0.02291
G1 X104.374 Y130.517 E0.04419
G1 X103.768 Y130.517 E0.02291
G1 X104.595 Y131.343 E0.04419
G1 X103.989 Y131.343 E0.02291
G1 X103.162 Y130.517 E0.04419
G1 X102.556 Y130.517 E0.02291
G1 X103.383 Y131.343 E0.04419
G1 X102.777 Y131.343 E0.02291
G1 X101.95 Y130.517 E0.04419
G1 X101.344 Y130.517 E0.02291
