; generated by SuperSlicer 2.4 on 2022-05-29 at 23:29:42 UTC


;
;

;
;
; 

; external perimeters extrusion width = 0.40mm
; perimeters extrusion width = 0.40mm
; infill extrusion width = 0.72mm
; solid infill extrusion width = 0.56mm
; top infill extrusion width = 0.40mm
; first layer extrusion width = 0.48mm

; object:{"name":"grid","id":"grid.stl id:0 copy 0","object_center":[165.000000,165.000162,0.000000],"boundingbox_center":[165.000000,165.000162,2.362200],"boundingbox_size":[97.358200,146.075394,4.724401]}
; plater:{"center":[165.000000,165.000162,0.000000],"boundingbox_center":[165.000000,165.000162,2.362200],"boundingbox_size":[97.358200,146.075394,4.724401]}

M73 P0 R44
;TYPE:Custom
START_PRINT T_BED=60 T_EXTRUDER=200
M107
G21 ; set units to millimeters
G90 ; use absolute coordinates
M83 ; use relative distances for extrusion
; Filament gcode
M104 S200 ; set temperature
M109 S200 ; set temperature and wait for it to be reached
M190 S60 ; set bed temperature and wait for it to be reached
M107
;LAYER_CHANGE
;Z:0.24
;HEIGHT:0.24
G1 Z0.24 F9000
G92 E0
M73 P0 R43
G1 E-0.8 F3000
M204 S1000
G1 X113.116 Y90.401 F9000
G1 E0.8 F1800
;TYPE:Skirt
;WIDTH:0.52
G1 X112.721 Y92.063 E0.07828
G1 X112.721 Y237.913 E6.68164
G1 X113.45 Y240.118 E0.10637
G1 X114.758 Y241.218 E0.07828
G1 X116.42 Y241.613 E0.07828
G1 X213.578 Y241.637 E4.45099
M73 P1 R43
G1 X215.784 Y240.908 E0.10645
G1 X216.884 Y239.6 E0.07828
G1 X217.279 Y237.938 E0.07828
G1 X217.279 Y92.088 E6.68161
G1 X216.55 Y89.884 E0.10637
G1 X215.242 Y88.784 E0.07828
G1 X213.58 Y88.389 E0.07828
G1 X212.685 Y88.389 E0.04102
G1 X116.422 Y88.363 E4.40996
G1 X114.216 Y89.093 E0.10645
G1 X113.116 Y90.401 E0.07828
G1 X113.581 Y90.519 F9000
G1 F1800
G1 X113.188 Y92.063 E0.073
G1 X113.188 Y237.913 E6.68164
G1 X113.704 Y239.666 E0.08373
G1 X114.874 Y240.752 E0.07311
G1 X116.42 Y241.146 E0.07311
G1 X213.578 Y241.171 E4.45099
G1 X215.333 Y240.654 E0.0838
G1 X216.418 Y239.484 E0.07311
G1 X216.812 Y237.938 E0.07311
G1 X216.812 Y92.088 E6.68161
G1 X216.296 Y90.335 E0.08373
G1 X215.126 Y89.25 E0.07311
G1 X213.58 Y88.855 E0.07311
G1 X212.685 Y88.855 E0.04102
G1 X116.422 Y88.83 E4.40996
M73 P2 R43
G1 X114.667 Y89.347 E0.0838
G1 X113.581 Y90.519 E0.0732
G1 E-0.8 F3000
; printing object grid.stl id:0 copy 0
G1 X169.252 Y144.49 F9000
G1 E0.8 F1800
;TYPE:Internal perimeter
;WIDTH:0.48
G1 X168.823 Y144.49 E0.01795
G1 X168.823 Y185.561 E1.72088
G1 X209.894 Y185.561 E1.72088
G1 X209.894 Y144.49 E1.72088
G1 X169.252 Y144.49 E1.70293
G1 X169.252 Y144.919 F9000
;TYPE:External perimeter
G1 F1800
G1 X169.252 Y185.132 E1.68497
G1 X209.465 Y185.132 E1.68497
M73 P2 R42
G1 X209.465 Y144.919 E1.68497
G1 X169.252 Y144.919 E1.68497
;WIPE_START
M204 S3000
G1 X168.852 Y144.919 F9000
;WIPE_END
M204 S1000
G1 X168.823 Y193.61
;TYPE:Internal perimeter
G1 F1800
G1 X168.823 Y234.253 E1.70293
G1 X209.894 Y234.253 E1.72088
G1 X209.894 Y193.182 E1.72088
G1 X168.823 Y193.182 E1.72088
G1 X168.823 Y193.61 E0.01795
G1 X169.252 Y193.61 F9000
;TYPE:External perimeter
G1 F1800
G1 X169.252 Y233.824 E1.68497
G1 X209.465 Y233.824 E1.68497
G1 X209.465 Y193.61 E1.68497
G1 X169.252 Y193.61 E1.68497
;WIPE_START
M204 S3000
G1 X168.852 Y193.61 F9000
;WIPE_END
M204 S1000
G1 X161.202 Y193.61
;TYPE:Internal perimeter
G1 F1800
G1 X161.202 Y193.181 E0.01796
G1 X159.938 Y193.182 E0.05296
G1 X120.131 Y193.182 E1.66792
M73 P3 R42
G1 X120.131 Y234.253 E1.72088
G1 X161.202 Y234.253 E1.72088
G1 X161.202 Y193.61 E1.70294
G1 X160.774 Y193.61 F9000
;TYPE:External perimeter
G1 F1800
G1 X159.938 Y193.611 E0.035
G1 X120.56 Y193.61 E1.64998
G1 X120.56 Y233.824 E1.68497
G1 X160.774 Y233.824 E1.68497
G1 X160.774 Y193.61 E1.68498
;WIPE_START
M204 S3000
G1 X160.774 Y193.21 F9000
;WIPE_END
M204 S1000
G1 X161.202 Y185.132
;TYPE:Internal perimeter
G1 F1800
G1 X161.202 Y144.49 E1.70293
G1 X120.131 Y144.49 E1.72088
G1 X120.131 Y185.561 E1.72088
G1 X161.202 Y185.561 E1.72088
G1 X161.202 Y185.132 E0.01795
G1 X160.774 Y185.132 F9000
;TYPE:External perimeter
G1 F1800
G1 X160.774 Y144.919 E1.68497
G1 X120.56 Y144.919 E1.68497
G1 X120.56 Y185.132 E1.68497
G1 X160.774 Y185.132 E1.68497
;WIPE_START
M204 S3000
G1 X161.174 Y185.132 F9000
;WIPE_END
M204 S1000
G1 X161.202 Y136.441
;TYPE:Internal perimeter
G1 F1800
G1 X161.202 Y95.798 E1.70293
G1 X120.131 Y95.798 E1.72088
G1 X120.131 Y136.869 E1.72088
G1 X161.202 Y136.869 E1.72088
M73 P4 R42
G1 X161.202 Y136.441 E0.01795
G1 X160.774 Y136.441 F9000
;TYPE:External perimeter
G1 F1800
G1 X160.774 Y96.227 E1.68497
G1 X120.56 Y96.227 E1.68497
G1 X120.56 Y136.441 E1.68497
G1 X160.774 Y136.441 E1.68497
;WIPE_START
M204 S3000
G1 X161.174 Y136.441 F9000
;WIPE_END
M204 S1000
G1 X169.252 Y136.869
;TYPE:Internal perimeter
G1 F1800
G1 X209.894 Y136.869 E1.70293
G1 X209.894 Y95.798 E1.72088
G1 X168.823 Y95.798 E1.72088
G1 X168.823 Y136.869 E1.72088
G1 X169.252 Y136.869 E0.01795
G1 X169.252 Y136.441 F9000
;TYPE:External perimeter
G1 F1800
G1 X209.465 Y136.441 E1.68497
G1 X209.465 Y96.227 E1.68497
G1 X169.252 Y96.227 E1.68497
G1 X169.252 Y136.441 E1.68497
;WIPE_START
M204 S3000
G1 X169.252 Y136.841 F9000
;WIPE_END
G1 E-0.8 F3000
M204 S1000
G1 X117.089 Y92.732 F9000
M73 P4 R41
G1 E0.8 F1800
;TYPE:Internal perimeter
G1 X212.912 Y92.757 E4.01502
G1 X212.911 Y237.269 E6.05512
G1 X117.089 Y237.245 E4.01494
M73 P5 R41
G1 X117.089 Y92.732 E6.05515
G1 X116.661 Y92.303 F9000
;TYPE:External perimeter
G1 F1800
G1 X116.771 Y92.303 E0.00459
G1 X213.341 Y92.328 E4.04633
G1 X213.339 Y237.698 E6.09103
G1 X116.661 Y237.673 E4.05085
G1 X116.661 Y92.303 E6.09105
;WIPE_START
M204 S3000
G1 X117.007 Y92.503 F9000
;WIPE_END
M204 S1000
G1 X212.848 Y93.687
;TYPE:Solid infill
;WIDTH:0.466076
G1 F2400
G1 X212.166 Y93.005 E0.03925
G1 X211.56 Y93.005 E0.02466
G1 X212.664 Y94.109 E0.06352
G1 X212.664 Y94.715 E0.02465
G1 X210.954 Y93.005 E0.0984
G1 X210.348 Y93.005 E0.02466
G1 X212.664 Y95.321 E0.13327
G1 X212.664 Y95.927 E0.02465
G1 X209.741 Y93.004 E0.16815
G1 X209.135 Y93.004 E0.02466
G1 X212.664 Y96.533 E0.20302
G1 X212.664 Y97.139 E0.02465
G1 X208.529 Y93.004 E0.2379
G1 X207.923 Y93.004 E0.02466
G1 X212.664 Y97.745 E0.27277
G1 X212.664 Y98.351 E0.02465
G1 X207.317 Y93.004 E0.30765
G1 X206.711 Y93.004 E0.02466
M73 P6 R41
G1 X209.257 Y95.55 E0.1465
G1 X208.651 Y95.55 E0.02465
G1 X206.105 Y93.004 E0.14651
G1 X205.498 Y93.003 E0.02466
G1 X208.045 Y95.55 E0.14652
G1 X207.439 Y95.55 E0.02465
G1 X204.892 Y93.003 E0.14653
G1 X204.286 Y93.003 E0.02466
G1 X206.833 Y95.55 E0.14654
G1 X206.227 Y95.55 E0.02465
G1 X203.68 Y93.003 E0.14654
G1 X203.074 Y93.003 E0.02466
G1 X205.621 Y95.55 E0.14655
G1 X205.015 Y95.55 E0.02465
G1 X202.468 Y93.003 E0.14656
G1 X201.862 Y93.002 E0.02466
G1 X204.409 Y95.55 E0.14657
G1 X203.803 Y95.55 E0.02465
G1 X201.255 Y93.002 E0.14658
G1 X200.649 Y93.002 E0.02466
G1 X203.197 Y95.55 E0.14659
G1 X202.591 Y95.55 E0.02465
G1 X200.043 Y93.002 E0.1466
G1 X199.437 Y93.002 E0.02466
G1 X201.985 Y95.55 E0.14661
G1 X201.379 Y95.55 E0.02465
G1 X198.831 Y93.002 E0.14662
G1 X198.225 Y93.001 E0.02466
G1 X200.773 Y95.55 E0.14663
G1 X200.167 Y95.55 E0.02465
G1 X197.619 Y93.001 E0.14664
G1 X197.012 Y93.001 E0.02466
G1 X199.561 Y95.55 E0.14664
G1 X198.955 Y95.55 E0.02465
G1 X196.406 Y93.001 E0.14665
G1 X195.8 Y93.001 E0.02466
G1 X198.349 Y95.55 E0.14666
G1 X197.743 Y95.55 E0.02465
G1 X195.194 Y93.001 E0.14667
G1 X194.588 Y93.001 E0.02466
G1 X197.137 Y95.55 E0.14668
G1 X196.531 Y95.55 E0.02465
G1 X193.982 Y93 E0.14669
G1 X193.376 Y93 E0.02466
G1 X195.925 Y95.55 E0.1467
G1 X195.319 Y95.55 E0.02465
G1 X192.769 Y93 E0.14671
G1 X192.163 Y93 E0.02466
G1 X194.713 Y95.55 E0.14672
G1 X194.107 Y95.55 E0.02465
G1 X191.557 Y93 E0.14673
G1 X190.951 Y93 E0.02466
G1 X193.501 Y95.55 E0.14674
G1 X192.895 Y95.55 E0.02465
G1 X190.345 Y92.999 E0.14675
G1 X189.739 Y92.999 E0.02466
G1 X192.289 Y95.55 E0.14675
G1 X191.683 Y95.55 E0.02465
G1 X189.133 Y92.999 E0.14676
G1 X188.526 Y92.999 E0.02466
G1 X191.077 Y95.55 E0.14677
G1 X190.471 Y95.55 E0.02465
G1 X187.92 Y92.999 E0.14678
G1 X187.314 Y92.999 E0.02466
G1 X189.865 Y95.55 E0.14679
G1 X189.259 Y95.55 E0.02465
G1 X186.708 Y92.998 E0.1468
G1 X186.102 Y92.998 E0.02466
G1 X188.653 Y95.55 E0.14681
G1 X188.047 Y95.55 E0.02465
G1 X185.496 Y92.998 E0.14682
G1 X184.89 Y92.998 E0.02466
G1 X187.441 Y95.55 E0.14683
G1 X186.835 Y95.55 E0.02465
G1 X184.283 Y92.998 E0.14684
G1 X183.677 Y92.998 E0.02466
G1 X186.229 Y95.55 E0.14685
G1 X185.623 Y95.55 E0.02465
G1 X183.071 Y92.997 E0.14686
G1 X182.465 Y92.997 E0.02466
G1 X185.017 Y95.55 E0.14686
G1 X184.412 Y95.55 E0.02465
G1 X181.859 Y92.997 E0.14687
G1 X181.253 Y92.997 E0.02466
G1 X183.806 Y95.55 E0.14688
G1 X183.2 Y95.55 E0.02465
G1 X180.647 Y92.997 E0.14689
G1 X180.04 Y92.997 E0.02466
G1 X182.594 Y95.55 E0.1469
G1 X181.988 Y95.55 E0.02465
G1 X179.434 Y92.997 E0.14691
G1 X178.828 Y92.996 E0.02466
G1 X181.382 Y95.55 E0.14692
G1 X180.776 Y95.55 E0.02465
G1 X178.222 Y92.996 E0.14693
G1 X177.616 Y92.996 E0.02466
G1 X180.17 Y95.55 E0.14694
G1 X179.564 Y95.55 E0.02465
G1 X177.01 Y92.996 E0.14695
G1 X176.404 Y92.996 E0.02466
G1 X178.958 Y95.55 E0.14696
G1 X178.352 Y95.55 E0.02465
G1 X175.797 Y92.996 E0.14697
G1 X175.191 Y92.995 E0.02466
G1 X177.746 Y95.55 E0.14697
G1 X177.14 Y95.55 E0.02465
G1 X174.585 Y92.995 E0.14698
G1 X173.979 Y92.995 E0.02466
G1 X176.534 Y95.55 E0.14699
G1 X175.928 Y95.55 E0.02465
G1 X173.373 Y92.995 E0.147
G1 X172.767 Y92.995 E0.02466
G1 X175.322 Y95.55 E0.14701
G1 X174.716 Y95.55 E0.02465
G1 X172.161 Y92.995 E0.14702
G1 X171.554 Y92.994 E0.02466
G1 X174.11 Y95.55 E0.14703
G1 X173.504 Y95.55 E0.02465
G1 X170.948 Y92.994 E0.14704
G1 X170.342 Y92.994 E0.02466
G1 X172.898 Y95.55 E0.14705
G1 X172.292 Y95.55 E0.02465
G1 X169.736 Y92.994 E0.14706
G1 X169.13 Y92.994 E0.02466
G1 X171.686 Y95.55 E0.14707
G1 X171.08 Y95.55 E0.02465
G1 X168.524 Y92.994 E0.14707
G1 X167.918 Y92.994 E0.02466
G1 X170.474 Y95.55 E0.14708
G1 X169.868 Y95.55 E0.02465
G1 X167.311 Y92.993 E0.14709
G1 X166.705 Y92.993 E0.02466
G1 X169.262 Y95.55 E0.1471
G1 X168.656 Y95.55 E0.02465
G1 X166.099 Y92.993 E0.14711
G1 X165.493 Y92.993 E0.02466
G1 X168.575 Y96.075 E0.17731
G1 X168.575 Y96.681 E0.02465
G1 X164.887 Y92.993 E0.21219
G1 X164.281 Y92.993 E0.02466
G1 X168.575 Y97.287 E0.24706
G1 X168.575 Y97.893 E0.02465
G1 X163.675 Y92.992 E0.28194
G1 X163.068 Y92.992 E0.02466
G1 X168.575 Y98.499 E0.31682
G1 X168.575 Y99.104 E0.02465
G1 X162.462 Y92.992 E0.35169
G1 X161.856 Y92.992 E0.02466
G1 X168.575 Y99.71 E0.38657
G1 X168.575 Y100.316 E0.02465
G1 X161.25 Y92.992 E0.42144
G1 X160.644 Y92.992 E0.02466
G1 X168.575 Y100.922 E0.45632
G1 X168.575 Y101.528 E0.02465
G1 X160.038 Y92.991 E0.49119
G1 X159.432 Y92.991 E0.02466
G1 X168.575 Y102.134 E0.52607
G1 X168.575 Y102.74 E0.02465
G1 X158.825 Y92.991 E0.56095
G1 X158.219 Y92.991 E0.02466
G1 X160.778 Y95.55 E0.14723
G1 X160.172 Y95.55 E0.02465
G1 X157.613 Y92.991 E0.14724
G1 X157.007 Y92.991 E0.02466
G1 X159.566 Y95.55 E0.14725
G1 X158.96 Y95.55 E0.02465
G1 X156.401 Y92.99 E0.14726
G1 X155.795 Y92.99 E0.02466
G1 X158.354 Y95.55 E0.14727
G1 X157.748 Y95.55 E0.02465
G1 X155.189 Y92.99 E0.14728
G1 X154.582 Y92.99 E0.02466
G1 X157.142 Y95.55 E0.14729
G1 X156.536 Y95.55 E0.02465
G1 X153.976 Y92.99 E0.14729
G1 X153.37 Y92.99 E0.02466
G1 X155.93 Y95.55 E0.1473
G1 X155.324 Y95.55 E0.02465
G1 X152.764 Y92.99 E0.14731
G1 X152.158 Y92.989 E0.02466
G1 X154.718 Y95.55 E0.14732
G1 X154.112 Y95.55 E0.02465
G1 X151.552 Y92.989 E0.14733
G1 X150.946 Y92.989 E0.02466
G1 X153.506 Y95.55 E0.14734
G1 X152.9 Y95.55 E0.02465
G1 X150.339 Y92.989 E0.14735
G1 X149.733 Y92.989 E0.02466
G1 X152.294 Y95.55 E0.14736
G1 X151.688 Y95.55 E0.02465
G1 X149.127 Y92.989 E0.14737
G1 X148.521 Y92.988 E0.02466
G1 X151.082 Y95.55 E0.14738
G1 X150.476 Y95.55 E0.02465
G1 X147.915 Y92.988 E0.14739
G1 X147.309 Y92.988 E0.02466
G1 X149.87 Y95.55 E0.14739
G1 X149.264 Y95.55 E0.02465
G1 X146.703 Y92.988 E0.1474
G1 X146.096 Y92.988 E0.02466
G1 X148.658 Y95.55 E0.14741
G1 X148.053 Y95.55 E0.02465
G1 X145.49 Y92.988 E0.14742
G1 X144.884 Y92.987 E0.02466
G1 X147.447 Y95.55 E0.14743
G1 X146.841 Y95.55 E0.02465
G1 X144.278 Y92.987 E0.14744
G1 X143.672 Y92.987 E0.02466
G1 X146.235 Y95.55 E0.14745
G1 X145.629 Y95.55 E0.02465
G1 X143.066 Y92.987 E0.14746
G1 X142.46 Y92.987 E0.02466
G1 X145.023 Y95.55 E0.14747
G1 X144.417 Y95.55 E0.02465
G1 X141.853 Y92.987 E0.14748
G1 X141.247 Y92.987 E0.02466
G1 X143.811 Y95.55 E0.14749
G1 X143.205 Y95.55 E0.02465
G1 X140.641 Y92.986 E0.1475
G1 X140.035 Y92.986 E0.02466
G1 X142.599 Y95.55 E0.1475
G1 X141.993 Y95.55 E0.02465
G1 X139.429 Y92.986 E0.14751
G1 X138.823 Y92.986 E0.02466
G1 X141.387 Y95.55 E0.14752
G1 X140.781 Y95.55 E0.02465
G1 X138.217 Y92.986 E0.14753
G1 X137.61 Y92.986 E0.02466
G1 X140.175 Y95.55 E0.14754
G1 X139.569 Y95.55 E0.02465
G1 X137.004 Y92.985 E0.14755
G1 X136.398 Y92.985 E0.02466
G1 X138.963 Y95.55 E0.14756
G1 X138.357 Y95.55 E0.02465
G1 X135.792 Y92.985 E0.14757
G1 X135.186 Y92.985 E0.02466
G1 X137.751 Y95.55 E0.14758
G1 X137.145 Y95.55 E0.02465
G1 X134.58 Y92.985 E0.14759
G1 X133.974 Y92.985 E0.02466
G1 X136.539 Y95.55 E0.1476
G1 X135.933 Y95.55 E0.02465
G1 X133.367 Y92.984 E0.14761
G1 X132.761 Y92.984 E0.02466
G1 X135.327 Y95.55 E0.14761
G1 X134.721 Y95.55 E0.02465
G1 X132.155 Y92.984 E0.14762
G1 X131.549 Y92.984 E0.02466
G1 X134.115 Y95.55 E0.14763
G1 X133.509 Y95.55 E0.02465
G1 X130.943 Y92.984 E0.14764
G1 X130.337 Y92.984 E0.02466
G1 X132.903 Y95.55 E0.14765
G1 X132.297 Y95.55 E0.02465
G1 X129.731 Y92.983 E0.14766
G1 X129.124 Y92.983 E0.02466
G1 X131.691 Y95.55 E0.14767
G1 X131.085 Y95.55 E0.02465
G1 X128.518 Y92.983 E0.14768
G1 X127.912 Y92.983 E0.02466
G1 X130.479 Y95.55 E0.14769
G1 X129.873 Y95.55 E0.02465
G1 X127.306 Y92.983 E0.1477
G1 X126.7 Y92.983 E0.02466
G1 X129.267 Y95.55 E0.14771
G1 X128.661 Y95.55 E0.02465
G1 X126.094 Y92.983 E0.14771
G1 X125.488 Y92.982 E0.02466
G1 X128.055 Y95.55 E0.14772
G1 X127.449 Y95.55 E0.02465
G1 X124.881 Y92.982 E0.14773
G1 X124.275 Y92.982 E0.02466
G1 X126.843 Y95.55 E0.14774
G1 X126.237 Y95.55 E0.02465
G1 X123.669 Y92.982 E0.14775
G1 X123.063 Y92.982 E0.02466
G1 X125.631 Y95.55 E0.14776
G1 X125.025 Y95.55 E0.02465
G1 X122.457 Y92.982 E0.14777
G1 X121.851 Y92.981 E0.02466
G1 X124.419 Y95.55 E0.14778
G1 X123.813 Y95.55 E0.02465
G1 X121.245 Y92.981 E0.14779
G1 X120.638 Y92.981 E0.02466
G1 X123.207 Y95.55 E0.1478
G1 X122.601 Y95.55 E0.02465
G1 X120.032 Y92.981 E0.14781
G1 X119.426 Y92.981 E0.02466
G1 X121.995 Y95.55 E0.14782
G1 X121.389 Y95.55 E0.02465
G1 X118.82 Y92.981 E0.14782
G1 X118.214 Y92.98 E0.02466
G1 X120.783 Y95.55 E0.14783
G1 X120.177 Y95.55 E0.02465
G1 X117.608 Y92.98 E0.14784
G1 X117.338 Y92.98 E0.01098
G1 X117.338 Y93.316 E0.01368
G1 X119.883 Y95.861 E0.14643
G1 X119.883 Y96.467 E0.02465
G1 X117.338 Y93.922 E0.14643
G1 X117.338 Y94.528 E0.02465
G1 X119.883 Y97.073 E0.14643
G1 X119.883 Y97.679 E0.02465
G1 X117.338 Y95.134 E0.14643
G1 X117.338 Y95.74 E0.02465
G1 X119.883 Y98.285 E0.14643
G1 X119.883 Y98.891 E0.02465
G1 X117.338 Y96.346 E0.14643
M73 P6 R40
G1 X117.338 Y96.952 E0.02465
G1 X119.883 Y99.497 E0.14643
G1 X119.883 Y100.103 E0.02465
G1 X117.338 Y97.558 E0.14643
G1 X117.338 Y98.164 E0.02465
G1 X119.883 Y100.709 E0.14643
G1 X119.883 Y101.315 E0.02465
G1 X117.338 Y98.77 E0.14643
G1 X117.338 Y99.376 E0.02465
G1 X119.883 Y101.921 E0.14643
G1 X119.883 Y102.527 E0.02465
G1 X117.338 Y99.982 E0.14643
G1 X117.338 Y100.588 E0.02465
G1 X119.883 Y103.133 E0.14643
G1 X119.883 Y103.739 E0.02465
G1 X117.338 Y101.194 E0.14643
G1 X117.338 Y101.8 E0.02465
G1 X119.883 Y104.345 E0.14643
G1 X119.883 Y104.951 E0.02465
G1 X117.338 Y102.406 E0.14643
G1 X117.338 Y103.012 E0.02465
G1 X119.883 Y105.557 E0.14643
M73 P7 R40
G1 X119.883 Y106.163 E0.02465
G1 X117.338 Y103.618 E0.14643
G1 X117.338 Y104.224 E0.02465
G1 X119.883 Y106.769 E0.14643
G1 X119.883 Y107.375 E0.02465
G1 X117.338 Y104.83 E0.14643
G1 X117.338 Y105.436 E0.02465
G1 X119.883 Y107.981 E0.14643
G1 X119.883 Y108.587 E0.02465
G1 X117.338 Y106.042 E0.14643
G1 X117.338 Y106.648 E0.02465
G1 X119.883 Y109.193 E0.14643
G1 X119.883 Y109.799 E0.02465
