; generated by SuperSlicer 2.4 on 2022-06-06 at 18:22:40 UTC


;
;

;
;
; 

; external perimeters extrusion width = 0.40mm
; perimeters extrusion width = 0.40mm
; infill extrusion width = 0.72mm
; solid infill extrusion width = 0.56mm
; top infill extrusion width = 0.40mm
; first layer extrusion width = 0.48mm

; object:{"name":"3x3_Grid(1)","id":"3x3_Grid(1).STL id:0 copy 0","object_center":[152.500001,150.000000,0.000000],"boundingbox_center":[152.500001,150.000000,2.349500],"boundingbox_size":[146.050003,146.050003,4.699000]}
; plater:{"center":[152.500001,150.000000,0.000000],"boundingbox_center":[152.500001,150.000000,2.349500],"boundingbox_size":[146.050003,146.050003,4.699000]}

M73 P0 R63
;TYPE:Custom
START_PRINT T_BED=70 T_EXTRUDER=235
M107
G21 ; set units to millimeters
G90 ; use absolute coordinates
M83 ; use relative distances for extrusion
; Filament gcode
M104 S235 ; set temperature
M109 S235 ; set temperature and wait for it to be reached
M190 S70 ; set bed temperature and wait for it to be reached
M107
;LAYER_CHANGE
;Z:0.24
;HEIGHT:0.24
G1 Z0.24 F9000
G92 E0
G1 E-1 F3000
M204 S1000
G1 X77.37 Y74.105 F9000
G1 E1 F1800
;TYPE:Skirt
;WIDTH:0.52
G1 X76.27 Y75.412 E0.07988
G1 X75.875 Y77.075 E0.07988
G1 X75.875 Y222.925 E6.818
G1 X76.605 Y225.13 E0.10858
G1 X77.912 Y226.23 E0.07988
G1 X79.575 Y226.625 E0.07988
G1 X225.425 Y226.625 E6.818
G1 X227.63 Y225.895 E0.10858
G1 X228.73 Y224.588 E0.07988
G1 X229.125 Y222.925 E0.07988
G1 X229.125 Y77.075 E6.818
G1 X228.395 Y74.87 E0.10858
G1 X227.088 Y73.77 E0.07988
G1 X225.425 Y73.375 E0.07988
G1 X79.575 Y73.375 E6.818
M73 P1 R63
G1 X77.37 Y74.105 E0.10858
G1 X77.739 Y74.447 F9000
G1 F1800
G1 X76.736 Y75.529 E0.06895
G1 X76.342 Y77.075 E0.0746
G1 X76.342 Y222.925 E6.818
M73 P1 R62
G1 X76.859 Y224.679 E0.08548
G1 X78.029 Y225.764 E0.0746
G1 X79.575 Y226.158 E0.0746
G1 X225.425 Y226.158 E6.818
G1 X227.179 Y225.641 E0.08548
G1 X228.264 Y224.471 E0.0746
G1 X228.658 Y222.925 E0.0746
G1 X228.658 Y77.075 E6.818
G1 X228.141 Y75.321 E0.08548
G1 X226.971 Y74.236 E0.0746
G1 X225.425 Y73.842 E0.0746
G1 X79.575 Y73.842 E6.818
G1 X77.821 Y74.359 E0.08548
G1 X77.739 Y74.447 E0.00565
G1 E-1 F3000
; printing object 3x3_Grid(1).STL id:0 copy 0
G1 X131.977 Y129.906 F9000
G1 E1 F1800
;TYPE:Internal perimeter
;WIDTH:0.48
G1 X131.977 Y170.548 E1.73768
G1 X173.048 Y170.548 E1.756
G1 X173.048 Y129.477 E1.756
G1 X131.977 Y129.477 E1.756
G1 X131.977 Y129.906 E0.01832
G1 X132.406 Y129.906 F9000
;TYPE:External perimeter
G1 F1800
G1 X132.406 Y170.12 E1.71936
G1 X172.62 Y170.12 E1.71936
G1 X172.62 Y129.906 E1.71936
G1 X132.406 Y129.906 E1.71936
;WIPE_START
M204 S3000
G1 X132.006 Y129.906 F9000
;WIPE_END
M204 S1000
G1 X131.977 Y178.598
;TYPE:Internal perimeter
G1 F1800
G1 X131.977 Y219.24 E1.73768
G1 X173.048 Y219.24 E1.756
G1 X173.048 Y178.169 E1.756
M73 P2 R62
G1 X131.977 Y178.169 E1.756
G1 X131.977 Y178.598 E0.01832
G1 X132.406 Y178.598 F9000
;TYPE:External perimeter
G1 F1800
G1 X132.406 Y218.811 E1.71936
G1 X172.62 Y218.811 E1.71936
G1 X172.62 Y178.598 E1.71936
G1 X132.406 Y178.598 E1.71936
;WIPE_START
M204 S3000
G1 X132.006 Y178.598 F9000
;WIPE_END
M204 S1000
G1 X180.669 Y178.598
;TYPE:Internal perimeter
G1 F1800
G1 X180.669 Y219.24 E1.73768
G1 X221.74 Y219.24 E1.756
G1 X221.74 Y178.169 E1.756
G1 X180.669 Y178.169 E1.756
G1 X180.669 Y178.598 E0.01832
G1 X181.098 Y178.598 F9000
;TYPE:External perimeter
G1 F1800
G1 X181.098 Y218.811 E1.71936
G1 X221.311 Y218.811 E1.71936
G1 X221.311 Y178.598 E1.71936
G1 X181.098 Y178.598 E1.71936
;WIPE_START
M204 S3000
G1 X180.698 Y178.598 F9000
;WIPE_END
M204 S1000
G1 X181.098 Y170.548
;TYPE:Internal perimeter
G1 F1800
G1 X221.74 Y170.548 E1.73768
G1 X221.74 Y129.477 E1.756
G1 X180.669 Y129.477 E1.756
G1 X180.669 Y170.548 E1.756
G1 X181.098 Y170.548 E0.01832
G1 X181.098 Y170.12 F9000
;TYPE:External perimeter
G1 F1800
G1 X221.311 Y170.12 E1.71936
G1 X221.311 Y129.906 E1.71936
G1 X181.098 Y129.906 E1.71936
M73 P2 R61
G1 X181.098 Y170.12 E1.71936
;WIPE_START
M204 S3000
G1 X181.098 Y170.52 F9000
;WIPE_END
M204 S1000
G1 X181.098 Y121.856
;TYPE:Internal perimeter
G1 F1800
G1 X221.74 Y121.856 E1.73768
G1 X221.74 Y80.785 E1.756
G1 X180.669 Y80.785 E1.756
G1 X180.669 Y121.856 E1.756
G1 X181.098 Y121.856 E0.01832
G1 X181.098 Y121.428 F9000
;TYPE:External perimeter
G1 F1800
G1 X221.311 Y121.428 E1.71936
M73 P3 R61
G1 X221.311 Y81.214 E1.71936
G1 X181.098 Y81.214 E1.71936
G1 X181.098 Y121.428 E1.71936
;WIPE_START
M204 S3000
G1 X181.098 Y121.828 F9000
;WIPE_END
M204 S1000
G1 X173.048 Y121.428
;TYPE:Internal perimeter
G1 F1800
G1 X173.048 Y80.785 E1.73768
G1 X131.977 Y80.785 E1.756
G1 X131.977 Y121.856 E1.756
G1 X173.048 Y121.856 E1.756
G1 X173.048 Y121.428 E0.01832
G1 X172.62 Y121.428 F9000
;TYPE:External perimeter
G1 F1800
G1 X172.62 Y81.214 E1.71936
G1 X132.406 Y81.214 E1.71936
G1 X132.406 Y121.428 E1.71936
G1 X172.62 Y121.428 E1.71936
;WIPE_START
M204 S3000
G1 X173.02 Y121.428 F9000
;WIPE_END
M204 S1000
G1 X124.356 Y121.428
;TYPE:Internal perimeter
G1 F1800
G1 X124.356 Y80.785 E1.73768
G1 X83.285 Y80.785 E1.756
G1 X83.285 Y121.856 E1.756
G1 X124.356 Y121.856 E1.756
G1 X124.356 Y121.428 E0.01832
G1 X123.928 Y121.428 F9000
;TYPE:External perimeter
G1 F1800
G1 X123.928 Y81.214 E1.71936
G1 X83.714 Y81.214 E1.71936
G1 X83.714 Y121.428 E1.71936
G1 X123.928 Y121.428 E1.71936
;WIPE_START
M204 S3000
G1 X124.328 Y121.428 F9000
;WIPE_END
M204 S1000
G1 X124.356 Y129.906
;TYPE:Internal perimeter
G1 F1800
G1 X124.356 Y129.477 E0.01832
G1 X83.285 Y129.477 E1.756
G1 X83.285 Y170.548 E1.756
G1 X124.356 Y170.548 E1.756
G1 X124.356 Y129.906 E1.73768
G1 X123.928 Y129.906 F9000
;TYPE:External perimeter
G1 F1800
G1 X83.714 Y129.906 E1.71936
G1 X83.714 Y170.12 E1.71936
G1 X123.928 Y170.12 E1.71936
G1 X123.928 Y129.906 E1.71936
;WIPE_START
M204 S3000
G1 X123.928 Y129.506 F9000
;WIPE_END
M204 S1000
G1 X124.356 Y178.598
;TYPE:Internal perimeter
M73 P4 R61
G1 F1800
G1 X124.356 Y178.169 E0.01832
G1 X83.285 Y178.169 E1.756
G1 X83.285 Y219.24 E1.756
G1 X124.356 Y219.24 E1.756
G1 X124.356 Y178.598 E1.73768
G1 X123.928 Y178.598 F9000
;TYPE:External perimeter
G1 F1800
G1 X83.714 Y178.598 E1.71936
G1 X83.714 Y218.811 E1.71936
G1 X123.928 Y218.811 E1.71936
G1 X123.928 Y178.598 E1.71936
;WIPE_START
M204 S3000
G1 X123.928 Y178.198 F9000
;WIPE_END
G1 E-1 F3000
M204 S1000
G1 X224.757 Y222.257 F9000
G1 E1 F1800
;TYPE:Internal perimeter
G1 X80.243 Y222.257 E6.17872
M73 P4 R60
G1 X80.243 Y77.743 E6.17872
G1 X224.757 Y77.743 E6.17872
G1 X224.757 Y222.257 E6.17872
G1 X225.185 Y222.685 F9000
;TYPE:External perimeter
G1 F1800
G1 X79.815 Y222.685 E6.21536
G1 X79.815 Y77.315 E6.21536
M73 P5 R60
G1 X225.185 Y77.315 E6.21536
G1 X225.185 Y222.685 E6.21536
;WIPE_START
M204 S3000
G1 X224.839 Y222.485 F9000
;WIPE_END
M204 S1000
G1 X223.826 Y77.808
;TYPE:Solid infill
;WIDTH:0.467248
G1 F2400
G1 X224.508 Y78.49 E0.04014
G1 X224.508 Y79.096 E0.02522
G1 X223.404 Y77.992 E0.06496
G1 X222.798 Y77.992 E0.02522
G1 X224.508 Y79.702 E0.10063
G1 X224.508 Y80.308 E0.02522
G1 X222.192 Y77.992 E0.1363
G1 X221.586 Y77.992 E0.02522
G1 X224.508 Y80.914 E0.17196
G1 X224.508 Y81.52 E0.02522
G1 X220.98 Y77.992 E0.20763
G1 X220.374 Y77.992 E0.02522
G1 X224.508 Y82.126 E0.2433
G1 X224.508 Y82.732 E0.02522
G1 X219.768 Y77.992 E0.27897
G1 X219.162 Y77.992 E0.02522
G1 X224.508 Y83.338 E0.31463
G1 X224.508 Y83.944 E0.02522
G1 X221.988 Y81.424 E0.1483
G1 X221.988 Y82.03 E0.02522
G1 X224.508 Y84.55 E0.1483
G1 X224.508 Y85.156 E0.02522
G1 X221.988 Y82.636 E0.1483
G1 X221.988 Y83.242 E0.02522
G1 X224.508 Y85.761 E0.1483
G1 X224.508 Y86.367 E0.02522
G1 X221.988 Y83.848 E0.1483
G1 X221.988 Y84.454 E0.02522
G1 X224.508 Y86.973 E0.1483
G1 X224.508 Y87.579 E0.02522
G1 X221.988 Y85.06 E0.1483
G1 X221.988 Y85.666 E0.02522
G1 X224.508 Y88.185 E0.1483
G1 X224.508 Y88.791 E0.02522
G1 X221.988 Y86.272 E0.1483
G1 X221.988 Y86.878 E0.02522
G1 X224.508 Y89.397 E0.1483
G1 X224.508 Y90.003 E0.02522
G1 X221.988 Y87.484 E0.1483
G1 X221.988 Y88.09 E0.02522
G1 X224.508 Y90.609 E0.1483
G1 X224.508 Y91.215 E0.02522
G1 X221.988 Y88.696 E0.1483
G1 X221.988 Y89.302 E0.02522
G1 X224.508 Y91.821 E0.1483
G1 X224.508 Y92.427 E0.02522
G1 X221.988 Y89.908 E0.1483
G1 X221.988 Y90.514 E0.02522
G1 X224.508 Y93.033 E0.1483
G1 X224.508 Y93.639 E0.02522
G1 X221.988 Y91.12 E0.1483
G1 X221.988 Y91.726 E0.02522
G1 X224.508 Y94.245 E0.1483
G1 X224.508 Y94.851 E0.02522
G1 X221.988 Y92.332 E0.1483
G1 X221.988 Y92.938 E0.02522
G1 X224.508 Y95.457 E0.1483
G1 X224.508 Y96.063 E0.02522
G1 X221.988 Y93.544 E0.1483
G1 X221.988 Y94.15 E0.02522
G1 X224.508 Y96.669 E0.1483
G1 X224.508 Y97.275 E0.02522
G1 X221.988 Y94.756 E0.1483
G1 X221.988 Y95.362 E0.02522
G1 X224.508 Y97.881 E0.1483
G1 X224.508 Y98.487 E0.02522
G1 X221.988 Y95.968 E0.1483
G1 X221.988 Y96.574 E0.02522
G1 X224.508 Y99.093 E0.1483
G1 X224.508 Y99.699 E0.02522
G1 X221.988 Y97.18 E0.1483
G1 X221.988 Y97.785 E0.02522
G1 X224.508 Y100.305 E0.1483
G1 X224.508 Y100.911 E0.02522
G1 X221.988 Y98.391 E0.1483
G1 X221.988 Y98.997 E0.02522
G1 X224.508 Y101.517 E0.1483
G1 X224.508 Y102.123 E0.02522
G1 X221.988 Y99.603 E0.1483
G1 X221.988 Y100.209 E0.02522
G1 X224.508 Y102.729 E0.1483
G1 X224.508 Y103.335 E0.02522
G1 X221.988 Y100.815 E0.1483
G1 X221.988 Y101.421 E0.02522
G1 X224.508 Y103.941 E0.1483
G1 X224.508 Y104.547 E0.02522
G1 X221.988 Y102.027 E0.1483
G1 X221.988 Y102.633 E0.02522
G1 X224.508 Y105.153 E0.1483
G1 X224.508 Y105.759 E0.02522
G1 X221.988 Y103.239 E0.1483
G1 X221.988 Y103.845 E0.02522
G1 X224.508 Y106.365 E0.1483
G1 X224.508 Y106.971 E0.02522
G1 X221.988 Y104.451 E0.1483
G1 X221.988 Y105.057 E0.02522
G1 X224.508 Y107.577 E0.1483
G1 X224.508 Y108.183 E0.02522
G1 X221.988 Y105.663 E0.1483
G1 X221.988 Y106.269 E0.02522
G1 X224.508 Y108.789 E0.1483
G1 X224.508 Y109.395 E0.02522
G1 X221.988 Y106.875 E0.1483
G1 X221.988 Y107.481 E0.02522
G1 X224.508 Y110.001 E0.1483
G1 X224.508 Y110.607 E0.02522
G1 X221.988 Y108.087 E0.1483
G1 X221.988 Y108.693 E0.02522
G1 X224.508 Y111.213 E0.1483
G1 X224.508 Y111.819 E0.02522
G1 X221.988 Y109.299 E0.1483
G1 X221.988 Y109.905 E0.02522
G1 X224.508 Y112.425 E0.1483
G1 X224.508 Y113.031 E0.02522
G1 X221.988 Y110.511 E0.1483
G1 X221.988 Y111.117 E0.02522
G1 X224.508 Y113.637 E0.1483
G1 X224.508 Y114.243 E0.02522
G1 X221.988 Y111.723 E0.1483
G1 X221.988 Y112.329 E0.02522
G1 X224.508 Y114.849 E0.1483
G1 X224.508 Y115.455 E0.02522
G1 X221.988 Y112.935 E0.1483
G1 X221.988 Y113.541 E0.02522
G1 X224.508 Y116.061 E0.1483
G1 X224.508 Y116.667 E0.02522
G1 X221.988 Y114.147 E0.1483
G1 X221.988 Y114.753 E0.02522
G1 X224.508 Y117.273 E0.1483
G1 X224.508 Y117.879 E0.02522
G1 X221.988 Y115.359 E0.1483
G1 X221.988 Y115.965 E0.02522
G1 X224.508 Y118.485 E0.1483
G1 X224.508 Y119.091 E0.02522
G1 X221.988 Y116.571 E0.1483
G1 X221.988 Y117.177 E0.02522
G1 X224.508 Y119.697 E0.1483
G1 X224.508 Y120.303 E0.02522
G1 X221.988 Y117.783 E0.1483
G1 X221.988 Y118.389 E0.02522
G1 X224.508 Y120.909 E0.1483
G1 X224.508 Y121.515 E0.02522
G1 X221.988 Y118.995 E0.1483
G1 X221.988 Y119.601 E0.02522
G1 X224.508 Y122.12 E0.1483
G1 X224.508 Y122.726 E0.02522
G1 X221.988 Y120.207 E0.1483
G1 X221.988 Y120.813 E0.02522
G1 X224.508 Y123.332 E0.1483
G1 X224.508 Y123.938 E0.02522
G1 X221.988 Y121.419 E0.1483
G1 X221.988 Y122.025 E0.02522
G1 X224.508 Y124.544 E0.1483
G1 X224.508 Y125.15 E0.02522
G1 X221.462 Y122.105 E0.17926
G1 X220.856 Y122.105 E0.02522
G1 X224.508 Y125.756 E0.21493
G1 X224.508 Y126.362 E0.02522
G1 X220.25 Y122.105 E0.2506
G1 X219.644 Y122.105 E0.02522
G1 X224.508 Y126.968 E0.28626
G1 X224.508 Y127.574 E0.02522
G1 X219.038 Y122.105 E0.32193
G1 X218.432 Y122.105 E0.02522
G1 X224.508 Y128.18 E0.3576
G1 X224.508 Y128.786 E0.02522
G1 X217.826 Y122.105 E0.39327
G1 X217.22 Y122.105 E0.02522
G1 X224.508 Y129.392 E0.42894
G1 X224.508 Y129.998 E0.02522
G1 X216.615 Y122.105 E0.4646
G1 X216.009 Y122.105 E0.02522
G1 X224.508 Y130.604 E0.50027
G1 X224.508 Y131.21 E0.02522
G1 X215.403 Y122.105 E0.53594
G1 X214.797 Y122.105 E0.02522
G1 X224.508 Y131.816 E0.57161
G1 X224.508 Y132.422 E0.02522
G1 X221.988 Y129.903 E0.1483
G1 X221.988 Y130.509 E0.02522
G1 X224.508 Y133.028 E0.1483
G1 X224.508 Y133.634 E0.02522
G1 X221.988 Y131.115 E0.1483
G1 X221.988 Y131.721 E0.02522
G1 X224.508 Y134.24 E0.1483
G1 X224.508 Y134.846 E0.02522
G1 X221.988 Y132.327 E0.1483
G1 X221.988 Y132.933 E0.02522
G1 X224.508 Y135.452 E0.1483
G1 X224.508 Y136.058 E0.02522
G1 X221.988 Y133.539 E0.1483
G1 X221.988 Y134.145 E0.02522
G1 X224.508 Y136.664 E0.1483
G1 X224.508 Y137.27 E0.02522
G1 X221.988 Y134.75 E0.1483
G1 X221.988 Y135.356 E0.02522
G1 X224.508 Y137.876 E0.1483
G1 X224.508 Y138.482 E0.02522
G1 X221.988 Y135.962 E0.1483
G1 X221.988 Y136.568 E0.02522
G1 X224.508 Y139.088 E0.1483
G1 X224.508 Y139.694 E0.02522
G1 X221.988 Y137.174 E0.1483
G1 X221.988 Y137.78 E0.02522
G1 X224.508 Y140.3 E0.1483
G1 X224.508 Y140.906 E0.02522
G1 X221.988 Y138.386 E0.1483
G1 X221.988 Y138.992 E0.02522
G1 X224.508 Y141.512 E0.1483
G1 X224.508 Y142.118 E0.02522
G1 X221.988 Y139.598 E0.1483
G1 X221.988 Y140.204 E0.02522
G1 X224.508 Y142.724 E0.1483
G1 X224.508 Y143.33 E0.02522
G1 X221.988 Y140.81 E0.1483
G1 X221.988 Y141.416 E0.02522
G1 X224.508 Y143.936 E0.1483
G1 X224.508 Y144.542 E0.02522
G1 X221.988 Y142.022 E0.1483
G1 X221.988 Y142.628 E0.02522
G1 X224.508 Y145.148 E0.1483
G1 X224.508 Y145.754 E0.02522
G1 X221.988 Y143.234 E0.1483
G1 X221.988 Y143.84 E0.02522
G1 X224.508 Y146.36 E0.1483
G1 X224.508 Y146.966 E0.02522
G1 X221.988 Y144.446 E0.1483
G1 X221.988 Y145.052 E0.02522
G1 X224.508 Y147.572 E0.1483
G1 X224.508 Y148.178 E0.02522
G1 X221.988 Y145.658 E0.1483
G1 X221.988 Y146.264 E0.02522
G1 X224.508 Y148.784 E0.1483
G1 X224.508 Y149.39 E0.02522
G1 X221.988 Y146.87 E0.1483
G1 X221.988 Y147.476 E0.02522
G1 X224.508 Y149.996 E0.1483
G1 X224.508 Y150.602 E0.02522
G1 X221.988 Y148.082 E0.1483
G1 X221.988 Y148.688 E0.02522
G1 X224.508 Y151.208 E0.1483
G1 X224.508 Y151.814 E0.02522
G1 X221.988 Y149.294 E0.1483
G1 X221.988 Y149.9 E0.02522
G1 X224.508 Y152.42 E0.1483
G1 X224.508 Y153.026 E0.02522
G1 X221.988 Y150.506 E0.1483
G1 X221.988 Y151.112 E0.02522
G1 X224.508 Y153.632 E0.1483
G1 X224.508 Y154.238 E0.02522
G1 X221.988 Y151.718 E0.1483
M73 P5 R59
G1 X221.988 Y152.324 E0.02522
G1 X224.508 Y154.844 E0.1483
G1 X224.508 Y155.45 E0.02522
G1 X221.988 Y152.93 E0.1483
G1 X221.988 Y153.536 E0.02522
G1 X224.508 Y156.056 E0.1483
G1 X224.508 Y156.662 E0.02522
G1 X221.988 Y154.142 E0.1483
G1 X221.988 Y154.748 E0.02522
G1 X224.508 Y157.268 E0.1483
G1 X224.508 Y157.874 E0.02522
G1 X221.988 Y155.354 E0.1483
G1 X221.988 Y155.96 E0.02522
G1 X224.508 Y158.48 E0.1483
G1 X224.508 Y159.085 E0.02522
G1 X221.988 Y156.566 E0.1483
G1 X221.988 Y157.172 E0.02522
G1 X224.508 Y159.691 E0.1483
G1 X224.508 Y160.297 E0.02522
G1 X221.988 Y157.778 E0.1483
G1 X221.988 Y158.384 E0.02522
G1 X224.508 Y160.903 E0.1483
G1 X224.508 Y161.509 E0.02522
G1 X221.988 Y158.99 E0.1483
G1 X221.988 Y159.596 E0.02522
G1 X224.508 Y162.115 E0.1483
G1 X224.508 Y162.721 E0.02522
G1 X221.988 Y160.202 E0.1483
G1 X221.988 Y160.808 E0.02522
G1 X224.508 Y163.327 E0.1483
G1 X224.508 Y163.933 E0.02522
G1 X221.988 Y161.414 E0.1483
G1 X221.988 Y162.02 E0.02522
G1 X224.508 Y164.539 E0.1483
G1 X224.508 Y165.145 E0.02522
G1 X221.988 Y162.626 E0.1483
G1 X221.988 Y163.232 E0.02522
G1 X224.508 Y165.751 E0.1483
G1 X224.508 Y166.357 E0.02522
G1 X221.988 Y163.838 E0.1483
G1 X221.988 Y164.444 E0.02522
G1 X224.508 Y166.963 E0.1483
G1 X224.508 Y167.569 E0.02522
G1 X221.988 Y165.05 E0.1483
G1 X221.988 Y165.656 E0.02522
G1 X224.508 Y168.175 E0.1483
G1 X224.508 Y168.781 E0.02522
G1 X221.988 Y166.262 E0.1483
G1 X221.988 Y166.868 E0.02522
G1 X224.508 Y169.387 E0.1483
M73 P6 R59
G1 X224.508 Y169.993 E0.02522
G1 X221.988 Y167.474 E0.1483
G1 X221.988 Y168.08 E0.02522
G1 X224.508 Y170.599 E0.1483
G1 X224.508 Y171.205 E0.02522
G1 X221.988 Y168.686 E0.1483
G1 X221.988 Y169.292 E0.02522
G1 X224.508 Y171.811 E0.1483
G1 X224.508 Y172.417 E0.02522
G1 X221.988 Y169.898 E0.1483
G1 X221.988 Y170.504 E0.02522
G1 X224.508 Y173.023 E0.1483
