; generated by SuperSlicer 2.3.57 on 2022-03-01 at 05:04:53 UTC


;
;

;
;
; 

; external perimeters extrusion width = 0.40mm
; perimeters extrusion width = 0.45mm
; infill extrusion width = 0.72mm
; solid infill extrusion width = 0.56mm
; top infill extrusion width = 0.40mm
; support material extrusion width = 0.42mm
; first layer extrusion width = 0.48mm

; external perimeters extrusion width = 0.42mm
; perimeters extrusion width = 0.45mm
; infill extrusion width = 0.72mm
; solid infill extrusion width = 0.56mm
; top infill extrusion width = 0.40mm
; support material extrusion width = 0.42mm
; first layer extrusion width = 0.48mm

; external perimeters extrusion width = 0.40mm
; perimeters extrusion width = 0.45mm
; infill extrusion width = 0.72mm
; solid infill extrusion width = 0.56mm
; top infill extrusion width = 0.40mm
; support material extrusion width = 0.42mm
; first layer extrusion width = 0.48mm

; external perimeters extrusion width = 0.42mm
; perimeters extrusion width = 0.45mm
; infill extrusion width = 0.72mm
; solid infill extrusion width = 0.56mm
; top infill extrusion width = 0.40mm
; support material extrusion width = 0.42mm
; first layer extrusion width = 0.48mm

; external perimeters extrusion width = 0.40mm
; perimeters extrusion width = 0.40mm
; infill extrusion width = 0.72mm
; solid infill extrusion width = 0.56mm
; top infill extrusion width = 0.40mm
; support material extrusion width = 0.42mm
; first layer extrusion width = 0.48mm

; object:{"name":"Hale Creek","id":"Hale Creek.stl id:0 copy 0","object_center":[152.500000,150.000000,0.000000],"boundingbox_center":[152.500000,150.000000,3.000000],"boundingbox_size":[140.000000,25.000000,6.000000]}
; plater:{"center":[152.500000,150.000000,0.000000],"boundingbox_center":[152.500000,150.000000,3.000000],"boundingbox_size":[140.000000,25.000000,6.000000]}

;TYPE:Custom
START_PRINT T_BED=60 T_EXTRUDER=200
M107
G21 ; set units to millimeters
G90 ; use absolute coordinates
M83 ; use relative distances for extrusion
; Filament gcode
M109 S200 ; set temperature and wait for it to be reached
M190 S60 ; set bed temperature and wait for it to be reached
;LAYER_CHANGE
;Z:0.24
;HEIGHT:0.24
G1 Z0.24 F9000
G1 E-0.8 F3000
G1 X80.791 Y134.438 F9000
G1 E0.8 F1800
; External perimeter
;Skirt
SET_VELOCITY_LIMIT ACCEL=300 ACCEL_TO_DECEL=3000 SQUARE_CORNER_VELOCITY=5

; Support material

;TYPE:Skirt
;WIDTH:0.48
G1 X79.892 Y135.164 E0.04938
G1 X79.267 Y136.13 E0.04919
G1 X78.974 Y137.247 E0.04938
G1 X78.957 Y162.407 E1.07574
G1 X79.031 Y163.128 E0.031
G1 X79.205 Y163.72 E0.02638
G1 X79.474 Y164.27 E0.02618
G1 X79.834 Y164.771 E0.02638
G1 X80.271 Y165.201 E0.02618
G1 X80.777 Y165.554 E0.02638
G1 X81.331 Y165.814 E0.02618
G1 X81.92 Y165.979 E0.02618
G1 X82.529 Y166.042 E0.02618
G1 X222.402 Y166.043 E5.98034
G1 X223.128 Y165.969 E0.0312
G1 X224.205 Y165.564 E0.04919
G1 X225.102 Y164.843 E0.04919
G1 X225.727 Y163.883 E0.04899
G1 X226.024 Y162.772 E0.04919
G1 X226.042 Y137.517 E1.07976
G1 X225.958 Y136.821 E0.02999
G1 X225.743 Y136.153 E0.02999
G1 X225.401 Y135.535 E0.03019
G1 X224.95 Y134.998 E0.02999
G1 X224.4 Y134.555 E0.03019
G1 X223.779 Y134.228 E0.02999
G1 X223.103 Y134.026 E0.03019
G1 X222.405 Y133.957 E0.02999
G1 X82.598 Y133.957 E5.97752
G1 X81.872 Y134.031 E0.0312
G1 X80.847 Y134.417 E0.04682
G1 X81.005 Y134.81 F9000
G1 F1800
G1 X80.206 Y135.456 E0.04393
G1 X79.651 Y136.321 E0.04393
G1 X79.398 Y137.317 E0.04393
G1 X79.386 Y162.408 E1.0728
G1 X79.449 Y163.033 E0.02685
G1 X79.839 Y164.045 E0.04636
G1 X80.543 Y164.87 E0.04636
G1 X81.477 Y165.412 E0.04618
G1 X82.542 Y165.614 E0.04636
G1 X222.4 Y165.614 E5.97968
G1 X223.033 Y165.551 E0.02721
G1 X223.992 Y165.193 E0.04375
G1 X224.789 Y164.551 E0.04375
G1 X225.343 Y163.691 E0.04375
G1 X225.601 Y162.696 E0.04393
G1 X225.614 Y137.534 E1.07583
G1 X225.54 Y136.915 E0.02666
G1 X225.351 Y136.325 E0.02647
G1 X225.052 Y135.783 E0.02647
G1 X224.651 Y135.306 E0.02666
G1 X224.166 Y134.914 E0.02666
G1 X223.618 Y134.625 E0.02647
G1 X223.025 Y134.447 E0.02647
G1 X222.404 Y134.386 E0.02666
G1 X82.6 Y134.386 E5.9774
G1 X81.967 Y134.449 E0.02721
G1 X81.061 Y134.789 E0.04137
; INIT printing object Hale Creek.stl id:0 copy 0
G1 E-0.8 F3000
; printing object Hale Creek.stl id:0 copy 0
G1 X83.268 Y138.268 F9000
G1 E0.8 F1800
; External perimeter
;Perimeter
SET_VELOCITY_LIMIT ACCEL=2000 ACCEL_TO_DECEL=2000 SQUARE_CORNER_VELOCITY=5

; Overhang perimeter

;TYPE:Internal perimeter
G1 X221.732 Y138.268 E5.92005
G1 X221.732 Y161.732 E1.00317
G1 X83.268 Y161.732 E5.92005
G1 X83.268 Y138.328 E1.00061
G1 X222.16 Y162.16 F9000
; External perimeter
;ExternalPerimeter
SET_VELOCITY_LIMIT ACCEL=1000 ACCEL_TO_DECEL=1000 SQUARE_CORNER_VELOCITY=5

; Perimeter

;TYPE:External perimeter
G1 F1800
G1 X82.84 Y162.16 E5.95669
G1 X82.84 Y162.04 E0.00458
G1 X82.84 Y161.8 E0.00971
G1 X82.84 Y137.84 E1.02442
G1 X82.96 Y137.84 E0.00458
G1 X83.2 Y137.84 E0.00971
G1 X222.16 Y137.84 E5.9413
G1 X222.16 Y137.96 E0.00458
G1 X222.16 Y138.2 E0.00971
G1 X222.16 Y162.1 E1.02186
;WIPE_START
G1 X221.814 Y161.96 F9000
;WIPE_END
G1 X220.801 Y138.333
; External perimeter
;SolidInfill
SET_VELOCITY_LIMIT ACCEL=2000 ACCEL_TO_DECEL=2000 SQUARE_CORNER_VELOCITY=5

; Bridge infill

;TYPE:Solid infill
;WIDTH:0.476559
G1 F2400
G1 X221.483 Y139.015 E0.04094
G1 X221.483 Y139.621 E0.02572
G1 X220.379 Y138.517 E0.06626
G1 X219.773 Y138.517 E0.02572
G1 X221.483 Y140.227 E0.10263
G1 X221.483 Y140.833 E0.02572
G1 X219.167 Y138.517 E0.13901
G1 X218.561 Y138.517 E0.02572
G1 X221.483 Y141.439 E0.17539
G1 X221.483 Y142.045 E0.02572
G1 X217.955 Y138.517 E0.21177
G1 X217.349 Y138.517 E0.02572
G1 X221.483 Y142.651 E0.24815
G1 X221.483 Y143.257 E0.02572
G1 X216.743 Y138.517 E0.28453
G1 X216.137 Y138.517 E0.02572
G1 X221.483 Y143.863 E0.3209
G1 X221.483 Y144.469 E0.02572
G1 X215.531 Y138.517 E0.35728
G1 X214.925 Y138.517 E0.02572
G1 X221.483 Y145.075 E0.39366
G1 X221.483 Y145.681 E0.02572
G1 X214.319 Y138.517 E0.43004
G1 X213.714 Y138.517 E0.02572
G1 X221.483 Y146.286 E0.46642
G1 X221.483 Y146.892 E0.02572
G1 X213.108 Y138.517 E0.5028
G1 X212.502 Y138.517 E0.02572
G1 X221.483 Y147.498 E0.53917
G1 X221.483 Y148.104 E0.02572
G1 X211.896 Y138.517 E0.57555
G1 X211.29 Y138.517 E0.02572
G1 X221.483 Y148.71 E0.61193
G1 X221.483 Y149.316 E0.02572
G1 X210.684 Y138.517 E0.64831
G1 X210.078 Y138.517 E0.02572
G1 X221.483 Y149.922 E0.68469
G1 X221.483 Y150.528 E0.02572
G1 X209.472 Y138.517 E0.72107
G1 X208.866 Y138.517 E0.02572
G1 X221.483 Y151.134 E0.75744
G1 X221.483 Y151.74 E0.02572
G1 X208.26 Y138.517 E0.79382
G1 X207.654 Y138.517 E0.02572
G1 X221.483 Y152.346 E0.8302
G1 X221.483 Y152.952 E0.02572
G1 X207.048 Y138.517 E0.86658
G1 X206.442 Y138.517 E0.02572
G1 X221.483 Y153.558 E0.90296
G1 X221.483 Y154.164 E0.02572
G1 X205.836 Y138.517 E0.93934
G1 X205.23 Y138.517 E0.02572
G1 X221.483 Y154.77 E0.97571
G1 X221.483 Y155.376 E0.02572
G1 X204.624 Y138.517 E1.01209
G1 X204.018 Y138.517 E0.02572
G1 X221.483 Y155.982 E1.04847
G1 X221.483 Y156.588 E0.02572
G1 X203.412 Y138.517 E1.08485
G1 X202.806 Y138.517 E0.02572
G1 X221.483 Y157.194 E1.12123
G1 X221.483 Y157.8 E0.02572
G1 X202.2 Y138.517 E1.15761
G1 X201.594 Y138.517 E0.02572
G1 X221.483 Y158.406 E1.19398
G1 X221.483 Y159.012 E0.02572
G1 X200.988 Y138.517 E1.23036
G1 X200.382 Y138.517 E0.02572
G1 X221.483 Y159.618 E1.26674
G1 X221.483 Y160.224 E0.02572
G1 X199.776 Y138.517 E1.30312
G1 X199.17 Y138.517 E0.02572
G1 X221.483 Y160.83 E1.3395
G1 X221.483 Y161.436 E0.02572
G1 X198.564 Y138.517 E1.37588
G1 X197.958 Y138.517 E0.02572
G1 X220.924 Y161.483 E1.37869
G1 X220.318 Y161.483 E0.02572
G1 X197.352 Y138.517 E1.37869
G1 X196.746 Y138.517 E0.02572
G1 X219.712 Y161.483 E1.37869
G1 X219.106 Y161.483 E0.02572
G1 X196.14 Y138.517 E1.37869
G1 X195.534 Y138.517 E0.02572
G1 X218.5 Y161.483 E1.37869
G1 X217.894 Y161.483 E0.02572
G1 X194.928 Y138.517 E1.37869
G1 X194.322 Y138.517 E0.02572
G1 X217.288 Y161.483 E1.37869
G1 X216.682 Y161.483 E0.02572
G1 X193.716 Y138.517 E1.37869
G1 X193.11 Y138.517 E0.02572
G1 X216.076 Y161.483 E1.37869
G1 X215.47 Y161.483 E0.02572
G1 X192.504 Y138.517 E1.37869
G1 X191.898 Y138.517 E0.02572
G1 X214.864 Y161.483 E1.37869
G1 X214.258 Y161.483 E0.02572
G1 X191.292 Y138.517 E1.37869
G1 X190.686 Y138.517 E0.02572
G1 X213.652 Y161.483 E1.37869
G1 X213.046 Y161.483 E0.02572
G1 X190.08 Y138.517 E1.37869
G1 X189.474 Y138.517 E0.02572
G1 X212.44 Y161.483 E1.37869
G1 X211.834 Y161.483 E0.02572
G1 X188.868 Y138.517 E1.37869
G1 X188.262 Y138.517 E0.02572
G1 X211.228 Y161.483 E1.37869
G1 X210.622 Y161.483 E0.02572
G1 X187.656 Y138.517 E1.37869
G1 X187.05 Y138.517 E0.02572
G1 X210.016 Y161.483 E1.37869
G1 X209.41 Y161.483 E0.02572
G1 X186.444 Y138.517 E1.37869
G1 X185.838 Y138.517 E0.02572
G1 X208.804 Y161.483 E1.37869
G1 X208.198 Y161.483 E0.02572
G1 X185.232 Y138.517 E1.37869
G1 X184.626 Y138.517 E0.02572
G1 X207.592 Y161.483 E1.37869
G1 X206.986 Y161.483 E0.02572
G1 X184.02 Y138.517 E1.37869
G1 X183.414 Y138.517 E0.02572
G1 X206.38 Y161.483 E1.37869
G1 X205.774 Y161.483 E0.02572
G1 X182.808 Y138.517 E1.37869
G1 X182.202 Y138.517 E0.02572
G1 X205.168 Y161.483 E1.37869
G1 X204.562 Y161.483 E0.02572
G1 X181.596 Y138.517 E1.37869
G1 X180.99 Y138.517 E0.02572
G1 X203.956 Y161.483 E1.37869
G1 X203.35 Y161.483 E0.02572
G1 X180.384 Y138.517 E1.37869
G1 X179.778 Y138.517 E0.02572
G1 X202.744 Y161.483 E1.37869
G1 X202.138 Y161.483 E0.02572
G1 X179.172 Y138.517 E1.37869
G1 X178.566 Y138.517 E0.02572
G1 X201.532 Y161.483 E1.37869
G1 X200.926 Y161.483 E0.02572
G1 X177.96 Y138.517 E1.37869
G1 X177.354 Y138.517 E0.02572
G1 X200.32 Y161.483 E1.37869
G1 X199.715 Y161.483 E0.02572
G1 X176.749 Y138.517 E1.37869
G1 X176.143 Y138.517 E0.02572
G1 X199.109 Y161.483 E1.37869
G1 X198.503 Y161.483 E0.02572
G1 X175.537 Y138.517 E1.37869
G1 X174.931 Y138.517 E0.02572
G1 X197.897 Y161.483 E1.37869
G1 X197.291 Y161.483 E0.02572
G1 X174.325 Y138.517 E1.37869
G1 X173.719 Y138.517 E0.02572
G1 X196.685 Y161.483 E1.37869
G1 X196.079 Y161.483 E0.02572
G1 X173.113 Y138.517 E1.37869
G1 X172.507 Y138.517 E0.02572
G1 X195.473 Y161.483 E1.37869
G1 X194.867 Y161.483 E0.02572
G1 X171.901 Y138.517 E1.37869
G1 X171.295 Y138.517 E0.02572
G1 X194.261 Y161.483 E1.37869
G1 X193.655 Y161.483 E0.02572
G1 X170.689 Y138.517 E1.37869
G1 X170.083 Y138.517 E0.02572
G1 X193.049 Y161.483 E1.37869
G1 X192.443 Y161.483 E0.02572
G1 X169.477 Y138.517 E1.37869
G1 X168.871 Y138.517 E0.02572
G1 X191.837 Y161.483 E1.37869
G1 X191.231 Y161.483 E0.02572
G1 X168.265 Y138.517 E1.37869
G1 X167.659 Y138.517 E0.02572
G1 X190.625 Y161.483 E1.37869
G1 X190.019 Y161.483 E0.02572
G1 X167.053 Y138.517 E1.37869
G1 X166.447 Y138.517 E0.02572
G1 X189.413 Y161.483 E1.37869
G1 X188.807 Y161.483 E0.02572
G1 X165.841 Y138.517 E1.37869
G1 X165.235 Y138.517 E0.02572
G1 X188.201 Y161.483 E1.37869
G1 X187.595 Y161.483 E0.02572
G1 X164.629 Y138.517 E1.37869
G1 X164.023 Y138.517 E0.02572
G1 X186.989 Y161.483 E1.37869
G1 X186.383 Y161.483 E0.02572
G1 X163.417 Y138.517 E1.37869
G1 X162.811 Y138.517 E0.02572
G1 X185.777 Y161.483 E1.37869
G1 X185.171 Y161.483 E0.02572
G1 X162.205 Y138.517 E1.37869
G1 X161.599 Y138.517 E0.02572
G1 X184.565 Y161.483 E1.37869
G1 X183.959 Y161.483 E0.02572
G1 X160.993 Y138.517 E1.37869
G1 X160.387 Y138.517 E0.02572
G1 X183.353 Y161.483 E1.37869
G1 X182.747 Y161.483 E0.02572
G1 X159.781 Y138.517 E1.37869
G1 X159.175 Y138.517 E0.02572
G1 X182.141 Y161.483 E1.37869
G1 X181.535 Y161.483 E0.02572
G1 X158.569 Y138.517 E1.37869
G1 X157.963 Y138.517 E0.02572
G1 X180.929 Y161.483 E1.37869
G1 X180.323 Y161.483 E0.02572
G1 X157.357 Y138.517 E1.37869
G1 X156.751 Y138.517 E0.02572
G1 X179.717 Y161.483 E1.37869
G1 X179.111 Y161.483 E0.02572
G1 X156.145 Y138.517 E1.37869
G1 X155.539 Y138.517 E0.02572
G1 X178.505 Y161.483 E1.37869
G1 X177.899 Y161.483 E0.02572
G1 X154.933 Y138.517 E1.37869
G1 X154.327 Y138.517 E0.02572
G1 X177.293 Y161.483 E1.37869
G1 X176.687 Y161.483 E0.02572
G1 X153.721 Y138.517 E1.37869
G1 X153.115 Y138.517 E0.02572
G1 X176.081 Y161.483 E1.37869
G1 X175.475 Y161.483 E0.02572
G1 X152.509 Y138.517 E1.37869
G1 X151.903 Y138.517 E0.02572
G1 X174.869 Y161.483 E1.37869
G1 X174.263 Y161.483 E0.02572
G1 X151.297 Y138.517 E1.37869
G1 X150.691 Y138.517 E0.02572
G1 X173.657 Y161.483 E1.37869
G1 X173.051 Y161.483 E0.02572
G1 X150.085 Y138.517 E1.37869
G1 X149.479 Y138.517 E0.02572
G1 X172.445 Y161.483 E1.37869
G1 X171.839 Y161.483 E0.02572
G1 X148.873 Y138.517 E1.37869
G1 X148.267 Y138.517 E0.02572
G1 X171.233 Y161.483 E1.37869
G1 X170.627 Y161.483 E0.02572
G1 X147.661 Y138.517 E1.37869
G1 X147.055 Y138.517 E0.02572
G1 X170.021 Y161.483 E1.37869
G1 X169.415 Y161.483 E0.02572
G1 X146.449 Y138.517 E1.37869
G1 X145.843 Y138.517 E0.02572
G1 X168.809 Y161.483 E1.37869
G1 X168.203 Y161.483 E0.02572
G1 X145.237 Y138.517 E1.37869
G1 X144.631 Y138.517 E0.02572
G1 X167.597 Y161.483 E1.37869
G1 X166.991 Y161.483 E0.02572
G1 X144.025 Y138.517 E1.37869
G1 X143.419 Y138.517 E0.02572
G1 X166.385 Y161.483 E1.37869
G1 X165.779 Y161.483 E0.02572
G1 X142.813 Y138.517 E1.37869
G1 X142.207 Y138.517 E0.02572
G1 X165.173 Y161.483 E1.37869
G1 X164.567 Y161.483 E0.02572
G1 X141.601 Y138.517 E1.37869
G1 X140.995 Y138.517 E0.02572
G1 X163.961 Y161.483 E1.37869
G1 X163.356 Y161.483 E0.02572
G1 X140.39 Y138.517 E1.37869
G1 X139.784 Y138.517 E0.02572
G1 X162.75 Y161.483 E1.37869
G1 X162.144 Y161.483 E0.02572
G1 X139.178 Y138.517 E1.37869
G1 X138.572 Y138.517 E0.02572
G1 X161.538 Y161.483 E1.37869
G1 X160.932 Y161.483 E0.02572
G1 X137.966 Y138.517 E1.37869
G1 X137.36 Y138.517 E0.02572
G1 X160.326 Y161.483 E1.37869
G1 X159.72 Y161.483 E0.02572
G1 X136.754 Y138.517 E1.37869
G1 X136.148 Y138.517 E0.02572
G1 X159.114 Y161.483 E1.37869
G1 X158.508 Y161.483 E0.02572
G1 X135.542 Y138.517 E1.37869
G1 X134.936 Y138.517 E0.02572
G1 X157.902 Y161.483 E1.37869
G1 X157.296 Y161.483 E0.02572
G1 X134.33 Y138.517 E1.37869
G1 X133.724 Y138.517 E0.02572
G1 X156.69 Y161.483 E1.37869
G1 X156.084 Y161.483 E0.02572
G1 X133.118 Y138.517 E1.37869
G1 X132.512 Y138.517 E0.02572
G1 X155.478 Y161.483 E1.37869
G1 X154.872 Y161.483 E0.02572
G1 X131.906 Y138.517 E1.37869
G1 X131.3 Y138.517 E0.02572
G1 X154.266 Y161.483 E1.37869
G1 X153.66 Y161.483 E0.02572
G1 X130.694 Y138.517 E1.37869
G1 X130.088 Y138.517 E0.02572
G1 X153.054 Y161.483 E1.37869
G1 X152.448 Y161.483 E0.02572
G1 X129.482 Y138.517 E1.37869
G1 X128.876 Y138.517 E0.02572
G1 X151.842 Y161.483 E1.37869
G1 X151.236 Y161.483 E0.02572
G1 X128.27 Y138.517 E1.37869
G1 X127.664 Y138.517 E0.02572
G1 X150.63 Y161.483 E1.37869
G1 X150.024 Y161.483 E0.02572
G1 X127.058 Y138.517 E1.37869
G1 X126.452 Y138.517 E0.02572
G1 X149.418 Y161.483 E1.37869
G1 X148.812 Y161.483 E0.02572
G1 X125.846 Y138.517 E1.37869
G1 X125.24 Y138.517 E0.02572
G1 X148.206 Y161.483 E1.37869
G1 X147.6 Y161.483 E0.02572
G1 X124.634 Y138.517 E1.37869
G1 X124.028 Y138.517 E0.02572
G1 X146.994 Y161.483 E1.37869
G1 X146.388 Y161.483 E0.02572
G1 X123.422 Y138.517 E1.37869
G1 X122.816 Y138.517 E0.02572
G1 X145.782 Y161.483 E1.37869
G1 X145.176 Y161.483 E0.02572
G1 X122.21 Y138.517 E1.37869
G1 X121.604 Y138.517 E0.02572
G1 X144.57 Y161.483 E1.37869
G1 X143.964 Y161.483 E0.02572
G1 X120.998 Y138.517 E1.37869
G1 X120.392 Y138.517 E0.02572
G1 X143.358 Y161.483 E1.37869
G1 X142.752 Y161.483 E0.02572
G1 X119.786 Y138.517 E1.37869
G1 X119.18 Y138.517 E0.02572
G1 X142.146 Y161.483 E1.37869
G1 X141.54 Y161.483 E0.02572
G1 X118.574 Y138.517 E1.37869
G1 X117.968 Y138.517 E0.02572
G1 X140.934 Y161.483 E1.37869
G1 X140.328 Y161.483 E0.02572
G1 X117.362 Y138.517 E1.37869
G1 X116.756 Y138.517 E0.02572
G1 X139.722 Y161.483 E1.37869
G1 X139.116 Y161.483 E0.02572
G1 X116.15 Y138.517 E1.37869
G1 X115.544 Y138.517 E0.02572
G1 X138.51 Y161.483 E1.37869
G1 X137.904 Y161.483 E0.02572
G1 X114.938 Y138.517 E1.37869
G1 X114.332 Y138.517 E0.02572
G1 X137.298 Y161.483 E1.37869
G1 X136.692 Y161.483 E0.02572
G1 X113.726 Y138.517 E1.37869
G1 X113.12 Y138.517 E0.02572
G1 X136.086 Y161.483 E1.37869
G1 X135.48 Y161.483 E0.02572
G1 X112.514 Y138.517 E1.37869
