; generated by SuperSlicer 2.3.57 on 2022-03-01 at 15:30:06 UTC


;
;

;
;
; 

; external perimeters extrusion width = 0.40mm
; perimeters extrusion width = 0.45mm
; infill extrusion width = 0.72mm
; solid infill extrusion width = 0.56mm
; top infill extrusion width = 0.40mm
; support material extrusion width = 0.42mm
; first layer extrusion width = 0.48mm

; external perimeters extrusion width = 0.42mm
; perimeters extrusion width = 0.45mm
; infill extrusion width = 0.72mm
; solid infill extrusion width = 0.56mm
; top infill extrusion width = 0.40mm
; support material extrusion width = 0.42mm
; first layer extrusion width = 0.48mm

; external perimeters extrusion width = 0.40mm
; perimeters extrusion width = 0.45mm
; infill extrusion width = 0.72mm
; solid infill extrusion width = 0.56mm
; top infill extrusion width = 0.40mm
; support material extrusion width = 0.42mm
; first layer extrusion width = 0.48mm

; external perimeters extrusion width = 0.42mm
; perimeters extrusion width = 0.45mm
; infill extrusion width = 0.72mm
; solid infill extrusion width = 0.56mm
; top infill extrusion width = 0.40mm
; support material extrusion width = 0.42mm
; first layer extrusion width = 0.48mm

; external perimeters extrusion width = 0.40mm
; perimeters extrusion width = 0.40mm
; infill extrusion width = 0.72mm
; solid infill extrusion width = 0.56mm
; top infill extrusion width = 0.40mm
; support material extrusion width = 0.42mm
; first layer extrusion width = 0.48mm

; object:{"name":"crusher-inside-rev-0-7-2","id":"crusher-inside-rev-0-7-2.stl id:0 copy 0","object_center":[165.075155,153.232149,0.000000],"boundingbox_center":[165.075155,153.232149,12.007982],"boundingbox_size":[35.000005,10.515089,24.015964]}
; object:{"name":"crusher-outside-rev-0-3-5","id":"crusher-outside-rev-0-3-5.stl id:1 copy 0","object_center":[164.968478,180.360093,0.000000],"boundingbox_center":[164.968478,180.360093,8.835352],"boundingbox_size":[35.000004,9.430712,17.670704]}
; plater:{"center":[165.021817,166.525027,0.000000],"boundingbox_center":[165.021817,166.525027,12.007982],"boundingbox_size":[35.106681,37.100844,24.015964]}

;TYPE:Custom
START_PRINT T_BED=60 T_EXTRUDER=200
M107
G21 ; set units to millimeters
G90 ; use absolute coordinates
M83 ; use relative distances for extrusion
; Filament gcode
M104 S200 ; set temperature
M109 S200 ; set temperature and wait for it to be reached
M190 S60 ; set bed temperature and wait for it to be reached
;LAYER_CHANGE
;Z:0.12
;HEIGHT:0.12
G1 Z0.12 F9000
G1 E-0.8 F3000
G1 X143.635 Y140.435 F9000
G1 E0.8 F1800
; External perimeter
;Skirt
SET_VELOCITY_LIMIT ACCEL=300 ACCEL_TO_DECEL=3000 SQUARE_CORNER_VELOCITY=5

; Support material

;TYPE:Skirt
;WIDTH:0.48
G1 X143.078 Y141.015 E0.01823
G1 X142.523 Y142.04 E0.02642
G1 X142.316 Y143.187 E0.02642
G1 X142.209 Y186.977 E0.9924
G1 X142.313 Y187.803 E0.01887
G1 X142.597 Y188.581 E0.01876
G1 X143.048 Y189.275 E0.01876
G1 X143.646 Y189.854 E0.01887
G1 X144.672 Y190.409 E0.02642
G1 X145.819 Y190.616 E0.02642
G1 X184.103 Y190.616 E0.86762
G1 X184.924 Y190.51 E0.01876
G1 X185.701 Y190.224 E0.01876
G1 X186.394 Y189.771 E0.01876
G1 X186.965 Y189.179 E0.01865
G1 X187.522 Y188.149 E0.02653
G1 X187.728 Y187.002 E0.02642
G1 X187.835 Y159.817 E0.61609
G1 X187.819 Y143.114 E0.37852
G1 X187.651 Y142.304 E0.01876
G1 X187.303 Y141.547 E0.01887
G1 X186.794 Y140.889 E0.01887
G1 X186.15 Y140.361 E0.01887
G1 X185.546 Y140.046 E0.01545
G1 X184.893 Y139.848 E0.01545
G1 X182.341 Y139.577 E0.05816
G1 X145.86 Y139.58 E0.82676
G1 X145.064 Y139.697 E0.01823
G1 X144.309 Y139.987 E0.01833
G1 X143.685 Y140.401 E0.01697
G1 X143.94 Y140.771 F9000
G1 F1800
G1 X143.447 Y141.28 E0.01606
G1 X142.952 Y142.188 E0.02343
G1 X142.77 Y143.202 E0.02333
G1 X142.663 Y186.967 E0.99184
G1 X142.751 Y187.684 E0.01636
G1 X142.998 Y188.367 E0.01646
G1 X143.391 Y188.977 E0.01646
G1 X143.911 Y189.484 E0.01646
G1 X144.819 Y189.979 E0.02343
G1 X145.837 Y190.162 E0.02343
G1 X184.088 Y190.162 E0.86687
G1 X184.805 Y190.072 E0.01636
G1 X185.483 Y189.825 E0.01636
G1 X186.089 Y189.434 E0.01636
G1 X186.596 Y188.914 E0.01646
G1 X187.091 Y188.006 E0.02343
G1 X187.274 Y186.988 E0.02343
G1 X187.381 Y159.816 E0.61578
G1 X187.368 Y143.173 E0.37717
G1 X187.219 Y142.445 E0.01686
G1 X186.904 Y141.766 E0.01696
G1 X186.444 Y141.181 E0.01686
G1 X185.863 Y140.717 E0.01686
G1 X185.336 Y140.451 E0.01336
G1 X184.77 Y140.286 E0.01336
G1 X182.341 Y140.031 E0.05536
G1 X145.893 Y140.033 E0.826
G1 X145.192 Y140.133 E0.01606
G1 X144.529 Y140.385 E0.01606
G1 X143.991 Y140.738 E0.0146
; INIT printing object crusher-inside-rev-0-7-2.stl id:0 copy 0
G1 E-0.8 F3000
; printing object crusher-inside-rev-0-7-2.stl id:0 copy 0
G1 X184.154 Y159.807 F9000
G1 E0.8 F1800
; External perimeter
;SupportMaterial
SET_VELOCITY_LIMIT ACCEL=3000 ACCEL_TO_DECEL=3000 SQUARE_CORNER_VELOCITY=5

; Support material interface

;TYPE:Support material
G1 X184.154 Y143.454 E0.37061
G1 X183.245 Y143.454 E0.02059
G1 X183.245 Y159.612 E0.36618
G1 X182.337 Y159.612 E0.02059
G1 X182.337 Y154.604 E0.11349
G1 X182.293 Y154.668 E0.00176
G1 X181.962 Y154.855 E0.0086
G1 X181.428 Y154.886 E0.01213
G1 X181.428 Y159.612 E0.10709
G1 X180.52 Y159.612 E0.02059
G1 X180.52 Y154.958 E0.10547
G1 X179.611 Y154.958 E0.02059
G1 X179.611 Y159.612 E0.10547
G1 X178.703 Y159.612 E0.02059
G1 X178.703 Y154.958 E0.10547
G1 X177.794 Y154.958 E0.02059
G1 X177.794 Y159.612 E0.10547
G1 X176.886 Y159.612 E0.02059
G1 X176.886 Y154.916 E0.10642
G1 X176.381 Y154.871 E0.01149
G1 X175.977 Y154.868 E0.00915
G1 X175.977 Y159.612 E0.10751
G1 X175.069 Y159.612 E0.02059
G1 X175.069 Y154.862 E0.10765
G1 X174.231 Y154.856 E0.01897
G1 X174.16 Y154.784 E0.00229
G1 X174.16 Y159.612 E0.10942
G1 X173.252 Y159.612 E0.02059
G1 X173.252 Y143.454 E0.36618
G1 X174.16 Y143.454 E0.02059
G1 X174.16 Y149.762 E0.14296
G1 X174.235 Y149.687 E0.00242
G1 X175.022 Y149.687 E0.01783
G1 X175.069 Y149.687 E0.00105
G1 X175.069 Y143.454 E0.14126
G1 X175.977 Y143.454 E0.02059
G1 X175.977 Y149.687 E0.14126
G1 X176.886 Y149.687 E0.02059
G1 X176.886 Y143.454 E0.14126
G1 X177.794 Y143.454 E0.02059
G1 X177.794 Y152.365 E0.20194
G1 X177.862 Y152.474 E0.00292
G1 X178.306 Y152.849 E0.01316
G1 X178.504 Y152.955 E0.00509
G1 X178.703 Y153.015 E0.0047
G1 X178.703 Y143.454 E0.21667
G1 X179.611 Y143.454 E0.02059
G1 X179.611 Y152.947 E0.21513
G1 X179.795 Y152.849 E0.00471
G1 X180.238 Y152.474 E0.01316
G1 X180.332 Y152.324 E0.00402
G1 X180.399 Y152.112 E0.00503
G1 X180.427 Y151.834 E0.00634
G1 X180.427 Y150.166 E0.03779
G1 X180.52 Y150.074 E0.00296
G1 X180.52 Y143.454 E0.15002
G1 X181.428 Y143.454 E0.02059
G1 X181.428 Y149.687 E0.14126
G1 X182.337 Y149.687 E0.02059
G1 X182.337 Y143.259 E0.14568
G1 E-0.8 F3000
G1 X172.343 Y159.807 F9000
G1 E0.8 F1800
G1 X172.343 Y143.454 E0.37061
G1 X172.29 Y143.454 E0.00121
G1 X172.29 Y146.852 E0.07702
G1 X171.435 Y146.852 E0.01938
G1 X171.435 Y159.612 E0.28916
G1 X170.526 Y159.612 E0.02059
G1 X170.526 Y146.852 E0.28916
G1 X169.618 Y146.852 E0.02059
G1 X169.618 Y159.612 E0.28916
G1 X168.709 Y159.612 E0.02059
G1 X168.709 Y146.852 E0.28916
G1 X167.801 Y146.852 E0.02059
G1 X167.801 Y159.612 E0.28916
G1 X166.892 Y159.612 E0.02059
G1 X166.892 Y146.852 E0.28916
G1 X165.984 Y146.852 E0.02059
G1 X165.984 Y159.612 E0.28916
G1 X165.075 Y159.612 E0.02059
G1 X165.075 Y146.852 E0.28916
G1 X164.167 Y146.852 E0.02059
G1 X164.167 Y159.612 E0.28916
G1 X163.258 Y159.612 E0.02059
G1 X163.258 Y146.852 E0.28916
G1 X162.35 Y146.852 E0.02059
G1 X162.35 Y159.612 E0.28916
G1 X161.441 Y159.612 E0.02059
G1 X161.441 Y146.852 E0.28916
G1 X160.533 Y146.852 E0.02059
G1 X160.533 Y159.612 E0.28916
G1 X159.624 Y159.612 E0.02059
G1 X159.624 Y146.852 E0.28916
G1 X158.716 Y146.852 E0.02059
G1 X158.716 Y159.612 E0.28916
G1 X157.807 Y159.612 E0.02059
G1 X157.807 Y143.454 E0.36618
G1 X156.899 Y143.454 E0.02059
G1 X156.899 Y159.612 E0.36618
G1 X155.99 Y159.612 E0.02059
G1 X155.99 Y154.784 E0.10942
G1 X155.919 Y154.856 E0.00229
G1 X155.082 Y154.862 E0.01897
G1 X155.082 Y159.612 E0.10765
G1 X154.173 Y159.612 E0.02059
G1 X154.173 Y154.868 E0.10751
G1 X153.77 Y154.871 E0.00915
G1 X153.265 Y154.916 E0.01149
G1 X153.265 Y159.612 E0.10642
G1 X152.356 Y159.612 E0.02059
G1 X152.356 Y154.958 E0.10547
G1 X151.448 Y154.958 E0.02059
G1 X151.448 Y159.612 E0.10547
G1 X150.539 Y159.612 E0.02059
G1 X150.539 Y154.958 E0.10547
G1 X149.631 Y154.958 E0.02059
G1 X149.631 Y159.612 E0.10547
G1 X148.722 Y159.612 E0.02059
G1 X148.722 Y154.886 E0.10709
G1 X148.188 Y154.855 E0.01213
G1 X147.858 Y154.668 E0.0086
G1 X147.814 Y154.604 E0.00176
G1 X147.814 Y159.612 E0.11349
G1 X146.905 Y159.612 E0.02059
G1 X146.905 Y143.454 E0.36618
G1 X147.814 Y143.454 E0.02059
G1 X147.814 Y149.687 E0.14126
G1 X148.722 Y149.687 E0.02059
G1 X148.722 Y143.454 E0.14126
G1 X149.631 Y143.454 E0.02059
G1 X149.631 Y150.074 E0.15002
G1 X149.723 Y150.166 E0.00296
G1 X149.723 Y151.834 E0.03779
G1 X149.751 Y152.112 E0.00634
G1 X149.818 Y152.324 E0.00503
G1 X149.912 Y152.474 E0.00402
G1 X150.356 Y152.849 E0.01316
G1 X150.539 Y152.947 E0.00471
G1 X150.539 Y143.454 E0.21513
G1 X151.448 Y143.454 E0.02059
G1 X151.448 Y153.015 E0.21667
G1 X151.646 Y152.955 E0.0047
G1 X151.845 Y152.849 E0.00509
G1 X152.288 Y152.474 E0.01316
G1 X152.356 Y152.365 E0.00292
G1 X152.356 Y143.454 E0.20194
G1 X153.265 Y143.454 E0.02059
G1 X153.265 Y149.687 E0.14126
G1 X154.173 Y149.687 E0.02059
G1 X154.173 Y143.454 E0.14126
G1 X155.082 Y143.454 E0.02059
G1 X155.082 Y149.687 E0.14126
G1 X155.915 Y149.687 E0.01888
G1 X155.99 Y149.762 E0.00242
G1 X155.99 Y143.259 E0.14739
G1 E-0.8 F3000
G1 X145.997 Y159.807 F9000
G1 E0.8 F1800
G1 X145.997 Y143.259 E0.37503
G1 E-0.8 F3000
G1 X175.269 Y151.199 F9000
G1 E0.8 F1800
; External perimeter
;Perimeter
SET_VELOCITY_LIMIT ACCEL=2000 ACCEL_TO_DECEL=2000 SQUARE_CORNER_VELOCITY=5

; Overhang perimeter

;TYPE:Internal perimeter
G1 X176.161 Y151.199 E0.02022
G1 X176.161 Y151.909 E0.01608
G1 X176.212 Y152.42 E0.01164
G1 X176.385 Y152.964 E0.01293
G1 X176.633 Y153.36 E0.0106
G1 X175.269 Y153.351 E0.03092
G1 X175.269 Y151.259 E0.0474
G1 X174.814 Y150.745 F9000
; External perimeter
;ExternalPerimeter
SET_VELOCITY_LIMIT ACCEL=1000 ACCEL_TO_DECEL=1000 SQUARE_CORNER_VELOCITY=5

; Perimeter

;TYPE:External perimeter
G1 F1800
G1 X176.615 Y150.745 E0.04081
G1 X176.615 Y150.865 E0.00244
G1 X176.615 Y151.105 E0.00516
G1 X176.615 Y151.886 E0.01771
G1 X176.659 Y152.327 E0.01005
G1 X176.801 Y152.771 E0.01056
G1 X177.053 Y153.175 E0.01079
G1 X177.709 Y153.729 E0.01946
G1 X178.028 Y153.9 E0.00821
G1 X177.908 Y153.9 E0.00024
G1 X177.668 Y153.9 E0.00296
G1 X177.404 Y153.9 E0.00599
G1 X176.432 Y153.813 E0.02212
G1 X174.814 Y153.802 E0.03665
G1 X174.814 Y153.682 E0.00244
G1 X174.814 Y153.442 E0.00516
G1 X174.814 Y150.805 E0.05975
;WIPE_START
G1 X175.161 Y150.945 F9000
;WIPE_END
G1 X178.101 Y153.908
; External perimeter
;ThinWall
SET_VELOCITY_LIMIT ACCEL=2000 ACCEL_TO_DECEL=2000 SQUARE_CORNER_VELOCITY=5

; Other

;TYPE:Thin wall
;WIDTH:0.00611239
G1 F1800
G1 X178.071 Y153.904 E0.00003
G1 X178.101 Y153.908 E0.00003
;WIDTH:0.0251233
G1 X178.209 Y153.925 E0.00012
;WIDTH:0.0394537
G1 X178.267 Y153.933 E0.00011
G1 X178.351 Y153.951 E0.00016
G1 X178.435 Y153.968 E0.00016
G1 X178.553 Y153.984 E0.00022
G1 X179.065 Y154.003 E0.00094
G1 X179.087 Y154.003 E0.00004
G1 X179.548 Y153.984 E0.00085
G1 X179.665 Y153.968 E0.00022
G1 X179.749 Y153.951 E0.00016
G1 X179.833 Y153.933 E0.00016
G1 X179.924 Y153.919 E0.00017
;WIDTH:0.0175823
G1 X180.032 Y153.903 E0.00008
G1 X180.072 Y153.9 F9000
; External perimeter
;ExternalPerimeter
SET_VELOCITY_LIMIT ACCEL=1000 ACCEL_TO_DECEL=1000 SQUARE_CORNER_VELOCITY=5

; Perimeter

;TYPE:External perimeter
;WIDTH:0.48
G1 F1800
G1 X180.392 Y153.729 E0.00821
G1 X181.047 Y153.175 E0.01946
G1 X181.3 Y152.771 E0.01079
G1 X181.441 Y152.327 E0.01056
G1 X181.485 Y151.886 E0.01005
G1 X181.485 Y150.745 E0.02586
G1 X181.605 Y150.745 E0.00244
G1 X181.845 Y150.745 E0.00516
G1 X182.235 Y150.745 E0.00884
G1 X182.235 Y150.865 E0.00243
G1 X182.235 Y151.105 E0.00515
G1 X182.235 Y151.919 E0.01844
G1 X182.208 Y152.338 E0.00952
G1 X182.128 Y152.739 E0.00927
G1 X181.996 Y153.126 E0.00927
G1 X181.816 Y153.492 E0.00925
G1 X181.593 Y153.817 E0.00891
G1 X181.261 Y153.836 E0.00754
G1 X180.782 Y153.9 E0.01096
G1 X180.072 Y153.9 E0.01608
G1 X180.032 Y153.903 F9000
; External perimeter
;ThinWall
SET_VELOCITY_LIMIT ACCEL=2000 ACCEL_TO_DECEL=2000 SQUARE_CORNER_VELOCITY=5

; Other

;TYPE:Thin wall
;WIDTH:0.158241
G1 F1800
G1 X179.924 Y153.919 E0.00073
;WIDTH:0.355083
G1 X179.833 Y153.933 E0.00152
G1 X179.749 Y153.951 E0.00142
G1 X179.665 Y153.968 E0.00142
G1 X179.548 Y153.984 E0.00195
G1 X179.087 Y154.003 E0.00765
G1 X179.065 Y154.003 E0.00036
G1 X178.553 Y153.984 E0.00848
G1 X178.435 Y153.968 E0.00197
G1 X178.351 Y153.951 E0.00142
G1 X178.267 Y153.933 E0.00142
G1 X178.209 Y153.925 E0.00097
;WIDTH:0.22611
G1 X178.161 Y153.917 E0.00049
G1 X175.781 Y153.144 F9000
; External perimeter
;GapFill
SET_VELOCITY_LIMIT ACCEL=2000 ACCEL_TO_DECEL=2000 SQUARE_CORNER_VELOCITY=5

; Skirt

;TYPE:Gap fill
;WIDTH:0.835991
G1 F1800
G1 X175.782 Y153.065 E0.00319
;WIDTH:0.745025
G1 X175.79 Y152.889 E0.00634
;WIDTH:0.654244
G1 X175.793 Y152.83 E0.00185
G1 X175.77 Y152.687 E0.00453
;WIDTH:0.565458
G1 X175.748 Y152.544 E0.00389
G1 X175.743 Y152.489 E0.0015
G1 X175.729 Y152.216 E0.00736
;WIDTH:0.499618
G1 X175.715 Y151.943 E0.00646
G1 X175.715 Y151.919 E0.00056
G1 X175.715 Y151.782 E0.00324
G1 X175.715 Y151.645 E0.00324
G1 X175.715 Y151.527 E0.00279
G1 X175.715 Y151.409 E0.00279
G1 E-0.8 F3000
G1 X180.87 Y153.643 F9000
G1 E0.8 F1800
;WIDTH:0.118112
G1 X180.974 Y153.597 E0.00052
;WIDTH:0.189592
G1 X181.099 Y153.542 E0.00111
;WIDTH:0.284898
G1 X181.223 Y153.487 E0.00175
;WIDTH:0.360916
G1 X181.371 Y153.423 E0.0027
;WIDTH:0.424868
G1 X181.461 Y153.285 E0.00328
G1 X181.547 Y153.131 E0.00352
;WIDTH:0.385009
G1 X181.634 Y152.976 E0.00317
G1 X181.643 Y152.955 E0.00042
G1 X181.705 Y152.776 E0.0034
G1 X181.751 Y152.638 E0.0026
G1 X181.779 Y152.529 E0.00201
;WIDTH:0.356274
G1 X181.807 Y152.421 E0.00185
G1 X181.828 Y152.288 E0.00222
G1 X181.86 Y151.913 E0.0062
G1 X181.86 Y151.508 E0.00668
G1 X181.86 Y151.12 E0.0064
G1 X181.86 Y150.955 E0.00272
G1 E-0.8 F3000
G1 X154.882 Y151.199 F9000
G1 E0.8 F1800
; External perimeter
;Perimeter
SET_VELOCITY_LIMIT ACCEL=2000 ACCEL_TO_DECEL=2000 SQUARE_CORNER_VELOCITY=5

; Overhang perimeter

;TYPE:Internal perimeter
;WIDTH:0.48
G1 X154.882 Y153.351 E0.04876
G1 X153.517 Y153.36 E0.03092
G1 X153.765 Y152.964 E0.0106
G1 X153.938 Y152.42 E0.01293
G1 X153.989 Y151.909 E0.01164
G1 X153.989 Y151.199 E0.01608
G1 X154.822 Y151.199 E0.01886
G1 X155.336 Y150.745 F9000
; External perimeter
;ExternalPerimeter
SET_VELOCITY_LIMIT ACCEL=1000 ACCEL_TO_DECEL=1000 SQUARE_CORNER_VELOCITY=5

; Perimeter

;TYPE:External perimeter
G1 F1800
G1 X155.336 Y153.802 E0.06927
G1 X155.216 Y153.802 E0.00244
G1 X154.976 Y153.804 E0.00516
G1 X153.719 Y153.813 E0.02849
G1 X152.747 Y153.9 E0.02212
G1 X152.122 Y153.9 E0.01415
G1 X152.228 Y153.843 E0.00024
G1 X152.44 Y153.73 E0.00296
G1 X152.442 Y153.729 E0.00005
G1 X153.097 Y153.175 E0.01946
G1 X153.35 Y152.771 E0.01079
G1 X153.491 Y152.327 E0.01056
G1 X153.535 Y151.886 E0.01005
G1 X153.535 Y150.745 E0.02586
G1 X153.655 Y150.745 E0.00244
G1 X153.895 Y150.745 E0.00516
G1 X155.276 Y150.745 E0.03129
;WIPE_START
G1 X155.136 Y151.091 F9000
;WIPE_END
G1 X152.049 Y153.908
; External perimeter
;ThinWall
SET_VELOCITY_LIMIT ACCEL=2000 ACCEL_TO_DECEL=2000 SQUARE_CORNER_VELOCITY=5

; Other

;TYPE:Thin wall
;WIDTH:0.00626382
G1 F1800
G1 X152.08 Y153.904 E0.00003
G1 X152.049 Y153.908 E0.00003
;WIDTH:0.0266375
G1 X151.941 Y153.925 E0.00013
;WIDTH:0.0392387
G1 X151.883 Y153.933 E0.00011
G1 X151.799 Y153.951 E0.00016
G1 X151.715 Y153.968 E0.00016
G1 X151.597 Y153.984 E0.00022
G1 X151.085 Y154.003 E0.00094
G1 X151.064 Y154.003 E0.00004
G1 X150.602 Y153.984 E0.00085
G1 X150.485 Y153.968 E0.00022
G1 X150.317 Y153.933 E0.00031
G1 X150.226 Y153.919 E0.00017
;WIDTH:0.0175
G1 X150.119 Y153.903 E0.00008
G1 X150.078 Y153.9 F9000
; External perimeter
