; generated by SuperSlicer 2.3.57 on 2022-03-27 at 04:58:31 UTC


;
;

;
;
; 

; external perimeters extrusion width = 0.40mm
; perimeters extrusion width = 0.45mm
; infill extrusion width = 0.72mm
; solid infill extrusion width = 0.56mm
; top infill extrusion width = 0.40mm
; support material extrusion width = 0.42mm
; first layer extrusion width = 0.48mm

; object:{"name":"Headphone_Holder","id":"Headphone_Holder.stl id:0 copy 0","object_center":[152.500000,150.000000,0.000000],"boundingbox_center":[152.500000,150.000000,10.000000],"boundingbox_size":[160.000008,62.486298,20.000000]}
; plater:{"center":[152.500000,150.000000,0.000000],"boundingbox_center":[152.500000,150.000000,10.000000],"boundingbox_size":[160.000008,62.486298,20.000000]}

;TYPE:Custom
START_PRINT T_BED=60 T_EXTRUDER=200
M107
G21 ; set units to millimeters
G90 ; use absolute coordinates
M83 ; use relative distances for extrusion
; Filament gcode
M104 S200 ; set temperature
M109 S200 ; set temperature and wait for it to be reached
M190 S60 ; set bed temperature and wait for it to be reached
M107
;LAYER_CHANGE
;Z:0.24
;HEIGHT:0.24
G1 Z0.24 F9000
G1 E-0.8 F3000
G1 X80.44 Y160.872 F9000
G1 E0.8 F1800
; External perimeter
;Skirt
SET_VELOCITY_LIMIT ACCEL=300 ACCEL_TO_DECEL=3000 SQUARE_CORNER_VELOCITY=5

; Support material

;TYPE:Skirt
;WIDTH:0.48
G1 X70.815 Y165.685 E0.4601
G1 X70.114 Y166.2 E0.03721
G1 X69.554 Y166.867 E0.03721
G1 X69.169 Y167.647 E0.03721
G1 X68.981 Y168.497 E0.03721
G1 X68.998 Y169.586 E0.0466
G1 X69.17 Y170.645 E0.04588
G1 X69.628 Y172.068 E0.0639
G1 X70.084 Y172.997 E0.04426
G1 X70.604 Y173.799 E0.04085
G1 X71.253 Y174.581 E0.04346
G1 X71.925 Y175.226 E0.03983
G1 X73.09 Y176.07 E0.06149
G1 X73.989 Y176.544 E0.04345
G1 X74.858 Y176.881 E0.03984
G1 X75.758 Y177.12 E0.03984
G1 X76.759 Y177.265 E0.04325
G1 X229.612 Y184.783 E6.5432
G1 X230.725 Y184.755 E0.04757
G1 X231.938 Y184.479 E0.0532
G1 X233.041 Y183.978 E0.0518
G1 X234.046 Y183.244 E0.05321
G1 X235.048 Y182.07 E0.06599
G1 X235.516 Y181.223 E0.04135
G1 X235.825 Y180.338 E0.04012
G1 X236.039 Y178.919 E0.06135
G1 X235.976 Y177.042 E0.08028
G1 X235.674 Y175.451 E0.06925
G1 X235.33 Y174.289 E0.05182
G1 X234.83 Y173.052 E0.05706
G1 X234.094 Y171.681 E0.06651
G1 X233.428 Y170.685 E0.05122
G1 X232.577 Y169.645 E0.05746
G1 X178.225 Y117.417 E3.22285
G1 X176.903 Y116.438 E0.07034
G1 X175.82 Y115.888 E0.0519
G1 X174.26 Y115.398 E0.06993
G1 X172.604 Y115.219 E0.07122
G1 X171.772 Y115.315 E0.03581
G1 X170.984 Y115.598 E0.03581
G1 X80.493 Y160.845 E4.32566
G1 X80.685 Y161.227 F9000
G1 F1800
G1 X71.037 Y166.051 E0.46118
G1 X70.406 Y166.513 E0.03344
G1 X69.905 Y167.114 E0.03344
G1 X69.565 Y167.813 E0.03325
G1 X69.403 Y168.578 E0.03344
G1 X69.427 Y169.57 E0.04241
G1 X69.588 Y170.552 E0.04255
G1 X70.028 Y171.914 E0.06121
G1 X70.451 Y172.775 E0.04103
G1 X70.946 Y173.54 E0.03896
G1 X71.561 Y174.283 E0.04122
G1 X72.195 Y174.893 E0.03763
G1 X73.314 Y175.706 E0.05913
G1 X74.167 Y176.155 E0.04122
G1 X74.988 Y176.472 E0.03764
G1 X75.843 Y176.7 E0.03783
G1 X76.789 Y176.838 E0.04084
G1 X229.625 Y184.355 E6.5425
G1 X230.662 Y184.331 E0.04432
G1 X231.793 Y184.076 E0.04961
G1 X232.826 Y183.607 E0.04848
G1 X233.766 Y182.92 E0.0498
G1 X234.689 Y181.835 E0.06087
G1 X235.127 Y181.044 E0.03866
G1 X235.422 Y180.19 E0.03865
G1 X235.612 Y178.88 E0.05658
G1 X235.547 Y177.064 E0.0777
G1 X235.262 Y175.566 E0.06523
G1 X234.926 Y174.432 E0.05056
G1 X234.439 Y173.229 E0.05548
G1 X233.83 Y172.068 E0.05605
G1 X233.186 Y171.086 E0.05021
G1 X232.251 Y169.924 E0.06376
G1 X177.943 Y117.739 E3.22023
G1 X176.678 Y116.803 E0.06725
G1 X175.665 Y116.288 E0.04859
G1 X174.178 Y115.818 E0.06668
G1 X172.602 Y115.648 E0.06777
G1 X171.865 Y115.733 E0.03174
G1 X171.171 Y115.983 E0.03156
G1 X80.738 Y161.2 E4.32287
; INIT printing object Headphone_Holder.stl id:0 copy 0
G1 E-0.8 F3000
; printing object Headphone_Holder.stl id:0 copy 0
G1 X176.303 Y144.766 F9000
G1 E0.8 F1800
; External perimeter
;Perimeter
SET_VELOCITY_LIMIT ACCEL=2000 ACCEL_TO_DECEL=2000 SQUARE_CORNER_VELOCITY=5

; Overhang perimeter

;TYPE:Internal perimeter
G1 X176.303 Y161.288 E0.70642
G1 X176.349 Y162.166 E0.03759
G1 X176.491 Y163.065 E0.03893
G1 X176.727 Y163.945 E0.03893
G1 X177.053 Y164.795 E0.03893
G1 X177.467 Y165.606 E0.03893
G1 X177.963 Y166.37 E0.03893
G1 X178.536 Y167.077 E0.03893
G1 X179.179 Y167.721 E0.03893
G1 X179.887 Y168.294 E0.03893
G1 X180.651 Y168.79 E0.03893
G1 X181.462 Y169.203 E0.03893
G1 X182.312 Y169.53 E0.03893
G1 X183.191 Y169.765 E0.03893
G1 X184.091 Y169.908 E0.03893
G1 X184.969 Y169.954 E0.03759
G1 X201.485 Y169.954 E0.70617
G1 X201.94 Y168.037 E0.08421
G1 X199.804 Y166.963 E0.10222
G1 X198.304 Y166.141 E0.07317
G1 X196.832 Y165.266 E0.07317
G1 X195.393 Y164.341 E0.07317
G1 X193.987 Y163.365 E0.07317
G1 X192.615 Y162.341 E0.07317
G1 X191.281 Y161.27 E0.07317
G1 X189.985 Y160.152 E0.07317
G1 X188.729 Y158.99 E0.07317
G1 X187.514 Y157.784 E0.07317
G1 X186.343 Y156.536 E0.07317
G1 X185.216 Y155.248 E0.07317
G1 X184.135 Y153.922 E0.07317
G1 X183.101 Y152.558 E0.07317
G1 X182.115 Y151.159 E0.07317
G1 X181.179 Y149.726 E0.07317
G1 X180.294 Y148.261 E0.07317
G1 X179.462 Y146.768 E0.07311
G1 X178.225 Y144.338 E0.11658
G1 X176.362 Y144.753 E0.08163
G1 X176.732 Y145.109 F9000
G1 F1800
G1 X176.732 Y161.277 E0.69126
G1 X176.776 Y162.121 E0.03615
G1 X176.911 Y162.976 E0.03701
G1 X177.135 Y163.812 E0.03701
G1 X177.445 Y164.62 E0.03701
G1 X177.838 Y165.392 E0.03701
G1 X178.31 Y166.118 E0.03701
G1 X178.855 Y166.79 E0.03701
G1 X179.467 Y167.402 E0.03701
G1 X180.139 Y167.947 E0.03701
G1 X180.865 Y168.418 E0.03701
G1 X181.636 Y168.811 E0.03701
G1 X182.445 Y169.122 E0.03701
G1 X183.281 Y169.346 E0.03701
G1 X184.136 Y169.481 E0.03701
G1 X184.98 Y169.525 E0.03615
G1 X201.146 Y169.525 E0.69121
G1 X201.445 Y168.268 E0.05525
G1 X199.605 Y167.342 E0.08806
G1 X198.091 Y166.513 E0.07381
G1 X196.607 Y165.631 E0.07381
G1 X195.155 Y164.697 E0.07381
G1 X193.736 Y163.713 E0.07381
G1 X192.353 Y162.68 E0.07381
G1 X191.007 Y161.599 E0.07381
G1 X189.699 Y160.472 E0.07381
G1 X188.432 Y159.299 E0.07381
G1 X187.207 Y158.083 E0.07381
G1 X186.025 Y156.824 E0.07381
G1 X184.888 Y155.525 E0.07381
G1 X183.798 Y154.187 E0.07381
G1 X182.755 Y152.811 E0.07381
G1 X181.761 Y151.4 E0.07381
G1 X180.816 Y149.954 E0.07381
G1 X179.924 Y148.477 E0.07381
G1 X179.083 Y146.969 E0.07378
G1 X177.994 Y144.828 E0.10272
G1 X176.79 Y145.096 E0.05273
G1 X177.16 Y145.453 F9000
; External perimeter
;ExternalPerimeter
SET_VELOCITY_LIMIT ACCEL=1000 ACCEL_TO_DECEL=1000 SQUARE_CORNER_VELOCITY=5

; Perimeter

;TYPE:External perimeter
G1 F1800
G1 X177.16 Y161.266 E0.67609
G1 X177.202 Y162.076 E0.03471
G1 X177.331 Y162.887 E0.03509
G1 X177.543 Y163.68 E0.03509
G1 X177.837 Y164.446 E0.03509
G1 X178.21 Y165.177 E0.03509
G1 X178.657 Y165.865 E0.03509
G1 X179.173 Y166.503 E0.03509
G1 X179.754 Y167.083 E0.03509
G1 X180.391 Y167.6 E0.03509
G1 X181.08 Y168.047 E0.03509
G1 X181.811 Y168.419 E0.03509
G1 X182.577 Y168.714 E0.03509
G1 X183.37 Y168.926 E0.03509
G1 X184.18 Y169.054 E0.03509
G1 X184.991 Y169.097 E0.03471
G1 X200.808 Y169.097 E0.67625
G1 X200.835 Y168.98 E0.00483
G1 X200.891 Y168.747 E0.00996
G1 X200.95 Y168.499 E0.0109
G1 X200.843 Y168.445 E0.00483
G1 X200.628 Y168.337 E0.00996
G1 X199.406 Y167.722 E0.05851
G1 X197.879 Y166.885 E0.07446
G1 X196.382 Y165.995 E0.07446
G1 X194.917 Y165.053 E0.07446
G1 X193.486 Y164.061 E0.07446
G1 X192.091 Y163.019 E0.07446
G1 X190.733 Y161.928 E0.07446
G1 X189.414 Y160.791 E0.07446
G1 X188.136 Y159.608 E0.07446
G1 X186.9 Y158.381 E0.07446
G1 X185.708 Y157.112 E0.07446
G1 X184.561 Y155.801 E0.07446
G1 X183.461 Y154.452 E0.07446
G1 X182.409 Y153.064 E0.07446
G1 X181.406 Y151.64 E0.07446
G1 X180.454 Y150.182 E0.07446
G1 X179.553 Y148.692 E0.07446
G1 X178.705 Y147.171 E0.07444
G1 X177.763 Y145.319 E0.08886
G1 X177.646 Y145.345 E0.00484
G1 X177.411 Y145.397 E0.00997
G1 X177.219 Y145.44 E0.00844
;WIPE_START
G1 X176.761 Y145.482 F9000
;WIPE_END
G1 E-0.8 F3000
G1 X73.893 Y169.954 F9000
G1 E0.8 F1800
; External perimeter
;Perimeter
SET_VELOCITY_LIMIT ACCEL=2000 ACCEL_TO_DECEL=2000 SQUARE_CORNER_VELOCITY=5

; Overhang perimeter

;TYPE:Internal perimeter
G1 X165.031 Y169.954 E3.89665
G1 X165.909 Y169.908 E0.03759
G1 X166.809 Y169.765 E0.03893
G1 X167.688 Y169.53 E0.03893
G1 X168.538 Y169.203 E0.03893
G1 X169.349 Y168.79 E0.03893
G1 X170.113 Y168.294 E0.03893
G1 X170.821 Y167.721 E0.03893
G1 X171.464 Y167.077 E0.03893
G1 X172.037 Y166.37 E0.03893
G1 X172.533 Y165.606 E0.03893
G1 X172.947 Y164.795 E0.03893
G1 X173.273 Y163.945 E0.03893
G1 X173.509 Y163.065 E0.03893
G1 X173.651 Y162.166 E0.03893
G1 X173.697 Y161.288 E0.03759
G1 X173.697 Y120.15 E1.75888
G1 X174.046 Y120.284 E0.01599
G1 X174.401 Y120.465 E0.01701
G1 X174.734 Y120.681 E0.01701
G1 X175.044 Y120.932 E0.01701
G1 X175.325 Y121.213 E0.01701
G1 X175.575 Y121.522 E0.01701
G1 X175.792 Y121.856 E0.01701
G1 X175.973 Y122.211 E0.01701
G1 X176.115 Y122.582 E0.01701
G1 X176.218 Y122.966 E0.01701
G1 X176.281 Y123.36 E0.01701
G1 X176.304 Y123.799 E0.0188
G1 X176.331 Y125.377 E0.06747
G1 X176.416 Y126.994 E0.06926
G1 X176.558 Y128.608 E0.06926
G1 X176.757 Y130.216 E0.06926
G1 X177.011 Y131.816 E0.06926
G1 X177.322 Y133.406 E0.06926
G1 X177.688 Y134.984 E0.06926
G1 X178.109 Y136.548 E0.06926
G1 X178.585 Y138.097 E0.06926
G1 X179.114 Y139.628 E0.06926
G1 X179.698 Y141.139 E0.06926
G1 X180.333 Y142.629 E0.06926
G1 X181.021 Y144.096 E0.06926
G1 X181.76 Y145.538 E0.06926
G1 X182.548 Y146.953 E0.06926
G1 X183.386 Y148.339 E0.06926
G1 X184.272 Y149.696 E0.06926
G1 X185.205 Y151.02 E0.06926
G1 X186.184 Y152.311 E0.06926
G1 X187.207 Y153.567 E0.06926
G1 X188.274 Y154.786 E0.06926
G1 X189.383 Y155.967 E0.06926
G1 X190.533 Y157.108 E0.06926
G1 X191.722 Y158.208 E0.06926
G1 X192.948 Y159.266 E0.06926
G1 X194.211 Y160.281 E0.06926
G1 X195.509 Y161.25 E0.06926
G1 X196.841 Y162.173 E0.06926
G1 X198.203 Y163.049 E0.06926
G1 X199.596 Y163.877 E0.06926
G1 X201.017 Y164.655 E0.06926
G1 X202.464 Y165.384 E0.06926
G1 X203.935 Y166.061 E0.06926
G1 X205.43 Y166.685 E0.06926
G1 X206.946 Y167.258 E0.06926
G1 X208.48 Y167.776 E0.06926
G1 X210.032 Y168.241 E0.06926
G1 X211.6 Y168.651 E0.06926
G1 X213.18 Y169.005 E0.06926
G1 X214.773 Y169.304 E0.06926
G1 X216.374 Y169.547 E0.06926
G1 X217.983 Y169.734 E0.06926
G1 X219.598 Y169.864 E0.06926
G1 X221.216 Y169.937 E0.06926
G1 X222.794 Y169.954 E0.06747
G1 X223.696 Y169.995 E0.03859
G1 X224.546 Y170.152 E0.03697
G1 X225.398 Y170.4 E0.03793
G1 X226.221 Y170.733 E0.03793
G1 X227.006 Y171.146 E0.03793
G1 X227.745 Y171.636 E0.03793
G1 X228.433 Y172.197 E0.03793
G1 X229.06 Y172.824 E0.03793
G1 X229.621 Y173.511 E0.03793
G1 X230.111 Y174.251 E0.03793
G1 X230.524 Y175.036 E0.03793
G1 X230.856 Y175.859 E0.03793
G1 X231.105 Y176.711 E0.03793
G1 X231.261 Y177.555 E0.03671
G1 X231.301 Y178.713 E0.04954
G1 X231.268 Y179.026 E0.01348
G1 X231.184 Y179.284 E0.01159
G1 X231.049 Y179.519 E0.01159
G1 X230.867 Y179.72 E0.01159
G1 X230.648 Y179.88 E0.01159
G1 X230.401 Y179.99 E0.01159
G1 X230.136 Y180.046 E0.01159
G1 X229.864 Y180.046 E0.01159
G1 X229.599 Y179.99 E0.01159
G1 X229.352 Y179.88 E0.01159
G1 X229.133 Y179.72 E0.01159
G1 X228.951 Y179.519 E0.01159
G1 X228.816 Y179.284 E0.01159
G1 X228.732 Y179.026 E0.01159
G1 X228.694 Y178.663 E0.01563
G1 X228.665 Y178.109 E0.02372
G1 X228.563 Y177.468 E0.02774
G1 X228.395 Y176.841 E0.02774
G1 X228.163 Y176.236 E0.02774
G1 X227.868 Y175.658 E0.02774
G1 X227.515 Y175.113 E0.02774
G1 X227.106 Y174.609 E0.02774
G1 X226.648 Y174.15 E0.02774
G1 X226.143 Y173.742 E0.02774
G1 X225.599 Y173.389 E0.02774
G1 X225.021 Y173.094 E0.02774
G1 X224.415 Y172.862 E0.02774
G1 X223.79 Y172.694 E0.02768
G1 X222.966 Y172.561 E0.0357
G1 X221.117 Y172.542 E0.07905
G1 X77.531 Y172.56 E6.13907
G1 X77.103 Y172.537 E0.01835
G1 X76.71 Y172.475 E0.01701
G1 X76.325 Y172.372 E0.01701
G1 X75.954 Y172.23 E0.01701
G1 X75.599 Y172.049 E0.01701
G1 X75.266 Y171.832 E0.01701
G1 X74.956 Y171.582 E0.01701
G1 X74.675 Y171.3 E0.01701
G1 X74.425 Y170.991 E0.01701
G1 X74.208 Y170.658 E0.01701
G1 X74.027 Y170.303 E0.01701
G1 X73.915 Y170.01 E0.01343
G1 E-0.8 F3000
G1 X173.268 Y119.589 F9000
G1 E0.8 F1800
G1 X173.807 Y119.733 E0.02385
G1 X174.221 Y119.892 E0.01893
G1 X174.615 Y120.093 E0.01893
G1 X174.987 Y120.334 E0.01893
G1 X175.331 Y120.613 E0.01893
G1 X175.644 Y120.926 E0.01893
G1 X175.922 Y121.27 E0.01893
G1 X176.164 Y121.642 E0.01893
G1 X176.365 Y122.036 E0.01893
G1 X176.523 Y122.45 E0.01893
G1 X176.638 Y122.877 E0.01893
G1 X176.707 Y123.315 E0.01893
G1 X176.732 Y123.784 E0.02008
G1 X176.76 Y125.362 E0.06747
G1 X176.844 Y126.964 E0.06862
G1 X176.984 Y128.563 E0.06862
G1 X177.181 Y130.156 E0.06862
G1 X177.433 Y131.741 E0.06862
G1 X177.741 Y133.316 E0.06862
G1 X178.103 Y134.88 E0.06862
G1 X178.521 Y136.429 E0.06862
G1 X178.992 Y137.964 E0.06862
G1 X179.517 Y139.48 E0.06862
G1 X180.095 Y140.978 E0.06862
G1 X180.724 Y142.454 E0.06862
G1 X181.406 Y143.907 E0.06862
G1 X182.137 Y145.336 E0.06862
G1 X182.919 Y146.738 E0.06862
G1 X183.749 Y148.111 E0.06862
G1 X184.627 Y149.455 E0.06862
G1 X185.551 Y150.767 E0.06862
G1 X186.521 Y152.046 E0.06862
G1 X187.535 Y153.29 E0.06862
G1 X188.591 Y154.498 E0.06862
G1 X189.69 Y155.668 E0.06862
G1 X190.829 Y156.799 E0.06862
G1 X192.007 Y157.889 E0.06862
G1 X193.222 Y158.937 E0.06862
G1 X194.474 Y159.942 E0.06862
G1 X195.76 Y160.902 E0.06862
G1 X197.079 Y161.817 E0.06862
G1 X198.429 Y162.685 E0.06862
G1 X199.808 Y163.505 E0.06862
G1 X201.216 Y164.276 E0.06862
G1 X202.65 Y164.997 E0.06862
G1 X204.108 Y165.668 E0.06862
G1 X205.588 Y166.287 E0.06862
G1 X207.09 Y166.854 E0.06862
G1 X208.61 Y167.368 E0.06862
G1 X210.148 Y167.828 E0.06862
G1 X211.701 Y168.234 E0.06862
G1 X213.267 Y168.585 E0.06862
G1 X214.844 Y168.882 E0.06862
G1 X216.431 Y169.122 E0.06862
G1 X218.025 Y169.307 E0.06862
G1 X219.625 Y169.436 E0.06862
G1 X221.228 Y169.509 E0.06862
G1 X222.806 Y169.525 E0.06747
G1 X223.745 Y169.568 E0.04018
G1 X224.645 Y169.735 E0.03915
G1 X225.539 Y169.995 E0.03977
G1 X226.401 Y170.344 E0.03977
G1 X227.224 Y170.777 E0.03977
G1 X228 Y171.29 E0.03977
G1 X228.72 Y171.879 E0.03977
G1 X229.378 Y172.537 E0.03977
G1 X229.967 Y173.257 E0.03977
G1 X230.48 Y174.033 E0.03977
G1 X230.913 Y174.856 E0.03977
G1 X231.262 Y175.718 E0.03977
G1 X231.522 Y176.611 E0.03977
G1 X231.688 Y177.508 E0.039
G1 X231.73 Y178.728 E0.05219
G1 X231.69 Y179.116 E0.01668
G1 X231.578 Y179.459 E0.01544
G1 X231.397 Y179.772 E0.01544
G1 X231.156 Y180.04 E0.01544
G1 X230.864 Y180.253 E0.01544
G1 X230.534 Y180.4 E0.01544
G1 X230.181 Y180.475 E0.01544
G1 X229.819 Y180.475 E0.01544
G1 X229.466 Y180.4 E0.01544
G1 X229.136 Y180.253 E0.01544
G1 X228.844 Y180.04 E0.01544
G1 X228.603 Y179.772 E0.01544
G1 X228.422 Y179.459 E0.01544
G1 X228.31 Y179.116 E0.01544
G1 X228.266 Y178.697 E0.01803
G1 X228.238 Y178.154 E0.02324
G1 X228.143 Y177.557 E0.02582
G1 X227.987 Y176.974 E0.02582
G1 X227.771 Y176.41 E0.02582
G1 X227.497 Y175.872 E0.02582
G1 X227.168 Y175.366 E0.02582
G1 X226.788 Y174.896 E0.02582
G1 X226.361 Y174.469 E0.02582
G1 X225.891 Y174.089 E0.02582
G1 X225.385 Y173.76 E0.02582
G1 X224.847 Y173.486 E0.02582
G1 X224.283 Y173.27 E0.02582
G1 X223.7 Y173.114 E0.02579
G1 X222.929 Y172.99 E0.03339
G1 X221.115 Y172.971 E0.07759
G1 X77.52 Y172.988 E6.13945
G1 X77.058 Y172.964 E0.01979
G1 X76.62 Y172.895 E0.01893
G1 X76.193 Y172.78 E0.01893
G1 X75.779 Y172.622 E0.01893
G1 X75.385 Y172.421 E0.01893
G1 X75.013 Y172.179 E0.01893
G1 X74.669 Y171.901 E0.01893
G1 X74.356 Y171.588 E0.01893
G1 X74.077 Y171.243 E0.01893
G1 X73.836 Y170.872 E0.01893
G1 X73.635 Y170.478 E0.01893
G1 X73.477 Y170.064 E0.01893
G1 X73.332 Y169.525 E0.02385
G1 X165.02 Y169.525 E3.92016
G1 X165.864 Y169.481 E0.03615
G1 X166.719 Y169.346 E0.03701
G1 X167.555 Y169.122 E0.03701
G1 X168.364 Y168.811 E0.03701
G1 X169.135 Y168.418 E0.03701
G1 X169.861 Y167.947 E0.03701
G1 X170.533 Y167.402 E0.03701
G1 X171.145 Y166.79 E0.03701
G1 X171.69 Y166.118 E0.03701
G1 X172.162 Y165.392 E0.03701
G1 X172.555 Y164.62 E0.03701
G1 X172.865 Y163.812 E0.03701
G1 X173.089 Y162.976 E0.03701
