; Postprocessed by [ArcWelder](https://github.com/FormerLurker/ArcWelderLib)
; Copyright(C) 2021 - Brad Hochgesang
; Version: 1.2.0, Branch: HEAD, BuildDate: 2021-11-21T20:25:43Z
; resolution=0.05mm
; path_tolerance=5.0%
; max_radius=9999.00mm
; g90_influences_extruder=True
; default_xyz_precision=3
; default_e_precision=5
; extrusion_rate_variance_percent=5.0%

; generated by SuperSlicer 2.4 on 2022-04-30 at 07:22:54 UTC







; 

; external perimeters extrusion width = 0.40mm
; perimeters extrusion width = 0.45mm
; infill extrusion width = 0.72mm
; solid infill extrusion width = 0.56mm
; top infill extrusion width = 0.40mm
; first layer extrusion width = 0.48mm

; object:{"name":"Body3","id":"Body3.stl id:0 copy 0","object_center":[152.500000,150.000000,0.000000],"boundingbox_center":[152.500000,150.000000,4.000000],"boundingbox_size":[79.000000,90.000000,8.000000]}
; plater:{"center":[152.500000,150.000000,0.000000],"boundingbox_center":[152.500000,150.000000,4.000000],"boundingbox_size":[79.000000,90.000000,8.000000]}

M73 P0 R96
;TYPE:Custom
START_PRINT T_BED=60 T_EXTRUDER=200
M107
G21 ; set units to millimeters
G90 ; use absolute coordinates
M83 ; use relative distances for extrusion
; Filament gcode
M104 S200 ; set temperature
M109 S200 ; set temperature and wait for it to be reached
M190 S60 ; set bed temperature and wait for it to be reached
M107
;LAYER_CHANGE
;Z:0.24
;HEIGHT:0.24
G1 Z0.24 F9000
G92 E0
G1 E-0.8 F3000
M204 S1000
G1 X111.802 Y104.201 F9000
G1 E0.8 F1800
;TYPE:Skirt
;WIDTH:0.45
G1 X111.303 Y104.786 E0.03057
G1 X110.57 Y105.897 E0.05296
G1 X110.019 Y107.11 E0.05296
G1 X109.665 Y108.394 E0.05296
G1 X109.505 Y110.004 E0.06431
G1 X109.505 Y189.996 E3.18065
G1 X109.665 Y191.606 E0.06431
G1 X110.019 Y192.89 E0.05296
G1 X110.313 Y193.6 E0.03057
G1 X111.303 Y195.214 E0.07529
G1 X112.201 Y196.198 E0.05296
G1 X112.786 Y196.697 E0.03057
G1 X113.897 Y197.43 E0.05296
G1 X115.11 Y197.981 E0.05296
G1 X116.394 Y198.335 E0.05296
G1 X118.004 Y198.495 E0.06431
G1 X186.996 Y198.495 E2.74327
G1 X188.606 Y198.335 E0.06431
G1 X189.89 Y197.981 E0.05296
G1 X190.6 Y197.687 E0.03057
G1 X192.214 Y196.697 E0.07529
G1 X193.198 Y195.799 E0.05296
G1 X193.697 Y195.214 E0.03057
G1 X194.43 Y194.103 E0.05296
G1 X194.981 Y192.89 E0.05296
G1 X195.335 Y191.606 E0.05296
G1 X195.495 Y189.996 E0.06431
G1 X195.483 Y109.722 E3.19186
G1 X195.335 Y108.394 E0.05312
G1 X194.981 Y107.11 E0.05296
G1 X194.687 Y106.4 E0.03057
G1 X194.029 Y105.242 E0.05296
G1 X193.198 Y104.201 E0.05296
G1 X192.214 Y103.303 E0.05296
G1 X190.6 Y102.313 E0.07529
G1 X189.89 Y102.019 E0.03057
G1 X188.606 Y101.665 E0.05296
G1 X187.278 Y101.517 E0.05312
G1 X117.722 Y101.517 E2.7657
G1 X116.394 Y101.665 E0.05312
G1 X115.11 Y102.019 E0.05296
G1 X114.4 Y102.313 E0.03057
G1 X112.786 Y103.303 E0.07529
G1 X111.802 Y104.201 E0.05296
G1 X112.103 Y104.458 F9000
G1 F1800
G2 X110.051 Y108.487 I5.912 J5.548 E0.18204
G1 X109.902 Y110.004 E0.06061
G1 X109.902 Y189.996 E3.18065
G1 X110.051 Y191.513 E0.06061
G1 X110.385 Y192.738 E0.05049
G1 X110.68 Y193.448 E0.03057
G1 X111.604 Y194.957 E0.07036
G1 X112.458 Y195.897 E0.05049
G2 X116.487 Y197.949 I5.548 J-5.912 E0.18204
G1 X118.004 Y198.098 E0.06061
G1 X186.996 Y198.098 E2.74327
G1 X188.513 Y197.949 E0.06061
G1 X189.738 Y197.615 E0.05049
G1 X190.448 Y197.32 E0.03057
G1 X191.957 Y196.396 E0.07036
G1 X192.897 Y195.542 E0.05049
G2 X194.949 Y191.513 I-5.912 J-5.548 E0.18204
G1 X195.098 Y189.996 E0.06061
G1 X195.088 Y109.753 E3.19063
G1 X194.949 Y108.487 E0.05065
G1 X194.615 Y107.262 E0.05049
G2 X192.897 Y104.458 I-7.667 J2.769 E0.13155
G1 X191.551 Y103.309 E0.07036
G2 X187.247 Y101.912 I-4.556 J6.707 E0.18219
G1 X117.753 Y101.912 E2.76322
G1 X116.487 Y102.051 E0.05064
G1 X115.262 Y102.385 E0.05049
G1 X114.552 Y102.68 E0.03057
G1 X113.043 Y103.604 E0.07036
G1 X112.103 Y104.458 E0.05049
; INIT printing object Body3.stl id:0 copy 0
G1 E-0.8 F3000
; printing object Body3.stl id:0 copy 0
G1 X183.584 Y148.408 F9000
G1 E0.8 F1800
;TYPE:Internal perimeter
;WIDTH:0.48
G2 X187.000 Y146.227 I3.418 J1.588 E0.82892
G1 X186.58 Y146.274 E0.01806
G1 X186.16 Y146.321 E0.01806
G2 X183.584 Y148.408 I0.835 J3.665 E0.14658
G1 X183.989 Y148.55 F9000
;TYPE:External perimeter
G1 F1800
G2 X187.000 Y146.658 I3.011 J1.450 E0.73599
G1 X186.628 Y146.7 E0.016
G1 X186.256 Y146.742 E0.016
G2 X183.989 Y148.550 I0.742 J3.255 E0.12800
;WIPE_START
M204 S3000
G1 X183.591 Y148.595 F9000
;WIPE_END
G1 E-0.8 F3000
M204 S1000
G1 X186.115 Y156.337 F9000
G1 E0.8 F1800
;TYPE:Internal perimeter
G2 X188.637 Y156.600 I0.893 J3.656 E0.90118
G2 X187.000 Y156.227 I-1.632 J3.385 E0.07226
G1 X186.58 Y156.274 E0.01806
G2 X186.115 Y156.337 I-0.098 J1.024 E0.02012
G1 X186.256 Y156.742 F9000
;TYPE:External perimeter
G1 F1800
G2 X187.000 Y156.658 I0.745 J3.258 E0.86398
G1 X186.628 Y156.7 E0.016
G1 X186.256 Y156.742 E0.016
;WIPE_START
M204 S3000
G1 X185.973 Y156.459 F9000
;WIPE_END
G1 E-0.8 F3000
M204 S1000
G1 X186.952 Y166.232 F9000
G1 E0.8 F1800
;TYPE:Internal perimeter
G2 X189.353 Y167.050 I0.058 J3.763 E0.90118
G2 X186.952 Y166.232 I-2.335 J2.920 E0.11045
G1 X187 Y166.658 F9000
;TYPE:External perimeter
G1 F1800
G1 X186.628 Y166.7 E0.016
G1 X186.256 Y166.742 E0.016
G2 X187.744 Y166.742 I0.744 J3.258 E0.83198
G1 X187.372 Y166.7 E0.016
G1 X187 Y166.658 E0.016
;WIPE_START
M204 S3000
G1 X186.801 Y166.341 F9000
;WIPE_END
G1 E-0.8 F3000
M204 S1000
G1 X186.952 Y176.232 F9000
G1 E0.8 F1800
;TYPE:Internal perimeter
G2 X189.353 Y177.050 I0.058 J3.763 E0.90118
G2 X186.952 Y176.232 I-2.335 J2.920 E0.11045
G1 X187 Y176.658 F9000
;TYPE:External perimeter
G1 F1800
G1 X186.628 Y176.7 E0.016
G1 X186.256 Y176.742 E0.016
G2 X187.000 Y176.658 I0.745 J3.258 E0.86398
;WIPE_START
M204 S3000
G1 X186.801 Y176.341 F9000
;WIPE_END
G1 E-0.8 F3000
M204 S1000
G1 X186.952 Y186.232 F9000
G1 E0.8 F1800
;TYPE:Internal perimeter
G2 X189.353 Y187.050 I0.058 J3.763 E0.90118
G2 X186.952 Y186.232 I-2.335 J2.920 E0.11045
G1 X187 Y186.658 F9000
;TYPE:External perimeter
G1 F1800
G1 X186.628 Y186.7 E0.016
G1 X186.256 Y186.742 E0.016
G1 X185.55 Y186.989 E0.032
G2 X189.084 Y187.387 I1.450 J3.011 E0.73599
G2 X187.000 Y186.658 I-2.085 J2.618 E0.09600
;WIPE_START
M204 S3000
G1 X186.801 Y186.341 F9000
;WIPE_END
G1 E-0.8 F3000
M204 S1000
G1 X187.048 Y143.768 F9000
G1 E0.8 F1800
;TYPE:Internal perimeter
G2 X184.647 Y142.950 I-0.058 J-3.763 E0.90117
G2 X187.048 Y143.768 I2.335 J-2.920 E0.11045
G1 X187 Y143.342 F9000
;TYPE:External perimeter
G1 F1800
G2 X183.658 Y140.000 I0.000 J-3.342 E0.67200
G2 X187.000 Y143.342 I3.341 J0.001 E0.22399
;WIPE_START
M204 S3000
G1 X187.213 Y143.681 F9000
;WIPE_END
G1 E-0.8 F3000
M204 S1000
G1 X187.048 Y133.768 F9000
G1 E0.8 F1800
;TYPE:Internal perimeter
G2 X184.647 Y132.950 I-0.058 J-3.763 E0.90117
G2 X187.048 Y133.768 I2.335 J-2.920 E0.11045
G1 X187 Y133.342 F9000
;TYPE:External perimeter
G1 F1800
G2 X183.658 Y130.000 I0.000 J-3.342 E0.67200
G2 X187.000 Y133.342 I3.341 J0.001 E0.22399
;WIPE_START
M204 S3000
G1 X187.213 Y133.681 F9000
;WIPE_END
G1 E-0.8 F3000
M204 S1000
G1 X187.048 Y123.768 F9000
G1 E0.8 F1800
;TYPE:Internal perimeter
G2 X184.647 Y122.950 I-0.058 J-3.763 E0.90117
G2 X187.048 Y123.768 I2.335 J-2.920 E0.11045
G1 X187 Y123.342 F9000
;TYPE:External perimeter
G1 F1800
G2 X183.658 Y120.000 I0.000 J-3.342 E0.67200
G2 X187.000 Y123.342 I3.341 J0.001 E0.22400
;WIPE_START
M204 S3000
G1 X187.213 Y123.681 F9000
;WIPE_END
G1 E-0.8 F3000
M204 S1000
G1 X182.775 Y148.125 F9000
G1 E0.8 F1800
;TYPE:Internal perimeter
G1 X182.48 Y148.968 E0.03819
G1 X182.364 Y150 E0.04438
G1 X182.48 Y151.032 E0.04438
G1 X182.823 Y152.011 E0.04438
G1 X183.376 Y152.89 E0.04438
G1 X184.11 Y153.624 E0.04438
G1 X184.989 Y154.177 E0.04438
G1 X185.968 Y154.52 E0.04438
G1 X187 Y154.636 E0.04438
G1 X188.032 Y154.52 E0.04438
G1 X189.011 Y154.177 E0.04438
G1 X189.89 Y153.624 E0.04438
G1 X190.375 Y153.14 E0.02927
G1 X190.375 Y156.86 E0.15903
G1 X189.89 Y156.376 E0.02928
G1 X189.011 Y155.823 E0.04438
G1 X188.032 Y155.48 E0.04438
G1 X187 Y155.364 E0.04438
G1 X185.968 Y155.48 E0.04438
G1 X184.989 Y155.823 E0.04438
G1 X184.11 Y156.376 E0.04438
G1 X183.376 Y157.11 E0.04438
G1 X182.823 Y157.989 E0.04438
G1 X182.48 Y158.968 E0.04438
G1 X182.364 Y160 E0.04438
G1 X182.48 Y161.032 E0.04438
G1 X182.823 Y162.011 E0.04438
G1 X183.376 Y162.89 E0.04438
G1 X184.11 Y163.624 E0.04438
G1 X184.989 Y164.177 E0.04438
G1 X185.968 Y164.52 E0.04438
G1 X187 Y164.636 E0.04438
G1 X188.032 Y164.52 E0.04438
G1 X189.011 Y164.177 E0.04438
G1 X189.89 Y163.624 E0.04438
G1 X190.375 Y163.14 E0.02928
G1 X190.375 Y166.86 E0.15903
G1 X189.89 Y166.376 E0.02928
G1 X189.011 Y165.823 E0.04438
G1 X188.032 Y165.48 E0.04438
G1 X187 Y165.364 E0.04438
G1 X185.968 Y165.48 E0.04438
G1 X184.989 Y165.823 E0.04438
G1 X184.11 Y166.376 E0.04438
G1 X183.376 Y167.11 E0.04438
G1 X182.823 Y167.989 E0.04438
G1 X182.48 Y168.968 E0.04438
G1 X182.364 Y170 E0.04438
G1 X182.48 Y171.032 E0.04438
G1 X182.823 Y172.011 E0.04438
G1 X183.376 Y172.89 E0.04438
G1 X184.11 Y173.624 E0.04438
G1 X184.989 Y174.177 E0.04438
G1 X185.968 Y174.52 E0.04438
G1 X187 Y174.636 E0.04438
G1 X188.032 Y174.52 E0.04438
G1 X189.011 Y174.177 E0.04438
G1 X189.89 Y173.624 E0.04438
G1 X190.375 Y173.14 E0.02928
G1 X190.375 Y176.86 E0.15903
G1 X189.89 Y176.376 E0.02928
G1 X189.011 Y175.823 E0.04438
G1 X188.032 Y175.48 E0.04438
G1 X187 Y175.364 E0.04438
G1 X185.968 Y175.48 E0.04438
G1 X184.989 Y175.823 E0.04438
G1 X184.11 Y176.376 E0.04438
G1 X183.376 Y177.11 E0.04438
G1 X182.823 Y177.989 E0.04438
G1 X182.48 Y178.968 E0.04438
G1 X182.364 Y180 E0.04438
G1 X182.48 Y181.032 E0.04438
G1 X182.823 Y182.011 E0.04438
G1 X183.376 Y182.89 E0.04438
G1 X184.11 Y183.624 E0.04438
G1 X184.989 Y184.177 E0.04438
G1 X185.968 Y184.52 E0.04438
G1 X187 Y184.636 E0.04438
G1 X188.032 Y184.52 E0.04438
G1 X189.011 Y184.177 E0.04438
G1 X189.89 Y183.624 E0.04438
G1 X190.375 Y183.14 E0.02928
G1 X190.375 Y186.86 E0.15903
G1 X189.89 Y186.376 E0.02927
G1 X189.011 Y185.823 E0.04438
G1 X188.032 Y185.48 E0.04438
G1 X187 Y185.364 E0.04438
G1 X185.968 Y185.48 E0.04438
G1 X184.989 Y185.823 E0.04438
G1 X184.11 Y186.376 E0.04438
G1 X183.376 Y187.11 E0.04438
G1 X182.823 Y187.989 E0.04438
G1 X182.48 Y188.968 E0.04438
G1 X182.364 Y190 E0.04438
G1 X182.48 Y191.032 E0.04438
G1 X182.823 Y192.011 E0.04438
G1 X183.376 Y192.89 E0.04438
G1 X183.86 Y193.375 E0.02927
G1 X121.14 Y193.375 E2.6816
G1 X121.624 Y192.89 E0.02927
G1 X122.177 Y192.011 E0.04438
G1 X122.52 Y191.032 E0.04438
G1 X122.636 Y190 E0.04438
G1 X122.52 Y188.968 E0.04438
G1 X122.177 Y187.989 E0.04438
G1 X121.624 Y187.11 E0.04438
G1 X120.89 Y186.376 E0.04438
G1 X120.011 Y185.823 E0.04438
G1 X119.032 Y185.48 E0.04438
G1 X118 Y185.364 E0.04438
G1 X116.968 Y185.48 E0.04438
G1 X115.989 Y185.823 E0.04438
G1 X115.11 Y186.376 E0.04438
G1 X114.625 Y186.86 E0.02928
G1 X114.625 Y183.14 E0.15903
G1 X115.11 Y183.624 E0.02928
G1 X115.989 Y184.177 E0.04438
G1 X116.968 Y184.52 E0.04438
G1 X118 Y184.636 E0.04438
G1 X119.032 Y184.52 E0.04438
G1 X120.011 Y184.177 E0.04438
G1 X120.89 Y183.624 E0.04438
G1 X121.624 Y182.89 E0.04438
G1 X122.177 Y182.011 E0.04438
G1 X122.52 Y181.032 E0.04438
G1 X122.636 Y180 E0.04438
G1 X122.52 Y178.968 E0.04438
G1 X122.177 Y177.989 E0.04438
G1 X121.624 Y177.11 E0.04438
G1 X120.89 Y176.376 E0.04438
G1 X120.011 Y175.823 E0.04438
G1 X119.032 Y175.48 E0.04438
G1 X118 Y175.364 E0.04438
G1 X116.968 Y175.48 E0.04438
G1 X115.989 Y175.823 E0.04438
G1 X115.11 Y176.376 E0.04438
G1 X114.625 Y176.86 E0.02927
G1 X114.625 Y173.14 E0.15903
G1 X115.11 Y173.624 E0.02927
G1 X115.989 Y174.177 E0.04438
G1 X116.968 Y174.52 E0.04438
G1 X118 Y174.636 E0.04438
G1 X119.032 Y174.52 E0.04438
G1 X120.011 Y174.177 E0.04438
G1 X120.89 Y173.624 E0.04438
G1 X121.624 Y172.89 E0.04438
G1 X122.177 Y172.011 E0.04438
G1 X122.52 Y171.032 E0.04438
G1 X122.636 Y170 E0.04438
G1 X122.52 Y168.968 E0.04438
G1 X122.177 Y167.989 E0.04438
G1 X121.624 Y167.11 E0.04438
G1 X120.89 Y166.376 E0.04438
G1 X120.011 Y165.823 E0.04438
G1 X119.032 Y165.48 E0.04438
G1 X118 Y165.364 E0.04438
G1 X116.968 Y165.48 E0.04438
G1 X115.989 Y165.823 E0.04438
G1 X115.11 Y166.376 E0.04438
G1 X114.625 Y166.86 E0.02928
G1 X114.625 Y163.14 E0.15903
G1 X115.11 Y163.624 E0.02927
G1 X115.989 Y164.177 E0.04438
G1 X116.968 Y164.52 E0.04438
G1 X118 Y164.636 E0.04438
G1 X119.032 Y164.52 E0.04438
G1 X120.011 Y164.177 E0.04438
G1 X120.89 Y163.624 E0.04438
G1 X121.624 Y162.89 E0.04438
G1 X122.177 Y162.011 E0.04438
G1 X122.52 Y161.032 E0.04438
G1 X122.636 Y160 E0.04438
G1 X122.52 Y158.968 E0.04438
G1 X122.177 Y157.989 E0.04438
G1 X121.624 Y157.11 E0.04438
G1 X120.89 Y156.376 E0.04438
G1 X120.011 Y155.823 E0.04438
G1 X119.032 Y155.48 E0.04438
G1 X118 Y155.364 E0.04438
G1 X116.968 Y155.48 E0.04438
G1 X115.989 Y155.823 E0.04438
G1 X115.11 Y156.376 E0.04438
G1 X114.625 Y156.86 E0.02927
G1 X114.625 Y153.14 E0.15903
M73 P0 R95
G1 X115.11 Y153.624 E0.02927
G1 X115.989 Y154.177 E0.04438
G1 X116.968 Y154.52 E0.04438
G1 X118 Y154.636 E0.04438
G1 X119.032 Y154.52 E0.04438
G1 X120.011 Y154.177 E0.04438
G1 X120.89 Y153.624 E0.04438
G1 X121.624 Y152.89 E0.04438
G1 X122.177 Y152.011 E0.04438
G1 X122.52 Y151.032 E0.04438
G1 X122.636 Y150 E0.04438
G1 X122.52 Y148.968 E0.04438
G1 X122.177 Y147.989 E0.04438
G1 X121.624 Y147.11 E0.04438
G1 X120.89 Y146.376 E0.04438
G1 X120.011 Y145.823 E0.04438
G1 X119.032 Y145.48 E0.04438
G1 X118 Y145.364 E0.04438
G1 X116.968 Y145.48 E0.04438
G1 X115.989 Y145.823 E0.04438
G1 X115.11 Y146.376 E0.04438
G1 X114.625 Y146.86 E0.02927
G1 X114.625 Y143.14 E0.15903
G1 X115.11 Y143.624 E0.02927
G1 X115.989 Y144.177 E0.04438
G1 X116.968 Y144.52 E0.04438
G1 X118 Y144.636 E0.04438
G1 X119.032 Y144.52 E0.04438
G1 X120.011 Y144.177 E0.04438
G1 X120.89 Y143.624 E0.04438
G1 X121.624 Y142.89 E0.04438
G1 X122.177 Y142.011 E0.04438
G1 X122.52 Y141.032 E0.04438
G1 X122.636 Y140 E0.04438
G1 X122.52 Y138.968 E0.04438
G1 X122.177 Y137.989 E0.04438
G1 X121.624 Y137.11 E0.04438
G1 X120.89 Y136.376 E0.04438
G1 X120.011 Y135.823 E0.04438
G1 X119.032 Y135.48 E0.04438
G1 X118 Y135.364 E0.04438
G1 X116.968 Y135.48 E0.04438
G1 X115.989 Y135.823 E0.04438
G1 X115.11 Y136.376 E0.04438
G1 X114.625 Y136.86 E0.02927
G1 X114.625 Y133.14 E0.15903
G1 X115.11 Y133.624 E0.02927
G1 X115.989 Y134.177 E0.04438
G1 X116.968 Y134.52 E0.04438
G1 X118 Y134.636 E0.04438
G1 X119.032 Y134.52 E0.04438
G1 X120.011 Y134.177 E0.04438
G1 X120.89 Y133.624 E0.04438
G1 X121.624 Y132.89 E0.04438
G1 X122.177 Y132.011 E0.04438
G1 X122.52 Y131.032 E0.04438
G1 X122.636 Y130 E0.04438
G1 X122.52 Y128.968 E0.04438
G1 X122.177 Y127.989 E0.04438
G1 X121.624 Y127.11 E0.04438
G1 X120.89 Y126.376 E0.04438
G1 X120.011 Y125.823 E0.04438
G1 X119.032 Y125.48 E0.04438
G1 X118 Y125.364 E0.04438
G1 X116.968 Y125.48 E0.04438
G1 X115.989 Y125.823 E0.04438
G1 X115.11 Y126.376 E0.04438
G1 X114.625 Y126.86 E0.02927
G1 X114.625 Y123.14 E0.15903
G1 X115.11 Y123.624 E0.02927
G1 X115.989 Y124.177 E0.04438
G1 X116.968 Y124.52 E0.04438
G1 X118 Y124.636 E0.04438
G1 X119.032 Y124.52 E0.04438
G1 X120.011 Y124.177 E0.04438
G1 X120.89 Y123.624 E0.04438
G1 X121.624 Y122.89 E0.04438
G1 X122.177 Y122.011 E0.04438
G1 X122.52 Y121.032 E0.04438
G1 X122.636 Y120 E0.04438
G1 X122.52 Y118.968 E0.04438
G1 X122.177 Y117.989 E0.04438
G1 X121.624 Y117.11 E0.04438
G1 X120.89 Y116.376 E0.04438
G1 X120.011 Y115.823 E0.04438
G1 X119.032 Y115.48 E0.04438
G1 X118 Y115.364 E0.04438
G1 X116.968 Y115.48 E0.04438
G1 X115.989 Y115.823 E0.04438
G1 X115.11 Y116.376 E0.04438
G1 X114.625 Y116.86 E0.02928
G1 X114.625 Y113.14 E0.15903
G1 X115.11 Y113.624 E0.02928
G1 X115.989 Y114.177 E0.04438
G1 X116.968 Y114.52 E0.04438
G1 X118 Y114.636 E0.04438
G1 X119.032 Y114.52 E0.04438
G1 X120.011 Y114.177 E0.04438
G1 X120.89 Y113.624 E0.04438
G1 X121.624 Y112.89 E0.04438
G1 X122.177 Y112.011 E0.04438
G1 X122.52 Y111.032 E0.04438
G1 X122.636 Y110 E0.04438
G1 X122.52 Y108.968 E0.04438
G1 X122.177 Y107.989 E0.04438
G1 X121.624 Y107.11 E0.04438
G1 X121.14 Y106.625 E0.02928
G1 X183.86 Y106.625 E2.6816
G1 X183.376 Y107.11 E0.02928
G1 X182.823 Y107.989 E0.04438
G1 X182.48 Y108.968 E0.04438
