; generated by SuperSlicer 2.3.57 on 2022-03-03 at 18:01:42 UTC


;
;

;
;
; 

; external perimeters extrusion width = 0.40mm
; perimeters extrusion width = 0.45mm
; infill extrusion width = 0.72mm
; solid infill extrusion width = 0.56mm
; top infill extrusion width = 0.40mm
; support material extrusion width = 0.42mm
; first layer extrusion width = 0.48mm

; object:{"name":"semi-tube_33x30mm_with_holder","id":"semi-tube_33x30mm_with_holder.stl id:0 copy 0","object_center":[152.500000,150.000000,0.000000],"boundingbox_center":[152.500000,150.000000,17.955055],"boundingbox_size":[75.579151,38.886398,35.910110]}
; plater:{"center":[152.500000,150.000000,0.000000],"boundingbox_center":[152.500000,150.000000,17.955055],"boundingbox_size":[75.579151,38.886398,35.910110]}

;TYPE:Custom
START_PRINT T_BED=60 T_EXTRUDER=200
M107
G21 ; set units to millimeters
G90 ; use absolute coordinates
M83 ; use relative distances for extrusion
; Filament gcode
M104 S200 ; set temperature
M109 S200 ; set temperature and wait for it to be reached
M190 S60 ; set bed temperature and wait for it to be reached
M107
;LAYER_CHANGE
;Z:0.24
;HEIGHT:0.24
G1 Z0.24 F9000
G1 E-0.8 F3000
G1 X112.77 Y129.319 F9000
G1 E0.8 F1800
; External perimeter
;Skirt
SET_VELOCITY_LIMIT ACCEL=300 ACCEL_TO_DECEL=3000 SQUARE_CORNER_VELOCITY=5

; Support material

;TYPE:Skirt
;WIDTH:0.48
G1 X112.1 Y129.904 E0.03801
G1 X111.567 Y130.684 E0.04041
G1 X111.251 Y131.58 E0.04061
G1 X111.172 Y132.324 E0.032
G1 X111.178 Y167.873 E1.51991
G1 X111.379 Y168.878 E0.0438
G1 X111.853 Y169.787 E0.0438
G1 X112.531 Y170.504 E0.04221
G1 X113.483 Y171.098 E0.04799
G1 X114.355 Y171.411 E0.03962
G1 X118.126 Y172.415 E0.16685
G1 X119.984 Y172.718 E0.08048
G1 X122.863 Y172.906 E0.12333
G1 X124.517 Y172.816 E0.07085
G1 X127.082 Y172.489 E0.11054
G1 X186.2 Y160.954 E2.57531
G1 X186.98 Y160.687 E0.03521
G1 X187.675 Y160.255 E0.035
G1 X188.257 Y159.679 E0.035
G1 X188.697 Y158.983 E0.03521
G1 X188.96 Y158.248 E0.0334
G1 X189.06 Y157.473 E0.0334
G1 X189.054 Y142.286 E0.64931
G1 X188.854 Y141.367 E0.04021
G1 X188.425 Y140.53 E0.04021
G1 X187.797 Y139.831 E0.04021
G1 X187.01 Y139.316 E0.04021
G1 X186.131 Y139.022 E0.03961
G1 X127.176 Y127.525 E2.56816
G1 X125.033 Y127.235 E0.09245
G1 X122.756 Y127.096 E0.09751
G1 X120.058 Y127.273 E0.11561
G1 X118.782 Y127.456 E0.0551
G1 X113.752 Y128.785 E0.22247
G1 X112.822 Y129.291 E0.04524
G1 X113.038 Y129.655 F9000
G1 F1800
G1 X112.438 Y130.17 E0.03381
G1 X111.953 Y130.87 E0.03644
G1 X111.669 Y131.674 E0.03644
G1 X111.6 Y132.329 E0.02817
G1 X111.605 Y167.832 E1.51795
G1 X111.783 Y168.733 E0.03926
G1 X112.208 Y169.547 E0.03926
G1 X112.818 Y170.185 E0.03776
G1 X113.687 Y170.72 E0.0436
G1 X114.482 Y171.002 E0.03607
G1 X118.231 Y171.999 E0.16589
G1 X120.031 Y172.292 E0.07797
G1 X122.854 Y172.478 E0.12093
G1 X124.474 Y172.39 E0.06937
G1 X127.007 Y172.067 E0.10918
G1 X186.098 Y160.537 E2.5741
G1 X186.793 Y160.301 E0.03137
G1 X187.412 Y159.917 E0.03118
G1 X187.932 Y159.399 E0.03137
G1 X188.321 Y158.777 E0.03137
G1 X188.547 Y158.13 E0.0293
G1 X188.632 Y157.455 E0.02911
G1 X188.629 Y142.343 E0.64611
G1 X188.454 Y141.522 E0.03588
G1 X188.073 Y140.775 E0.03588
G1 X187.512 Y140.151 E0.03588
G1 X186.808 Y139.694 E0.03588
G1 X186.044 Y139.442 E0.03438
G1 X127.096 Y127.946 E2.56783
G1 X124.99 Y127.661 E0.09089
G1 X122.759 Y127.525 E0.09556
G1 X120.099 Y127.7 E0.11397
G1 X118.867 Y127.876 E0.05323
G1 X113.948 Y129.169 E0.21745
G1 X113.091 Y129.627 E0.04152
; INIT printing object semi-tube_33x30mm_with_holder.stl id:0 copy 0
G1 E-0.8 F3000
; printing object semi-tube_33x30mm_with_holder.stl id:0 copy 0
G1 X139.84 Y144.101 F9000
G1 E0.8 F1800
; External perimeter
;Perimeter
SET_VELOCITY_LIMIT ACCEL=2000 ACCEL_TO_DECEL=2000 SQUARE_CORNER_VELOCITY=5

; Overhang perimeter

;TYPE:Internal perimeter
G1 X183.899 Y144.121 E1.88376
G1 X183.893 Y155.87 E0.50234
G1 X139.858 Y155.85 E1.88277
G1 X140.054 Y155.252 E0.02692
G1 X140.291 Y154.401 E0.03776
G1 X140.493 Y153.521 E0.03858
G1 X140.698 Y152.212 E0.05665
G1 X140.812 Y150.902 E0.05625
G1 X140.839 Y149.991 E0.03896
G1 X140.785 Y148.667 E0.05666
G1 X140.641 Y147.359 E0.05625
G1 X140.489 Y146.461 E0.03895
G1 X140.178 Y145.173 E0.05666
G1 X139.858 Y144.158 E0.04549
G1 X139.82 Y143.672 F9000
G1 F1800
G1 X184.327 Y143.692 E1.90295
G1 X184.322 Y156.298 E0.53898
G1 X139.848 Y156.278 E1.90148
G1 X138.953 Y158.153 E0.08882
G1 X138.522 Y158.945 E0.03858
G1 X137.843 Y160.099 E0.05723
G1 X137.051 Y161.159 E0.05655
G1 X136.473 Y161.852 E0.03859
G1 X135.582 Y162.851 E0.05723
G1 X134.599 Y163.736 E0.05655
G1 X133.897 Y164.303 E0.03859
G1 X132.828 Y165.109 E0.05724
G1 X131.691 Y165.785 E0.05655
G1 X130.892 Y166.205 E0.03858
G1 X129.687 Y166.787 E0.05724
G1 X128.44 Y167.228 E0.05654
G1 X127.628 Y167.468 E0.03621
G1 X126.286 Y167.815 E0.05927
G1 X124.913 Y168.008 E0.05925
G1 X124.071 Y168.097 E0.0362
G1 X122.754 Y168.166 E0.05639
G1 X120.895 Y168.045 E0.07966
G1 X120.486 Y168.005 E0.01756
G1 X119.614 Y167.878 E0.03768
G1 X119.303 Y167.819 E0.01352
G1 X118.69 Y167.588 E0.02804
G1 X118.792 Y167.228 E0.01601
G1 X119.736 Y167.413 E0.04111
G1 X121.014 Y167.579 E0.05513
G1 X122.309 Y167.661 E0.05548
G1 X123.606 Y167.643 E0.05544
G1 X124.481 Y167.576 E0.03752
G1 X125.755 Y167.407 E0.05495
G1 X126.623 Y167.234 E0.03783
G1 X127.871 Y166.902 E0.05523
G1 X129.093 Y166.485 E0.05522
G1 X129.911 Y166.146 E0.03782
G1 X131.064 Y165.579 E0.05496
G1 X131.821 Y165.152 E0.03718
G1 X132.559 Y164.689 E0.03722
G1 X133.269 Y164.185 E0.03723
G1 X133.953 Y163.648 E0.03718
G1 X134.918 Y162.8 E0.05495
G1 X135.539 Y162.179 E0.03751
G1 X136.118 Y161.535 E0.03705
G1 X136.665 Y160.868 E0.03686
G1 X137.184 Y160.174 E0.03706
G1 X137.669 Y159.449 E0.03731
G1 X138.114 Y158.698 E0.03731
G1 X138.706 Y157.561 E0.05481
G1 X139.065 Y156.761 E0.0375
G1 X139.375 Y155.947 E0.03723
G1 X139.644 Y155.127 E0.0369
G1 X139.876 Y154.296 E0.03692
G1 X140.072 Y153.44 E0.03751
G1 X140.272 Y152.16 E0.05539
G1 X140.385 Y150.877 E0.05509
G1 X140.41 Y149.993 E0.03778
G1 X140.357 Y148.699 E0.05539
G1 X140.216 Y147.418 E0.05509
G1 X140.069 Y146.547 E0.03778
G1 X139.765 Y145.287 E0.05539
G1 X139.377 Y144.059 E0.0551
G1 X139.062 Y143.233 E0.03778
G1 X138.518 Y142.057 E0.05539
G1 X137.898 Y140.928 E0.0551
G1 X137.429 Y140.179 E0.03778
G1 X136.666 Y139.132 E0.05539
G1 X135.837 Y138.145 E0.0551
G1 X135.229 Y137.502 E0.03784
G1 X134.277 Y136.624 E0.05539
G1 X133.265 Y135.812 E0.05544
G1 X132.191 Y135.073 E0.05573
G1 X131.067 Y134.422 E0.05554
G1 X129.901 Y133.849 E0.05554
G1 X128.69 Y133.367 E0.05574
G1 X127.453 Y132.977 E0.05545
G1 X126.194 Y132.673 E0.05539
G1 X125.323 Y132.526 E0.03779
G1 X124.042 Y132.385 E0.0551
G1 X122.741 Y132.333 E0.05564
G1 X121.441 Y132.385 E0.05564
G1 X120.162 Y132.523 E0.05501
G1 X119.305 Y132.664 E0.03712
G1 X118.809 Y132.77 E0.02169
G1 X118.703 Y132.408 E0.01614
G1 X119.304 Y132.181 E0.02748
G1 X119.637 Y132.118 E0.01448
G1 X120.514 Y131.991 E0.03788
G1 X121.41 Y131.912 E0.03845
G1 X122.749 Y131.838 E0.05734
G1 X124.579 Y131.954 E0.0784
G1 X125.911 Y132.119 E0.05741
G1 X126.27 Y132.178 E0.01552
G1 X127.175 Y132.41 E0.03994
G1 X128.444 Y132.774 E0.05646
G1 X129.689 Y133.214 E0.05644
G1 X130.521 Y133.613 E0.03948
G1 X131.695 Y134.217 E0.05645
G1 X132.825 Y134.888 E0.05618
G1 X134.295 Y136.016 E0.0792
G1 X135.289 Y136.873 E0.05611
G1 X135.572 Y137.138 E0.0166
G1 X136.805 Y138.542 E0.0799
G1 X137.331 Y139.202 E0.0361
G1 X137.838 Y139.893 E0.03662
G1 X138.77 Y141.506 E0.07965
G1 X139.158 Y142.256 E0.03611
G1 X139.794 Y143.618 E0.06426
G1 X140.092 Y143.244 F9000
G1 F1800
G1 X184.756 Y143.264 E1.90962
G1 X184.75 Y156.727 E0.57562
G1 X140.119 Y156.707 E1.90824
G1 X139.335 Y158.348 E0.07775
G1 X138.894 Y159.157 E0.03937
G1 X138.2 Y160.337 E0.05855
G1 X137.387 Y161.424 E0.05805
G1 X136.798 Y162.132 E0.03937
G1 X135.887 Y163.154 E0.05855
G1 X134.877 Y164.062 E0.05804
G1 X134.161 Y164.641 E0.03937
G1 X133.068 Y165.466 E0.05856
G1 X131.901 Y166.159 E0.05805
G1 X131.085 Y166.587 E0.03937
G1 X129.852 Y167.183 E0.05856
G1 X128.572 Y167.636 E0.05804
G1 X127.742 Y167.881 E0.03701
G1 X126.37 Y168.236 E0.06062
G1 X124.966 Y168.433 E0.06061
G1 X124.105 Y168.524 E0.037
G1 X122.752 Y168.595 E0.05795
G1 X120.86 Y168.472 E0.08104
G1 X120.434 Y168.431 E0.01829
G1 X119.543 Y168.301 E0.0385
G1 X119.187 Y168.233 E0.01551
G1 X117.479 Y167.589 E0.07807
G1 X116.521 Y167.279 E0.04304
G1 X115.75 Y167.086 E0.03397
G1 X115.942 Y166.62 E0.02159
G1 X116.222 Y166.042 E0.02742
G1 X116.872 Y166.338 E0.03056
G1 X117.46 Y166.564 E0.02693
G1 X117.903 Y166.692 E0.01971
G1 X118.331 Y166.768 E0.01857
G1 X118.988 Y166.83 E0.02822
G1 X119.804 Y166.989 E0.03557
G1 X121.055 Y167.152 E0.05394
G1 X122.32 Y167.232 E0.05417
G1 X123.587 Y167.214 E0.05417
G1 X124.437 Y167.15 E0.03644
G1 X125.685 Y166.984 E0.05384
G1 X126.526 Y166.817 E0.03665
G1 X127.746 Y166.491 E0.05402
G1 X128.942 Y166.084 E0.05401
G1 X129.734 Y165.756 E0.03664
G1 X130.864 Y165.2 E0.05385
G1 X131.602 Y164.784 E0.03623
G1 X132.321 Y164.333 E0.03626
G1 X133.012 Y163.841 E0.03628
G1 X133.679 Y163.318 E0.03623
G1 X134.625 Y162.487 E0.05384
G1 X135.228 Y161.884 E0.03643
G1 X135.793 Y161.255 E0.03615
G1 X136.328 Y160.604 E0.03603
G1 X136.834 Y159.927 E0.03616
G1 X137.306 Y159.22 E0.03634
G1 X137.74 Y158.49 E0.03631
G1 X138.32 Y157.375 E0.05376
G1 X138.669 Y156.597 E0.03644
G1 X138.971 Y155.804 E0.03627
G1 X139.234 Y155.003 E0.03606
G1 X139.46 Y154.19 E0.03607
G1 X139.651 Y153.359 E0.03644
G1 X139.847 Y152.109 E0.05412
G1 X139.957 Y150.852 E0.05393
G1 X139.981 Y149.996 E0.03661
G1 X139.93 Y148.731 E0.05413
G1 X139.792 Y147.477 E0.05393
G1 X139.649 Y146.633 E0.03661
G1 X139.352 Y145.402 E0.05412
G1 X138.972 Y144.2 E0.05393
G1 X138.667 Y143.399 E0.03661
G1 X138.136 Y142.25 E0.05412
G1 X137.529 Y141.145 E0.05393
G1 X137.073 Y140.419 E0.03661
G1 X136.328 Y139.396 E0.05412
G1 X135.517 Y138.43 E0.05393
G1 X134.928 Y137.807 E0.03667
G1 X133.997 Y136.949 E0.05413
G1 X133.009 Y136.156 E0.05414
G1 X131.962 Y135.436 E0.05435
G1 X130.865 Y134.801 E0.05421
G1 X129.727 Y134.241 E0.0542
G1 X128.546 Y133.771 E0.05435
G1 X127.338 Y133.39 E0.05415
G1 X126.108 Y133.093 E0.05412
G1 X125.264 Y132.95 E0.03661
G1 X124.01 Y132.813 E0.05393
G1 X122.741 Y132.762 E0.05428
G1 X121.473 Y132.813 E0.05428
G1 X120.22 Y132.947 E0.05388
G1 X119.385 Y133.085 E0.03617
G1 X118.973 Y133.173 E0.01803
G1 X118.323 Y133.234 E0.02788
G1 X117.727 Y133.353 E0.026
G1 X117.032 Y133.594 E0.03147
G1 X116.22 Y133.954 E0.03796
G1 X115.942 Y133.38 E0.02727
G1 X115.75 Y132.913 E0.02161
G1 X116.612 Y132.694 E0.03802
G1 X117.479 Y132.411 E0.03903
G1 X119.188 Y131.767 E0.07806
G1 X119.566 Y131.695 E0.01647
G1 X120.464 Y131.565 E0.0388
G1 X121.379 Y131.484 E0.03926
G1 X122.751 Y131.409 E0.05873
G1 X124.619 Y131.527 E0.08004
G1 X125.973 Y131.695 E0.05833
G1 X126.358 Y131.758 E0.01669
G1 X127.287 Y131.996 E0.041
G1 X128.575 Y132.366 E0.05728
G1 X129.853 Y132.817 E0.05798
G1 X130.712 Y133.229 E0.04073
G1 X131.903 Y133.842 E0.05726
G1 X133.066 Y134.533 E0.05782
G1 X134.565 Y135.683 E0.08081
G1 X135.575 Y136.554 E0.057
G1 X135.88 Y136.839 E0.01787
G1 X137.134 Y138.267 E0.08124
G1 X137.672 Y138.942 E0.0369
G1 X138.197 Y139.658 E0.03798
G1 X139.146 Y141.3 E0.08108
G1 X139.542 Y142.067 E0.03691
G1 X140.067 Y143.19 E0.05297
G1 X140.365 Y142.816 F9000
; External perimeter
;ExternalPerimeter
SET_VELOCITY_LIMIT ACCEL=1000 ACCEL_TO_DECEL=1000 SQUARE_CORNER_VELOCITY=5

; Perimeter

;TYPE:External perimeter
G1 F1800
G1 X185.185 Y142.836 E1.91628
G1 X185.185 Y142.956 E0.0046
G1 X185.184 Y143.196 E0.00973
G1 X185.178 Y157.156 E0.59687
G1 X185.058 Y157.156 E0.00458
G1 X184.818 Y157.156 E0.00971
G1 X140.389 Y157.136 E1.89961
G1 X140.337 Y157.244 E0.00496
G1 X140.233 Y157.46 E0.01009
G1 X139.716 Y158.543 E0.05128
G1 X139.267 Y159.368 E0.04016
G1 X138.558 Y160.575 E0.05987
G1 X137.724 Y161.69 E0.05954
G1 X137.122 Y162.412 E0.04016
G1 X136.191 Y163.457 E0.05987
G1 X135.155 Y164.388 E0.05954
G1 X134.425 Y164.978 E0.04016
G1 X133.307 Y165.822 E0.05987
G1 X132.11 Y166.533 E0.05954
G1 X131.278 Y166.97 E0.04016
G1 X130.017 Y167.579 E0.05987
G1 X128.704 Y168.044 E0.05954
G1 X127.857 Y168.294 E0.0378
G1 X126.453 Y168.657 E0.06197
G1 X125.018 Y168.859 E0.06197
G1 X124.139 Y168.952 E0.0378
G1 X122.749 Y169.025 E0.05951
G1 X120.825 Y168.899 E0.08242
G1 X120.383 Y168.856 E0.01902
G1 X119.473 Y168.724 E0.03931
G1 X119.071 Y168.648 E0.01749
G1 X117.337 Y167.994 E0.07923
G1 X116.403 Y167.692 E0.04198
G1 X115.9 Y167.566 E0.02217
G1 X115.467 Y167.513 E0.01863
G1 X115.303 Y167.641 E0.0089
G1 X115.17 Y167.599 E0.00596
G1 X115.109 Y167.562 E0.00304
G1 X115.15 Y167.45 E0.00478
G1 X115.233 Y167.224 E0.00992
G1 X115.26 Y167.151 E0.00336
G1 X115.551 Y166.444 E0.03266
G1 X115.859 Y165.807 E0.03026
G1 X116.08 Y165.414 E0.0193
G1 X116.19 Y165.462 E0.0047
G1 X116.41 Y165.558 E0.00983
G1 X116.446 Y165.574 E0.0017
G1 X116.593 Y165.74 E0.00948
G1 X117.038 Y165.943 E0.02091
G1 X117.597 Y166.157 E0.02559
G1 X118.001 Y166.274 E0.01797
G1 X118.389 Y166.343 E0.01684
G1 X119.049 Y166.405 E0.02837
G1 X119.873 Y166.566 E0.0359
G1 X121.097 Y166.725 E0.05275
G1 X122.33 Y166.803 E0.05286
G1 X123.568 Y166.786 E0.0529
G1 X124.392 Y166.724 E0.03536
G1 X125.615 Y166.561 E0.05274
G1 X126.428 Y166.399 E0.03547
G1 X127.622 Y166.081 E0.05281
G1 X128.791 Y165.683 E0.0528
G1 X129.557 Y165.365 E0.03546
G1 X130.664 Y164.821 E0.05275
G1 X131.383 Y164.415 E0.03528
G1 X132.082 Y163.976 E0.03531
G1 X132.756 Y163.498 E0.03532
G1 X133.405 Y162.989 E0.03529
G1 X134.332 Y162.174 E0.05274
G1 X134.917 Y161.59 E0.03535
G1 X135.468 Y160.976 E0.03525
G1 X135.99 Y160.34 E0.03521
G1 X136.484 Y159.679 E0.03526
G1 X136.944 Y158.992 E0.03536
G1 X137.365 Y158.282 E0.03531
G1 X137.934 Y157.188 E0.05271
G1 X138.273 Y156.433 E0.03537
G1 X138.567 Y155.661 E0.03532
G1 X138.824 Y154.878 E0.03522
G1 X139.045 Y154.085 E0.03523
G1 X139.23 Y153.278 E0.03538
G1 X139.421 Y152.057 E0.05286
G1 X139.529 Y150.827 E0.05277
G1 X139.552 Y149.999 E0.03544
G1 X139.502 Y148.763 E0.05286
G1 X139.367 Y147.536 E0.05277
G1 X139.229 Y146.719 E0.03544
G1 X138.939 Y145.517 E0.05285
G1 X138.567 Y144.34 E0.05277
G1 X138.272 Y143.566 E0.03544
G1 X137.753 Y142.444 E0.05286
G1 X137.159 Y141.362 E0.05277
G1 X136.718 Y140.66 E0.03544
G1 X135.99 Y139.66 E0.05286
G1 X135.197 Y138.715 E0.05277
G1 X134.627 Y138.112 E0.0355
G1 X133.718 Y137.274 E0.05286
G1 X132.753 Y136.5 E0.05284
G1 X131.733 Y135.798 E0.05296
G1 X130.663 Y135.179 E0.05287
G1 X129.553 Y134.633 E0.05286
G1 X128.402 Y134.175 E0.05296
G1 X127.224 Y133.803 E0.05285
G1 X126.022 Y133.513 E0.05286
G1 X125.205 Y133.375 E0.03544
G1 X123.978 Y133.241 E0.05277
G1 X122.741 Y133.19 E0.05291
G1 X121.504 Y133.24 E0.05293
G1 X120.278 Y133.372 E0.05274
G1 X119.465 Y133.507 E0.03523
G1 X119.037 Y133.598 E0.01869
G1 X118.386 Y133.658 E0.02799
G1 X117.84 Y133.768 E0.02379
G1 X117.189 Y133.993 E0.02945
G1 X116.593 Y134.258 E0.02787
G1 X116.444 Y134.426 E0.00964
G1 X116.08 Y134.586 E0.017
G1 X116.021 Y134.482 E0.0047
G1 X115.904 Y134.272 E0.00983
G1 X115.859 Y134.192 E0.0039
G1 X115.551 Y133.556 E0.03026
G1 X115.259 Y132.847 E0.03277
G1 X115.109 Y132.438 E0.01864
G1 X115.171 Y132.401 E0.00031
G1 X115.305 Y132.359 E0.006
G1 X115.468 Y132.485 E0.00883
G1 X115.899 Y132.433 E0.01857
G1 X116.492 Y132.283 E0.02618
G1 X117.337 Y132.007 E0.038
G1 X119.071 Y131.353 E0.07923
G1 X119.495 Y131.272 E0.01846
G1 X120.415 Y131.14 E0.03971
G1 X121.348 Y131.057 E0.04007
G1 X122.752 Y130.98 E0.06012
G1 X124.659 Y131.1 E0.08167
G1 X126.034 Y131.271 E0.05924
G1 X126.446 Y131.339 E0.01786
G1 X127.399 Y131.583 E0.04207
G1 X128.705 Y131.957 E0.05809
G1 X130.018 Y132.421 E0.05952
G1 X130.903 Y132.846 E0.04197
G1 X132.11 Y133.467 E0.05807
G1 X133.306 Y134.178 E0.05946
G1 X134.836 Y135.351 E0.08242
G1 X135.861 Y136.235 E0.0579
G1 X136.188 Y136.541 E0.01914
G1 X137.462 Y137.992 E0.08257
G1 X138.012 Y138.682 E0.0377
G1 X138.556 Y139.424 E0.03935
G1 X139.522 Y141.095 E0.08252
G1 X139.927 Y141.878 E0.0377
G1 X140.34 Y142.761 E0.04167
;WIPE_START
G1 X140.423 Y143.211 F9000
;WIPE_END
G1 E-0.8 F3000
G1 X118.554 Y132.599 F9000
