; generated by SuperSlicer 2.3.57 on 2021-12-25 at 00:33:24 UTC


;
;

;
;
; 

; external perimeters extrusion width = 0.40mm
; perimeters extrusion width = 0.40mm
; infill extrusion width = 0.40mm
; solid infill extrusion width = 0.40mm
; top infill extrusion width = 0.40mm
; support material extrusion width = 0.40mm
; first layer extrusion width = 0.48mm


;TYPE:Custom
START_PRINT T_BED=70 T_EXTRUDER=235
M107
G21 ; set units to millimeters
G90 ; use absolute coordinates
M83 ; use relative distances for extrusion
M104 S235 ; set temperature
M109 S235 ; set temperature and wait for it to be reached
M190 S70 ; set bed temperature and wait for it to be reached
M107
;LAYER_CHANGE
;Z:0.24
;HEIGHT:0.24
G1 Z0.24 F6000
G1 E-1.5 F3000
G1 X120.197 Y112.384 F6000
G1 E1.5 F1800
;TYPE:Skirt
;WIDTH:0.48
G1 F1200
G1 X118.554 Y114.255 E0.1065
G1 X117.12 Y116.285 E0.10625
G1 X115.864 Y118.544 E0.11051
G1 X103.119 Y148.808 E1.40401
G1 X102.246 Y151.262 E0.11138
G1 X101.585 Y154.065 E0.12314
G1 X101.276 Y156.386 E0.10009
G1 X101.192 Y158.772 E0.1021
G1 X101.382 Y161.634 E0.12264
G1 X101.989 Y164.809 E0.1382
G1 X102.365 Y165.869 E0.04806
G1 X102.845 Y166.839 E0.0463
G1 X103.431 Y167.743 E0.04606
G1 X104.177 Y168.638 E0.04981
G1 X104.888 Y169.317 E0.04204
G1 X105.83 Y170.024 E0.05036
G1 X108.129 Y171.125 E0.10897
G1 X140.884 Y183.254 E1.49338
G1 X142.646 Y183.659 E0.07733
G1 X144.609 Y183.855 E0.08433
G1 X146.042 Y183.845 E0.06129
G1 X147.479 Y183.69 E0.06179
G1 X149.384 Y183.276 E0.08333
G1 X151.073 Y182.681 E0.07658
G1 X152.665 Y181.901 E0.07578
G1 X154.156 Y180.904 E0.07671
G1 X155.406 Y179.849 E0.06994
G1 X156.648 Y178.538 E0.07721
G1 X157.66 Y177.193 E0.07195
G1 X158.54 Y175.704 E0.07395
G1 X159.154 Y174.354 E0.06341
G1 X171.114 Y145.909 E1.31932
G1 X172.118 Y142.734 E0.14239
G1 X172.624 Y140.19 E0.1109
G1 X172.809 Y137.732 E0.1054
G1 X172.724 Y135.414 E0.09914
G1 X172.409 Y132.843 E0.11075
G1 X172.141 Y131.515 E0.05793
G1 X171.804 Y130.446 E0.04791
G1 X171.382 Y129.465 E0.04565
G1 X170.531 Y127.993 E0.0727
G1 X169.836 Y127.078 E0.04916
G1 X169.018 Y126.206 E0.05112
G1 X168.413 Y125.695 E0.03385
G1 X167.738 Y125.271 E0.0341
G1 X134.608 Y109.886 E1.56176
G1 X132.733 Y109.105 E0.08683
G1 X130.736 Y108.485 E0.08941
G1 X129.613 Y108.247 E0.0491
G1 X128.393 Y108.145 E0.05234
G1 X126.659 Y108.26 E0.0743
G1 X125.035 Y108.682 E0.07174
G1 X123.994 Y109.233 E0.05034
G1 X122.02 Y110.703 E0.10525
G1 X120.242 Y112.343 E0.10343
G1 X120.532 Y112.657 F6000
G1 F1200
G1 X120.504 Y112.683 E0.00162
G1 X118.887 Y114.525 E0.1048
G1 X117.482 Y116.513 E0.10408
G1 X116.247 Y118.734 E0.10865
G1 X103.514 Y148.972 E1.4028
G1 X102.658 Y151.38 E0.10925
G1 X102.009 Y154.124 E0.12056
G1 X101.703 Y156.422 E0.09913
G1 X101.62 Y158.779 E0.10081
G1 X101.807 Y161.581 E0.12008
G1 X102.403 Y164.7 E0.13578
G1 X102.761 Y165.706 E0.04565
G1 X103.22 Y166.632 E0.0442
G1 X103.78 Y167.495 E0.04396
G1 X104.493 Y168.348 E0.04757
G1 X105.164 Y168.988 E0.03962
G1 X106.064 Y169.665 E0.04815
G1 X108.292 Y170.729 E0.10554
G1 X140.998 Y182.841 E1.4912
G1 X142.711 Y183.235 E0.07512
G1 X144.615 Y183.426 E0.08185
G1 X146.017 Y183.418 E0.05994
G1 X147.428 Y183.265 E0.06066
G1 X149.276 Y182.861 E0.08089
G1 X150.912 Y182.284 E0.07416
G1 X152.453 Y181.528 E0.0734
G1 X153.902 Y180.559 E0.07454
G1 X155.122 Y179.528 E0.06828
G1 X156.324 Y178.258 E0.07478
G1 X157.307 Y176.95 E0.06996
G1 X158.162 Y175.502 E0.07189
G1 X158.765 Y174.174 E0.06233
G1 X170.709 Y145.768 E1.31754
G1 X171.21 Y144.249 E0.06836
G1 X171.783 Y142.337 E0.08533
G1 X172.162 Y140.366 E0.08582
G1 X172.376 Y137.935 E0.10436
G1 X172.3 Y135.48 E0.10502
G1 X171.985 Y132.909 E0.11075
G1 X171.727 Y131.625 E0.05599
G1 X171.402 Y130.597 E0.04612
G1 X170.994 Y129.647 E0.04418
G1 X170.188 Y128.25 E0.06898
G1 X169.513 Y127.359 E0.0478
G1 X168.733 Y126.527 E0.04875
G1 X168.166 Y126.045 E0.03181
G1 X167.531 Y125.646 E0.03205
G1 X134.44 Y110.28 E1.55995
G1 X132.592 Y109.51 E0.08559
G1 X130.634 Y108.901 E0.08766
G1 X129.56 Y108.672 E0.04696
G1 X128.393 Y108.574 E0.05008
G1 X126.731 Y108.682 E0.07119
G1 X125.182 Y109.085 E0.06843
G1 X124.218 Y109.598 E0.04671
G1 X122.276 Y111.047 E0.10359
G1 X120.576 Y112.617 E0.09893
G1 E-1.5 F3000
G1 X142.392 Y159.668 F6000
G1 E1.5 F1800
;TYPE:Internal perimeter
G1 F1200
G1 X142.681 Y159.483 E0.01468
G1 X143.719 Y158.975 E0.0494
G1 X144.808 Y158.589 E0.0494
G1 X145.934 Y158.33 E0.0494
G1 X147.082 Y158.202 E0.0494
G1 X148.238 Y158.206 E0.0494
G1 X149.385 Y158.342 E0.0494
G1 X150.509 Y158.609 E0.0494
G1 X151.596 Y159.002 E0.0494
G1 X152.512 Y159.459 E0.04375
G1 X152.783 Y159.747 E0.01692
G1 X153.1 Y160.169 E0.02258
G1 X153.366 Y160.625 E0.02258
G1 X153.579 Y161.109 E0.02258
G1 X153.735 Y161.613 E0.02258
G1 X153.833 Y162.132 E0.02258
G1 X153.879 Y162.758 E0.02684
G1 X154.113 Y164.425 E0.07195
G1 X154.163 Y166.01 E0.06781
G1 X154.04 Y167.591 E0.06781
G1 X153.746 Y169.15 E0.06781
G1 X153.27 Y170.718 E0.07009
G1 X152.962 Y171.692 E0.04365
G1 X152.57 Y172.574 E0.0413
G1 X152.082 Y173.408 E0.0413
G1 X151.504 Y174.182 E0.0413
G1 X150.843 Y174.886 E0.0413
G1 X150.109 Y175.513 E0.0413
G1 X149.321 Y176.046 E0.04064
G1 X148.466 Y176.464 E0.04069
G1 X147.556 Y176.787 E0.0413
G1 X146.615 Y177.005 E0.0413
G1 X145.655 Y177.115 E0.0413
G1 X144.689 Y177.115 E0.0413
G1 X143.729 Y177.005 E0.0413
G1 X142.788 Y176.787 E0.0413
G1 X141.878 Y176.464 E0.0413
G1 X141.024 Y176.046 E0.04066
G1 X139.929 Y175.304 E0.05656
G1 X139.089 Y174.588 E0.04715
G1 X139.229 Y174.304 E0.01352
G1 X140.201 Y174.507 E0.04246
G1 X141.109 Y174.606 E0.03905
G1 X141.735 Y174.626 E0.02678
G1 X142.381 Y174.573 E0.02771
G1 X143.016 Y174.447 E0.02771
G1 X143.633 Y174.249 E0.02771
G1 X144.224 Y173.981 E0.02771
G1 X144.78 Y173.648 E0.02771
G1 X145.294 Y173.254 E0.02771
G1 X145.76 Y172.804 E0.02771
G1 X146.227 Y172.235 E0.03144
G1 X146.588 Y171.419 E0.03817
G1 X146.824 Y170.646 E0.03454
G1 X146.967 Y169.851 E0.03454
G1 X147.015 Y169.045 E0.03454
G1 X146.967 Y168.238 E0.03454
G1 X146.824 Y167.443 E0.03454
G1 X146.588 Y166.671 E0.03454
G1 X146.259 Y165.928 E0.03474
G1 X145.787 Y165.146 E0.03906
G1 X145.229 Y164.429 E0.03885
G1 X144.59 Y163.783 E0.03885
G1 X143.88 Y163.217 E0.03885
G1 X143.107 Y162.738 E0.03885
G1 X142.947 Y162.664 E0.00753
G1 X142.929 Y162.209 E0.01944
G1 X142.761 Y161.043 E0.05037
G1 X142.476 Y159.9 E0.05037
G1 X142.412 Y159.724 E0.008
G1 X141.873 Y159.492 F6000
G1 F1200
G1 X142.471 Y159.109 E0.03034
G1 X143.553 Y158.579 E0.05151
G1 X144.688 Y158.177 E0.05151
G1 X145.862 Y157.907 E0.0515
G1 X147.059 Y157.773 E0.0515
G1 X148.264 Y157.778 E0.05151
G1 X149.46 Y157.92 E0.05151
G1 X150.632 Y158.198 E0.0515
G1 X151.765 Y158.608 E0.0515
G1 X152.771 Y159.109 E0.04806
G1 X153.112 Y159.47 E0.02122
G1 X153.458 Y159.932 E0.02467
G1 X153.749 Y160.43 E0.02467
G1 X153.981 Y160.959 E0.02467
G1 X154.152 Y161.51 E0.02467
G1 X154.259 Y162.077 E0.02467
G1 X154.305 Y162.713 E0.02727
G1 X154.541 Y164.388 E0.07232
G1 X154.592 Y166.02 E0.0698
G1 X154.465 Y167.648 E0.0698
G1 X154.163 Y169.252 E0.0698
G1 X153.679 Y170.845 E0.0712
G1 X153.363 Y171.844 E0.04478
G1 X152.951 Y172.77 E0.04334
G1 X152.439 Y173.645 E0.04334
G1 X151.833 Y174.457 E0.04334
G1 X151.14 Y175.197 E0.04334
G1 X150.368 Y175.855 E0.04334
G1 X149.536 Y176.417 E0.04294
G1 X148.633 Y176.86 E0.04302
G1 X147.676 Y177.199 E0.04339
G1 X146.688 Y177.428 E0.04339
G1 X145.68 Y177.543 E0.04339
G1 X144.665 Y177.543 E0.04339
G1 X143.656 Y177.428 E0.04339
G1 X142.668 Y177.199 E0.04339
G1 X141.712 Y176.86 E0.04339
G1 X140.808 Y176.418 E0.043
G1 X139.669 Y175.645 E0.05886
G1 X138.613 Y174.745 E0.0593
G1 X137.662 Y173.736 E0.0593
G1 X137.495 Y173.514 E0.01184
G1 X137.688 Y173.268 E0.01336
G1 X138.559 Y173.639 E0.04047
G1 X139.402 Y173.903 E0.03779
G1 X140.268 Y174.084 E0.03779
G1 X141.139 Y174.178 E0.03746
G1 X141.724 Y174.197 E0.02505
G1 X142.321 Y174.148 E0.02561
G1 X142.909 Y174.031 E0.02561
G1 X143.479 Y173.848 E0.02561
G1 X144.025 Y173.601 E0.02561
G1 X144.539 Y173.293 E0.02561
G1 X145.014 Y172.929 E0.02561
G1 X145.445 Y172.513 E0.02561
G1 X145.859 Y172.009 E0.02789
G1 X146.185 Y171.269 E0.03457
G1 X146.407 Y170.545 E0.03236
G1 X146.541 Y169.8 E0.03236
G1 X146.586 Y169.045 E0.03236
G1 X146.541 Y168.289 E0.03236
G1 X146.407 Y167.544 E0.03236
G1 X146.185 Y166.821 E0.03236
G1 X145.879 Y166.126 E0.03248
G1 X145.434 Y165.389 E0.03681
G1 X144.907 Y164.712 E0.03668
G1 X144.303 Y164.102 E0.03668
G1 X143.632 Y163.568 E0.03668
G1 X142.903 Y163.116 E0.03668
G1 X142.53 Y162.942 E0.01759
G1 X142.501 Y162.249 E0.02966
G1 X142.34 Y161.126 E0.04851
G1 X142.065 Y160.025 E0.04851
G1 X141.893 Y159.548 E0.02169
G1 X141.354 Y159.315 F6000
;TYPE:External perimeter
G1 F1200
G1 X142.26 Y158.735 E0.04601
G1 X143.386 Y158.183 E0.05361
G1 X144.568 Y157.765 E0.05361
G1 X145.79 Y157.484 E0.05361
G1 X147.036 Y157.345 E0.05361
G1 X148.29 Y157.349 E0.05361
G1 X149.535 Y157.497 E0.05361
G1 X150.755 Y157.786 E0.05361
G1 X151.934 Y158.213 E0.05361
G1 X153.03 Y158.76 E0.05237
G1 X153.44 Y159.194 E0.02552
G1 X153.815 Y159.695 E0.02676
G1 X154.131 Y160.235 E0.02676
G1 X154.383 Y160.808 E0.02676
G1 X154.568 Y161.406 E0.02676
G1 X154.684 Y162.021 E0.02676
G1 X154.731 Y162.668 E0.0277
G1 X154.968 Y164.351 E0.0727
G1 X155.021 Y166.03 E0.0718
G1 X154.891 Y167.704 E0.0718
G1 X154.58 Y169.354 E0.0718
G1 X154.088 Y170.972 E0.0723
G1 X153.764 Y171.996 E0.0459
G1 X153.333 Y172.966 E0.04539
G1 X152.797 Y173.882 E0.04539
G1 X152.162 Y174.733 E0.04539
G1 X151.436 Y175.507 E0.04539
G1 X150.628 Y176.196 E0.04539
G1 X149.752 Y176.789 E0.04525
G1 X148.799 Y177.255 E0.04534
G1 X147.797 Y177.611 E0.04548
G1 X146.761 Y177.851 E0.04548
G1 X145.704 Y177.972 E0.04548
G1 X144.64 Y177.972 E0.04547
G1 X143.584 Y177.851 E0.04548
G1 X142.547 Y177.611 E0.04547
G1 X141.545 Y177.255 E0.04548
G1 X140.593 Y176.789 E0.04534
G1 X139.409 Y175.986 E0.06116
G1 X138.317 Y175.056 E0.06132
G1 X137.334 Y174.012 E0.06132
G1 X136.616 Y173.059 E0.05104
G1 X137.332 Y172.579 E0.03687
G1 X137.932 Y172.907 E0.02926
G1 X138.707 Y173.236 E0.03599
G1 X139.511 Y173.488 E0.03599
G1 X140.335 Y173.66 E0.03599
G1 X141.169 Y173.75 E0.03587
G1 X141.714 Y173.768 E0.02331
G1 X142.262 Y173.723 E0.02351
G1 X142.801 Y173.616 E0.02351
G1 X143.325 Y173.448 E0.02351
G1 X143.826 Y173.221 E0.02351
G1 X144.297 Y172.938 E0.02351
G1 X144.734 Y172.604 E0.02351
G1 X145.129 Y172.222 E0.02351
G1 X145.491 Y171.782 E0.02433
G1 X145.783 Y171.119 E0.03097
G1 X145.99 Y170.444 E0.03018
G1 X146.115 Y169.75 E0.03018
G1 X146.157 Y169.045 E0.03018
G1 X146.115 Y168.34 E0.03018
G1 X145.99 Y167.646 E0.03018
G1 X145.783 Y166.971 E0.03018
G1 X145.498 Y166.324 E0.03022
G1 X145.08 Y165.632 E0.03455
G1 X144.584 Y164.995 E0.03451
G1 X144.016 Y164.421 E0.03451
G1 X143.385 Y163.918 E0.03451
G1 X142.699 Y163.494 E0.03451
G1 X142.113 Y163.22 E0.02766
G1 X142.074 Y162.288 E0.03988
G1 X141.919 Y161.209 E0.04665
G1 X141.655 Y160.15 E0.04665
G1 X141.374 Y159.372 E0.03537
G1 X141.754 Y159.327 F6000
G1 E-1.5 F3000
G1 X153.192 Y160.625 F6000
G1 E1.5 F1800
;TYPE:Solid infill
;WIDTH:0.482837
G1 X152.288 Y159.721 E0.05501
G1 X151.464 Y159.31 E0.0396
G1 X151.162 Y159.201 E0.01381
G1 X153.3 Y161.339 E0.13006
G1 X153.41 Y161.694 E0.01598
G1 X153.494 Y162.139 E0.01947
G1 X150.245 Y158.89 E0.19763
G1 X149.451 Y158.701 E0.03511
G1 X153.546 Y162.797 E0.24913
G1 X153.646 Y163.503 E0.03064
G1 X148.746 Y158.603 E0.29801
G1 X148.217 Y158.54 E0.0229
G1 X148.077 Y158.54 E0.00604
G1 X153.745 Y164.208 E0.34476
G1 X153.78 Y164.453 E0.01066
G1 X153.793 Y164.861 E0.01755
G1 X147.469 Y158.537 E0.38463
G1 X147.1 Y158.536 E0.01585
G1 X146.886 Y158.56 E0.0093
G1 X153.812 Y165.487 E0.4213
G1 X153.828 Y166.002 E0.02218
G1 X153.821 Y166.101 E0.00427
G1 X146.34 Y158.621 E0.45496
G1 X145.99 Y158.66 E0.01516
G1 X145.814 Y158.701 E0.00778
G1 X153.777 Y166.663 E0.48433
G1 X153.733 Y167.226 E0.02426
G1 X145.321 Y158.814 E0.51164
G1 X144.901 Y158.91 E0.01852
G1 X144.835 Y158.934 E0.00302
G1 X153.667 Y167.766 E0.53718
G1 X153.571 Y168.276 E0.02232
G1 X144.388 Y159.092 E0.55855
G1 X143.94 Y159.251 E0.02042
G1 X153.475 Y168.785 E0.57992
G1 X153.421 Y169.069 E0.01242
G1 X153.358 Y169.275 E0.00924
G1 X143.525 Y159.442 E0.59806
G1 X143.118 Y159.641 E0.01948
G1 X153.215 Y169.738 E0.61412
G1 X153.072 Y170.201 E0.02084
G1 X142.836 Y159.965 E0.62257
G1 X143.038 Y160.772 E0.03578
G1 X152.929 Y170.664 E0.60164
G1 X152.786 Y171.127 E0.02084
G1 X143.165 Y161.505 E0.5852
G1 X143.262 Y162.179 E0.02926
G1 X143.263 Y162.209 E0.00133
G1 X152.642 Y171.588 E0.57045
G1 X152.456 Y172.008 E0.01975
G1 X146.822 Y166.375 E0.34264
G1 X146.901 Y166.554 E0.00845
G1 X147.125 Y167.283 E0.03278
G1 X152.269 Y172.427 E0.31287
G1 X152.045 Y172.809 E0.01905
G1 X147.27 Y168.035 E0.2904
G1 X147.3 Y168.199 E0.00718
G1 X147.33 Y168.7 E0.02159
G1 X151.821 Y173.191 E0.27318
G1 X151.803 Y173.223 E0.00157
G1 X151.565 Y173.541 E0.01709
G1 X147.334 Y169.311 E0.25731
G1 X147.3 Y169.883 E0.02464
G1 X151.306 Y173.888 E0.24363
G1 X151.247 Y173.967 E0.00422
G1 X151.02 Y174.209 E0.01426
G1 X147.209 Y170.397 E0.23184
G1 X147.15 Y170.725 E0.01434
G1 X147.098 Y170.893 E0.00753
G1 X150.727 Y174.522 E0.22072
G1 X150.612 Y174.644 E0.00723
G1 X150.414 Y174.814 E0.01123
G1 X146.956 Y171.357 E0.21028
G1 X146.901 Y171.536 E0.00805
G1 X146.787 Y171.794 E0.01214
G1 X150.087 Y175.093 E0.20066
G1 X149.906 Y175.247 E0.01021
G1 X149.744 Y175.356 E0.0084
G1 X146.602 Y172.214 E0.19112
G1 X146.514 Y172.412 E0.00932
G1 X146.37 Y172.588 E0.00979
G1 X149.383 Y175.601 E0.18324
G1 X149.153 Y175.756 E0.0119
G1 X149.004 Y175.829 E0.00713
G1 X146.097 Y172.921 E0.17687
G1 X146.006 Y173.031 E0.00611
G1 X145.8 Y173.23 E0.01235
G1 X148.598 Y176.028 E0.17016
G1 X148.336 Y176.155 E0.0125
G1 X148.176 Y176.212 E0.00731
G1 X145.489 Y173.526 E0.16342
G1 X145.146 Y173.788 E0.01859
G1 X147.729 Y176.371 E0.15709
G1 X147.462 Y176.466 E0.01219
G1 X147.264 Y176.512 E0.00875
G1 X144.786 Y174.034 E0.15071
G1 X144.407 Y174.261 E0.019
G1 X146.772 Y176.626 E0.14383
G1 X146.558 Y176.675 E0.00944
G1 X146.25 Y176.711 E0.01331
G1 X143.993 Y174.453 E0.13732
G1 X143.754 Y174.561 E0.01128
G1 X143.558 Y174.624 E0.00886
G1 X145.707 Y176.773 E0.1307
G1 X145.636 Y176.781 E0.00305
G1 X145.109 Y176.781 E0.02268
G1 X143.099 Y174.771 E0.12224
G1 X142.593 Y174.872 E0.02217
G1 X144.476 Y176.754 E0.11451
G1 X143.792 Y176.676 E0.02962
G1 X142.051 Y174.935 E0.10587
G1 X141.743 Y174.961 E0.01331
G1 X141.461 Y174.951 E0.01212
G1 X143.004 Y176.494 E0.09384
G1 X142.882 Y176.466 E0.0054
G1 X142.088 Y176.184 E0.03624
G1 X140.814 Y174.91 E0.0775
G1 X140.481 Y174.874 E0.0144
G1 X140.398 Y175.1 E0.01036
G1 X141.324 Y176.026 E0.05633
G1 E-1.5 F3000
G1 X138.99 Y174.344 F6000
G1 E1.5 F1800
;TYPE:Gap fill
;WIDTH:0.715818
G1 F1200
G1 X138.924 Y174.305 E0.00509
G1 X138.837 Y174.251 E0.00674
;WIDTH:0.609529
G1 X138.751 Y174.198 E0.00566
G1 X138.625 Y174.119 E0.00829
;WIDTH:0.491859
G1 X138.499 Y174.04 E0.00654
;WIDTH:0.420437
G1 X138.42 Y173.99 E0.00342
;WIDTH:0.390385
G1 X138.267 Y173.883 E0.00633
;WIDTH:0.300669
G1 X138.113 Y173.776 E0.00466
;WIDTH:0.210952
G1 X137.959 Y173.669 E0.00298
;WIDTH:0.140807
G1 X137.845 Y173.589 E0.00125
G1 X137.527 Y172.909 F6000
;WIDTH:0.31793
G1 F1200
G1 X137.483 Y172.944 E0.00147
;WIDTH:0.411511
G1 X137.353 Y173.046 E0.00596
;WIDTH:0.485118
G1 X137.228 Y173.162 E0.00736
;WIDTH:0.511935
G1 X137.14 Y173.236 E0.00529
;WIDTH:0.596741
G1 X137.051 Y173.309 E0.00627
G1 E-1.5 F3000
G1 X140.943 Y169.948 F6000
G1 E1.5 F1800
;TYPE:Internal perimeter
;WIDTH:0.48
G1 F1200
G1 X141.343 Y169.36 E0.03042
G1 X141.899 Y168.315 E0.05057
G1 X142.192 Y168.37 E0.01276
G1 X142.237 Y168.732 E0.0156
G1 X142.238 Y169.109 E0.01611
G1 X142.25 Y169.205 E0.00413
G1 X142.264 Y169.31 E0.00454
G1 X142.265 Y169.374 E0.00274
G1 X142.259 Y169.439 E0.00279
G1 X142.246 Y169.503 E0.00279
G1 X142.225 Y169.565 E0.00279
G1 X142.198 Y169.624 E0.00279
G1 X142.164 Y169.68 E0.00279
G1 X142.124 Y169.731 E0.00279
G1 X142.079 Y169.778 E0.00279
G1 X142.029 Y169.82 E0.00279
G1 X141.973 Y169.856 E0.00285
G1 X141.753 Y169.908 E0.00967
G1 X141.465 Y169.943 E0.01239
G1 X141.003 Y169.947 E0.01974
G1 X140.245 Y170.213 F6000
