; generated by SuperSlicer 2.3.57 on 2021-12-25 at 04:15:22 UTC


;
;

;
;
; 

; external perimeters extrusion width = 0.40mm
; perimeters extrusion width = 0.40mm
; infill extrusion width = 0.40mm
; solid infill extrusion width = 0.40mm
; top infill extrusion width = 0.40mm
; support material extrusion width = 0.40mm
; first layer extrusion width = 0.48mm


;TYPE:Custom
START_PRINT T_BED=60 T_EXTRUDER=200
M107
G21 ; set units to millimeters
G90 ; use absolute coordinates
M83 ; use relative distances for extrusion
; Filament gcode
M104 S200 ; set temperature
M109 S200 ; set temperature and wait for it to be reached
M190 S60 ; set bed temperature and wait for it to be reached
;LAYER_CHANGE
;Z:0.24
;HEIGHT:0.24
G1 Z0.24 F6000
G1 E-0.8 F3000
G1 X95.885 Y110.797 F6000
G1 E0.8 F1500
;TYPE:Skirt
;WIDTH:0.48
G1 F1200
G1 X93.277 Y113.434 E0.15854
G1 X91.309 Y116.01 E0.13863
G1 X89.66 Y118.868 E0.14105
G1 X88.302 Y121.784 E0.13755
G1 X87.27 Y124.598 E0.12815
G1 X85.55 Y130.3 E0.25464
G1 X84.897 Y133.746 E0.14995
G1 X84.598 Y136.751 E0.1291
G1 X84.465 Y140.019 E0.13987
G1 X84.603 Y145.101 E0.21736
G1 X87.535 Y179.12 E1.45988
G1 X88.064 Y182.005 E0.12538
G1 X88.877 Y184.689 E0.11992
G1 X89.281 Y185.691 E0.04621
G1 X89.807 Y186.649 E0.04672
G1 X90.446 Y187.543 E0.04698
G1 X91.169 Y188.339 E0.04596
G1 X92.074 Y189.114 E0.05097
G1 X92.99 Y189.72 E0.04696
G1 X94.336 Y190.364 E0.06379
G1 X95.506 Y190.726 E0.05236
G1 X96.421 Y190.869 E0.0396
G1 X175.3 Y192.988 E3.37371
G1 X176.871 Y192.836 E0.06749
G1 X177.683 Y192.635 E0.03574
G1 X178.651 Y192.27 E0.04424
G1 X179.786 Y191.646 E0.05538
G1 X180.6 Y191.036 E0.04351
G1 X181.383 Y190.272 E0.04675
G1 X182.003 Y189.488 E0.04276
G1 X182.538 Y188.603 E0.0442
G1 X183.449 Y186.705 E0.09003
G1 X184.336 Y184.145 E0.11582
G1 X184.831 Y181.927 E0.09717
G1 X189.077 Y151.057 E1.33228
G1 X189.5 Y147.452 E0.15519
G1 X189.481 Y140.57 E0.29426
G1 X189.222 Y137.575 E0.12853
G1 X188.772 Y134.65 E0.12652
G1 X187.401 Y128.871 E0.25396
G1 X186.445 Y125.843 E0.13573
G1 X185.185 Y122.663 E0.14626
G1 X183.886 Y119.936 E0.12916
G1 X181.893 Y116.085 E0.1854
G1 X180.841 Y114.521 E0.08057
G1 X179.687 Y113.129 E0.07732
G1 X178.432 Y111.882 E0.07562
G1 X175.715 Y109.594 E0.15186
G1 X172.895 Y107.676 E0.14585
G1 X169.756 Y105.987 E0.15237
G1 X166.668 Y104.716 E0.1428
G1 X161.764 Y102.848 E0.22436
G1 X156.186 Y101.285 E0.24767
G1 X151.075 Y100.329 E0.22231
G1 X145.683 Y99.523 E0.2331
G1 X140.255 Y99.083 E0.23285
G1 X134.881 Y99.011 E0.22976
G1 X130.519 Y99.068 E0.18653
G1 X126.129 Y99.419 E0.18828
G1 X117.26 Y100.825 E0.38394
G1 X112.238 Y102.153 E0.22209
G1 X107.484 Y103.92 E0.21684
G1 X103.213 Y105.974 E0.20266
G1 X100.643 Y107.327 E0.12417
G1 X98.12 Y108.989 E0.12919
G1 X95.931 Y110.76 E0.12035
G1 X96.201 Y111.093 F6000
G1 F1200
G1 X96.165 Y111.122 E0.00196
G1 X93.616 Y113.695 E0.15487
G1 X91.667 Y116.246 E0.13725
G1 X90.038 Y119.068 E0.13932
G1 X88.696 Y121.951 E0.13595
G1 X87.672 Y124.746 E0.12729
G1 X85.966 Y130.403 E0.25262
G1 X85.322 Y133.797 E0.1477
G1 X85.025 Y136.78 E0.12818
G1 X84.894 Y140.026 E0.13892
G1 X85.031 Y145.066 E0.21556
G1 X87.961 Y179.076 E1.4595
G1 X88.479 Y181.898 E0.12268
G1 X89.283 Y184.551 E0.1185
G1 X89.673 Y185.517 E0.04456
G1 X90.169 Y186.421 E0.04409
G1 X90.779 Y187.274 E0.04481
G1 X91.469 Y188.032 E0.04384
G1 X92.329 Y188.769 E0.04842
G1 X93.197 Y189.345 E0.04455
G1 X94.492 Y189.964 E0.06136
G1 X95.608 Y190.309 E0.04995
G1 X96.466 Y190.443 E0.0371
G1 X175.307 Y192.56 E3.3721
G1 X176.292 Y192.498 E0.04221
G1 X177.069 Y192.355 E0.03376
G1 X178.478 Y191.878 E0.06362
G1 X179.56 Y191.282 E0.05283
G1 X180.331 Y190.702 E0.04126
G1 X181.07 Y189.98 E0.04414
G1 X181.663 Y189.226 E0.04102
G1 X182.162 Y188.396 E0.04142
G1 X183.059 Y186.526 E0.08866
G1 X183.923 Y184.03 E0.11297
G1 X184.407 Y181.868 E0.0947
G1 X188.652 Y150.998 E1.33229
G1 X189.074 Y147.403 E0.15474
G1 X189.053 Y140.595 E0.2911
G1 X188.796 Y137.622 E0.12759
G1 X188.35 Y134.722 E0.12542
G1 X186.991 Y128.996 E0.25161
G1 X186.042 Y125.988 E0.13486
G1 X184.793 Y122.836 E0.14498
G1 X183.503 Y120.128 E0.12826
G1 X181.524 Y116.302 E0.18415
G1 X180.501 Y114.781 E0.07838
G1 X179.374 Y113.421 E0.07549
G1 X178.151 Y112.206 E0.07375
G1 X175.465 Y109.942 E0.15019
G1 X172.672 Y108.042 E0.14441
G1 X169.568 Y106.372 E0.15068
G1 X166.513 Y105.116 E0.14125
G1 X161.625 Y103.254 E0.22366
G1 X156.099 Y101.704 E0.24534
G1 X151.008 Y100.753 E0.22146
G1 X145.638 Y99.949 E0.23217
G1 X140.236 Y99.511 E0.23169
G1 X134.878 Y99.439 E0.22911
G1 X130.541 Y99.496 E0.18547
G1 X126.172 Y99.845 E0.1874
G1 X117.336 Y101.247 E0.38247
G1 X112.367 Y102.562 E0.2198
G1 X107.663 Y104.309 E0.21451
G1 X103.408 Y106.356 E0.20191
G1 X100.865 Y107.693 E0.12283
G1 X98.372 Y109.335 E0.12765
G1 X96.247 Y111.055 E0.11685
G1 E-0.8 F3000
G1 X160.503 Y178.923 F6000
G1 E0.8 F1500
;TYPE:Internal perimeter
G1 F1200
G1 X160.795 Y178.938 E0.01251
G1 X162.087 Y178.857 E0.05533
G1 X163.362 Y178.633 E0.05533
G1 X164.604 Y178.269 E0.05533
G1 X165.797 Y177.77 E0.05533
G1 X166.928 Y177.14 E0.05533
G1 X167.982 Y176.389 E0.05533
G1 X168.946 Y175.525 E0.05533
G1 X169.164 Y175.279 E0.01404
G1 X169.77 Y175.64 E0.03014
G1 X171.292 Y176.329 E0.07144
G1 X172.882 Y176.844 E0.07144
G1 X174.519 Y177.178 E0.07144
G1 X176.184 Y177.327 E0.07144
G1 X177.854 Y177.29 E0.07144
G1 X178.322 Y177.227 E0.02018
G1 X178.373 Y177.752 E0.02254
G1 X178.355 Y179.356 E0.06861
G1 X178.162 Y180.949 E0.06861
G1 X177.796 Y182.512 E0.06861
G1 X177.263 Y184.026 E0.06861
G1 X176.564 Y185.48 E0.069
G1 X176.472 Y185.633 E0.00763
G1 X176.371 Y185.764 E0.00706
G1 X176.256 Y185.882 E0.00706
G1 X176.127 Y185.986 E0.00706
G1 X175.987 Y186.074 E0.00706
G1 X175.838 Y186.145 E0.00706
G1 X175.682 Y186.198 E0.00706
G1 X175.521 Y186.233 E0.00706
G1 X175.358 Y186.248 E0.00698
G1 X173.793 Y186.207 E0.06695
G1 X172.234 Y185.996 E0.06723
G1 X170.708 Y185.618 E0.06723
G1 X169.177 Y185.057 E0.06973
G1 X165.701 Y183.776 E0.15837
G1 X162.379 Y182.237 E0.15652
G1 X159.958 Y180.868 E0.11894
G1 X160.079 Y180.53 E0.01534
G1 X160.434 Y179.258 E0.05647
G1 X160.491 Y178.982 E0.01204
G1 X160.157 Y178.477 F6000
G1 F1200
G1 X160.792 Y178.508 E0.02719
G1 X162.036 Y178.431 E0.05329
G1 X163.264 Y178.216 E0.05329
G1 X164.46 Y177.865 E0.05329
G1 X165.61 Y177.384 E0.05329
G1 X166.699 Y176.777 E0.05329
G1 X167.714 Y176.054 E0.05329
G1 X168.642 Y175.221 E0.05329
G1 X169.08 Y174.731 E0.02813
G1 X169.969 Y175.259 E0.04423
G1 X171.447 Y175.929 E0.06939
G1 X172.991 Y176.429 E0.06939
G1 X174.582 Y176.753 E0.06939
G1 X176.198 Y176.898 E0.06939
G1 X177.821 Y176.862 E0.06939
G1 X178.705 Y176.743 E0.03815
G1 X178.802 Y177.733 E0.04254
G1 X178.783 Y179.385 E0.07061
G1 X178.584 Y181.024 E0.07061
G1 X178.208 Y182.632 E0.07061
G1 X177.659 Y184.19 E0.07061
G1 X176.942 Y185.684 E0.07085
G1 X176.827 Y185.875 E0.00955
G1 X176.695 Y186.046 E0.00921
G1 X176.544 Y186.199 E0.00921
G1 X176.377 Y186.335 E0.00921
G1 X176.195 Y186.449 E0.00921
G1 X176. Y186.542 E0.00921
G1 X175.796 Y186.612 E0.00921
G1 X175.586 Y186.657 E0.00921
G1 X175.373 Y186.677 E0.00915
G1 X173.758 Y186.635 E0.06905
G1 X172.154 Y186.418 E0.06922
G1 X170.583 Y186.028 E0.06922
G1 X169.029 Y185.459 E0.07074
G1 X165.537 Y184.172 E0.15913
G1 X162.184 Y182.618 E0.158
G1 X159.433 Y181.063 E0.1351
G1 X159.67 Y180.4 E0.03012
G1 X160.018 Y179.157 E0.05518
G1 X160.145 Y178.536 E0.0271
G1 X159.811 Y178.031 F6000
;TYPE:External perimeter
G1 F1200
G1 X160.79 Y178.079 E0.04188
G1 X161.986 Y178.005 E0.05125
G1 X163.167 Y177.798 E0.05125
G1 X164.317 Y177.46 E0.05125
G1 X165.422 Y176.998 E0.05125
G1 X166.47 Y176.414 E0.05125
G1 X167.445 Y175.719 E0.05125
G1 X168.338 Y174.918 E0.05125
G1 X168.995 Y174.182 E0.04221
G1 X170.167 Y174.879 E0.05831
G1 X171.602 Y175.528 E0.06734
G1 X173.101 Y176.014 E0.06734
G1 X174.644 Y176.329 E0.06734
G1 X176.212 Y176.469 E0.06734
G1 X177.787 Y176.434 E0.06734
G1 X179.088 Y176.259 E0.05613
G1 X179.231 Y177.715 E0.06254
G1 X179.211 Y179.413 E0.07262
G1 X179.007 Y181.099 E0.07262
G1 X178.62 Y182.753 E0.07262
G1 X178.056 Y184.355 E0.07262
G1 X177.319 Y185.887 E0.0727
G1 X177.181 Y186.117 E0.01148
G1 X177.019 Y186.327 E0.01135
G1 X176.833 Y186.517 E0.01135
G1 X176.626 Y186.684 E0.01135
G1 X176.402 Y186.825 E0.01135
G1 X176.162 Y186.94 E0.01135
G1 X175.911 Y187.025 E0.01135
G1 X175.651 Y187.081 E0.01135
G1 X175.387 Y187.106 E0.01133
G1 X173.724 Y187.062 E0.07114
G1 X172.074 Y186.839 E0.07121
G1 X170.457 Y186.439 E0.07121
G1 X168.881 Y185.861 E0.07175
G1 X165.372 Y184.568 E0.15989
G1 X161.988 Y183. E0.15948
G1 X158.908 Y181.259 E0.15126
G1 X159.261 Y180.27 E0.04489
G1 X159.601 Y179.056 E0.05389
G1 X159.799 Y178.09 E0.04217
G1 X160.136 Y178.265 F6000
G1 E-0.8 F3000
G1 X178.217 Y178.287 F6000
G1 E0.8 F1500
;TYPE:Solid infill
;WIDTH:0.483566
G1 F1800
G1 X177.561 Y177.631 E0.03999
G1 X176.968 Y177.644 E0.02554
G1 X178.028 Y178.704 E0.06459
G1 X178.021 Y179.304 E0.02581
G1 X176.375 Y177.657 E0.10028
G1 X176.172 Y177.662 E0.00873
G1 X175.734 Y177.622 E0.01895
G1 X177.959 Y179.847 E0.13551
G1 X177.893 Y180.388 E0.02345
G1 X175.068 Y177.563 E0.17207
G1 X174.471 Y177.509 E0.02585
G1 X174.393 Y177.493 E0.00342
G1 X177.824 Y180.925 E0.20903
G1 X177.71 Y181.416 E0.02173
G1 X173.631 Y177.338 E0.24841
G1 X172.87 Y177.182 E0.03347
G1 X177.595 Y181.907 E0.2878
G1 X177.48 Y182.398 E0.02173
G1 X171.987 Y176.905 E0.3346
G1 X171.172 Y176.641 E0.03691
G1 X171.072 Y176.596 E0.00473
G1 X177.324 Y182.848 E0.38084
G1 X177.166 Y183.296 E0.02046
G1 X169.965 Y176.095 E0.43864
G1 X169.615 Y175.937 E0.01653
G1 X169.237 Y175.712 E0.01894
G1 X169.099 Y175.835 E0.00798
G1 X177.008 Y183.744 E0.48174
G1 X176.954 Y183.897 E0.007
G1 X176.824 Y184.167 E0.01287
G1 X168.78 Y176.122 E0.49003
G1 X168.46 Y176.408 E0.01848
G1 X176.628 Y184.576 E0.49751
G1 X176.431 Y184.985 E0.01956
G1 X168.135 Y176.69 E0.50532
G1 X167.782 Y176.942 E0.01871
G1 X176.225 Y185.385 E0.5143
G1 X176.111 Y185.551 E0.00867
G1 X176.037 Y185.627 E0.00456
G1 X175.935 Y185.701 E0.00544
G1 X167.428 Y177.194 E0.51817
G1 X167.107 Y177.423 E0.01698
G1 X167.071 Y177.443 E0.00178
G1 X175.514 Y185.886 E0.51429
G1 X175.337 Y185.913 E0.00771
G1 X174.924 Y185.902 E0.01778
G1 X166.682 Y177.66 E0.50209
G1 X166.292 Y177.876 E0.01919
G1 X174.302 Y185.886 E0.4879
G1 X173.82 Y185.873 E0.02078
G1 X173.662 Y185.852 E0.00685
G1 X165.899 Y178.089 E0.47287
G1 X165.472 Y178.268 E0.01995
G1 X172.961 Y185.757 E0.4562
G1 X172.297 Y185.667 E0.02886
G1 X172.255 Y185.657 E0.00188
G1 X165.045 Y178.447 E0.43919
G1 X164.716 Y178.585 E0.01538
G1 X164.608 Y178.616 E0.00481
G1 X171.449 Y185.457 E0.41672
G1 X170.806 Y185.298 E0.02854
G1 X170.613 Y185.227 E0.00887
G1 X164.14 Y178.754 E0.39431
G1 X163.671 Y178.891 E0.02103
G1 X169.654 Y184.874 E0.36446
G1 X168.696 Y184.521 E0.044
G1 X163.179 Y179.005 E0.33604
G1 X162.663 Y179.095 E0.02254
G1 X167.737 Y184.169 E0.30904
G1 X166.778 Y183.816 E0.044
G1 X162.148 Y179.186 E0.28205
G1 X162.126 Y179.19 E0.00094
G1 X161.58 Y179.224 E0.02359
G1 X165.818 Y183.461 E0.25815
G1 X164.689 Y182.938 E0.0536
G1 X161.009 Y179.259 E0.22412
G1 X160.777 Y179.274 E0.01003
G1 X160.699 Y179.554 E0.01255
G1 X163.559 Y182.415 E0.17427
G1 X162.532 Y181.939 E0.04876
G1 X162.406 Y181.868 E0.00623
G1 X160.566 Y180.028 E0.1121
G1 X160.434 Y180.501 E0.02118
G1 X161.499 Y181.567 E0.0649
G1 E-0.8 F3000
G1 X140.806 Y125.816 F6000
G1 E0.8 F1500
;TYPE:Internal perimeter
;WIDTH:0.48
G1 F1200
G1 X140.687 Y125.973 E0.00842
G1 X140.648 Y126.018 E0.00256
G1 X140.609 Y126.057 E0.00232
G1 X140.469 Y126.176 E0.00789
G1 X140.301 Y126.291 E0.0087
G1 X140.094 Y126.407 E0.01012
G1 X139.853 Y126.519 E0.01139
G1 X139.594 Y126.616 E0.0118
G1 X138.951 Y126.791 E0.02852
G1 X138.25 Y126.9 E0.03032
G1 X137.511 Y126.937 E0.03164
G1 X136.771 Y126.9 E0.03164
G1 X136.071 Y126.791 E0.03032
G1 X135.427 Y126.616 E0.02852
G1 X135.169 Y126.519 E0.0118
G1 X134.927 Y126.407 E0.01139
G1 X134.72 Y126.291 E0.01012
G1 X134.553 Y126.176 E0.0087
G1 X134.412 Y126.057 E0.00789
G1 X134.374 Y126.018 E0.00232
G1 X134.334 Y125.973 E0.00256
G1 X134.215 Y125.816 E0.00842
G1 X134.334 Y125.659 E0.00842
G1 X134.374 Y125.614 E0.00257
G1 X134.412 Y125.575 E0.00232
G1 X134.553 Y125.455 E0.00789
G1 X134.72 Y125.34 E0.0087
G1 X134.927 Y125.224 E0.01012
G1 X135.169 Y125.113 E0.01139
G1 X135.427 Y125.015 E0.0118
G1 X136.071 Y124.84 E0.02852
G1 X136.771 Y124.732 E0.03032
G1 X137.511 Y124.695 E0.03164
G1 X138.25 Y124.732 E0.03164
G1 X138.951 Y124.84 E0.03032
G1 X139.594 Y125.015 E0.02852
G1 X139.853 Y125.113 E0.0118
G1 X140.094 Y125.224 E0.01139
G1 X140.301 Y125.34 E0.01012
G1 X140.469 Y125.455 E0.0087
G1 X140.609 Y125.575 E0.00789
G1 X140.648 Y125.614 E0.00232
G1 X140.687 Y125.659 E0.00256
G1 X140.77 Y125.768 E0.00585
G1 X141.201 Y125.816 F6000
G1 F1200
G1 X141.199 Y125.86 E0.00191
G1 X141.193 Y125.906 E0.00198
G1 X141.181 Y125.954 E0.00212
G1 X141.164 Y126.005 E0.00231
G1 X141.139 Y126.06 E0.00254
G1 X141.108 Y126.118 E0.00282
G1 X141.068 Y126.179 E0.00312
G1 X141.02 Y126.243 E0.00344
G1 X140.962 Y126.31 E0.00377
G1 X140.901 Y126.371 E0.0037
G1 X140.729 Y126.517 E0.00963
G1 X140.527 Y126.655 E0.01047
G1 X140.289 Y126.789 E0.01167
G1 X140.018 Y126.914 E0.01277
G1 X139.727 Y127.024 E0.01332
G1 X139.04 Y127.211 E0.03043
G1 X138.293 Y127.326 E0.0323
G1 X137.511 Y127.366 E0.03351
G1 X136.728 Y127.326 E0.03351
G1 X135.981 Y127.211 E0.0323
G1 X135.295 Y127.024 E0.03043
G1 X135.003 Y126.914 E0.01332
G1 X134.732 Y126.789 E0.01277
G1 X134.494 Y126.655 E0.01167
G1 X134.292 Y126.517 E0.01047
G1 X134.12 Y126.371 E0.00963
G1 X134.059 Y126.31 E0.0037
G1 X134.002 Y126.243 E0.00377
G1 X133.953 Y126.179 E0.00344
G1 X133.913 Y126.118 E0.00312
G1 X133.882 Y126.06 E0.00282
G1 X133.858 Y126.005 E0.00254
G1 X133.84 Y125.954 E0.00231
G1 X133.829 Y125.906 E0.00212
G1 X133.822 Y125.86 E0.00198
G1 X133.82 Y125.816 E0.00191
G1 X133.822 Y125.771 E0.00191
G1 X133.829 Y125.725 E0.00198
G1 X133.84 Y125.677 E0.00212
G1 X133.858 Y125.626 E0.00231
G1 X133.882 Y125.572 E0.00254
G1 X133.913 Y125.514 E0.00282
G1 X133.953 Y125.453 E0.00312
G1 X134.002 Y125.388 E0.00344
G1 X134.059 Y125.322 E0.00377
G1 X134.12 Y125.26 E0.0037
G1 X134.292 Y125.115 E0.00963
G1 X134.494 Y124.976 E0.01047
G1 X134.732 Y124.842 E0.01167
G1 X135.003 Y124.717 E0.01277
G1 X135.295 Y124.607 E0.01332
G1 X135.981 Y124.42 E0.03043
G1 X136.728 Y124.305 E0.0323
G1 X137.511 Y124.266 E0.03351
G1 X138.293 Y124.305 E0.03351
G1 X139.04 Y124.42 E0.0323
G1 X139.727 Y124.607 E0.03043
G1 X140.018 Y124.717 E0.01332
G1 X140.289 Y124.842 E0.01277
G1 X140.527 Y124.976 E0.01167
G1 X140.729 Y125.115 E0.01047
G1 X140.901 Y125.26 E0.00963
G1 X140.962 Y125.322 E0.0037
G1 X141.02 Y125.388 E0.00377
G1 X141.068 Y125.453 E0.00344
G1 X141.108 Y125.514 E0.00312
G1 X141.139 Y125.572 E0.00282
G1 X141.164 Y125.626 E0.00254
G1 X141.181 Y125.677 E0.00231
G1 X141.193 Y125.725 E0.00212
G1 X141.197 Y125.756 E0.00133
G1 X141.621 Y125.695 F6000
;TYPE:External perimeter
G1 F1200
G1 X141.626 Y125.73 E0.00153
G1 X141.63 Y125.816 E0.00367
G1 X141.626 Y125.902 E0.00367
G1 X141.614 Y125.988 E0.00372
G1 X141.593 Y126.074 E0.00381
G1 X141.563 Y126.161 E0.00394
G1 X141.524 Y126.249 E0.0041
G1 X141.476 Y126.337 E0.00429
G1 X141.419 Y126.425 E0.0045
G1 X141.352 Y126.514 E0.00473
G1 X141.276 Y126.601 E0.00497
G1 X141.193 Y126.686 E0.00508
G1 X140.99 Y126.858 E0.01137
G1 X140.754 Y127.02 E0.01223
G1 X140.484 Y127.171 E0.01322
G1 X140.184 Y127.31 E0.01415
G1 X139.859 Y127.432 E0.01485
G1 X139.129 Y127.631 E0.03233
G1 X138.337 Y127.753 E0.03428
G1 X137.511 Y127.795 E0.03537
G1 X136.684 Y127.753 E0.03537
G1 X135.892 Y127.631 E0.03428
G1 X135.162 Y127.432 E0.03233
G1 X134.837 Y127.31 E0.01485
G1 X134.537 Y127.171 E0.01415
G1 X134.267 Y127.02 E0.01322
G1 X134.031 Y126.858 E0.01223
G1 X133.829 Y126.686 E0.01137
G1 X133.745 Y126.601 E0.00508
G1 X133.669 Y126.514 E0.00497
G1 X133.602 Y126.425 E0.00473
G1 X133.545 Y126.337 E0.0045
G1 X133.497 Y126.249 E0.00429
G1 X133.458 Y126.161 E0.0041
G1 X133.428 Y126.074 E0.00394
G1 X133.408 Y125.988 E0.00381
G1 X133.395 Y125.902 E0.00372
G1 X133.391 Y125.816 E0.00367
G1 X133.395 Y125.73 E0.00367
G1 X133.408 Y125.644 E0.00372
