; generated by SuperSlicer 2.3.57 on 2021-12-25 at 00:33:07 UTC


;
;

;
;
; 

; external perimeters extrusion width = 0.40mm
; perimeters extrusion width = 0.40mm
; infill extrusion width = 0.40mm
; solid infill extrusion width = 0.40mm
; top infill extrusion width = 0.40mm
; support material extrusion width = 0.40mm
; first layer extrusion width = 0.48mm


;TYPE:Custom
START_PRINT T_BED=70 T_EXTRUDER=235
M107
G21 ; set units to millimeters
G90 ; use absolute coordinates
M83 ; use relative distances for extrusion
M104 S235 ; set temperature
M109 S235 ; set temperature and wait for it to be reached
M190 S70 ; set bed temperature and wait for it to be reached
M107
;LAYER_CHANGE
;Z:0.24
;HEIGHT:0.24
G1 Z0.24 F6000
G1 E-1.5 F3000
G1 X110.42 Y115.57 F6000
G1 E1.5 F1800
;TYPE:Skirt
;WIDTH:0.48
G1 F1200
G1 X109.583 Y116.37 E0.04951
G1 X108.738 Y117.622 E0.06456
G1 X108.327 Y118.549 E0.04339
G1 X99.267 Y143.828 E1.14812
G1 X98.954 Y145.165 E0.0587
G1 X98.909 Y146.465 E0.05564
G1 X98.996 Y147.218 E0.03239
G1 X99.197 Y148.062 E0.0371
G1 X113.259 Y192.057 E1.9748
G1 X114.13 Y194.488 E0.11038
G1 X115.075 Y196.459 E0.09348
G1 X115.698 Y197.502 E0.05193
G1 X116.527 Y198.573 E0.05792
G1 X117.54 Y199.575 E0.06093
G1 X119.126 Y200.712 E0.08343
G1 X120.361 Y201.338 E0.05917
G1 X121.751 Y201.82 E0.06294
G1 X123.251 Y202.108 E0.0653
G1 X172.627 Y205.692 E2.11665
G1 X202.994 Y204.354 E1.29961
G1 X204.014 Y204.266 E0.04376
G1 X205.192 Y204.042 E0.05129
G1 X206.323 Y203.699 E0.05054
G1 X207.349 Y203.27 E0.04753
G1 X208.772 Y202.458 E0.07006
G1 X209.602 Y201.849 E0.04402
G1 X210.416 Y201.119 E0.04677
G1 X211.463 Y199.927 E0.06781
G1 X212.066 Y199.059 E0.04518
G1 X212.434 Y198.358 E0.03385
G1 X213.513 Y195.82 E0.11794
G1 X229.669 Y152.775 E1.96578
G1 X229.964 Y151.742 E0.0459
G1 X230.105 Y150.284 E0.06265
G1 X229.932 Y148.818 E0.06309
G1 X223.737 Y122.936 E1.13786
G1 X223.337 Y121.79 E0.05191
G1 X222.635 Y120.59 E0.05944
G1 X221.725 Y119.578 E0.05819
G1 X220.709 Y118.813 E0.0544
G1 X219.494 Y118.223 E0.05774
G1 X187.606 Y108.547 E1.42475
G1 X180.976 Y107.017 E0.29095
G1 X174.803 Y106.017 E0.26734
G1 X168.559 Y105.445 E0.26809
G1 X162.369 Y105.308 E0.26473
G1 X155.298 Y105.555 E0.30251
G1 X148.215 Y106.466 E0.30534
G1 X113.36 Y114.036 E1.52496
G1 X112.028 Y114.501 E0.06032
G1 X110.692 Y115.31 E0.06681
G1 X110.463 Y115.528 E0.01349
G1 X110.758 Y115.837 F6000
G1 F1200
G1 X109.912 Y116.644 E0.05001
G1 X109.114 Y117.827 E0.06098
G1 X108.728 Y118.7 E0.04081
G1 X99.674 Y143.963 E1.14741
G1 X99.378 Y145.226 E0.05549
G1 X99.337 Y146.44 E0.05193
G1 X99.606 Y147.932 E0.0648
G1 X113.666 Y191.921 E1.97453
G1 X114.523 Y194.316 E0.10875
G1 X115.451 Y196.255 E0.09191
G1 X116.046 Y197.251 E0.0496
G1 X116.841 Y198.28 E0.05561
G1 X117.808 Y199.24 E0.05826
G1 X119.352 Y200.348 E0.08125
G1 X120.532 Y200.945 E0.05656
G1 X121.868 Y201.408 E0.06042
G1 X123.304 Y201.683 E0.06252
G1 X172.63 Y205.263 E2.11452
G1 X202.963 Y203.926 E1.29817
G1 X203.95 Y203.842 E0.04234
G1 X205.089 Y203.626 E0.04958
G1 X206.183 Y203.295 E0.04886
G1 X207.174 Y202.879 E0.04597
G1 X208.528 Y202.106 E0.06666
G1 X209.327 Y201.52 E0.04235
G1 X210.115 Y200.814 E0.04524
G1 X211.115 Y199.677 E0.06474
G1 X211.699 Y198.837 E0.04376
G1 X212.045 Y198.178 E0.03181
G1 X213.112 Y195.669 E0.11656
G1 X229.267 Y152.627 E1.96565
G1 X229.545 Y151.653 E0.0433
G1 X229.676 Y150.284 E0.05881
G1 X229.512 Y148.903 E0.05943
G1 X223.321 Y123.037 E1.13715
G1 X222.945 Y121.965 E0.04858
G1 X222.284 Y120.836 E0.05594
G1 X221.431 Y119.89 E0.0545
G1 X220.472 Y119.171 E0.05122
G1 X219.33 Y118.62 E0.05421
G1 X187.486 Y108.959 E1.42281
G1 X180.894 Y107.438 E0.28923
G1 X174.751 Y106.442 E0.26608
G1 X168.531 Y105.873 E0.26705
G1 X162.37 Y105.736 E0.26346
G1 X155.337 Y105.982 E0.3009
G1 X148.292 Y106.888 E0.30369
G1 X113.468 Y114.451 E1.52363
G1 X112.215 Y114.887 E0.05673
G1 X110.956 Y115.648 E0.06291
G1 X110.801 Y115.795 E0.00914
G1 E-1.5 F3000
G1 X122.793 Y126.333 F6000
G1 E1.5 F1800
;TYPE:Internal perimeter
G1 F1200
G1 X119.284 Y124.413 E0.17101
G1 X116.896 Y122.854 E0.12193
G1 X114.705 Y121.166 E0.11825
G1 X114.675 Y121.102 E0.00301
G1 X114.661 Y121.059 E0.00195
G1 X114.652 Y121.014 E0.00195
G1 X114.648 Y120.968 E0.00195
G1 X114.65 Y120.923 E0.00195
G1 X114.657 Y120.878 E0.00195
G1 X114.67 Y120.834 E0.00195
G1 X114.688 Y120.792 E0.00195
G1 X114.71 Y120.752 E0.00195
G1 X114.737 Y120.715 E0.00195
G1 X114.769 Y120.682 E0.00195
G1 X114.804 Y120.653 E0.00195
G1 X114.842 Y120.628 E0.00195
G1 X114.883 Y120.607 E0.00195
G1 X114.926 Y120.592 E0.00195
G1 X114.971 Y120.582 E0.00195
G1 X115.016 Y120.578 E0.00195
G1 X115.062 Y120.579 E0.00195
G1 X115.107 Y120.585 E0.00195
G1 X115.151 Y120.597 E0.00195
G1 X115.194 Y120.614 E0.00195
G1 X115.233 Y120.635 E0.0019
G1 X117.511 Y122.258 E0.11961
G1 X119.928 Y123.836 E0.12342
G1 X123.111 Y125.733 E0.15842
G1 X125.995 Y122.934 E0.17187
G1 X128.458 Y121.02 E0.13335
G1 X131.134 Y119.376 E0.1343
G1 X134.946 Y117.383 E0.1839
G1 X138.917 Y115.767 E0.18329
G1 X143.036 Y114.531 E0.18387
G1 X149.396 Y113.103 E0.27871
G1 X155.849 Y112.274 E0.27818
G1 X162.372 Y112.048 E0.27904
G1 X168.174 Y112.175 E0.24815
G1 X173.947 Y112.703 E0.24785
G1 X179.671 Y113.63 E0.24793
G1 X185.83 Y115.05 E0.27023
G1 X191.782 Y117.11 E0.26928
G1 X197.49 Y119.794 E0.2697
G1 X199.659 Y121.059 E0.10734
G1 X201.656 Y122.556 E0.1067
G1 X203.467 Y124.273 E0.1067
G1 X205.068 Y126.187 E0.1067
G1 X206.991 Y129.115 E0.14977
G1 X210.985 Y127.276 E0.18802
G1 X214.133 Y125.869 E0.1474
G1 X215.661 Y125.205 E0.07123
G1 X215.839 Y125.533 E0.01592
G1 X214.351 Y126.522 E0.07641
G1 X211.43 Y128.07 E0.14133
G1 X207.271 Y129.77 E0.1921
G1 X208.981 Y133.598 E0.17924
G1 X210.047 Y136.431 E0.12939
G1 X211.216 Y140.214 E0.16931
G1 X213.694 Y139.957 E0.10655
G1 X213.747 Y140.349 E0.01689
G1 X211.376 Y140.738 E0.10272
G1 X212.168 Y144.515 E0.16499
G1 X212.539 Y147.166 E0.11442
G1 X212.807 Y150.89 E0.15967
G1 X216.891 Y150.889 E0.17459
G1 X219.985 Y150.653 E0.1327
G1 X221.407 Y150.436 E0.06148
G1 X221.471 Y150.835 E0.01728
G1 X220.096 Y151.064 E0.05956
G1 X217.053 Y151.34 E0.13064
G1 X212.944 Y151.402 E0.1757
G1 X212.605 Y156.607 E0.22303
G1 X211.998 Y160.721 E0.17782
G1 X210.961 Y165.187 E0.19602
G1 X212.023 Y167.442 E0.10657
G1 X212.67 Y169.384 E0.0875
G1 X213.082 Y171.388 E0.0875
G1 X213.254 Y173.428 E0.0875
G1 X213.181 Y175.523 E0.08963
G1 X213.1 Y176.825 E0.05577
G1 X212.88 Y178.063 E0.05378
G1 X212.523 Y179.269 E0.05378
G1 X212.033 Y180.428 E0.05378
G1 X211.443 Y181.476 E0.05142
G1 X211.148 Y181.808 E0.01897
G1 X210.776 Y182.149 E0.02158
G1 X210.372 Y182.45 E0.02158
G1 X209.938 Y182.709 E0.02158
G1 X209.481 Y182.922 E0.02158
G1 X208.161 Y183.379 E0.05973
G1 X208.371 Y186.602 E0.1381
G1 X208.25 Y188.929 E0.0996
G1 X207.857 Y191.225 E0.0996
G1 X207.198 Y193.46 E0.0996
G1 X206.303 Y195.553 E0.09735
G1 X206.047 Y195.914 E0.01891
G1 X205.716 Y196.287 E0.02133
G1 X205.346 Y196.621 E0.02133
G1 X204.941 Y196.913 E0.02133
G1 X204.506 Y197.158 E0.02133
G1 X204.047 Y197.354 E0.02133
G1 X203.57 Y197.498 E0.02133
G1 X203.079 Y197.589 E0.02133
G1 X202.582 Y197.626 E0.02133
G1 X202.063 Y197.607 E0.02218
G1 X199.883 Y197.366 E0.09378
G1 X197.747 Y196.923 E0.09329
G1 X195.661 Y196.28 E0.09329
G1 X193.603 Y195.427 E0.09527
G1 X190.882 Y194.265 E0.12649
G1 X188.249 Y192.97 E0.12547
G1 X184.83 Y191.051 E0.16763
G1 X183.065 Y193.382 E0.12503
G1 X181.748 Y194.759 E0.08145
G1 X180.283 Y195.976 E0.08144
G1 X178.687 Y197.017 E0.08145
G1 X176.983 Y197.867 E0.08144
G1 X175.138 Y198.537 E0.08392
G1 X174.525 Y198.753 E0.02778
G1 X173.947 Y198.886 E0.02534
G1 X173.358 Y198.953 E0.02534
G1 X172.765 Y198.953 E0.02534
G1 X172.176 Y198.886 E0.02534
G1 X171.599 Y198.753 E0.02534
G1 X171.136 Y198.59 E0.02099
G1 X169.497 Y197.381 E0.08707
G1 X167.92 Y195.933 E0.09155
G1 X166.507 Y194.323 E0.09155
G1 X165.275 Y192.572 E0.09155
G1 X163.917 Y190.117 E0.11994
G1 X157.581 Y189.753 E0.27136
G1 X151.928 Y189.01 E0.24378
G1 X145.836 Y187.752 E0.26596
G1 X142.556 Y190.09 E0.17221
G1 X139.522 Y191.823 E0.14938
G1 X136.329 Y193.242 E0.14938
G1 X133.01 Y194.333 E0.14938
G1 X129.581 Y195.089 E0.15015
G1 X127.684 Y195.374 E0.08202
G1 X125.783 Y195.476 E0.08138
G1 X123.921 Y195.399 E0.07969
G1 X123.497 Y195.309 E0.01851
G1 X123.061 Y195.161 E0.01969
G1 X122.645 Y194.964 E0.01969
G1 X122.255 Y194.719 E0.01969
G1 X121.896 Y194.43 E0.01969
G1 X121.573 Y194.102 E0.01969
G1 X121.291 Y193.738 E0.01969
G1 X121.047 Y193.334 E0.02017
G1 X120.273 Y191.713 E0.07678
G1 X119.686 Y190.024 E0.07646
G1 X119.289 Y188.28 E0.07646
G1 X119.088 Y186.503 E0.07646
G1 X119.084 Y184.691 E0.07748
G1 X119.371 Y180.302 E0.18809
G1 X120.036 Y175.963 E0.18764
G1 X121.171 Y171.302 E0.20514
G1 X118.787 Y165.634 E0.26289
G1 X117.225 Y160.131 E0.24457
G1 X116.343 Y154.479 E0.24457
G1 X116.12 Y147.733 E0.28861
G1 X111.873 Y147.322 E0.18243
G1 X108.648 Y146.795 E0.13972
G1 X107.113 Y146.441 E0.06736
G1 X107.167 Y146.069 E0.01606
G1 X108.708 Y146.171 E0.06602
G1 X111.91 Y146.461 E0.13746
G1 X116.231 Y146.961 E0.18598
G1 X116.606 Y142.95 E0.17225
G1 X117.146 Y140.147 E0.12203
G1 X118.252 Y136.405 E0.16683
G1 X115.389 Y135.245 E0.13207
G1 X114.894 Y134.985 E0.0239
G1 X115.072 Y134.628 E0.01707
G1 X115.425 Y134.796 E0.0167
G1 X118.35 Y135.91 E0.13383
G1 X119.728 Y132.257 E0.16697
G1 X120.892 Y129.749 E0.11818
G1 X122.764 Y126.385 E0.1646
G1 X122.209 Y126.502 F6000
G1 F1200
G1 X119.064 Y124.781 E0.15327
G1 X116.648 Y123.204 E0.12336
G1 X114.405 Y121.475 E0.12107
G1 X114.369 Y121.431 E0.00244
G1 X114.318 Y121.349 E0.00414
G1 X114.277 Y121.261 E0.00414
G1 X114.246 Y121.169 E0.00414
G1 X114.227 Y121.074 E0.00414
G1 X114.219 Y120.977 E0.00414
G1 X114.223 Y120.88 E0.00414
G1 X114.238 Y120.785 E0.00414
G1 X114.265 Y120.692 E0.00414
G1 X114.302 Y120.602 E0.00414
G1 X114.35 Y120.518 E0.00414
G1 X114.408 Y120.44 E0.00414
G1 X114.474 Y120.369 E0.00414
G1 X114.548 Y120.307 E0.00414
G1 X114.63 Y120.255 E0.00414
G1 X114.717 Y120.212 E0.00414
G1 X114.808 Y120.18 E0.00414
G1 X114.903 Y120.159 E0.00414
G1 X114.999 Y120.149 E0.00414
G1 X115.096 Y120.151 E0.00414
G1 X115.192 Y120.164 E0.00414
G1 X115.285 Y120.189 E0.00414
G1 X115.376 Y120.225 E0.00414
G1 X115.46 Y120.271 E0.00411
G1 X117.752 Y121.904 E0.12035
G1 X120.155 Y123.473 E0.12268
G1 X123.048 Y125.197 E0.144
G1 X125.714 Y122.61 E0.15884
G1 X128.214 Y120.667 E0.13536
G1 X130.923 Y119.003 E0.13594
G1 X134.766 Y116.994 E0.1854
G1 X138.774 Y115.362 E0.18503
G1 X142.927 Y114.116 E0.18538
G1 X149.322 Y112.68 E0.28021
G1 X155.815 Y111.846 E0.27989
G1 X162.369 Y111.619 E0.28041
G1 X168.199 Y111.747 E0.2493
G1 X174.001 Y112.278 E0.24912
G1 X179.754 Y113.21 E0.24917
G1 X185.949 Y114.638 E0.27181
G1 X191.944 Y116.712 E0.27123
G1 X197.69 Y119.414 E0.27149
G1 X199.896 Y120.701 E0.10921
G1 X201.933 Y122.228 E0.10882
G1 X203.78 Y123.979 E0.10882
G1 X205.413 Y125.931 E0.10882
G1 X207.147 Y128.572 E0.13507
G1 X210.808 Y126.886 E0.17236
G1 X213.96 Y125.476 E0.1476
G1 X217.073 Y124.126 E0.14508
G1 X217.145 Y124.12 E0.00311
G1 X217.202 Y124.122 E0.00242
G1 X217.258 Y124.131 E0.00242
G1 X217.312 Y124.147 E0.00242
G1 X217.365 Y124.169 E0.00242
G1 X217.414 Y124.197 E0.00242
G1 X217.459 Y124.23 E0.00242
G1 X217.501 Y124.269 E0.00242
G1 X217.537 Y124.312 E0.00242
G1 X217.568 Y124.359 E0.00242
G1 X217.594 Y124.41 E0.00242
G1 X217.613 Y124.463 E0.00242
G1 X217.626 Y124.519 E0.00242
G1 X217.632 Y124.575 E0.00242
G1 X217.631 Y124.632 E0.00242
G1 X217.624 Y124.688 E0.00242
G1 X217.61 Y124.743 E0.00242
G1 X217.589 Y124.795 E0.00242
G1 X217.563 Y124.846 E0.00242
G1 X217.531 Y124.892 E0.00242
G1 X217.493 Y124.935 E0.00242
G1 X217.451 Y124.972 E0.00242
G1 X217.379 Y125.023 E0.00376
G1 X214.57 Y126.891 E0.14422
G1 X211.612 Y128.459 E0.14315
G1 X207.843 Y130. E0.17409
G1 X209.378 Y133.435 E0.16088
G1 X210.453 Y136.292 E0.1305
G1 X211.521 Y139.752 E0.15483
G1 X214.897 Y139.401 E0.14511
G1 X217.727 Y139.007 E0.12215
G1 X220.489 Y138.522 E0.11989
G1 X220.536 Y138.52 E0.00201
G1 X220.583 Y138.523 E0.00202
G1 X220.629 Y138.532 E0.00202
G1 X220.674 Y138.547 E0.00202
G1 X220.717 Y138.567 E0.00202
G1 X220.757 Y138.592 E0.00202
G1 X220.793 Y138.622 E0.00202
G1 X220.826 Y138.656 E0.00202
G1 X220.854 Y138.693 E0.00202
G1 X220.878 Y138.734 E0.00202
G1 X220.896 Y138.778 E0.00202
G1 X220.909 Y138.823 E0.00202
G1 X220.917 Y138.87 E0.00202
G1 X220.918 Y138.917 E0.00202
G1 X220.914 Y138.964 E0.00202
G1 X220.904 Y139.01 E0.00202
G1 X220.889 Y139.055 E0.00202
G1 X220.868 Y139.097 E0.00202
G1 X220.842 Y139.137 E0.00202
G1 X220.812 Y139.173 E0.00202
G1 X220.749 Y139.231 E0.00367
G1 X218.093 Y139.933 E0.11747
G1 X215.355 Y140.518 E0.11971
G1 X211.888 Y141.089 E0.15024
G1 X212.59 Y144.442 E0.14647
G1 X212.966 Y147.12 E0.11565
G1 X213.206 Y150.462 E0.14323
G1 X216.874 Y150.46 E0.15684
G1 X219.937 Y150.227 E0.13131
G1 X222.961 Y149.764 E0.13083
G1 X223.089 Y149.739 E0.00555
G1 X223.164 Y149.734 E0.00321
G1 X223.239 Y149.738 E0.00321
G1 X223.313 Y149.75 E0.00321
G1 X223.385 Y149.772 E0.00321
G1 X223.454 Y149.802 E0.00321
G1 X223.519 Y149.84 E0.00321
G1 X223.578 Y149.886 E0.00321
G1 X223.632 Y149.938 E0.00321
G1 X223.679 Y149.997 E0.00321
G1 X223.718 Y150.061 E0.00321
G1 X223.75 Y150.129 E0.00321
G1 X223.773 Y150.201 E0.00321
G1 X223.787 Y150.275 E0.00321
G1 X223.792 Y150.35 E0.00321
G1 X223.788 Y150.425 E0.00321
G1 X223.776 Y150.499 E0.00321
G1 X223.754 Y150.571 E0.00324
G1 X223.723 Y150.64 E0.00321
G1 X223.685 Y150.705 E0.00322
G1 X223.639 Y150.764 E0.00322
G1 X223.586 Y150.818 E0.00322
G1 X223.527 Y150.864 E0.00322
G1 X223.463 Y150.904 E0.00322
G1 X223.394 Y150.935 E0.00322
G1 X223.323 Y150.957 E0.00321
G1 X223.215 Y150.977 E0.00466
G1 X220.151 Y151.49 E0.13283
G1 X217.076 Y151.768 E0.13202
G1 X213.346 Y151.824 E0.15948
G1 X213.032 Y156.652 E0.20686
G1 X212.419 Y160.801 E0.17932
G1 X211.412 Y165.139 E0.19041
G1 X212.421 Y167.283 E0.10129
G1 X213.084 Y169.273 E0.08968
G1 X213.506 Y171.327 E0.08968
G1 X213.683 Y173.417 E0.08968
G1 X213.609 Y175.543 E0.09097
G1 X213.526 Y176.875 E0.05706
G1 X213.298 Y178.162 E0.05585
G1 X212.927 Y179.414 E0.05585
G1 X212.418 Y180.617 E0.05585
G1 X211.794 Y181.726 E0.05441
G1 X211.454 Y182.108 E0.02187
G1 X211.05 Y182.479 E0.02345
G1 X210.61 Y182.807 E0.02345
G1 X210.139 Y183.088 E0.02345
G1 X209.642 Y183.32 E0.02345
G1 X208.61 Y183.677 E0.0467
G1 X208.8 Y186.6 E0.12522
G1 X208.676 Y188.976 E0.10175
G1 X208.275 Y191.322 E0.10175
G1 X207.602 Y193.605 E0.10175
G1 X206.679 Y195.764 E0.10038
G1 X206.383 Y196.181 E0.02187
G1 X206.021 Y196.589 E0.02335
G1 X205.615 Y196.955 E0.02335
G1 X205.172 Y197.274 E0.02335
G1 X204.696 Y197.543 E0.02335
G1 X204.194 Y197.757 E0.02335
G1 X203.671 Y197.915 E0.02335
G1 X203.134 Y198.015 E0.02335
G1 X202.59 Y198.055 E0.02335
G1 X202.032 Y198.035 E0.02387
G1 X199.816 Y197.79 E0.09532
G1 X197.64 Y197.338 E0.09502
G1 X195.516 Y196.684 E0.09502
G1 X193.437 Y195.822 E0.09623
G1 X190.703 Y194.655 E0.12708
G1 X188.05 Y193.349 E0.12646
G1 X184.946 Y191.607 E0.15215
G1 X183.391 Y193.661 E0.11011
G1 X182.041 Y195.073 E0.08355
G1 X180.537 Y196.321 E0.08355
G1 X178.9 Y197.389 E0.08355
G1 X177.152 Y198.262 E0.08355
G1 X175.282 Y198.941 E0.08506
G1 X174.644 Y199.165 E0.0289
G1 X174.02 Y199.309 E0.02742
G1 X173.382 Y199.381 E0.02742
G1 X172.741 Y199.381 E0.02742
G1 X172.104 Y199.309 E0.02742
G1 X171.479 Y199.165 E0.02742
G1 X170.933 Y198.973 E0.02476
G1 X169.224 Y197.712 E0.09079
G1 X167.613 Y196.233 E0.09352
G1 X166.17 Y194.589 E0.09352
G1 X164.912 Y192.799 E0.09352
G1 X163.657 Y190.531 E0.11083
G1 X157.541 Y190.179 E0.26193
G1 X151.857 Y189.433 E0.24512
G1 X145.932 Y188.21 E0.25864
G1 X142.787 Y190.452 E0.16514
G1 X139.716 Y192.206 E0.15123
G1 X136.484 Y193.642 E0.15123
G1 X133.124 Y194.747 E0.15123
G1 X129.659 Y195.511 E0.15169
G1 X127.727 Y195.801 E0.08352
G1 X125.786 Y195.905 E0.08313
G1 X123.867 Y195.825 E0.0821
G1 X123.384 Y195.723 E0.02112
G1 X122.9 Y195.559 E0.02184
G1 X122.438 Y195.34 E0.02184
G1 X122.006 Y195.069 E0.02184
G1 X121.608 Y194.749 E0.02184
G1 X121.25 Y194.384 E0.02184
G1 X120.937 Y193.98 E0.02184
G1 X120.669 Y193.537 E0.02213
G1 X119.876 Y191.876 E0.07869
