; generated by SuperSlicer 2.4 on 2022-11-15 at 06:35:13 UTC


;
;

;
;
; 

; external perimeters extrusion width = 0.40mm
; perimeters extrusion width = 0.46mm
; infill extrusion width = 0.64mm
; solid infill extrusion width = 0.56mm
; top infill extrusion width = 0.40mm
; support material extrusion width = 0.46mm
; first layer extrusion width = 0.50mm

; external perimeters extrusion width = 0.40mm
; perimeters extrusion width = 0.46mm
; infill extrusion width = 0.64mm
; solid infill extrusion width = 0.56mm
; top infill extrusion width = 0.40mm
; support material extrusion width = 0.46mm
; first layer extrusion width = 0.50mm

; external perimeters extrusion width = 0.40mm
; perimeters extrusion width = 0.46mm
; infill extrusion width = 0.64mm
; solid infill extrusion width = 0.56mm
; top infill extrusion width = 0.40mm
; support material extrusion width = 0.46mm
; first layer extrusion width = 0.50mm

; external perimeters extrusion width = 0.40mm
; perimeters extrusion width = 0.46mm
; infill extrusion width = 0.64mm
; solid infill extrusion width = 0.56mm
; top infill extrusion width = 0.40mm
; support material extrusion width = 0.46mm
; first layer extrusion width = 0.50mm

; external perimeters extrusion width = 0.40mm
; perimeters extrusion width = 0.46mm
; infill extrusion width = 0.64mm
; solid infill extrusion width = 0.56mm
; top infill extrusion width = 0.40mm
; support material extrusion width = 0.46mm
; first layer extrusion width = 0.50mm

; object:{"name":"Untitled","id":"Untitled.stl id:0 copy 0","object_center":[152.872684,151.798396,0.000000],"boundingbox_center":[152.872684,151.798396,17.504002],"boundingbox_size":[95.374100,53.897999,35.008003]}
; object:{"name":"ShelfHook","id":"ShelfHook.stl id:1 copy 0","object_center":[138.773226,198.966078,0.000000],"boundingbox_center":[138.773226,198.966078,2.100000],"boundingbox_size":[52.358698,35.587673,4.200001]}
; object:{"name":"Skadis_TS100_Stand","id":"Skadis_TS100_Stand.stl id:2 copy 0","object_center":[106.774743,108.851196,0.000000],"boundingbox_center":[106.774743,108.851196,19.000000],"boundingbox_size":[37.000000,20.000000,38.000000]}
; object:{"name":"ShelfHook","id":"ShelfHook.stl id:3 copy 0","object_center":[152.872674,101.007549,0.000000],"boundingbox_center":[152.872674,101.007549,2.100000],"boundingbox_size":[52.358698,35.587673,4.200001]}
; object:{"name":"Ikea_Skadis_hook_mod","id":"Ikea_Skadis_hook_mod.stl id:4 copy 0","object_center":[193.674213,194.398163,0.000000],"boundingbox_center":[193.674213,194.398163,2.597649],"boundingbox_size":[46.102013,19.301616,5.195297]}
; plater:{"center":[152.499981,149.986813,0.000000],"boundingbox_center":[152.499981,149.986813,19.000000],"boundingbox_size":[128.450476,133.546202,38.000000]}

M73 P0 R163


; Pre-Processed for Cancel-Object support by preprocess_cancellation v0.2.0
; 5 known objects
EXCLUDE_OBJECT_DEFINE NAME=Untitled_stl_id_0_copy_0 CENTER=163.724,158.046 POLYGON=[[105.386,125.049],[105.386,181.865],[200.36,181.865],[200.36,125.049]]
EXCLUDE_OBJECT_DEFINE NAME=ShelfHook_stl_id_1_copy_0 CENTER=134.884,199.223 POLYGON=[[112.794,181.384],[112.794,216.496],[164.752,216.496],[164.752,181.384]]
EXCLUDE_OBJECT_DEFINE NAME=Ikea_Skadis_hook_mod_stl_id_4_copy_0 CENTER=194.743,194.019 POLYGON=[[169.775,184.167],[169.775,204.629],[216.516,204.629],[216.516,184.167]]
EXCLUDE_OBJECT_DEFINE NAME=ShelfHook_stl_id_3_copy_0 CENTER=148.984,101.264 POLYGON=[[126.893,83.426],[126.893,118.537],[178.852,118.537],[178.852,83.426]]
EXCLUDE_OBJECT_DEFINE NAME=Skadis_TS100_Stand_stl_id_2_copy_0 CENTER=107.315,108.683 POLYGON=[[88.475,99.144],[88.475,118.547],[130.007,118.547],[130.007,99.144]]
;TYPE:Custom
START_PRINT T_BED=60 T_EXTRUDER=200
M107
G21 ; set units to millimeters
G90 ; use absolute coordinates
M83 ; use relative distances for extrusion
; Filament gcode
;_TOOLCHANGE 0
M104 S200 ; set temperature
M109 S200 ; set temperature and wait for it to be reached
M190 S60 ; set bed temperature and wait for it to be reached
M107
;LAYER_CHANGE
;Z:0.2
;HEIGHT:0.2
G1 Z0.2 F9000
G92 E0
G1 E-0.8 F3000
M204 S1000
G1 X86.534 Y96.171 F9000
G1 E0.8 F1800
;TYPE:Skirt
;WIDTH:0.52
G1 X85.669 Y97.01 E0.04684
G1 X85.053 Y98.036 E0.04652
G1 X84.721 Y99.18 E0.0463
G1 X84.659 Y99.9 E0.0281
G1 X84.659 Y117.802 E0.69598
G1 X84.877 Y119.21 E0.05538
G1 X110.828 Y197.982 E3.22421
G1 X111.631 Y199.982 E0.08378
G1 X112.367 Y201.312 E0.05911
G1 X113.809 Y203.251 E0.09393
G1 X114.752 Y204.23 E0.05284
G1 X116.358 Y205.551 E0.08083
G1 X130.107 Y213.958 E0.62653
G1 X131.301 Y214.426 E0.04984
G1 X155.403 Y219.311 E0.95606
G1 X157.087 Y219.263 E0.06549
G1 X216.328 Y203.669 E2.38149
G1 X217.71 Y202.971 E0.06019
G1 X218.761 Y201.62 E0.06657
G1 X219.033 Y200.891 E0.03025
G1 X219.174 Y200.115 E0.03066
G1 X219.134 Y198.387 E0.06719
G1 X218.81 Y196.469 E0.0756
G1 X204.039 Y143.418 E2.14084
G1 X203.789 Y142.766 E0.02718
G1 X194.143 Y123.3 E0.84458
G1 X193.772 Y122.701 E0.02738
G1 X179.498 Y103.922 E0.91701
G1 X178.673 Y102.975 E0.04883
G1 X177.843 Y102.223 E0.04353
G1 X176.257 Y101.175 E0.0739
G1 X139.712 Y81.221 E1.61872
G1 X137.441 Y80.799 E0.08979
G1 X136.172 Y80.988 E0.04988
G1 X134.87 Y81.305 E0.0521
G1 X87.97 Y95.447 E1.90437
G1 X87.378 Y95.674 E0.02464
G1 X86.534 Y96.171 E0.0381
G1 X86.828 Y96.547 F9000
G1 F1800
G1 X86.05 Y97.297 E0.042
G1 X85.495 Y98.215 E0.04173
G1 X85.194 Y99.241 E0.04154
G1 X85.136 Y99.9 E0.02572
G1 X85.136 Y117.802 E0.69598
G1 X85.33 Y119.061 E0.04951
G1 X111.281 Y197.832 E3.22421
G1 X112.067 Y199.787 E0.0819
G1 X112.764 Y201.047 E0.056
G1 X114.156 Y202.923 E0.09082
G1 X115.069 Y203.874 E0.05124
G1 X116.645 Y205.17 E0.07933
G1 X130.355 Y213.551 E0.62466
G1 X131.395 Y213.958 E0.04344
G1 X155.498 Y218.844 E0.95606
G1 X156.965 Y218.801 E0.05708
G1 X216.206 Y203.207 E2.38149
G1 X217.326 Y202.666 E0.04836
G1 X218.327 Y201.422 E0.06209
G1 X218.575 Y200.756 E0.02761
G1 X218.698 Y200.08 E0.02673
G1 X218.629 Y198.124 E0.07609
G1 X218.344 Y196.572 E0.06132
G1 X203.58 Y143.546 E2.13985
G1 X203.362 Y142.977 E0.02369
G1 X193.715 Y123.511 E0.84458
G1 X193.392 Y122.99 E0.02387
G1 X179.118 Y104.211 E0.91701
G1 X178.346 Y103.322 E0.04577
G1 X177.556 Y102.604 E0.04151
G1 X176.029 Y101.594 E0.07117
G1 X139.483 Y81.64 E1.61872
G1 X137.504 Y81.272 E0.07826
G1 X136.283 Y81.452 E0.048
G1 X135.008 Y81.762 E0.05101
G1 X88.108 Y95.904 E1.90437
G1 X87.564 Y96.113 E0.02265
G1 X86.828 Y96.547 E0.03321
G1 E-0.8 F3000
; printing object Untitled.stl id:0 copy 0
EXCLUDE_OBJECT_START NAME=Untitled_stl_id_0_copy_0
G1 X170.645 Y170.262 F9000
G1 E0.8 F1800
;TYPE:Support material
;WIDTH:0.5
G1 X182.939 Y170.262 E0.4579
G1 X182.939 Y181.865 E0.43217
G1 X170.645 Y181.865 E0.4579
G1 X170.645 Y170.262 E0.43217
G1 X182.329 Y181.751 F9000
G1 F1800
G1 X182.329 Y170.573 E0.41633
G1 X181.821 Y170.573 E0.01892
G1 X181.821 Y181.554 E0.40901
G1 X181.313 Y181.554 E0.01892
G1 X181.313 Y170.573 E0.40901
G1 X180.805 Y170.573 E0.01892
G1 X180.805 Y181.554 E0.40901
G1 X180.297 Y181.554 E0.01892
G1 X180.297 Y170.573 E0.40901
G1 X179.79 Y170.573 E0.01892
G1 X179.79 Y181.554 E0.40901
G1 X179.282 Y181.554 E0.01892
G1 X179.282 Y170.573 E0.40901
G1 X178.774 Y170.573 E0.01892
G1 X178.774 Y181.554 E0.40901
G1 X178.266 Y181.554 E0.01892
G1 X178.266 Y170.573 E0.40901
G1 X177.758 Y170.573 E0.01892
G1 X177.758 Y181.554 E0.40901
G1 X177.25 Y181.554 E0.01892
G1 X177.25 Y170.573 E0.40901
G1 X176.742 Y170.573 E0.01892
G1 X176.742 Y181.554 E0.40901
G1 X176.235 Y181.554 E0.01892
G1 X176.235 Y170.573 E0.40901
G1 X175.727 Y170.573 E0.01892
G1 X175.727 Y181.554 E0.40901
M73 P0 R163
G1 X175.219 Y181.554 E0.01892
G1 X175.219 Y170.573 E0.40901
G1 X174.711 Y170.573 E0.01892
G1 X174.711 Y181.554 E0.40901
G1 X174.203 Y181.554 E0.01892
G1 X174.203 Y170.573 E0.40901
G1 X173.695 Y170.573 E0.01892
G1 X173.695 Y181.554 E0.40901
G1 X173.187 Y181.554 E0.01892
G1 X173.187 Y170.573 E0.40901
G1 X172.679 Y170.573 E0.01892
G1 X172.679 Y181.554 E0.40901
G1 X172.172 Y181.554 E0.01892
G1 X172.172 Y170.573 E0.40901
G1 X171.664 Y170.573 E0.01892
G1 X171.664 Y181.554 E0.40901
G1 X171.156 Y181.554 E0.01892
G1 X171.156 Y170.376 E0.41633
G1 E-0.8 F3000
G1 X145.351 Y170.376 F9000
G1 E0.8 F1800
G1 X145.351 Y181.865 E0.42791
G1 X133.057 Y181.865 E0.4579
G1 X133.057 Y170.262 E0.43217
G1 X145.351 Y170.262 E0.4579
G1 X145.351 Y170.376 E0.00426
G1 X144.747 Y181.751 F9000
G1 F1800
G1 X144.747 Y170.573 E0.41633
G1 X144.239 Y170.573 E0.01892
G1 X144.239 Y181.554 E0.40901
G1 X143.731 Y181.554 E0.01892
G1 X143.731 Y170.573 E0.40901
G1 X143.223 Y170.573 E0.01892
G1 X143.223 Y181.554 E0.40901
G1 X142.715 Y181.554 E0.01892
G1 X142.715 Y170.573 E0.40901
G1 X142.207 Y170.573 E0.01892
G1 X142.207 Y181.554 E0.40901
G1 X141.7 Y181.554 E0.01892
G1 X141.7 Y170.573 E0.40901
G1 X141.192 Y170.573 E0.01892
G1 X141.192 Y181.554 E0.40901
G1 X140.684 Y181.554 E0.01892
G1 X140.684 Y170.573 E0.40901
G1 X140.176 Y170.573 E0.01892
G1 X140.176 Y181.554 E0.40901
G1 X139.668 Y181.554 E0.01892
G1 X139.668 Y170.573 E0.40901
G1 X139.16 Y170.573 E0.01892
G1 X139.16 Y181.554 E0.40901
G1 X138.652 Y181.554 E0.01892
G1 X138.652 Y170.573 E0.40901
G1 X138.145 Y170.573 E0.01892
G1 X138.145 Y181.554 E0.40901
G1 X137.637 Y181.554 E0.01892
G1 X137.637 Y170.573 E0.40901
G1 X137.129 Y170.573 E0.01892
G1 X137.129 Y181.554 E0.40901
G1 X136.621 Y181.554 E0.01892
G1 X136.621 Y170.573 E0.40901
G1 X136.113 Y170.573 E0.01892
G1 X136.113 Y181.554 E0.40901
G1 X135.605 Y181.554 E0.01892
G1 X135.605 Y170.573 E0.40901
G1 X135.097 Y170.573 E0.01892
G1 X135.097 Y181.554 E0.40901
G1 X134.59 Y181.554 E0.01892
G1 X134.59 Y170.573 E0.40901
G1 X134.082 Y170.573 E0.01892
G1 X134.082 Y181.554 E0.40901
G1 X133.574 Y181.554 E0.01892
G1 X133.574 Y170.376 E0.41633
G1 E-0.8 F3000
G1 X189.649 Y145.58 F9000
G1 E0.8 F1800
;TYPE:Internal perimeter
G1 X199.296 Y145.58 E0.35928
G1 X199.296 Y148.09 E0.09351
G1 X199.036 Y148.169 E0.0101
G1 X198.851 Y147.892 E0.01242
G1 X197.461 Y146.963 E0.06227
G1 X195.82 Y146.637 E0.06233
G1 X194.179 Y146.962 E0.0623
G1 X192.786 Y147.892 E0.06237
G1 X191.857 Y149.285 E0.06236
G1 X191.531 Y150.925 E0.06231
G1 X191.857 Y152.566 E0.06231
G1 X192.786 Y153.959 E0.06236
G1 X194.179 Y154.888 E0.06237
G1 X195.82 Y155.214 E0.0623
G1 X197.461 Y154.888 E0.06233
G1 X198.851 Y153.959 E0.06227
G1 X199.036 Y153.682 E0.01242
G1 X199.296 Y153.761 E0.0101
G1 X199.296 Y160.226 E0.24082
G1 X199.036 Y160.305 E0.0101
G1 X198.851 Y160.028 E0.01242
G1 X197.461 Y159.099 E0.06227
G1 X195.82 Y158.773 E0.06233
G1 X194.179 Y159.098 E0.0623
G1 X192.786 Y160.028 E0.06237
G1 X191.857 Y161.421 E0.06236
G1 X191.531 Y163.061 E0.06231
G1 X191.857 Y164.702 E0.06231
G1 X192.786 Y166.095 E0.06236
G1 X194.179 Y167.024 E0.06237
G1 X195.82 Y167.35 E0.0623
G1 X197.461 Y167.024 E0.06233
G1 X198.851 Y166.095 E0.06227
G1 X199.036 Y165.818 E0.01242
G1 X199.296 Y165.897 E0.0101
G1 X199.296 Y168.051 E0.08025
G1 X191.824 Y168.051 E0.2783
G1 X191.824 Y168.019 E0.00119
G1 X106.45 Y168.019 E3.17986
G1 X106.45 Y126.116 E1.56075
G1 X189.649 Y126.114 E3.09887
G1 X189.649 Y145.58 E0.72503
G1 X190.107 Y145.123 F9000
G1 F1800
G1 X199.753 Y145.123 E0.35928
G1 X199.753 Y149.786 E0.17371
G1 X199.423 Y149.819 E0.01235
G1 X199.352 Y149.462 E0.01354
G1 X198.521 Y148.221 E0.05562
G1 X197.283 Y147.393 E0.0555
G1 X195.82 Y147.103 E0.05555
G1 X195.28 Y147.21 E0.0205
G1 X194.357 Y147.393 E0.03503
G1 X193.116 Y148.221 E0.05559
G1 X192.287 Y149.463 E0.05558
G1 X191.997 Y150.925 E0.05554
G1 X192.287 Y152.388 E0.05554
G1 X193.116 Y153.629 E0.05558
G1 X194.357 Y154.458 E0.05559
G1 X195.82 Y154.748 E0.05553
G1 X197.283 Y154.458 E0.05555
G1 X198.521 Y153.629 E0.0555
G1 X199.352 Y152.389 E0.05562
G1 X199.423 Y152.032 E0.01354
G1 X199.753 Y152.065 E0.01235
G1 X199.753 Y161.922 E0.36716
G1 X199.423 Y161.955 E0.01235
G1 X199.352 Y161.598 E0.01354
G1 X198.521 Y160.357 E0.05562
G1 X197.283 Y159.529 E0.0555
G1 X195.82 Y159.239 E0.05555
G1 X195.28 Y159.346 E0.0205
G1 X194.357 Y159.529 E0.03503
G1 X193.116 Y160.357 E0.05559
G1 X192.287 Y161.599 E0.05558
G1 X191.997 Y163.061 E0.05554
G1 X192.287 Y164.524 E0.05554
G1 X193.116 Y165.765 E0.05558
G1 X194.357 Y166.594 E0.05559
G1 X195.82 Y166.884 E0.05553
G1 X197.283 Y166.594 E0.05555
G1 X198.521 Y165.765 E0.0555
G1 X199.352 Y164.525 E0.05562
G1 X199.423 Y164.168 E0.01354
G1 X199.753 Y164.201 E0.01235
G1 X199.753 Y168.508 E0.16045
G1 X191.367 Y168.508 E0.31234
G1 X191.367 Y168.476 E0.00119
G1 X105.993 Y168.476 E3.17986
G1 X105.993 Y125.658 E1.5948
G1 X190.107 Y125.656 E3.13292
G1 X190.107 Y145.123 E0.72504
G1 E-0.8 F3000
G1 X195.82 Y147.569 F9000
G1 E0.8 F1800
;TYPE:External perimeter
G1 X195.369 Y147.658 E0.01712
G1 X194.535 Y147.824 E0.03165
G1 X193.445 Y148.551 E0.04881
G1 X192.718 Y149.641 E0.0488
G1 X192.463 Y150.925 E0.04877
G1 X192.718 Y152.21 E0.04877
G1 X193.445 Y153.3 E0.0488
G1 X194.535 Y154.027 E0.04881
G1 X195.82 Y154.282 E0.04877
G1 X197.104 Y154.027 E0.04878
G1 X198.192 Y153.3 E0.04873
M73 P1 R162
G1 X198.921 Y152.21 E0.04884
G1 X199.176 Y150.925 E0.04878
G1 X198.921 Y149.641 E0.04878
G1 X198.192 Y148.551 E0.04884
G1 X197.104 Y147.824 E0.04873
G1 X195.82 Y147.569 E0.04878
;WIPE_START
M204 S3000
G1 X195.597 Y147.236 F9000
;WIPE_END
G1 E-0.8 F3000
M204 S1000
G1 X195.82 Y159.705 F9000
G1 E0.8 F1800
G1 X195.369 Y159.794 E0.01712
G1 X194.535 Y159.96 E0.03165
G1 X193.445 Y160.687 E0.04881
G1 X192.718 Y161.777 E0.0488
G1 X192.463 Y163.061 E0.04878
G1 X192.718 Y164.346 E0.04877
G1 X193.445 Y165.436 E0.0488
G1 X194.535 Y166.163 E0.04881
G1 X195.82 Y166.418 E0.04877
G1 X197.104 Y166.163 E0.04878
G1 X198.192 Y165.436 E0.04873
G1 X198.921 Y164.346 E0.04884
G1 X199.176 Y163.061 E0.04878
G1 X198.921 Y161.777 E0.04878
G1 X198.192 Y160.687 E0.04884
G1 X197.104 Y159.96 E0.04873
G1 X195.82 Y159.705 E0.04878
;WIPE_START
M204 S3000
G1 X195.597 Y159.372 F9000
;WIPE_END
G1 E-0.8 F3000
M204 S1000
G1 X190.564 Y144.665 F9000
G1 E0.8 F1800
G1 X200.21 Y144.665 E0.35928
G1 X200.21 Y168.965 E0.90508
G1 X190.91 Y168.965 E0.34639
G1 X190.91 Y168.933 E0.00119
G1 X105.536 Y168.933 E3.17986
G1 X105.536 Y125.201 E1.62885
G1 X190.564 Y125.199 E3.16697
G1 X190.564 Y144.665 E0.72504
;WIPE_START
M204 S3000
G1 X190.564 Y145.065 F9000
;WIPE_END
G1 E-0.8 F3000
M204 S1000
G1 X195.026 Y146.181 F9000
G1 E0.8 F1800
;TYPE:Gap fill
;WIDTH:0.826164
G1 X195.203 Y146.164 E0.01136
;WIDTH:0.75496
G1 X195.381 Y146.146 E0.01033
G1 X195.569 Y146.128 E0.01099
;WIDTH:0.68083
G1 X195.757 Y146.109 E0.00984
G1 X195.882 Y146.109 E0.00646
G1 X196.07 Y146.128 E0.00984
;WIDTH:0.754972
G1 X196.259 Y146.146 E0.01099
G1 X196.436 Y146.164 E0.01033
;WIDTH:0.828429
G1 X196.613 Y146.181 E0.01139
G1 E-0.8 F3000
G1 X199.227 Y146.572 F9000
G1 E0.8 F1800
;TYPE:Solid infill
;WIDTH:0.502739
G1 F2400
G1 X198.303 Y145.648 E0.04894
G1 X197.657 Y145.648 F9000
G1 F2400
G1 X199.227 Y147.219 E0.08317
G1 X199.227 Y147.865 F9000
G1 F2400
G1 X197.01 Y145.648 E0.11741
G1 X196.659 Y145.944 F9000
G1 F2400
G1 X197.868 Y147.152 E0.06402
G1 X199.227 Y148.331 F9000
;TYPE:Gap fill
;WIDTH:0.637493
G1 F1800
G1 X199.284 Y148.518 E0.00946
;WIDTH:0.531026
G1 X199.298 Y148.565 E0.00194
G1 X199.342 Y148.708 E0.00596
;WIDTH:0.408493
G1 X199.385 Y148.851 E0.00446
;WIDTH:0.310467
G1 X199.429 Y148.995 E0.00327
;WIDTH:0.212441
G1 X199.472 Y149.138 E0.00207
;WIDTH:0.134072
G1 X199.508 Y149.256 E0.00091
G1 X199.608 Y150.012 F9000
;WIDTH:0.826238
G1 F1800
G1 X199.626 Y150.189 E0.01136
;WIDTH:0.755028
G1 X199.643 Y150.366 E0.01033
G1 X199.668 Y150.616 E0.01455
;WIDTH:0.656875
G1 X199.692 Y150.866 E0.01255
G1 X199.692 Y150.985 E0.00598
G1 X199.668 Y151.235 E0.01255
;WIDTH:0.755028
G1 X199.643 Y151.484 E0.01455
G1 X199.626 Y151.662 E0.01033
;WIDTH:0.828455
G1 X199.608 Y151.839 E0.0114
G1 X199.508 Y152.595 F9000
;WIDTH:0.134071
G1 F1800
G1 X199.472 Y152.713 E0.00091
;WIDTH:0.21244
G1 X199.429 Y152.856 E0.00207
;WIDTH:0.310467
G1 X199.385 Y153 E0.00327
;WIDTH:0.408493
G1 X199.342 Y153.143 E0.00446
;WIDTH:0.531026
G1 X199.298 Y153.286 E0.00596
G1 X199.284 Y153.333 E0.00194
;WIDTH:0.637493
G1 X199.227 Y153.52 E0.00946
G1 E-0.8 F3000
G1 X199.227 Y160.467 F9000
G1 E0.8 F1800
