; generated by SuperSlicer 2.4 on 2022-08-28 at 03:27:58 UTC


;
;

;
;
; 

; external perimeters extrusion width = 0.40mm
; perimeters extrusion width = 0.50mm
; infill extrusion width = 0.72mm
; solid infill extrusion width = 0.56mm
; top infill extrusion width = 0.40mm

; external perimeters extrusion width = 0.40mm
; perimeters extrusion width = 0.50mm
; infill extrusion width = 0.72mm
; solid infill extrusion width = 0.56mm
; top infill extrusion width = 0.40mm

; object:{"name":"closet_hook","id":"closet_hook.stl id:0 copy 0","object_center":[122.838974,143.266665,0.000000],"boundingbox_center":[122.838974,143.266665,3.500000],"boundingbox_size":[53.500000,112.192722,7.000000]}
; object:{"name":"closet_hook","id":"closet_hook.stl id:1 copy 0","object_center":[180.954469,156.733068,0.000000],"boundingbox_center":[180.954469,156.733068,3.750000],"boundingbox_size":[54.000000,112.192722,7.500000]}
; plater:{"center":[152.021721,149.999866,0.000000],"boundingbox_center":[152.021721,149.999866,3.750000],"boundingbox_size":[111.865495,125.659125,7.500000]}

M73 P0 R44
;TYPE:Custom
START_PRINT T_BED=60 T_EXTRUDER=200
M107
G21 ; set units to millimeters
G90 ; use absolute coordinates
M83 ; use relative distances for extrusion
; Filament gcode
;_TOOLCHANGE 0
M104 S200 ; set temperature
M109 S200 ; set temperature and wait for it to be reached
M190 S60 ; set bed temperature and wait for it to be reached
M107
;LAYER_CHANGE
;Z:0.2
;HEIGHT:0.2
G1 Z0.2 F9000
G92 E0
M73 P0 R44
G1 E-0.8 F3000
M204 S1000
G1 X112.364 Y84.924 F9000
G1 E0.8 F1800
;TYPE:Skirt
;WIDTH:0.52
G1 X111.618 Y86.465 E0.06657
G1 X92.592 Y172.192 E3.41378
G1 X92.493 Y173.904 E0.06668
G1 X92.697 Y175.815 E0.07473
G1 X93.014 Y177.716 E0.07489
G1 X93.442 Y179.593 E0.07485
G1 X93.979 Y181.44 E0.07478
G1 X94.623 Y183.25 E0.07471
G1 X95.374 Y185.017 E0.07462
G1 X97.063 Y188.203 E0.1402
G1 X98.1 Y189.807 E0.07425
G1 X99.23 Y191.343 E0.07413
G1 X100.449 Y192.804 E0.074
G1 X101.753 Y194.187 E0.07387
G1 X103.309 Y195.635 E0.08264
G1 X106.123 Y197.805 E0.13813
G1 X107.714 Y198.819 E0.07337
G1 X109.364 Y199.73 E0.07326
G1 X111.28 Y200.628 E0.08228
G1 X112.811 Y201.23 E0.06394
G1 X114.596 Y201.812 E0.07299
G1 X174.548 Y215.763 E2.39294
M73 P0 R44
G1 X176.339 Y216.097 E0.07085
G1 X178.447 Y216.348 E0.08251
G1 X180.331 Y216.445 E0.07334
G1 X182.217 Y216.422 E0.07334
G1 X184.098 Y216.28 E0.07334
G1 X185.967 Y216.018 E0.07336
G1 X187.816 Y215.639 E0.07339
G1 X189.414 Y215.211 E0.06432
G1 X191.209 Y214.615 E0.07351
G1 X193.177 Y213.811 E0.08264
G1 X194.878 Y212.98 E0.07362
G1 X196.329 Y212.164 E0.06471
G1 X198.115 Y211.005 E0.08279
G1 X200.92 Y208.791 E0.13893
G1 X202.466 Y207.319 E0.08298
G1 X204.83 Y204.614 E0.13966
G1 X206.085 Y202.881 E0.08317
G1 X207.108 Y201.261 E0.07449
G1 X208.032 Y199.579 E0.07459
G1 X209.495 Y196.267 E0.14076
G1 X210.118 Y194.446 E0.07485
G1 X210.685 Y192.374 E0.08349
G1 X211.075 Y190.487 E0.07494
G1 X211.505 Y186.875 E0.14138
G1 X211.57 Y184.835 E0.07936
G1 X211.57 Y164.838 E0.7774
G1 X211.489 Y162.464 E0.09237
G1 X211.268 Y160.218 E0.08773
G1 X210.95 Y158.223 E0.07855
G1 X210.462 Y156.022 E0.08763
G1 X209.836 Y153.859 E0.08756
G1 X192.071 Y99.581 E2.22025
G1 X190.912 Y97.877 E0.08011
G1 X189.378 Y97.117 E0.06657
G1 X131.191 Y83.65 E2.32185
G1 X130.353 Y83.555 E0.03278
G1 X115.245 Y83.555 E0.58735
G1 X113.722 Y83.881 E0.06055
G1 X112.364 Y84.924 E0.06657
G1 X112.802 Y85.145 F9000
G1 F1800
G1 X112.083 Y86.569 E0.06199
G1 X93.058 Y172.295 E3.41378
G1 X92.968 Y173.855 E0.06075
G1 X93.143 Y175.55 E0.06625
G1 X93.443 Y177.424 E0.07379
G1 X93.853 Y179.276 E0.07374
G1 X94.37 Y181.099 E0.07366
G1 X94.994 Y182.886 E0.07358
G1 X95.721 Y184.631 E0.07349
G1 X96.55 Y186.326 E0.07338
G1 X97.477 Y187.967 E0.07326
G1 X98.5 Y189.546 E0.07314
G1 X99.735 Y191.213 E0.08065
G1 X102.099 Y193.858 E0.13791
G1 X103.462 Y195.135 E0.0726
G1 X104.898 Y196.323 E0.07247
G1 X106.402 Y197.418 E0.07234
G1 X107.969 Y198.416 E0.07221
G1 X109.774 Y199.404 E0.08002
G1 X111.267 Y200.103 E0.06407
G1 X112.986 Y200.786 E0.0719
G1 X114.94 Y201.415 E0.07982
G1 X174.655 Y215.298 E2.3834
G1 X176.629 Y215.658 E0.07798
G1 X178.473 Y215.872 E0.07219
G1 X180.327 Y215.968 E0.07217
G1 X182.183 Y215.946 E0.07216
G1 X184.034 Y215.807 E0.07216
G1 X185.671 Y215.585 E0.06421
G1 X187.493 Y215.225 E0.07223
G1 X189.487 Y214.691 E0.08022
G1 X191.248 Y214.092 E0.07232
G1 X192.969 Y213.382 E0.07239
G1 X194.465 Y212.659 E0.06459
G1 X196.267 Y211.643 E0.08042
G1 X199.174 Y209.627 E0.13755
G1 X200.762 Y208.292 E0.08062
G1 X203.261 Y205.762 E0.13827
G1 X204.582 Y204.155 E0.08085
G1 X206.591 Y201.197 E0.13901
G1 X207.601 Y199.374 E0.08106
G1 X208.412 Y197.664 E0.07357
G1 X209.12 Y195.907 E0.07365
G1 X209.723 Y194.108 E0.07372
G1 X210.218 Y192.276 E0.07379
G1 X210.603 Y190.416 E0.07384
G1 X211.03 Y186.833 E0.14028
G1 X211.093 Y184.835 E0.07771
G1 X211.091 Y164.736 E0.78138
G1 X211.015 Y162.509 E0.08663
G1 X210.797 Y160.293 E0.08655
G1 X210.479 Y158.298 E0.07855
G1 X209.997 Y156.127 E0.08645
G1 X209.379 Y153.993 E0.08638
G1 X191.618 Y99.729 E2.21967
G1 X190.69 Y98.314 E0.06579
G1 X189.27 Y97.582 E0.06209
G1 X131.084 Y84.115 E2.32185
G1 X130.353 Y84.032 E0.02857
G1 X115.245 Y84.032 E0.58735
G1 X114.117 Y84.235 E0.04456
G1 X112.802 Y85.145 E0.06218
G1 E-0.8 F3000
; printing object closet_hook.stl id:0 copy 0
G1 X116.309 Y88.334 F9000
G1 E0.8 F1800
;TYPE:Internal perimeter
;WIDTH:0.5
G1 X129.289 Y88.334 E0.48346
G1 X129.289 Y88.703 E0.01373
G1 X124.505 Y93.703 E0.25774
G1 X124.505 Y103.189 E0.3533
G1 X124.558 Y104.878 E0.06297
G1 X124.719 Y106.579 E0.06363
G1 X124.985 Y108.265 E0.06359
G1 X125.356 Y109.93 E0.06353
G1 X125.831 Y111.566 E0.06345
G1 X126.408 Y113.167 E0.06336
G1 X127.083 Y114.725 E0.06325
G1 X127.855 Y116.234 E0.06313
G1 X128.719 Y117.687 E0.06299
G1 X129.674 Y119.079 E0.06285
G1 X130.712 Y120.402 E0.06265
G1 X131.818 Y121.641 E0.06184
G1 X140.047 Y130.241 E0.44336
G1 X141.336 Y131.679 E0.07193
G1 X142.521 Y133.188 E0.07145
G1 X143.609 Y134.775 E0.07167
G1 X144.596 Y136.434 E0.07188
G1 X145.477 Y138.156 E0.07207
G1 X146.248 Y139.936 E0.07225
G1 X146.907 Y141.765 E0.07241
G1 X147.45 Y143.636 E0.07255
M73 P1 R43
G1 X147.875 Y145.54 E0.07266
G1 X148.18 Y147.47 E0.07275
G1 X148.363 Y149.416 E0.07281
G1 X148.425 Y151.388 E0.07351
G1 X148.425 Y171.353 E0.74361
G1 X148.376 Y173.017 E0.062
G1 X148.231 Y174.658 E0.06134
G1 X147.991 Y176.286 E0.0613
G1 X147.655 Y177.895 E0.06123
G1 X147.226 Y179.48 E0.06115
G1 X146.705 Y181.034 E0.06105
G1 X146.094 Y182.551 E0.06093
G1 X145.395 Y184.026 E0.06079
G1 X144.612 Y185.453 E0.06064
G1 X143.746 Y186.827 E0.06048
G1 X142.802 Y188.143 E0.06031
G1 X141.783 Y189.395 E0.06013
G1 X140.693 Y190.579 E0.05995
G1 X139.536 Y191.691 E0.05976
G1 X138.316 Y192.726 E0.05958
G1 X137.039 Y193.68 E0.0594
G1 X135.708 Y194.551 E0.05923
G1 X134.33 Y195.335 E0.05907
G1 X132.908 Y196.029 E0.05892
G1 X131.449 Y196.63 E0.05878
G1 X129.958 Y197.137 E0.05866
G1 X128.44 Y197.547 E0.05856
G1 X126.901 Y197.86 E0.05848
G1 X125.347 Y198.073 E0.05842
G1 X123.784 Y198.186 E0.05838
G1 X122.216 Y198.199 E0.05837
G1 X120.652 Y198.111 E0.05838
G1 X119.095 Y197.924 E0.05841
G1 X117.551 Y197.637 E0.05847
G1 X116.028 Y197.251 E0.05854
G1 X114.529 Y196.769 E0.05864
G1 X113.061 Y196.192 E0.05875
G1 X111.629 Y195.522 E0.05888
G1 X110.239 Y194.761 E0.05903
G1 X108.896 Y193.912 E0.05919
G1 X107.604 Y192.978 E0.05936
G1 X106.369 Y191.963 E0.05953
G1 X105.196 Y190.871 E0.05972
G1 X104.088 Y189.705 E0.0599
G1 X103.051 Y188.47 E0.06008
G1 X102.087 Y187.17 E0.06026
G1 X101.201 Y185.811 E0.06043
G1 X100.396 Y184.397 E0.0606
G1 X99.675 Y182.934 E0.06075
G1 X99.042 Y181.427 E0.06089
G1 X98.497 Y179.881 E0.06102
G1 X98.044 Y178.304 E0.06112
G1 X97.685 Y176.7 E0.06122
G1 X97.42 Y175.076 E0.06128
G1 X97.257 Y173.498 E0.05911
G1 X97.274 Y173.199 E0.01115
G1 X97.348 Y172.977 E0.00871
G1 X97.472 Y172.791 E0.00831
G1 X97.631 Y172.655 E0.0078
G1 X97.81 Y172.574 E0.00733
G1 X98.08 Y172.534 E0.01019
G1 X99.826 Y172.534 E0.06501
G1 X100.119 Y172.58 E0.01103
G1 X100.31 Y172.676 E0.00797
G1 X100.475 Y172.835 E0.00854
G1 X100.595 Y173.048 E0.00912
G1 X100.674 Y173.398 E0.01336
G1 X100.844 Y174.892 E0.05598
G1 X101.13 Y176.47 E0.05975
G1 X101.521 Y178.024 E0.05969
G1 X102.015 Y179.546 E0.0596
G1 X102.609 Y181.03 E0.0595
G1 X103.3 Y182.466 E0.05939
G1 X104.085 Y183.85 E0.05926
G1 X104.96 Y185.174 E0.05912
G1 X105.922 Y186.432 E0.05898
G1 X106.965 Y187.618 E0.05883
G1 X108.086 Y188.725 E0.05868
G1 X109.277 Y189.749 E0.05852
G1 X110.535 Y190.685 E0.05838
G1 X111.852 Y191.527 E0.05824
G1 X113.223 Y192.272 E0.0581
G1 X114.64 Y192.916 E0.05798
G1 X116.097 Y193.456 E0.05788
G1 X117.587 Y193.889 E0.05779
G1 X119.103 Y194.212 E0.05772
G1 X120.636 Y194.425 E0.05767
G1 X122.181 Y194.526 E0.05764
G1 X123.728 Y194.515 E0.05763
G1 X125.271 Y194.391 E0.05764
G1 X126.801 Y194.156 E0.05768
G1 X128.312 Y193.811 E0.05773
G1 X129.796 Y193.356 E0.05781
G1 X131.246 Y192.795 E0.0579
G1 X132.654 Y192.131 E0.05801
G1 X134.015 Y191.366 E0.05813
G1 X135.321 Y190.505 E0.05826
G1 X136.565 Y189.551 E0.0584
G1 X137.743 Y188.51 E0.05856
G1 X138.849 Y187.386 E0.0587
G1 X139.876 Y186.186 E0.05886
G1 X140.821 Y184.914 E0.05901
G1 X141.679 Y183.578 E0.05915
G1 X142.445 Y182.183 E0.05929
G1 X143.117 Y180.736 E0.05941
G1 X143.691 Y179.244 E0.05952
G1 X144.164 Y177.715 E0.05962
G1 X144.534 Y176.156 E0.0597
G1 X144.8 Y174.573 E0.05976
G1 X144.96 Y172.976 E0.0598
G1 X145.012 Y171.39 E0.0591
G1 X145.012 Y151.352 E0.74633
G1 X144.96 Y149.662 E0.06297
G1 X144.799 Y147.962 E0.06363
G1 X144.533 Y146.275 E0.06359
G1 X144.162 Y144.611 E0.06353
G1 X143.687 Y142.974 E0.06345
G1 X143.11 Y141.374 E0.06336
G1 X142.435 Y139.816 E0.06325
G1 X141.663 Y138.307 E0.06313
G1 X140.799 Y136.854 E0.06299
G1 X139.844 Y135.462 E0.06285
G1 X138.805 Y134.138 E0.0627
G1 X137.705 Y132.911 E0.06135
G1 X129.467 Y124.301 E0.44386
G1 X128.181 Y122.86 E0.07193
G1 X126.996 Y121.351 E0.07147
G1 X125.908 Y119.764 E0.07166
G1 X124.921 Y118.106 E0.07187
G1 X124.04 Y116.383 E0.07207
G1 X123.269 Y114.603 E0.07225
G1 X122.61 Y112.774 E0.07241
G1 X122.068 Y110.904 E0.07254
G1 X121.643 Y109 E0.07266
G1 X121.338 Y107.071 E0.07274
G1 X121.155 Y105.125 E0.0728
G1 X121.093 Y103.152 E0.07351
G1 X121.093 Y93.703 E0.35194
G1 X116.309 Y88.703 E0.25774
G1 X116.309 Y88.334 E0.01373
G1 X115.852 Y87.877 F9000
G1 F1800
G1 X129.746 Y87.877 E0.51751
G1 X129.746 Y88.887 E0.03759
G1 X124.963 Y93.887 E0.25774
G1 X124.963 Y103.181 E0.3462
G1 X125.015 Y104.85 E0.06217
G1 X125.172 Y106.522 E0.06256
G1 X125.434 Y108.18 E0.06252
G1 X125.799 Y109.816 E0.06246
G1 X126.266 Y111.425 E0.06238
G1 X126.833 Y112.998 E0.06228
G1 X127.497 Y114.529 E0.06217
G1 X128.255 Y116.012 E0.06204
G1 X129.105 Y117.441 E0.0619
G1 X130.042 Y118.808 E0.06175
G1 X131.063 Y120.108 E0.06157
G1 X132.154 Y121.33 E0.06101
G1 X140.383 Y129.93 E0.44334
G1 X141.687 Y131.385 E0.07276
G1 X142.89 Y132.917 E0.07255
G1 X143.994 Y134.529 E0.07277
G1 X144.996 Y136.212 E0.07297
G1 X145.89 Y137.961 E0.07316
G1 X146.674 Y139.768 E0.07334
G1 X147.342 Y141.624 E0.07349
G1 X147.893 Y143.523 E0.07363
G1 X148.324 Y145.455 E0.07373
G1 X148.633 Y147.412 E0.07382
G1 X148.819 Y149.387 E0.07388
G1 X148.882 Y151.381 E0.07431
G1 X148.882 Y171.36 E0.74413
G1 X148.833 Y173.044 E0.06275
G1 X148.685 Y174.711 E0.06234
G1 X148.479 Y176.106 E0.05251
G1 X148.441 Y176.366 E0.00979
G1 X148.1 Y178.002 E0.06224
G1 X147.664 Y179.612 E0.06216
G1 X147.134 Y181.192 E0.06205
G1 X146.513 Y182.735 E0.06194
G1 X145.803 Y184.234 E0.06181
G1 X145.006 Y185.685 E0.06166
G1 X144.126 Y187.083 E0.0615
G1 X143.165 Y188.42 E0.06134
G1 X142.129 Y189.694 E0.06116
G1 X141.02 Y190.899 E0.06099
G1 X139.843 Y192.03 E0.06081
G1 X138.601 Y193.083 E0.06063
G1 X137.301 Y194.055 E0.06046
G1 X135.947 Y194.942 E0.06029
G1 X134.543 Y195.74 E0.06014
G1 X133.096 Y196.446 E0.05999
G1 X131.61 Y197.059 E0.05986
G1 X130.091 Y197.575 E0.05974
G1 X128.545 Y197.992 E0.05965
G1 X126.978 Y198.31 E0.05957
G1 X125.395 Y198.527 E0.05951
G1 X123.802 Y198.643 E0.05947
G1 X122.206 Y198.656 E0.05946
G1 X120.611 Y198.567 E0.05947
G1 X119.025 Y198.376 E0.0595
G1 X117.453 Y198.083 E0.05955
G1 X115.901 Y197.691 E0.05962
G1 X114.375 Y197.2 E0.05972
G1 X112.88 Y196.612 E0.05983
G1 X111.422 Y195.93 E0.05996
G1 X110.007 Y195.155 E0.0601
G1 X108.64 Y194.291 E0.06025
G1 X107.325 Y193.34 E0.06042
G1 X106.068 Y192.307 E0.06059
G1 X104.874 Y191.196 E0.06076
G1 X103.747 Y190.01 E0.06094
G1 X102.692 Y188.753 E0.06112
G1 X101.712 Y187.431 E0.06129
G1 X100.811 Y186.049 E0.06146
G1 X99.992 Y184.611 E0.06162
G1 X99.259 Y183.123 E0.06177
G1 X98.615 Y181.591 E0.06191
G1 X98.062 Y180.02 E0.06203
G1 X97.601 Y178.417 E0.06213
G1 X97.236 Y176.787 E0.06222
G1 X96.967 Y175.137 E0.06228
G1 X96.798 Y173.508 E0.06099
G1 X96.821 Y173.112 E0.01478
G1 X96.934 Y172.774 E0.01326
G1 X97.127 Y172.485 E0.01294
G1 X97.382 Y172.266 E0.01254
G1 X97.679 Y172.131 E0.01217
G1 X98.048 Y172.077 E0.01386
G1 X99.862 Y172.077 E0.06756
G1 X100.259 Y172.14 E0.015
G1 X100.577 Y172.298 E0.0132
G1 X100.841 Y172.552 E0.01365
G1 X101.026 Y172.883 E0.01411
G1 X101.125 Y173.322 E0.01677
G1 X101.296 Y174.825 E0.05634
G1 X101.577 Y176.373 E0.05862
G1 X101.961 Y177.898 E0.05855
G1 X102.445 Y179.391 E0.05846
G1 X103.027 Y180.845 E0.05836
G1 X103.705 Y182.254 E0.05823
G1 X104.474 Y183.611 E0.0581
G1 X105.333 Y184.909 E0.05796
G1 X106.275 Y186.142 E0.05781
G1 X107.298 Y187.304 E0.05765
G1 X108.396 Y188.389 E0.05749
G1 X109.563 Y189.392 E0.05733
G1 X110.795 Y190.309 E0.05718
G1 X112.085 Y191.133 E0.05703
G1 X113.427 Y191.863 E0.05689
G1 X114.814 Y192.493 E0.05676
G1 X116.241 Y193.022 E0.05665
G1 X117.699 Y193.445 E0.05656
G1 X119.182 Y193.762 E0.05649
G1 X120.683 Y193.97 E0.05643
G1 X122.194 Y194.069 E0.0564
G1 X123.708 Y194.058 E0.05639
M73 P2 R43
G1 X125.218 Y193.937 E0.05641
G1 X126.715 Y193.707 E0.05644
G1 X128.194 Y193.369 E0.0565
G1 X129.647 Y192.924 E0.05658
G1 X131.066 Y192.375 E0.05668
G1 X132.445 Y191.725 E0.05679
G1 X133.777 Y190.976 E0.05692
G1 X135.055 Y190.132 E0.05706
G1 X136.275 Y189.198 E0.0572
G1 X137.429 Y188.178 E0.05736
G1 X138.512 Y187.077 E0.05752
G1 X139.519 Y185.901 E0.05768
G1 X140.445 Y184.654 E0.05784
G1 X141.286 Y183.344 E0.05799
G1 X142.037 Y181.976 E0.05813
G1 X142.696 Y180.557 E0.05826
G1 X143.258 Y179.094 E0.05838
G1 X143.723 Y177.595 E0.05848
G1 X144.086 Y176.065 E0.05856
G1 X144.347 Y174.512 E0.05863
G1 X144.503 Y172.945 E0.05867
G1 X144.555 Y171.382 E0.05825
G1 X144.555 Y151.359 E0.74578
G1 X144.503 Y149.691 E0.06217
G1 X144.346 Y148.019 E0.06256
G1 X144.084 Y146.361 E0.06252
G1 X143.719 Y144.724 E0.06246
G1 X143.252 Y143.116 E0.06238
G1 X142.685 Y141.543 E0.06228
G1 X142.021 Y140.011 E0.06217
G1 X141.263 Y138.528 E0.06204
G1 X140.413 Y137.1 E0.0619
G1 X139.476 Y135.733 E0.06175
G1 X138.454 Y134.432 E0.06159
G1 X137.37 Y133.222 E0.06052
G1 X129.131 Y124.611 E0.44388
G1 X127.83 Y123.154 E0.07276
G1 X126.627 Y121.621 E0.07256
G1 X125.523 Y120.01 E0.07276
G1 X124.521 Y118.327 E0.07296
G1 X123.627 Y116.578 E0.07315
G1 X122.844 Y114.772 E0.07333
G1 X122.175 Y112.915 E0.07348
G1 X121.625 Y111.017 E0.07362
G1 X121.194 Y109.085 E0.07373
G1 X120.885 Y107.128 E0.07381
G1 X120.698 Y105.153 E0.07387
G1 X120.636 Y103.159 E0.07431
G1 X120.636 Y93.887 E0.34537
G1 X115.852 Y88.887 E0.25774
G1 X115.852 Y87.877 E0.03759
G1 X115.445 Y87.47 F9000
;TYPE:External perimeter
;WIDTH:0.4
G1 F1800
G1 X130.153 Y87.47 E0.42798
G1 X130.153 Y89.05 E0.04596
G1 X125.37 Y94.05 E0.20135
G1 X125.37 Y103.175 E0.26552
G1 X125.421 Y104.824 E0.04801
G1 X125.576 Y106.471 E0.04813
G1 X125.834 Y108.104 E0.0481
G1 X126.194 Y109.715 E0.04805
G1 X126.654 Y111.299 E0.04798
G1 X127.211 Y112.848 E0.0479
G1 X127.865 Y114.356 E0.04781
G1 X128.611 Y115.815 E0.04771
G1 X129.448 Y117.221 E0.0476
G1 X130.371 Y118.567 E0.04748
G1 X131.375 Y119.847 E0.04734
G1 X132.453 Y121.054 E0.04709
G1 X140.682 Y129.654 E0.34633
G1 X141.999 Y131.124 E0.05742
G1 X143.218 Y132.676 E0.05745
G1 X144.337 Y134.309 E0.05761
G1 X145.353 Y136.015 E0.05777
G1 X146.259 Y137.787 E0.05791
G1 X147.052 Y139.618 E0.05804
