; generated by SuperSlicer 2.4 on 2022-08-28 at 04:55:54 UTC


;
;

;
;
; 

; external perimeters extrusion width = 0.40mm
; perimeters extrusion width = 0.50mm
; infill extrusion width = 0.72mm
; solid infill extrusion width = 0.56mm
; top infill extrusion width = 0.40mm
; support material extrusion width = 0.50mm

; object:{"name":"Backpack_Hook","id":"Backpack_Hook.stl id:0 copy 0","object_center":[152.500615,150.000164,0.000000],"boundingbox_center":[152.500615,150.000164,24.394835],"boundingbox_size":[52.807724,85.998890,48.789669]}
; plater:{"center":[152.500615,150.000164,0.000000],"boundingbox_center":[152.500615,150.000164,24.394835],"boundingbox_size":[52.807724,85.998890,48.789669]}

M73 P0 R55
;TYPE:Custom
START_PRINT T_BED=60 T_EXTRUDER=200
M107
G21 ; set units to millimeters
G90 ; use absolute coordinates
M83 ; use relative distances for extrusion
; Filament gcode
;_TOOLCHANGE 0
M104 S200 ; set temperature
M109 S200 ; set temperature and wait for it to be reached
M190 S60 ; set bed temperature and wait for it to be reached
M107
;LAYER_CHANGE
;Z:0.2
;HEIGHT:0.2
G1 Z0.2 F9000
G92 E0
M73 P0 R55
G1 E-0.8 F3000
M204 S1000
G1 X129.851 Y114.45 F9000
G1 E0.8 F1800
;TYPE:Skirt
;WIDTH:0.52
G1 X129.619 Y114.714 E0.01368
G1 X128.308 Y116.427 E0.08386
G1 X127.18 Y118.139 E0.0797
G1 X121.658 Y127.346 E0.41739
G1 X121.128 Y129.258 E0.0771
G1 X121.128 Y132.715 E0.1344
G1 X121.252 Y133.667 E0.03734
G1 X122.061 Y135.177 E0.06657
G1 X164.253 Y182.869 E2.47548
G1 X167.866 Y186.491 E0.19889
G1 X168.827 Y187.185 E0.04607
G1 X170.493 Y187.579 E0.06657
G1 X182.907 Y187.579 E0.4826
G1 X185.128 Y186.843 E0.09097
G1 X186.228 Y185.53 E0.06657
G1 X186.623 Y183.864 E0.06657
G1 X186.601 Y174.964 E0.34599
G1 X181.762 Y130.276 E1.74744
G1 X181.469 Y128.269 E0.07884
G1 X181.01 Y126.162 E0.08386
G1 X180.31 Y123.837 E0.0944
G1 X179.53 Y121.825 E0.08386
G1 X178.606 Y119.876 E0.08386
G1 X177.541 Y118 E0.08386
G1 X176.343 Y116.207 E0.08386
G1 X175.017 Y114.505 E0.08386
G1 X173.57 Y112.905 E0.08386
G1 X172.01 Y111.415 E0.08386
G1 X170.346 Y110.043 E0.08386
G1 X168.586 Y108.796 E0.08386
G1 X166.739 Y107.681 E0.08386
G1 X164.816 Y106.703 E0.08386
G1 X162.827 Y105.869 E0.08386
G1 X160.782 Y105.182 E0.08386
G1 X158.693 Y104.646 E0.08386
G1 X156.57 Y104.264 E0.08386
G1 X154.425 Y104.038 E0.08386
G1 X152.269 Y103.969 E0.08386
G1 X150.384 Y104.038 E0.07331
G1 X147.97 Y104.303 E0.0944
G1 X146.116 Y104.646 E0.07331
G1 X144.027 Y105.182 E0.08386
G1 X141.982 Y105.869 E0.08386
G1 X139.748 Y106.818 E0.09437
G1 X137.833 Y107.814 E0.08389
G1 X136.223 Y108.796 E0.07331
G1 X134.463 Y110.043 E0.08386
G1 X132.799 Y111.415 E0.08386
G1 X131.239 Y112.905 E0.08386
G1 X130.422 Y113.803 E0.0472
G1 X129.851 Y114.45 E0.03352
G1 X130.208 Y114.765 F9000
G1 F1800
G1 X129.996 Y115.006 E0.01246
G1 X128.706 Y116.691 E0.08251
G1 X127.589 Y118.385 E0.07888
G1 X122.067 Y127.592 E0.41739
G1 X121.605 Y129.258 E0.0672
G1 X121.605 Y132.715 E0.1344
G1 X122.418 Y134.861 E0.08921
G1 X164.61 Y182.553 E2.47548
G1 X168.203 Y186.154 E0.19776
G1 X168.945 Y186.708 E0.03602
G1 X170.493 Y187.102 E0.06209
G1 X182.907 Y187.102 E0.4826
G1 X184.666 Y186.583 E0.0713
G1 X185.752 Y185.412 E0.06209
G1 X186.146 Y183.864 E0.06209
G1 X186.127 Y175.015 E0.34399
M73 P0 R55
G1 X181.287 Y130.328 E1.74744
G1 X180.997 Y128.339 E0.07813
G1 X180.544 Y126.266 E0.08251
G1 X179.864 Y124.007 E0.09169
G1 X179.098 Y122.028 E0.08251
G1 X178.19 Y120.11 E0.0825
G1 X177.143 Y118.263 E0.08251
G1 X175.965 Y116.498 E0.0825
G1 X174.661 Y114.824 E0.08251
G1 X173.239 Y113.249 E0.0825
G1 X171.705 Y111.782 E0.08251
G1 X170.068 Y110.431 E0.0825
G1 X168.337 Y109.203 E0.0825
G1 X166.521 Y108.105 E0.08251
G1 X164.63 Y107.143 E0.0825
G1 X162.673 Y106.32 E0.08251
G1 X160.662 Y105.643 E0.08251
G1 X158.606 Y105.115 E0.0825
G1 X156.518 Y104.738 E0.08251
G1 X154.407 Y104.515 E0.0825
G1 X152.286 Y104.446 E0.0825
G1 X150.402 Y104.515 E0.07331
G1 X148.057 Y104.772 E0.09169
G1 X146.203 Y105.115 E0.07331
G1 X144.147 Y105.643 E0.0825
G1 X142.136 Y106.32 E0.08251
G1 X139.966 Y107.243 E0.09166
G1 X138.082 Y108.221 E0.08254
G1 X136.275 Y109.334 E0.0825
G1 X134.741 Y110.431 E0.07331
G1 X133.104 Y111.782 E0.0825
G1 X131.57 Y113.249 E0.08251
G1 X130.777 Y114.122 E0.04585
G1 X130.208 Y114.765 E0.03339
G1 E-0.8 F3000
; printing object Backpack_Hook.stl id:0 copy 0
G1 X169.786 Y170.743 F9000
G1 E0.8 F1800
;TYPE:Support material interface
;WIDTH:0.5

G1 X172.301 Y170.743 E0.09366
G1 X172.39 Y171.622 E0.03293
G1 X172.395 Y171.66 E0.00141
G1 X172.404 Y171.709 E0.00187
G1 X172.612 Y172.879 E0.04426
G1 X172.658 Y173.018 E0.00543
G1 X172.944 Y173.591 E0.02388
G1 X173.06 Y173.743 E0.0071
G1 X173.329 Y173.985 E0.0135
G1 X173.407 Y174.018 E0.00317
G1 X173.594 Y174.098 E0.00756
G1 X173.643 Y174.119 E0.00199
G1 X173.843 Y174.159 E0.0076
G1 X177.97 Y174.159 E0.1537
G1 X178.016 Y174.149 E0.00176
G1 X178.182 Y174.113 E0.00634
G1 X178.325 Y174.048 E0.00584
G1 X178.587 Y173.928 E0.01074
G1 X178.855 Y173.65 E0.0144
G1 X179.167 Y172.889 E0.03061
G1 X179.193 Y172.806 E0.00323
G1 X179.404 Y171.852 E0.0364
G1 X179.414 Y171.78 E0.00271
G1 X179.42 Y171.695 E0.00319
G1 X179.46 Y171.165 E0.01977
G1 X179.461 Y171.147 E0.00066
G1 X179.491 Y170.743 E0.01512
G1 X180.157 Y170.743 E0.02482
G1 X180.157 Y177.657 E0.25753
G1 X173.243 Y177.657 E0.25753
G1 X173.243 Y174.2 E0.12876
G1 X169.786 Y174.2 E0.12876
G1 X169.786 Y170.743 E0.12876
G1 E-0.8 F3000
G1 X180.043 Y171.331 F9000
G1 E0.8 F1800

G1 X179.759 Y171.331 E0.01058
G1 X179.73 Y171.717 E0.01445
G1 X179.723 Y171.814 E0.00361
G1 X179.72 Y171.838 E0.00091
G1 X179.846 Y171.838 E0.00472
G1 X179.846 Y172.346 E0.01892
G1 X179.613 Y172.346 E0.00871
G1 X179.5 Y172.854 E0.01937
G1 X179.846 Y172.854 E0.01289
G1 X179.846 Y173.362 E0.01892
G1 X179.309 Y173.362 E0.02002
G1 X179.12 Y173.822 E0.01853
G1 X179.075 Y173.87 E0.00246
G1 X179.846 Y173.87 E0.02875
G1 X179.846 Y174.378 E0.01892
G1 X178.351 Y174.378 E0.0557
G1 X178.281 Y174.41 E0.00286
G1 X178.082 Y174.453 E0.00758
G1 X178.003 Y174.47 E0.003
G1 X173.812 Y174.47 E0.15611
G1 X173.554 Y174.417 E0.00981
G1 X173.554 Y174.886 E0.01744
G1 X179.846 Y174.886 E0.23437
G1 X179.846 Y175.393 E0.01892
G1 X173.554 Y175.393 E0.23437
G1 X173.554 Y175.901 E0.01892
G1 X179.846 Y175.901 E0.23437
G1 X179.846 Y176.409 E0.01892
G1 X173.554 Y176.409 E0.23437
G1 X173.554 Y176.917 E0.01892
G1 X180.043 Y176.917 E0.24169
G1 E-0.8 F3000
G1 X172.245 Y171.331 F9000
G1 E0.8 F1800

G1 X170.097 Y171.331 E0.08003
G1 X170.097 Y171.838 E0.01892
G1 X172.111 Y171.838 E0.07503
G1 X172.201 Y172.346 E0.01921
G1 X170.097 Y172.346 E0.07839
G1 X170.097 Y172.854 E0.01892
G1 X172.292 Y172.854 E0.08175
G1 X172.31 Y172.956 E0.00384
G1 X172.37 Y173.136 E0.00709
G1 X172.482 Y173.362 E0.00939
G1 X170.097 Y173.362 E0.08885
G1 X170.097 Y173.87 E0.01892
G1 X173.013 Y173.87 E0.1086
G1 E-0.8 F3000
G1 X126.39 Y132.715 F9000
G1 E0.8 F1800

G1 X124.844 Y132.715 E0.05759
G1 X124.844 Y129.258 E0.12876
G1 X125.759 Y129.258 E0.03407
G1 X125.635 Y130.05 E0.02986
G1 X125.631 Y130.087 E0.00141
G1 X125.605 Y130.491 E0.01506
G1 X125.609 Y130.583 E0.00346
G1 X125.702 Y131.161 E0.02178
G1 X125.731 Y131.251 E0.00353
G1 X125.74 Y131.28 E0.00113
G1 X125.878 Y131.557 E0.01153
G1 X125.987 Y131.776 E0.0091
G1 X125.799 Y131.915 E0.00869
G1 X126.051 Y132.256 E0.01582
G1 X126.39 Y132.715 E0.02124
G1 E-0.8 F3000
G1 X125.576 Y129.686 F9000
G1 E0.8 F1800

G1 X125.155 Y129.686 E0.01569
G1 X125.155 Y130.193 E0.01892
G1 X125.312 Y130.193 E0.00587
G1 X125.293 Y130.488 E0.01101
G1 X125.299 Y130.616 E0.00475
G1 X125.313 Y130.701 E0.00323
G1 X125.155 Y130.701 E0.0059
G1 X125.155 Y131.209 E0.01892
G1 X125.395 Y131.209 E0.00895
G1 X125.399 Y131.233 E0.00091
G1 X125.435 Y131.346 E0.0044
G1 X125.451 Y131.397 E0.002
G1 X125.592 Y131.681 E0.0118
G1 X125.543 Y131.717 E0.00227
G1 X125.155 Y131.717 E0.01447
G1 X125.155 Y132.225 E0.01892
G1 X125.886 Y132.225 E0.02724
G1 E-0.8 F3000
G1 X167.036 Y171.907 F9000
G1 E0.8 F1800
;TYPE:Support material
G1 X169.079 Y171.907 E0.07608
G1 X169.079 Y174.907 E0.11174
G1 X172.536 Y174.907 E0.12876
G1 X172.536 Y178.364 E0.12876
G1 X180.864 Y178.364 E0.3102
G1 X180.864 Y175.364 E0.11174
G1 X182.907 Y175.364 E0.07608
G1 X182.907 Y183.864 E0.31658
G1 X170.493 Y183.864 E0.46237
G1 X170.493 Y180.407 E0.12876
G1 X167.036 Y180.407 E0.12876
G1 X167.036 Y171.907 E0.31658
G1 E-0.8 F3000
G1 X182.465 Y183.749 F9000
G1 E0.8 F1800
G1 X182.465 Y175.675 E0.30075
G1 X181.957 Y175.675 E0.01892
G1 X181.957 Y183.553 E0.29343
G1 X181.449 Y183.553 E0.01892
G1 X181.449 Y175.675 E0.29343
G1 X181.175 Y175.675 E0.0102
G1 X181.175 Y178.675 E0.11174
G1 X180.941 Y178.675 E0.00872
G1 X180.941 Y183.553 E0.18169
G1 X180.433 Y183.553 E0.01892
G1 X180.433 Y178.675 E0.18169
G1 X179.925 Y178.675 E0.01892
G1 X179.925 Y183.553 E0.18169
G1 X179.418 Y183.553 E0.01892
G1 X179.418 Y178.675 E0.18169
G1 X178.91 Y178.675 E0.01892
G1 X178.91 Y183.553 E0.18169
G1 X178.402 Y183.553 E0.01892
G1 X178.402 Y178.675 E0.18169
G1 X177.894 Y178.675 E0.01892
G1 X177.894 Y183.553 E0.18169
G1 X177.386 Y183.553 E0.01892
G1 X177.386 Y178.675 E0.18169
G1 X176.878 Y178.675 E0.01892
G1 X176.878 Y183.553 E0.18169
G1 X176.37 Y183.553 E0.01892
G1 X176.37 Y178.675 E0.18169
G1 X175.862 Y178.675 E0.01892
G1 X175.862 Y183.553 E0.18169
G1 X175.355 Y183.553 E0.01892
G1 X175.355 Y178.675 E0.18169
G1 X174.847 Y178.675 E0.01892
G1 X174.847 Y183.553 E0.18169
G1 X174.339 Y183.553 E0.01892
G1 X174.339 Y178.675 E0.18169
G1 X173.831 Y178.675 E0.01892
G1 X173.831 Y183.553 E0.18169
G1 X173.323 Y183.553 E0.01892
G1 X173.323 Y178.675 E0.18169
G1 X172.815 Y178.675 E0.01892
G1 X172.815 Y183.553 E0.18169
G1 X172.307 Y183.553 E0.01892
G1 X172.307 Y178.675 E0.18169
G1 X172.225 Y178.675 E0.00307
G1 X172.225 Y175.218 E0.12876
G1 X171.8 Y175.218 E0.01585
G1 X171.8 Y183.553 E0.31046
G1 X171.292 Y183.553 E0.01892
G1 X171.292 Y175.218 E0.31046
G1 X170.784 Y175.218 E0.01892
G1 X170.784 Y180.096 E0.18169
G1 X170.276 Y180.096 E0.01892
G1 X170.276 Y175.218 E0.18169
G1 X169.768 Y175.218 E0.01892
G1 X169.768 Y180.096 E0.18169
G1 X169.26 Y180.096 E0.01892
G1 X169.26 Y175.218 E0.18169
G1 X168.768 Y175.218 E0.01833
G1 X168.768 Y172.218 E0.11174
G1 X168.752 Y172.218 E0.00058
G1 X168.752 Y180.096 E0.29343
G1 X168.244 Y180.096 E0.01892
G1 X168.244 Y172.218 E0.29343
G1 X167.737 Y172.218 E0.01892
G1 X167.737 Y180.292 E0.30075
G1 E-0.8 F3000
G1 X173.695 Y173.363 F9000
G1 E0.8 F1800
G1 X173.582 Y173.261 E0.00566
G1 X173.547 Y173.216 E0.00214
G1 X173.392 Y172.905 E0.01295
G1 X173.313 Y172.747 E0.00656
G1 X173.299 Y172.705 E0.00164
G1 X173.157 Y171.907 E0.03021
G1 X175.536 Y171.907 E0.0886
G1 X175.536 Y173.452 E0.05755
G1 X173.914 Y173.452 E0.0604
G1 X173.897 Y173.448 E0.00066
G1 X173.854 Y173.44 E0.00163
G1 X173.738 Y173.39 E0.00471
G1 X173.722 Y173.38 E0.0007
G1 X173.695 Y173.363 E0.00119
G1 X174.847 Y173.338 F9000
G1 F1800
G1 X174.847 Y172.218 E0.04172
G1 X174.339 Y172.218 E0.01892
G1 X174.339 Y173.141 E0.0344
G1 X173.946 Y173.141 E0.01463
G1 X173.883 Y173.114 E0.00255
G1 X173.831 Y173.068 E0.00261
G1 X173.831 Y172.021 E0.03897
G1 E-0.8 F3000
G1 X175.575 Y168.533 F9000
G1 E0.8 F1800
;TYPE:Internal perimeter
G1 X175.561 Y133.018 E1.32279
G1 X175.452 Y131.201 E0.0678
G1 X175.197 Y129.377 E0.0686
G1 X174.797 Y127.579 E0.06859
G1 X174.256 Y125.819 E0.0686
G1 X173.576 Y124.107 E0.06859
G1 X172.763 Y122.455 E0.0686
G1 X171.821 Y120.872 E0.06859
G1 X170.757 Y119.369 E0.0686
G1 X169.576 Y117.956 E0.0686
G1 X168.287 Y116.641 E0.0686
G1 X166.897 Y115.432 E0.06859
G1 X165.415 Y114.338 E0.06861
G1 X163.837 Y113.356 E0.06923
G1 X162.216 Y112.519 E0.06796
G1 X160.518 Y111.806 E0.06858
G1 X158.769 Y111.23 E0.06859
G1 X156.98 Y110.794 E0.0686
G1 X155.161 Y110.503 E0.06859
G1 X153.325 Y110.356 E0.0686
G1 X151.484 Y110.356 E0.0686
G1 X149.648 Y110.503 E0.0686
G1 X147.829 Y110.794 E0.06859
G1 X146.04 Y111.23 E0.0686
G1 X144.291 Y111.806 E0.06859
G1 X142.593 Y112.519 E0.0686
G1 X140.957 Y113.365 E0.06859
G1 X139.393 Y114.338 E0.0686
G1 X137.912 Y115.432 E0.0686
G1 X136.522 Y116.641 E0.06859
G1 X135.233 Y117.956 E0.0686
G1 X134.052 Y119.369 E0.0686
G1 X132.988 Y120.872 E0.0686
G1 X132.046 Y122.455 E0.06859
G1 X131.232 Y124.107 E0.0686
G1 X130.553 Y125.819 E0.06859
G1 X130.012 Y127.581 E0.06864
G1 X129.67 Y129.16 E0.06018
G1 X128.964 Y129.163 E0.02628
G1 X129.341 Y127.47 E0.06459
G1 X129.843 Y125.803 E0.06485
G1 X130.465 Y124.177 E0.06486
G1 X131.204 Y122.6 E0.06485
G1 X132.056 Y121.082 E0.06486
G1 X133.017 Y119.629 E0.06485
G1 X134.081 Y118.251 E0.06486
G1 X135.243 Y116.954 E0.06485
G1 X136.497 Y115.746 E0.06485
G1 X137.835 Y114.632 E0.06486
G1 X139.251 Y113.619 E0.06485
G1 X140.738 Y112.712 E0.06486
G1 X142.287 Y111.915 E0.06488
G1 X143.889 Y111.235 E0.06483
G1 X145.537 Y110.672 E0.06486
G1 X147.221 Y110.232 E0.06485
G1 X148.934 Y109.916 E0.06486
G1 X150.664 Y109.725 E0.06485
G1 X152.404 Y109.662 E0.06485
G1 X152.802 Y109.676 E0.0148
G1 X154.145 Y109.725 E0.05006
G1 X155.875 Y109.916 E0.06485
G1 X157.588 Y110.232 E0.06486
G1 X159.272 Y110.672 E0.06485
G1 X160.92 Y111.235 E0.06486
G1 X162.523 Y111.916 E0.06485
G1 X164.071 Y112.712 E0.06486
G1 X165.558 Y113.619 E0.06485
G1 X166.974 Y114.632 E0.06485
G1 X168.312 Y115.746 E0.06486
G1 X169.566 Y116.954 E0.06485
G1 X170.728 Y118.251 E0.06485
G1 X171.792 Y119.629 E0.06486
G1 X172.753 Y121.082 E0.06485
G1 X173.605 Y122.6 E0.06486
G1 X174.344 Y124.177 E0.06485
G1 X174.966 Y125.803 E0.06486
G1 X175.468 Y127.47 E0.06485
G1 X175.846 Y129.17 E0.06486
G1 X176.1 Y130.893 E0.06485
G1 X176.228 Y132.648 E0.06556
G1 X176.244 Y133.519 E0.03243
G1 X176.244 Y168.533 E1.30415
G1 X175.575 Y168.533 E0.02492
G1 X175.118 Y168.99 F9000
G1 F1800
G1 X175.104 Y133.032 E1.3393
G1 X174.997 Y131.246 E0.06662
G1 X174.746 Y129.459 E0.06724
G1 X174.355 Y127.696 E0.06724
G1 X173.824 Y125.971 E0.06724
G1 X173.158 Y124.293 E0.06724
G1 X172.361 Y122.673 E0.06724
G1 X171.438 Y121.122 E0.06724
G1 X170.394 Y119.648 E0.06724
G1 X169.237 Y118.263 E0.06724
G1 X167.973 Y116.974 E0.06724
G1 X166.611 Y115.789 E0.06724
G1 X165.159 Y114.716 E0.06725
G1 X163.611 Y113.754 E0.06787
G1 X162.022 Y112.933 E0.06661
G1 X160.358 Y112.234 E0.06723
G1 X158.643 Y111.669 E0.06724
G1 X156.889 Y111.243 E0.06724
G1 X155.107 Y110.957 E0.06724
G1 X153.307 Y110.813 E0.06724
G1 X151.502 Y110.813 E0.06724
G1 X149.702 Y110.957 E0.06724
G1 X147.92 Y111.243 E0.06724
G1 X146.166 Y111.669 E0.06724
G1 X144.451 Y112.234 E0.06724
G1 X142.786 Y112.933 E0.06724
G1 X141.183 Y113.762 E0.06724
G1 X139.65 Y114.716 E0.06724
G1 X138.198 Y115.789 E0.06724
G1 X136.836 Y116.974 E0.06724
G1 X135.572 Y118.263 E0.06724
G1 X134.415 Y119.648 E0.06724
G1 X133.371 Y121.122 E0.06724
G1 X132.448 Y122.673 E0.06724
G1 X131.651 Y124.293 E0.06724
G1 X130.985 Y125.971 E0.06724
G1 X130.454 Y127.696 E0.06724
M73 P1 R55
G1 X130.065 Y129.447 E0.0668
G1 X130.039 Y129.615 E0.00634
G1 X129.084 Y129.628 E0.03556
G1 X128.429 Y129.623 E0.02443
G1 X128.511 Y129.094 E0.01992
G1 X128.899 Y127.355 E0.06638
G1 X129.41 Y125.655 E0.0661
G1 X130.044 Y123.998 E0.0661
G1 X130.797 Y122.391 E0.0661
G1 X131.666 Y120.843 E0.0661
G1 X132.645 Y119.363 E0.0661
G1 X133.73 Y117.959 E0.0661
G1 X134.914 Y116.637 E0.0661
G1 X136.192 Y115.405 E0.0661
G1 X137.556 Y114.27 E0.0661
G1 X138.999 Y113.237 E0.0661
G1 X140.514 Y112.313 E0.0661
G1 X142.093 Y111.501 E0.06613
G1 X143.725 Y110.807 E0.06607
G1 X145.405 Y110.234 E0.0661
G1 X147.122 Y109.786 E0.0661
G1 X148.867 Y109.463 E0.0661
G1 X150.631 Y109.269 E0.0661
G1 X152.404 Y109.204 E0.0661
G1 X152.818 Y109.219 E0.01542
G1 X154.178 Y109.269 E0.05068
G1 X155.942 Y109.463 E0.0661
G1 X157.687 Y109.786 E0.0661
G1 X159.404 Y110.234 E0.0661
G1 X161.084 Y110.807 E0.0661
G1 X162.717 Y111.501 E0.0661
G1 X164.295 Y112.313 E0.0661
G1 X165.81 Y113.237 E0.0661
G1 X167.253 Y114.27 E0.0661
G1 X168.617 Y115.405 E0.0661
G1 X169.895 Y116.637 E0.0661
G1 X171.079 Y117.959 E0.0661
G1 X172.164 Y119.363 E0.0661
G1 X173.143 Y120.843 E0.0661
G1 X174.012 Y122.391 E0.0661
G1 X174.765 Y123.998 E0.0661
G1 X175.399 Y125.655 E0.0661
G1 X175.91 Y127.355 E0.0661
G1 X176.296 Y129.087 E0.0661
G1 X176.554 Y130.843 E0.0661
