; generated by SuperSlicer 2.4 on 2022-11-18 at 21:11:13 UTC


;
;

;
;
; 

; external perimeters extrusion width = 0.40mm
; perimeters extrusion width = 0.46mm
; infill extrusion width = 0.64mm
; solid infill extrusion width = 0.56mm
; top infill extrusion width = 0.40mm
; support material extrusion width = 0.46mm
; first layer extrusion width = 0.50mm

; external perimeters extrusion width = 0.40mm
; perimeters extrusion width = 0.46mm
; infill extrusion width = 0.64mm
; solid infill extrusion width = 0.56mm
; top infill extrusion width = 0.40mm
; support material extrusion width = 0.46mm
; first layer extrusion width = 0.50mm

; object:{"name":"Skadis_Hook_15mm_Typ_2","id":"Skadis_Hook_15mm_Typ_2.2(1).stl id:0 copy 0","object_center":[166.226236,157.068219,0.000000],"boundingbox_center":[166.226236,157.068219,2.250000],"boundingbox_size":[38.417542,49.999998,4.500000]}
; object:{"name":"Skadis_Hook_15mm_Typ_2","id":"Skadis_Hook_15mm_Typ_2.1.stl id:1 copy 0","object_center":[137.005988,142.931782,0.000000],"boundingbox_center":[137.005988,142.931782,2.250000],"boundingbox_size":[34.881989,49.999998,4.500000]}
; plater:{"center":[152.500000,150.000000,0.000000],"boundingbox_center":[152.500000,150.000000,2.250000],"boundingbox_size":[65.870013,64.136435,4.500000]}

M73 P0 R15


; Pre-Processed for Cancel-Object support by preprocess_cancellation v0.2.0
; 2 known objects
EXCLUDE_OBJECT_DEFINE NAME=Skadis_Hook_15mm_Typ_2_2_1_stl_id_0_copy_0 CENTER=159.997,156.156 POLYGON=[[147.217,132.279],[147.217,181.868],[185.224,181.868],[185.224,132.279]]
EXCLUDE_OBJECT_DEFINE NAME=Skadis_Hook_15mm_Typ_2_1_stl_id_1_copy_0 CENTER=131.967,141.972 POLYGON=[[119.765,118.143],[119.765,167.732],[154.235,167.732],[154.235,118.143]]
;TYPE:Custom
START_PRINT T_BED=60 T_EXTRUDER=200
M107
G21 ; set units to millimeters
G90 ; use absolute coordinates
M83 ; use relative distances for extrusion
; Filament gcode
;_TOOLCHANGE 0
M104 S200 ; set temperature
M109 S200 ; set temperature and wait for it to be reached
M190 S60 ; set bed temperature and wait for it to be reached
M107
;LAYER_CHANGE
;Z:0.2
;HEIGHT:0.2
G1 Z0.2 F9000
G92 E0
M73 P0 R15
G1 E-0.8 F3000
M204 S1000
G1 X127.892 Y116.462 F9000
G1 E0.8 F1800
;TYPE:Skirt
;WIDTH:0.52
G1 X127.135 Y117.389 E0.04747
G1 X119.193 Y132.03 E0.66075
G1 X118.82 Y133.058 E0.0434
G1 X116.533 Y156.589 E0.93785
G1 X116.561 Y166.102 E0.37736
G1 X116.877 Y167.391 E0.05265
G1 X117.498 Y168.581 E0.05326
G1 X118.036 Y169.248 E0.03399
G1 X119.133 Y170.137 E0.05604
G1 X147.239 Y184.625 E1.25434
G1 X148.461 Y185.003 E0.05074
G1 X149.467 Y185.116 E0.04017
G1 X158.747 Y185.117 E0.36812
G1 X159.638 Y185.038 E0.03546
G1 X160.716 Y184.742 E0.04436
G1 X161.796 Y184.178 E0.04833
G1 X162.659 Y183.469 E0.04429
G1 X163.428 Y182.505 E0.04894
G1 X187.677 Y143.24 E1.8307
G1 X188.021 Y142.561 E0.03022
G1 X188.338 Y141.581 E0.04085
G1 X188.476 Y140.414 E0.04662
G1 X188.423 Y139.607 E0.03206
G1 X188.251 Y138.785 E0.03334
G1 X187.98 Y138.067 E0.03041
G1 X187.14 Y136.745 E0.06216
G1 X181.047 Y130.623 E0.34262
G1 X180.057 Y129.852 E0.0498
G1 X152.284 Y115.523 E1.23972
M73 P1 R15
G1 X151.127 Y115.078 E0.04918
G1 X150.122 Y114.905 E0.04043
G1 X131.124 Y114.923 E0.75366
G1 X129.986 Y115.181 E0.04628
G1 X129.122 Y115.557 E0.03737
G1 X127.892 Y116.462 E0.06058
G1 X128.231 Y116.798 F9000
G1 F1800
G1 X127.524 Y117.665 E0.04438
G1 X119.612 Y132.256 E0.65844
G1 X119.287 Y133.153 E0.03783
G1 X117.008 Y156.634 E0.93587
G1 X117.036 Y166.058 E0.37383
G1 X117.318 Y167.208 E0.04698
G1 X117.887 Y168.304 E0.04898
G1 X118.388 Y168.926 E0.03169
G1 X119.393 Y169.737 E0.05124
G1 X147.441 Y184.193 E1.2517
G1 X148.535 Y184.532 E0.04543
G1 X149.467 Y184.639 E0.03724
G1 X158.747 Y184.64 E0.36812
G1 X159.553 Y184.569 E0.03209
G1 X160.557 Y184.292 E0.04133
G1 X161.518 Y183.79 E0.04302
G1 X162.328 Y183.125 E0.04155
G1 X163.022 Y182.254 E0.04418
G1 X187.271 Y142.989 E1.8307
G1 X187.588 Y142.36 E0.02798
G1 X187.876 Y141.461 E0.03742
G1 X187.999 Y140.42 E0.04158
G1 X187.952 Y139.686 E0.0292
G1 X187.795 Y138.927 E0.03074
G1 X187.552 Y138.278 E0.0275
G1 X186.768 Y137.045 E0.05796
G1 X180.71 Y130.961 E0.34061
G1 X179.817 Y130.264 E0.04491
G1 X152.065 Y115.947 E1.23876
G1 X150.988 Y115.535 E0.04576
G1 X150.072 Y115.379 E0.03687
G1 X131.17 Y115.398 E0.74983
G1 X130.147 Y115.63 E0.04158
G1 X129.339 Y115.983 E0.03501
G1 X128.231 Y116.798 E0.05457
G1 E-0.8 F3000
; printing object Skadis_Hook_15mm_Typ_2.2(1).stl id:0 copy 0
EXCLUDE_OBJECT_START NAME=Skadis_Hook_15mm_Typ_2_2_1_stl_id_0_copy_0
G1 X183.283 Y140.944 F9000
M73 P2 R15
G1 E0.8 F1800
;TYPE:Internal perimeter
;WIDTH:0.5
G1 X177.744 Y135.409 E0.29761
G1 X177.112 Y134.985 E0.02893
G1 X176.586 Y134.784 E0.02139
G1 X176.098 Y134.669 E0.01906
G1 X175.641 Y134.636 E0.01742
G1 X162.45 Y134.64 E0.50135
G1 X161.912 Y134.727 E0.02071
G1 X161.407 Y134.903 E0.02029
G1 X161.138 Y135.035 E0.01141
G1 X160.88 Y135.189 E0.01141
G1 X160.489 Y135.494 E0.01886
G1 X160.26 Y135.719 E0.0122
G1 X159.918 Y136.141 E0.02064
G1 X159.654 Y136.652 E0.02184
G1 X159.491 Y137.129 E0.01915
G1 X159.423 Y137.465 E0.01305
G1 X159.386 Y137.915 E0.01717
G1 X159.386 Y179.505 E1.58069
G1 X159.349 Y179.756 E0.00962
G1 X159.281 Y179.918 E0.0067
G1 X159.157 Y180.061 E0.00721
G1 X158.971 Y180.182 E0.00841
G1 X158.882 Y180.214 E0.0036
G1 X158.691 Y180.237 E0.00733
G1 X149.558 Y180.236 E0.3471
G1 X149.339 Y180.202 E0.00841
G1 X149.192 Y180.145 E0.00599
G1 X149.056 Y180.046 E0.00641
G1 X148.967 Y179.934 E0.00542
G1 X148.894 Y179.794 E0.00602
G1 X148.857 Y179.637 E0.00614
G1 X148.85 Y171.9 E0.29404
G1 X149.686 Y171.9 E0.03176
G1 X149.686 Y176.129 E0.16072
G1 X149.733 Y176.622 E0.01884
G1 X149.807 Y176.958 E0.01307
G1 X149.999 Y177.483 E0.02123
G1 X150.376 Y178.122 E0.02822
G1 X150.856 Y178.609 E0.02597
G1 X151.318 Y178.935 E0.02149
G1 X151.966 Y179.243 E0.02727
G1 X152.747 Y179.398 E0.03025
G1 X155.258 Y179.4 E0.09544
G1 X155.724 Y179.37 E0.01774
G1 X156.055 Y179.298 E0.0129
G1 X156.527 Y179.134 E0.019
G1 X156.82 Y178.99 E0.01238
G1 X157.254 Y178.706 E0.01971
G1 X157.649 Y178.345 E0.02035
G1 X157.955 Y177.983 E0.01803
G1 X158.175 Y177.613 E0.01636
G1 X158.375 Y177.133 E0.01974
G1 X158.509 Y176.602 E0.02083
G1 X158.549 Y176.121 E0.01832
G1 X158.549 Y153.034 E0.87748
G1 X158.533 Y152.744 E0.01104
G1 X158.441 Y152.229 E0.01987
G1 X158.338 Y151.903 E0.013
G1 X158.119 Y151.431 E0.01978
G1 X157.858 Y151.021 E0.01845
G1 X157.582 Y150.716 E0.01564
G1 X157.349 Y150.506 E0.01195
G1 X156.931 Y150.211 E0.01942
G1 X156.473 Y149.978 E0.01953
G1 X155.96 Y149.819 E0.02041
G1 X155.467 Y149.739 E0.01901
G1 X151.049 Y149.737 E0.16789
G1 X151.049 Y148.9 E0.0318
G1 X155.258 Y148.9 E0.15997
G1 X155.752 Y148.868 E0.01879
G1 X156.505 Y148.653 E0.02978
G1 X157.187 Y148.262 E0.02987
G1 X157.466 Y148.037 E0.01363
G1 X157.812 Y147.663 E0.01938
G1 X158.156 Y147.15 E0.02348
G1 X158.459 Y146.396 E0.03087
G1 X158.544 Y145.833 E0.02166
G1 X158.559 Y134.496 E0.43086
G1 X158.607 Y134.32 E0.00694
G1 X158.666 Y134.206 E0.00487
G1 X158.705 Y134.152 E0.00252
G1 X158.822 Y134.04 E0.00619
G1 X158.906 Y133.986 E0.00376
G1 X159.034 Y133.933 E0.00528
G1 X159.267 Y133.9 E0.00893
G1 X159.669 Y133.9 E0.0153
G1 X177.201 Y133.91 E0.66632
G1 X177.318 Y133.93 E0.00451
G1 X177.427 Y133.968 E0.00438
G1 X177.528 Y134.027 E0.00445
G1 X177.64 Y134.117 E0.00545
G1 X183.382 Y139.858 E0.30861
G1 X183.488 Y139.991 E0.00647
G1 X183.551 Y140.119 E0.00542
G1 X183.591 Y140.308 E0.00733
G1 X183.585 Y140.47 E0.00619
G1 X183.551 Y140.6 E0.0051
G1 X183.508 Y140.692 E0.00385
G1 X183.442 Y140.783 E0.00428
G1 X183.283 Y140.944 E0.00862
G1 X183.285 Y141.593 F9000
G1 F1800
G1 X177.452 Y135.763 E0.3134
G1 X176.9 Y135.393 E0.02527
G1 X176.451 Y135.221 E0.01826
G1 X176.029 Y135.122 E0.01649
G1 X175.625 Y135.093 E0.01541
G1 X162.486 Y135.097 E0.49934
G1 X162.024 Y135.172 E0.01779
G1 X161.584 Y135.325 E0.01772
G1 X161.356 Y135.437 E0.00963
G1 X161.139 Y135.567 E0.00962
G1 X160.79 Y135.838 E0.01678
G1 X160.6 Y136.027 E0.0102
G1 X160.303 Y136.393 E0.01791
G1 X160.076 Y136.831 E0.01877
G1 X159.934 Y137.248 E0.01673
G1 X159.877 Y137.53 E0.01092
G1 X159.843 Y137.934 E0.01544
G1 X159.843 Y179.538 E1.58121
G1 X159.83 Y179.705 E0.00635
G1 X159.793 Y179.879 E0.00676
G1 X159.711 Y180.098 E0.00889
G1 X159.674 Y180.163 E0.00284
G1 X159.556 Y180.317 E0.00737
G1 X159.46 Y180.409 E0.00508
G1 X159.175 Y180.595 E0.01291
G1 X158.987 Y180.662 E0.00761
G1 X158.886 Y180.68 E0.00388
G1 X158.718 Y180.694 E0.00642
G1 X149.523 Y180.693 E0.34948
M73 P3 R14
G1 X149.22 Y180.646 E0.01164
G1 X148.972 Y180.549 E0.01012
G1 X148.814 Y180.447 E0.00714
G1 X148.738 Y180.379 E0.00387
G1 X148.582 Y180.185 E0.00947
G1 X148.463 Y179.954 E0.00987
G1 X148.412 Y179.779 E0.00692
G1 X148.4 Y179.69 E0.00341
G1 X148.393 Y171.443 E0.31345
G1 X150.143 Y171.443 E0.06652
G1 X150.143 Y176.107 E0.17726
G1 X150.185 Y176.551 E0.01696
G1 X150.247 Y176.83 E0.01085
G1 X150.414 Y177.287 E0.01848
G1 X150.742 Y177.842 E0.0245
G1 X151.153 Y178.259 E0.02228
G1 X151.549 Y178.539 E0.01844
G1 X152.111 Y178.806 E0.02362
G1 X152.792 Y178.941 E0.02639
G1 X155.243 Y178.943 E0.09317
G1 X155.66 Y178.916 E0.01588
G1 X155.931 Y178.857 E0.01055
G1 X156.351 Y178.711 E0.01689
G1 X156.593 Y178.592 E0.01026
G1 X156.973 Y178.344 E0.01723
G1 X157.319 Y178.028 E0.01783
G1 X157.581 Y177.717 E0.01546
G1 X157.765 Y177.407 E0.0137
G1 X157.94 Y176.988 E0.01723
G1 X158.057 Y176.526 E0.01812
G1 X158.092 Y176.102 E0.01617
G1 X158.092 Y153.046 E0.87627
G1 X158.079 Y152.796 E0.0095
G1 X157.997 Y152.339 E0.01767
G1 X157.911 Y152.069 E0.01076
G1 X157.717 Y151.651 E0.01752
G1 X157.493 Y151.3 E0.01583
G1 X157.258 Y151.04 E0.01329
G1 X157.063 Y150.863 E0.01003
G1 X156.695 Y150.604 E0.01712
G1 X156.301 Y150.403 E0.0168
G1 X155.855 Y150.265 E0.01772
G1 X155.43 Y150.196 E0.01639
G1 X150.592 Y150.194 E0.18385
G1 X150.592 Y148.443 E0.06653
G1 X155.244 Y148.443 E0.17678
G1 X155.673 Y148.415 E0.01636
G1 X156.326 Y148.229 E0.0258
G1 X156.928 Y147.883 E0.0264
G1 X157.154 Y147.702 E0.01098
G1 X157.453 Y147.379 E0.01674
G1 X157.75 Y146.935 E0.02031
G1 X158.015 Y146.276 E0.02701
G1 X158.087 Y145.798 E0.01834
G1 X158.092 Y145.578 E0.00836
G1 X158.091 Y134.559 E0.41879
G1 X158.102 Y134.434 E0.00479
G1 X158.179 Y134.153 E0.01109
G1 X158.276 Y133.965 E0.00802
G1 X158.359 Y133.85 E0.0054
G1 X158.538 Y133.68 E0.00938
G1 X158.693 Y133.579 E0.00704
G1 X158.914 Y133.489 E0.00907
G1 X159.235 Y133.443 E0.01231
G1 X159.67 Y133.443 E0.01654
G1 X177.241 Y133.453 E0.66783
G1 X177.433 Y133.486 E0.00739
G1 X177.618 Y133.55 E0.00744
G1 X177.788 Y133.649 E0.00749
G1 X177.946 Y133.777 E0.0077
G1 X183.722 Y139.552 E0.31044
G1 X183.876 Y139.743 E0.00933
G1 X183.987 Y139.969 E0.00955
G1 X184.014 Y140.056 E0.00345
G1 X184.049 Y140.269 E0.0082
G1 X184.04 Y140.537 E0.0102
G1 X183.983 Y140.755 E0.00858
G1 X183.904 Y140.926 E0.00716
G1 X183.79 Y141.08 E0.00728
G1 X183.285 Y141.593 E0.02736
G1 X183.287 Y142.241 F9000
;TYPE:External perimeter
G1 F1800
G1 X177.161 Y136.118 E0.32919
G1 X176.688 Y135.802 E0.02162
G1 X176.317 Y135.659 E0.01512
G1 X175.96 Y135.575 E0.01393
G1 X175.608 Y135.55 E0.01339
G1 X162.523 Y135.555 E0.49734
G1 X162.136 Y135.617 E0.01487
G1 X161.76 Y135.748 E0.01514
G1 X161.575 Y135.839 E0.00786
G1 X161.398 Y135.945 E0.00784
G1 X161.092 Y136.182 E0.01469
G1 X160.939 Y136.334 E0.00821
G1 X160.687 Y136.645 E0.01519
G1 X160.497 Y137.011 E0.0157
G1 X160.376 Y137.368 E0.0143
G1 X160.33 Y137.594 E0.00879
G1 X160.3 Y137.954 E0.0137
G1 X160.3 Y179.555 E1.58113
G1 X160.284 Y179.77 E0.00817
G1 X160.233 Y180.008 E0.00926
G1 X160.126 Y180.291 E0.01149
G1 X160.057 Y180.415 E0.0054
G1 X159.898 Y180.623 E0.00996
G1 X159.746 Y180.769 E0.00802
G1 X159.379 Y181.008 E0.01663
G1 X159.104 Y181.105 E0.0111
G1 X158.946 Y181.134 E0.0061
G1 X158.737 Y181.151 E0.00797
G1 X149.487 Y181.15 E0.35156
G1 X149.101 Y181.09 E0.01487
G1 X148.762 Y180.958 E0.01381
G1 X148.537 Y180.811 E0.01021
G1 X148.406 Y180.696 E0.00664
G1 X148.197 Y180.435 E0.0127
G1 X148.036 Y180.125 E0.01329
G1 X147.963 Y179.874 E0.00992
G1 X147.943 Y179.721 E0.00587
G1 X147.935 Y171.117 E0.32702
G1 X147.967 Y171.004 E0.00448
G1 X148.053 Y170.986 E0.00332
G1 X150.473 Y170.986 E0.09197
G1 X150.566 Y171.01 E0.00367
G1 X150.585 Y171.038 E0.00128
G1 X150.6 Y171.105 E0.00262
G1 X150.6 Y176.085 E0.18927
G1 X150.638 Y176.48 E0.01508
G1 X150.687 Y176.702 E0.00864
G1 X150.829 Y177.09 E0.01572
G1 X151.107 Y177.561 E0.02077
G1 X151.45 Y177.91 E0.01859
G1 X151.781 Y178.143 E0.01539
G1 X152.255 Y178.368 E0.01996
G1 X152.837 Y178.484 E0.02253
G1 X155.229 Y178.486 E0.0909
G1 X155.597 Y178.462 E0.01402
G1 X155.807 Y178.417 E0.00819
G1 X156.175 Y178.288 E0.01478
G1 X156.367 Y178.194 E0.00813
G1 X156.692 Y177.981 E0.01476
G1 X156.989 Y177.71 E0.0153
G1 X157.208 Y177.451 E0.01288
G1 X157.356 Y177.201 E0.01104
G1 X157.505 Y176.844 E0.01472
G1 X157.604 Y176.45 E0.01541
G1 X157.635 Y176.083 E0.01402
G1 X157.635 Y153.059 E0.87507
G1 X157.624 Y152.849 E0.00796
G1 X157.552 Y152.449 E0.01548
G1 X157.484 Y152.235 E0.00851
G1 X157.315 Y151.871 E0.01526
G1 X157.128 Y151.578 E0.01322
G1 X156.935 Y151.364 E0.01095
G1 X156.777 Y151.221 E0.0081
G1 X156.458 Y150.996 E0.01482
G1 X156.128 Y150.828 E0.01407
G1 X155.75 Y150.711 E0.01503
G1 X155.393 Y150.653 E0.01377
G1 X150.238 Y150.651 E0.1959
G1 X150.187 Y150.636 E0.00203
G1 X150.151 Y150.611 E0.00169
G1 X150.135 Y150.534 E0.00299
G1 X150.135 Y148.099 E0.09253
G1 X150.162 Y148.017 E0.00331
G1 X150.257 Y147.986 E0.0038
G1 X155.229 Y147.986 E0.18895
G1 X155.595 Y147.962 E0.01393
G1 X156.147 Y147.804 E0.02182
M73 P4 R14
G1 X156.67 Y147.504 E0.02292
G1 X156.841 Y147.367 E0.00834
G1 X157.093 Y147.095 E0.0141
G1 X157.344 Y146.72 E0.01714
G1 X157.571 Y146.155 E0.02316
G1 X157.631 Y145.759 E0.01523
G1 X157.635 Y145.573 E0.00707
G1 X157.634 Y134.541 E0.41929
G1 X157.65 Y134.354 E0.00713
G1 X157.751 Y133.985 E0.01452
G1 X157.886 Y133.724 E0.01117
G1 X158.014 Y133.548 E0.00827
G1 X158.253 Y133.32 E0.01256
G1 X158.48 Y133.172 E0.01031
G1 X158.793 Y133.044 E0.01285
G1 X159.202 Y132.986 E0.0157
G1 X159.67 Y132.986 E0.01777
G1 X177.281 Y132.996 E0.66935
G1 X177.548 Y133.043 E0.01027
G1 X177.809 Y133.132 E0.0105
G1 X178.049 Y133.272 E0.01054
G1 X178.252 Y133.437 E0.00996
G1 X184.062 Y139.246 E0.31227
G1 X184.264 Y139.496 E0.0122
G1 X184.413 Y139.799 E0.01284
G1 X184.46 Y139.95 E0.00599
G1 X184.508 Y140.239 E0.01115
G1 X184.495 Y140.603 E0.01385
G1 X184.415 Y140.91 E0.01205
G1 X184.299 Y141.16 E0.01046
G1 X184.139 Y141.378 E0.01027
G1 X183.287 Y142.241 E0.04611
;WIPE_START
M204 S3000
G1 X183.182 Y141.855 F9000
;WIPE_END
M204 S1000
G1 X183.284 Y140.628
;TYPE:Gap fill
;WIDTH:0.131416
G1 F1800
G1 X183.272 Y140.553 E0.00055
;WIDTH:0.240063
G1 X183.238 Y140.406 E0.00248
;WIDTH:0.382464
G1 X183.164 Y140.252 E0.00482
;WIDTH:0.465536
G1 X183.069 Y140.139 E0.00518
G1 X180.548 Y137.618 E0.1253
G1 X178.026 Y135.097 E0.1253
G1 X177.996 Y135.07 E0.00144
G1 X177.871 Y134.967 E0.00569
;WIDTH:0.504891
G1 X177.746 Y134.864 E0.00622
;WIDTH:0.544245
G1 X177.621 Y134.761 E0.00675
;WIDTH:0.583599
G1 X177.496 Y134.659 E0.00728
;WIDTH:0.633236
G1 X177.371 Y134.556 E0.00795
G1 X177.317 Y134.516 E0.00329
;WIDTH:0.677419
G1 X177.184 Y134.445 E0.00793
G1 X177.071 Y134.421 E0.00612
;WIDTH:0.617821
G1 X176.902 Y134.39 E0.0082
;WIDTH:0.539982
G1 X176.734 Y134.359 E0.00709
;WIDTH:0.511927
G1 X176.569 Y134.339 E0.00648
;WIDTH:0.469866
G1 X176.435 Y134.323 E0.00476
;WIDTH:0.428774
G1 X176.302 Y134.308 E0.0043
;WIDTH:0.387681
G1 X176.169 Y134.292 E0.00384
;WIDTH:0.3624
G1 X176.142 Y134.29 E0.00073
G1 X175.9 Y134.281 E0.00642
G1 X175.659 Y134.273 E0.00642
G1 X175.648 Y134.273 E0.00029
G1 X169.04 Y134.272 E0.17553
G1 X162.433 Y134.271 E0.17553
G1 X162.407 Y134.272 E0.00067
G1 X162.117 Y134.295 E0.00773
;WIDTH:0.463644
G1 X161.827 Y134.318 E0.01018
G1 X161.687 Y134.341 E0.00496
;WIDTH:0.511575
G1 X161.583 Y134.358 E0.00409
;WIDTH:0.558391
G1 X161.48 Y134.376 E0.0045
;WIDTH:0.613768
G1 X161.376 Y134.393 E0.00498
G1 X161.239 Y134.418 E0.00664
;WIDTH:0.641729
G1 X161.1 Y134.447 E0.00708
G1 X160.041 Y133.97 F9000
;TYPE:Solid infill
