; generated by SuperSlicer 2.3.56 on 2021-10-10 at 02:57:46 UTC


;
;

;
;
; 

; external perimeters extrusion width = 0.40mm
; perimeters extrusion width = 0.40mm
; infill extrusion width = 0.40mm
; solid infill extrusion width = 0.40mm
; top infill extrusion width = 0.40mm
; first layer extrusion width = 0.48mm


;TYPE:Custom
START_PRINT T_BED=60 T_EXTRUDER=200
M107
G21 ; set units to millimeters
G90 ; use absolute coordinates
M83 ; use relative distances for extrusion
; Filament gcode
M109 S200 ; set temperature and wait for it to be reached
M190 S60 ; set bed temperature and wait for it to be reached
;LAYER_CHANGE
;Z:0.24
;HEIGHT:0.24
G1 Z0.240000 F6000.000
G1 E-0.80000 F3000.000
G1 X30.159 Y43.279 F6000.000
G1 E0.80000 F1500.000
;TYPE:Skirt
;WIDTH:0.48
G1 F1200.000
G1 X31.108 Y42.780 E0.04585
G1 X32.134 Y42.469 E0.04585
G1 X33.207 Y42.357 E0.04610
G1 X240.756 Y42.357 E8.87385
G1 X241.846 Y42.465 E0.04685
G1 X242.890 Y42.779 E0.04660
G1 X243.859 Y43.291 E0.04685
G1 X244.706 Y43.976 E0.04660
G1 X245.406 Y44.812 E0.04660
G1 X245.934 Y45.772 E0.04685
G1 X246.266 Y46.810 E0.04660
G1 X246.392 Y47.892 E0.04660
G1 X246.393 Y244.047 E8.38668
G1 X246.274 Y245.154 E0.04760
G1 X245.940 Y246.216 E0.04760
G1 X245.400 Y247.196 E0.04785
G1 X244.682 Y248.047 E0.04760
G1 X243.841 Y248.721 E0.04610
G1 X242.892 Y249.220 E0.04585
G1 X241.866 Y249.531 E0.04585
G1 X240.793 Y249.643 E0.04610
G1 X33.244 Y249.643 E8.87385
G1 X32.125 Y249.529 E0.04810
G1 X31.050 Y249.196 E0.04810
G1 X30.063 Y248.657 E0.04810
G1 X29.203 Y247.932 E0.04810
G1 X28.529 Y247.091 E0.04610
G1 X28.030 Y246.142 E0.04585
G1 X27.719 Y245.116 E0.04585
G1 X27.607 Y244.043 E0.04610
G1 X27.607 Y47.994 E8.38216
G1 X27.721 Y46.875 E0.04810
G1 X28.054 Y45.800 E0.04810
G1 X28.593 Y44.813 E0.04810
G1 X29.318 Y43.953 E0.04810
G1 X30.112 Y43.316 E0.04353
G1 X30.379 Y43.650 F6000.000
G1 F1200.000
G1 X30.398 Y43.635 E0.00105
G1 X31.276 Y43.174 E0.04239
G1 X32.225 Y42.887 E0.04239
G1 X33.211 Y42.786 E0.04239
G1 X240.756 Y42.786 E8.87365
G1 X241.759 Y42.884 E0.04311
G1 X242.730 Y43.176 E0.04335
G1 X243.621 Y43.648 E0.04311
G1 X244.405 Y44.281 E0.04311
G1 X245.053 Y45.054 E0.04311
G1 X245.541 Y45.943 E0.04335
G1 X245.848 Y46.903 E0.04311
G1 X245.963 Y47.911 E0.04335
G1 X245.964 Y244.039 E8.38558
G1 X245.854 Y245.064 E0.04407
G1 X245.543 Y246.053 E0.04431
G1 X245.046 Y246.955 E0.04407
G1 X244.380 Y247.743 E0.04407
G1 X243.602 Y248.365 E0.04263
G1 X242.724 Y248.826 E0.04239
G1 X241.775 Y249.113 E0.04239
G1 X240.789 Y249.214 E0.04239
G1 X33.250 Y249.214 E8.87341
G1 X32.213 Y249.110 E0.04455
G1 X31.218 Y248.802 E0.04455
G1 X30.304 Y248.302 E0.04455
G1 X29.507 Y247.630 E0.04455
G1 X28.885 Y246.852 E0.04263
G1 X28.424 Y245.974 E0.04239
G1 X28.137 Y245.025 E0.04239
G1 X28.036 Y244.039 E0.04239
G1 X28.036 Y47.994 E8.38197
G1 X28.140 Y46.963 E0.04431
G1 X28.448 Y45.968 E0.04455
G1 X28.948 Y45.054 E0.04455
G1 X29.620 Y44.257 E0.04455
G1 X30.332 Y43.687 E0.03901
G1 E-0.80000 F3000.000
G1 X115.841 Y160.184 F6000.000
G1 E0.80000 F1500.000
;TYPE:Internal perimeter
G1 F1200.000
G1 X115.508 Y160.454 E0.01834
G1 X115.204 Y160.758 E0.01834
G1 X114.934 Y161.091 E0.01834
G1 X114.701 Y161.451 E0.01834
G1 X114.506 Y161.833 E0.01834
G1 X114.352 Y162.233 E0.01834
G1 X114.241 Y162.648 E0.01834
G1 X114.174 Y163.072 E0.01834
G1 X114.153 Y163.471 E0.01711
G1 X114.153 Y231.466 E2.90716
G1 X114.152 Y231.500 E0.00144
G1 X114.174 Y231.928 E0.01834
G1 X114.241 Y232.352 E0.01834
G1 X114.352 Y232.767 E0.01834
G1 X114.506 Y233.167 E0.01834
G1 X114.701 Y233.549 E0.01834
G1 X114.934 Y233.909 E0.01834
G1 X115.204 Y234.242 E0.01834
G1 X115.508 Y234.546 E0.01834
G1 X115.841 Y234.816 E0.01834
G1 X116.201 Y235.049 E0.01834
G1 X116.583 Y235.244 E0.01834
G1 X116.983 Y235.398 E0.01834
G1 X117.398 Y235.509 E0.01834
G1 X117.822 Y235.576 E0.01834
G1 X118.220 Y235.597 E0.01705
G1 X155.716 Y235.597 E1.60317
G1 X155.750 Y235.599 E0.00144
G1 X156.178 Y235.576 E0.01835
G1 X156.602 Y235.509 E0.01834
G1 X157.017 Y235.398 E0.01834
G1 X157.417 Y235.244 E0.01834
G1 X157.799 Y235.049 E0.01834
G1 X158.159 Y234.816 E0.01834
G1 X158.492 Y234.546 E0.01834
G1 X158.796 Y234.242 E0.01834
G1 X159.066 Y233.909 E0.01834
G1 X159.299 Y233.549 E0.01834
G1 X159.494 Y233.167 E0.01834
G1 X159.648 Y232.767 E0.01834
G1 X159.759 Y232.352 E0.01834
G1 X159.826 Y231.928 E0.01834
G1 X159.847 Y231.529 E0.01711
G1 X159.847 Y163.534 E2.90716
G1 X159.848 Y163.500 E0.00144
G1 X159.826 Y163.072 E0.01834
G1 X159.759 Y162.648 E0.01834
G1 X159.648 Y162.233 E0.01834
G1 X159.494 Y161.833 E0.01834
G1 X159.299 Y161.451 E0.01834
G1 X159.066 Y161.091 E0.01834
G1 X158.796 Y160.758 E0.01834
G1 X158.492 Y160.454 E0.01834
G1 X158.159 Y160.184 E0.01834
G1 X157.799 Y159.951 E0.01834
G1 X157.417 Y159.756 E0.01834
G1 X157.017 Y159.602 E0.01834
G1 X156.602 Y159.491 E0.01834
G1 X156.178 Y159.424 E0.01834
G1 X155.780 Y159.403 E0.01705
G1 X118.284 Y159.403 E1.60317
G1 X118.250 Y159.401 E0.00144
G1 X117.822 Y159.424 E0.01835
G1 X117.398 Y159.491 E0.01834
G1 X116.983 Y159.602 E0.01834
G1 X116.583 Y159.756 E0.01834
G1 X116.201 Y159.951 E0.01834
G1 X115.891 Y160.152 E0.01578
G1 X116.125 Y160.511 F6000.000
G1 F1200.000
G1 X116.093 Y160.531 E0.00161
G1 X115.795 Y160.773 E0.01642
G1 X115.523 Y161.045 E0.01642
G1 X115.281 Y161.343 E0.01642
G1 X115.072 Y161.665 E0.01642
G1 X114.898 Y162.008 E0.01642
G1 X114.760 Y162.366 E0.01642
G1 X114.661 Y162.737 E0.01642
G1 X114.601 Y163.116 E0.01642
G1 X114.582 Y163.482 E0.01567
G1 X114.582 Y231.477 E2.90716
G1 X114.581 Y231.500 E0.00096
G1 X114.601 Y231.884 E0.01642
G1 X114.661 Y232.263 E0.01642
G1 X114.760 Y232.634 E0.01642
G1 X114.898 Y232.992 E0.01642
G1 X115.072 Y233.335 E0.01642
G1 X115.281 Y233.657 E0.01642
G1 X115.523 Y233.955 E0.01642
G1 X115.795 Y234.227 E0.01642
G1 X116.093 Y234.469 E0.01642
G1 X116.415 Y234.678 E0.01642
G1 X116.758 Y234.852 E0.01642
G1 X117.116 Y234.990 E0.01642
G1 X117.487 Y235.089 E0.01642
G1 X117.866 Y235.149 E0.01642
G1 X118.232 Y235.168 E0.01564
G1 X155.727 Y235.168 E1.60314
G1 X155.750 Y235.169 E0.00096
G1 X156.134 Y235.149 E0.01643
G1 X156.513 Y235.089 E0.01642
G1 X156.884 Y234.990 E0.01642
G1 X157.242 Y234.852 E0.01642
G1 X157.585 Y234.678 E0.01642
G1 X157.907 Y234.469 E0.01642
G1 X158.205 Y234.227 E0.01642
G1 X158.477 Y233.955 E0.01642
G1 X158.719 Y233.657 E0.01642
G1 X158.928 Y233.335 E0.01642
G1 X159.102 Y232.992 E0.01642
G1 X159.240 Y232.634 E0.01642
G1 X159.339 Y232.263 E0.01642
G1 X159.399 Y231.884 E0.01642
G1 X159.418 Y231.518 E0.01567
G1 X159.418 Y163.523 E2.90716
G1 X159.419 Y163.500 E0.00096
G1 X159.399 Y163.116 E0.01642
G1 X159.339 Y162.737 E0.01642
G1 X159.240 Y162.366 E0.01642
G1 X159.102 Y162.008 E0.01642
G1 X158.928 Y161.665 E0.01642
G1 X158.719 Y161.343 E0.01642
G1 X158.477 Y161.045 E0.01642
G1 X158.205 Y160.773 E0.01642
G1 X157.907 Y160.531 E0.01642
G1 X157.585 Y160.322 E0.01642
G1 X157.242 Y160.148 E0.01642
G1 X156.884 Y160.010 E0.01642
G1 X156.513 Y159.911 E0.01642
G1 X156.134 Y159.851 E0.01642
G1 X155.768 Y159.832 E0.01564
G1 X118.273 Y159.832 E1.60314
G1 X118.250 Y159.831 E0.00096
G1 X117.866 Y159.851 E0.01643
G1 X117.487 Y159.911 E0.01642
G1 X117.116 Y160.010 E0.01642
G1 X116.758 Y160.148 E0.01642
G1 X116.415 Y160.322 E0.01642
G1 X116.175 Y160.478 E0.01225
G1 X116.408 Y160.838 F6000.000
;TYPE:External perimeter
G1 F1200.000
G1 X116.345 Y160.879 E0.00321
G1 X116.082 Y161.092 E0.01450
G1 X115.842 Y161.332 E0.01450
G1 X115.629 Y161.595 E0.01450
G1 X115.444 Y161.880 E0.01450
G1 X115.290 Y162.182 E0.01450
G1 X115.168 Y162.499 E0.01450
G1 X115.080 Y162.826 E0.01450
G1 X115.027 Y163.161 E0.01450
G1 X115.010 Y163.494 E0.01423
G1 X115.010 Y231.489 E2.90716
G1 X115.010 Y231.500 E0.00048
G1 X115.027 Y231.839 E0.01450
G1 X115.080 Y232.174 E0.01450
G1 X115.168 Y232.501 E0.01450
G1 X115.290 Y232.818 E0.01450
G1 X115.444 Y233.120 E0.01450
G1 X115.629 Y233.405 E0.01450
G1 X115.842 Y233.668 E0.01450
G1 X116.082 Y233.908 E0.01450
G1 X116.345 Y234.121 E0.01450
G1 X116.630 Y234.306 E0.01450
G1 X116.932 Y234.460 E0.01450
G1 X117.249 Y234.582 E0.01450
G1 X117.576 Y234.670 E0.01450
G1 X117.911 Y234.723 E0.01450
G1 X118.244 Y234.740 E0.01423
G1 X155.739 Y234.740 E1.60312
G1 X155.750 Y234.740 E0.00048
G1 X156.089 Y234.723 E0.01450
G1 X156.424 Y234.670 E0.01450
G1 X156.751 Y234.582 E0.01450
G1 X157.068 Y234.460 E0.01450
G1 X157.370 Y234.306 E0.01450
G1 X157.655 Y234.121 E0.01450
G1 X157.918 Y233.908 E0.01450
G1 X158.158 Y233.668 E0.01450
G1 X158.371 Y233.405 E0.01450
G1 X158.556 Y233.120 E0.01450
G1 X158.710 Y232.818 E0.01450
G1 X158.832 Y232.501 E0.01450
G1 X158.920 Y232.174 E0.01450
G1 X158.973 Y231.839 E0.01450
G1 X158.990 Y231.506 E0.01423
G1 X158.990 Y163.511 E2.90716
G1 X158.990 Y163.500 E0.00048
G1 X158.973 Y163.161 E0.01450
G1 X158.920 Y162.826 E0.01450
G1 X158.832 Y162.499 E0.01450
G1 X158.710 Y162.182 E0.01450
G1 X158.556 Y161.880 E0.01450
G1 X158.371 Y161.595 E0.01450
G1 X158.158 Y161.332 E0.01450
G1 X157.918 Y161.092 E0.01450
G1 X157.655 Y160.879 E0.01450
G1 X157.370 Y160.694 E0.01450
G1 X157.068 Y160.540 E0.01450
G1 X156.751 Y160.418 E0.01450
G1 X156.424 Y160.330 E0.01450
G1 X156.089 Y160.277 E0.01450
G1 X155.756 Y160.260 E0.01423
G1 X118.261 Y160.260 E1.60312
G1 X118.250 Y160.260 E0.00048
G1 X117.911 Y160.277 E0.01450
G1 X117.576 Y160.330 E0.01450
G1 X117.249 Y160.418 E0.01450
G1 X116.932 Y160.540 E0.01450
G1 X116.630 Y160.694 E0.01450
G1 X116.459 Y160.805 E0.00873
G1 X116.341 Y160.804 F6000.000
G1 E-0.80000 F3000.000
G1 X123.908 Y156.102 F6000.000
G1 E0.80000 F1500.000
;TYPE:Internal perimeter
G1 F1200.000
G1 X150.092 Y156.102 E1.11951
G1 X150.092 Y155.895 E0.00884
G1 X150.260 Y155.831 E0.00771
G1 X150.549 Y155.683 E0.01387
G1 X150.821 Y155.507 E0.01387
G1 X151.073 Y155.303 E0.01387
G1 X151.303 Y155.073 E0.01387
G1 X151.507 Y154.821 E0.01387
G1 X151.683 Y154.549 E0.01387
G1 X151.831 Y154.260 E0.01387
G1 X151.947 Y153.957 E0.01387
G1 X152.031 Y153.644 E0.01387
G1 X152.082 Y153.324 E0.01387
G1 X152.098 Y153.002 E0.01379
G1 X152.097 Y152.968 E0.00144
G1 X152.097 Y152.097 E0.03724
G1 X167.153 Y152.097 E0.64373
G1 X167.153 Y182.403 E1.29575
G1 X166.221 Y182.403 E0.03984
G1 X165.926 Y182.418 E0.01264
G1 X165.606 Y182.469 E0.01387
G1 X165.293 Y182.553 E0.01387
G1 X164.990 Y182.669 E0.01387
G1 X164.701 Y182.817 E0.01387
G1 X164.429 Y182.993 E0.01387
G1 X164.177 Y183.197 E0.01387
G1 X163.947 Y183.427 E0.01387
G1 X163.743 Y183.679 E0.01387
G1 X163.567 Y183.951 E0.01387
G1 X163.419 Y184.240 E0.01387
G1 X163.355 Y184.408 E0.00771
G1 X163.148 Y184.408 E0.00884
G1 X163.148 Y210.592 E1.11951
G1 X163.355 Y210.592 E0.00884
G1 X163.419 Y210.760 E0.00771
G1 X163.567 Y211.049 E0.01387
G1 X163.743 Y211.321 E0.01387
G1 X163.947 Y211.573 E0.01387
G1 X164.177 Y211.803 E0.01387
G1 X164.429 Y212.007 E0.01387
G1 X164.701 Y212.183 E0.01387
G1 X164.990 Y212.331 E0.01387
G1 X165.293 Y212.447 E0.01387
G1 X165.606 Y212.531 E0.01387
G1 X165.926 Y212.582 E0.01387
G1 X166.250 Y212.598 E0.01388
G1 X166.284 Y212.597 E0.00142
G1 X167.153 Y212.597 E0.03717
G1 X167.153 Y242.903 E1.29575
G1 X152.097 Y242.903 E0.64373
G1 X152.097 Y242.007 E0.03832
G1 X152.097 Y241.973 E0.00144
G1 X152.082 Y241.676 E0.01271
G1 X152.031 Y241.356 E0.01387
G1 X151.947 Y241.043 E0.01387
G1 X151.831 Y240.740 E0.01387
G1 X151.683 Y240.451 E0.01387
G1 X151.507 Y240.179 E0.01387
G1 X151.303 Y239.927 E0.01387
G1 X151.073 Y239.697 E0.01387
G1 X150.821 Y239.493 E0.01387
G1 X150.549 Y239.317 E0.01387
G1 X150.260 Y239.169 E0.01387
G1 X150.092 Y239.105 E0.00771
G1 X150.092 Y238.898 E0.00884
G1 X123.908 Y238.898 E1.11951
G1 X123.908 Y239.105 E0.00884
G1 X123.740 Y239.169 E0.00771
G1 X123.451 Y239.317 E0.01387
G1 X123.179 Y239.493 E0.01387
G1 X122.927 Y239.697 E0.01387
G1 X122.697 Y239.927 E0.01387
G1 X122.493 Y240.179 E0.01387
G1 X122.317 Y240.451 E0.01387
G1 X122.169 Y240.740 E0.01387
G1 X122.053 Y241.043 E0.01387
G1 X121.969 Y241.356 E0.01387
G1 X121.918 Y241.676 E0.01387
G1 X121.902 Y241.998 E0.01379
G1 X121.903 Y242.032 E0.00144
G1 X121.903 Y242.903 E0.03724
G1 X106.847 Y242.903 E0.64373
G1 X106.847 Y212.597 E1.29575
G1 X107.779 Y212.597 E0.03984
G1 X108.074 Y212.582 E0.01264
G1 X108.394 Y212.531 E0.01387
G1 X108.707 Y212.447 E0.01387
G1 X109.010 Y212.331 E0.01387
G1 X109.299 Y212.183 E0.01387
G1 X109.571 Y212.007 E0.01387
G1 X109.823 Y211.803 E0.01387
G1 X110.053 Y211.573 E0.01387
G1 X110.257 Y211.321 E0.01387
G1 X110.433 Y211.049 E0.01387
G1 X110.581 Y210.760 E0.01387
G1 X110.645 Y210.592 E0.00771
G1 X110.852 Y210.592 E0.00884
G1 X110.852 Y184.408 E1.11951
G1 X110.645 Y184.408 E0.00884
G1 X110.581 Y184.240 E0.00771
G1 X110.433 Y183.951 E0.01387
G1 X110.257 Y183.679 E0.01387
G1 X110.053 Y183.427 E0.01387
G1 X109.823 Y183.197 E0.01387
G1 X109.571 Y182.993 E0.01387
G1 X109.299 Y182.817 E0.01387
G1 X109.010 Y182.669 E0.01387
G1 X108.707 Y182.553 E0.01387
G1 X108.394 Y182.469 E0.01387
G1 X108.074 Y182.418 E0.01387
G1 X107.750 Y182.402 E0.01388
G1 X107.716 Y182.403 E0.00142
G1 X106.847 Y182.403 E0.03717
G1 X106.847 Y152.097 E1.29575
G1 X121.903 Y152.097 E0.64373
G1 X121.903 Y152.993 E0.03832
G1 X121.903 Y153.027 E0.00144
G1 X121.918 Y153.324 E0.01271
G1 X121.969 Y153.644 E0.01387
G1 X122.053 Y153.957 E0.01387
G1 X122.169 Y154.260 E0.01387
G1 X122.317 Y154.549 E0.01387
G1 X122.493 Y154.821 E0.01387
G1 X122.697 Y155.073 E0.01387
G1 X122.927 Y155.303 E0.01387
G1 X123.179 Y155.507 E0.01387
G1 X123.451 Y155.683 E0.01387
G1 X123.740 Y155.831 E0.01387
G1 X123.908 Y155.895 E0.00771
G1 X123.908 Y156.042 E0.00628
G1 E-0.80000 F3000.000
G1 X122.332 Y151.668 F6000.000
G1 E0.80000 F1500.000
G1 F1200.000
G1 X122.332 Y152.994 E0.05667
G1 X122.331 Y153.016 E0.00096
G1 X122.345 Y153.279 E0.01124
G1 X122.389 Y153.555 E0.01195
G1 X122.461 Y153.825 E0.01195
G1 X122.561 Y154.086 E0.01195
G1 X122.688 Y154.335 E0.01195
G1 X122.840 Y154.569 E0.01195
G1 X123.016 Y154.786 E0.01195
G1 X123.214 Y154.984 E0.01195
G1 X123.431 Y155.160 E0.01195
G1 X123.665 Y155.312 E0.01195
G1 X123.914 Y155.439 E0.01195
G1 X124.175 Y155.539 E0.01195
G1 X124.337 Y155.582 E0.00714
G1 X124.337 Y155.673 E0.00391
G1 X149.663 Y155.673 E1.08287
G1 X149.663 Y155.582 E0.00391
G1 X149.825 Y155.539 E0.00714
G1 X150.086 Y155.439 E0.01195
G1 X150.335 Y155.312 E0.01195
G1 X150.569 Y155.160 E0.01195
G1 X150.786 Y154.984 E0.01195
G1 X150.984 Y154.786 E0.01195
G1 X151.160 Y154.569 E0.01195
G1 X151.312 Y154.335 E0.01195
G1 X151.439 Y154.086 E0.01195
G1 X151.539 Y153.825 E0.01195
G1 X151.611 Y153.555 E0.01195
G1 X151.655 Y153.279 E0.01195
G1 X151.669 Y153.001 E0.01190
G1 X151.668 Y152.979 E0.00096
G1 X151.668 Y151.668 E0.05601
G1 X167.582 Y151.668 E0.68037
G1 X167.582 Y182.832 E1.33239
G1 X166.232 Y182.832 E0.05768
G1 X165.971 Y182.845 E0.01120
G1 X165.695 Y182.889 E0.01195
G1 X165.425 Y182.961 E0.01195
G1 X165.164 Y183.061 E0.01195
G1 X164.915 Y183.188 E0.01195
G1 X164.681 Y183.340 E0.01195
G1 X164.464 Y183.516 E0.01195
G1 X164.266 Y183.714 E0.01195
G1 X164.090 Y183.931 E0.01195
G1 X163.938 Y184.165 E0.01195
G1 X163.811 Y184.414 E0.01195
G1 X163.711 Y184.675 E0.01195
G1 X163.668 Y184.837 E0.00714
G1 X163.577 Y184.837 E0.00391
G1 X163.577 Y210.163 E1.08287
G1 X163.668 Y210.163 E0.00391
G1 X163.711 Y210.325 E0.00714
G1 X163.811 Y210.586 E0.01195
G1 X163.938 Y210.835 E0.01195
G1 X164.090 Y211.069 E0.01195
G1 X164.266 Y211.286 E0.01195
G1 X164.464 Y211.484 E0.01195
G1 X164.681 Y211.660 E0.01195
G1 X164.915 Y211.812 E0.01195
G1 X165.164 Y211.939 E0.01195
G1 X165.425 Y212.039 E0.01195
G1 X165.695 Y212.111 E0.01195
G1 X165.971 Y212.155 E0.01195
G1 X166.250 Y212.169 E0.01196
G1 X166.272 Y212.168 E0.00095
G1 X167.582 Y212.168 E0.05597
G1 X167.582 Y243.332 E1.33239
G1 X151.668 Y243.332 E0.68037
G1 X151.668 Y242.006 E0.05667
G1 X151.669 Y241.984 E0.00096
G1 X151.655 Y241.721 E0.01124
G1 X151.611 Y241.445 E0.01195
G1 X151.539 Y241.175 E0.01195
G1 X151.439 Y240.914 E0.01195
G1 X151.312 Y240.665 E0.01195
G1 X151.160 Y240.431 E0.01195
G1 X150.984 Y240.214 E0.01195
G1 X150.786 Y240.016 E0.01195
G1 X150.569 Y239.840 E0.01195
G1 X150.335 Y239.688 E0.01195
G1 X150.086 Y239.561 E0.01195
G1 X149.825 Y239.461 E0.01195
G1 X149.663 Y239.418 E0.00714
