; generated by SuperSlicer 2.4 on 2022-11-15 at 21:29:56 UTC


;
;

;
;
; 

; external perimeters extrusion width = 0.40mm
; perimeters extrusion width = 0.46mm
; infill extrusion width = 0.64mm
; solid infill extrusion width = 0.56mm
; top infill extrusion width = 0.40mm
; support material extrusion width = 0.46mm
; first layer extrusion width = 0.50mm

; external perimeters extrusion width = 0.40mm
; perimeters extrusion width = 0.46mm
; infill extrusion width = 0.64mm
; solid infill extrusion width = 0.56mm
; top infill extrusion width = 0.40mm
; support material extrusion width = 0.46mm
; first layer extrusion width = 0.50mm

; external perimeters extrusion width = 0.40mm
; perimeters extrusion width = 0.46mm
; infill extrusion width = 0.64mm
; solid infill extrusion width = 0.56mm
; top infill extrusion width = 0.40mm
; support material extrusion width = 0.46mm
; first layer extrusion width = 0.50mm


M73 P0 R75
;TYPE:Custom
START_PRINT T_BED=60 T_EXTRUDER=200
M107
G21 ; set units to millimeters
G90 ; use absolute coordinates
M83 ; use relative distances for extrusion
; Filament gcode
;_TOOLCHANGE 0
M104 S200 ; set temperature
M109 S200 ; set temperature and wait for it to be reached
M190 S60 ; set bed temperature and wait for it to be reached
M107
;LAYER_CHANGE
;Z:0.2
;HEIGHT:0.2
G1 Z0.2 F9000
G92 E0
G1 E-0.8 F3000
M204 S1000
G1 X106.434 Y130.439 F9000
G1 E0.8 F1800
;TYPE:Skirt
;WIDTH:0.52
G1 X105.62 Y131.946 E0.06657
G1 X101.841 Y146.005 E0.56596
G1 X101.713 Y146.97 E0.03783
G1 X101.717 Y162.036 E0.58571
G1 X101.896 Y164.606 E0.10015
G1 X102.116 Y166.147 E0.06052
G1 X102.663 Y168.664 E0.10014
G1 X103.496 Y171.29 E0.1071
G1 X104.578 Y173.823 E0.1071
G1 X105.295 Y175.205 E0.06052
G1 X106.616 Y177.356 E0.09813
G1 X107.618 Y178.388 E0.05593
G1 X109.213 Y179.013 E0.06657
G1 X142.25 Y183.693 E1.2972
G1 X160.208 Y184.174 E0.69836
G1 X167.173 Y184.176 E0.27079
G1 X169.3 Y183.507 E0.08667
G1 X204.13 Y159.194 E1.65131
G1 X205.324 Y157.813 E0.07096
G1 X205.719 Y156.147 E0.06657
G1 X205.719 Y143.853 E0.47794
G1 X205.27 Y142.084 E0.07096
G1 X204.13 Y140.806 E0.06657
G1 X169.3 Y116.493 E1.65131
G1 X167.173 Y115.824 E0.08667
G1 X160.266 Y115.825 E0.26853
G1 X133.34 Y116.088 E1.0468
G1 X131.605 Y116.537 E0.06968
G1 X107.437 Y129.645 E1.06884
G1 X106.434 Y130.439 E0.04975
G1 X106.862 Y130.68 F9000
G1 F1800
G1 X106.081 Y132.07 E0.06199
G1 X102.301 Y146.129 E0.56596
G1 X102.19 Y146.97 E0.03297
G1 X102.19 Y161.867 E0.57916
G1 X102.371 Y164.561 E0.10496
G1 X102.584 Y166.057 E0.05873
G1 X103.167 Y168.702 E0.10531
G1 X103.947 Y171.133 E0.09925
G1 X105.011 Y173.624 E0.10531
G1 X105.708 Y174.965 E0.05873
G1 X107.017 Y177.096 E0.09723
G1 X107.802 Y177.933 E0.04463
G1 X109.279 Y178.54 E0.06209
G1 X142.317 Y183.221 E1.2972
G1 X160.22 Y183.697 E0.69622
G1 X167.173 Y183.698 E0.27032
G1 X169.027 Y183.115 E0.07554
G1 X203.857 Y158.803 E1.65131
G1 X204.848 Y157.695 E0.05778
G1 X205.242 Y156.147 E0.06209
G1 X205.242 Y143.853 E0.47794
G1 X204.901 Y142.406 E0.05778
G1 X203.857 Y141.197 E0.06209
G1 X169.027 Y116.885 E1.65131
G1 X167.173 Y116.302 E0.07554
G1 X160.27 Y116.302 E0.26835
G1 X133.345 Y116.565 E1.0468
G1 X131.833 Y116.956 E0.06073
G1 X107.665 Y130.064 E1.06884
G1 X106.862 Y130.68 E0.03933
G1 E-0.8 F3000
G1 X141.722 Y147.27 F9000
G1 E0.8 F1800
;TYPE:Support material
;WIDTH:0.5
G1 X145.14 Y147.27 E0.12727
G1 X145.14 Y137.019 E0.38182
G1 X148.557 Y137.019 E0.12727
G1 X148.557 Y133.602 E0.12727
G1 X157.434 Y133.602 E0.33063
G1 X157.434 Y137.019 E0.12727
G1 X159.223 Y137.019 E0.06667
G1 X159.223 Y149.752 E0.47424
G1 X159.223 Y150.248 E0.01851
G1 X159.223 Y152.73 E0.09242
G1 X154.016 Y152.73 E0.19394
G1 X154.016 Y162.981 E0.38182
G1 X150.599 Y162.981 E0.12727
G1 X150.599 Y166.398 E0.12727
G1 X147.182 Y166.398 E0.12727
G1 X147.182 Y169.815 E0.12727
G1 X138.305 Y169.815 E0.33063
G1 X138.305 Y154.104 E0.58518
M73 P1 R75
G1 X141.722 Y154.104 E0.12727
G1 X141.722 Y147.27 E0.25455
G1 X158.905 Y152.616 F9000
G1 F1800
G1 X158.905 Y137.33 E0.56934
M73 P1 R75
G1 X158.397 Y137.33 E0.01892
G1 X158.397 Y152.419 E0.56202
G1 X157.889 Y152.419 E0.01892
G1 X157.889 Y137.33 E0.56202
G1 X157.381 Y137.33 E0.01892
G1 X157.381 Y152.419 E0.56202
G1 X156.873 Y152.419 E0.01892
G1 X156.873 Y133.913 E0.6893
G1 X156.365 Y133.913 E0.01892
G1 X156.365 Y152.419 E0.6893
G1 X155.857 Y152.419 E0.01892
G1 X155.857 Y133.913 E0.6893
G1 X155.349 Y133.913 E0.01892
G1 X155.349 Y152.419 E0.6893
G1 X154.842 Y152.419 E0.01892
G1 X154.842 Y133.913 E0.6893
G1 X154.334 Y133.913 E0.01892
G1 X154.334 Y152.419 E0.6893
G1 X153.826 Y152.419 E0.01892
G1 X153.826 Y133.913 E0.6893
G1 X153.318 Y133.913 E0.01892
G1 X153.318 Y162.67 E1.07111
G1 X152.81 Y162.67 E0.01892
G1 X152.81 Y133.913 E1.07111
G1 X152.302 Y133.913 E0.01892
G1 X152.302 Y162.67 E1.07111
G1 X151.794 Y162.67 E0.01892
G1 X151.794 Y133.913 E1.07111
G1 X151.287 Y133.913 E0.01892
G1 X151.287 Y162.67 E1.07111
G1 X150.779 Y162.67 E0.01892
G1 X150.779 Y133.913 E1.07111
G1 X150.271 Y133.913 E0.01892
G1 X150.271 Y166.087 E1.19839
G1 X149.763 Y166.087 E0.01892
G1 X149.763 Y133.913 E1.19839
G1 X149.255 Y133.913 E0.01892
G1 X149.255 Y166.087 E1.19839
G1 X148.747 Y166.087 E0.01892
G1 X148.747 Y137.33 E1.07111
G1 X148.239 Y137.33 E0.01892
G1 X148.239 Y166.087 E1.07111
G1 X147.731 Y166.087 E0.01892
G1 X147.731 Y137.33 E1.07111
G1 X147.224 Y137.33 E0.01892
G1 X147.224 Y166.087 E1.07111
G1 X146.871 Y166.087 E0.01312
G1 X146.871 Y169.504 E0.12727
G1 X146.716 Y169.504 E0.0058
G1 X146.716 Y137.33 E1.19839
G1 X146.208 Y137.33 E0.01892
G1 X146.208 Y169.504 E1.19839
G1 X145.7 Y169.504 E0.01892
G1 X145.7 Y137.33 E1.19839
G1 X145.45 Y137.33 E0.0093
G1 X145.45 Y147.581 E0.38182
G1 X145.192 Y147.581 E0.00962
G1 X145.192 Y169.504 E0.81657
G1 X144.684 Y169.504 E0.01892
G1 X144.684 Y147.581 E0.81657
G1 X144.176 Y147.581 E0.01892
G1 X144.176 Y169.504 E0.81657
G1 X143.669 Y169.504 E0.01892
G1 X143.669 Y147.581 E0.81657
G1 X143.161 Y147.581 E0.01892
G1 X143.161 Y169.504 E0.81657
G1 X142.653 Y169.504 E0.01892
G1 X142.653 Y147.581 E0.81657
G1 X142.145 Y147.581 E0.01892
G1 X142.145 Y169.504 E0.81657
G1 X141.637 Y169.504 E0.01892
G1 X141.637 Y154.415 E0.56202
G1 X141.129 Y154.415 E0.01892
G1 X141.129 Y169.504 E0.56202
G1 X140.621 Y169.504 E0.01892
G1 X140.621 Y154.415 E0.56202
G1 X140.114 Y154.415 E0.01892
G1 X140.114 Y169.504 E0.56202
G1 X139.606 Y169.504 E0.01892
G1 X139.606 Y154.415 E0.56202
G1 X139.098 Y154.415 E0.01892
G1 X139.098 Y169.701 E0.56934
G1 E-0.8 F3000
G1 X166.009 Y179.296 F9000
G1 E0.8 F1800
;TYPE:Internal perimeter
G1 X161.466 Y179.296 E0.1692
G1 X161.466 Y120.704 E2.18231
G1 X166.009 Y120.704 E0.1692
G1 X166.009 Y148.759 E1.04493
G1 X166.209 Y148.759 E0.00745
G1 X166.209 Y150.831 E0.07716
G1 X166.009 Y150.831 E0.00745
G1 X166.009 Y179.296 E1.06022
G1 X166.466 Y179.753 F9000
G1 F1800
G1 X161.009 Y179.753 E0.20325
G1 X161.009 Y120.247 E2.21636
G1 X166.466 Y120.247 E0.20325
G1 X166.466 Y148.302 E1.04493
G1 X166.666 Y148.302 E0.00745
G1 X166.666 Y151.288 E0.11121
G1 X166.466 Y151.288 E0.00745
G1 X166.466 Y179.753 E1.06022
G1 E-0.8 F3000
G1 X166.923 Y119.932 F9000
G1 E0.8 F1800
;TYPE:External perimeter
G1 X166.923 Y147.845 E1.03964
M73 P2 R74
G1 X167.123 Y147.845 E0.00745
G1 X167.123 Y151.745 E0.14526
G1 X166.923 Y151.745 E0.00745
G1 X166.923 Y180.21 E1.06022
G1 X160.552 Y180.21 E0.2373
G1 X160.552 Y119.79 E2.25041
G1 X166.923 Y119.79 E0.2373
G1 X166.923 Y119.932 E0.0053
;WIPE_START
M204 S3000
G1 X166.577 Y120.132 F9000
;WIPE_END
M204 S1000
G1 X165.016 Y120.773
;TYPE:Solid infill
;WIDTH:0.48732
G1 F2400
G1 X165.94 Y121.697 E0.04744
G1 X165.94 Y122.343 F9000
G1 F2400
G1 X164.37 Y120.773 E0.08062
G1 X163.724 Y120.773 F9000
G1 F2400
G1 X165.94 Y122.99 E0.11381
G1 X165.94 Y123.636 F9000
G1 F2400
G1 X163.077 Y120.773 E0.14699
G1 X162.431 Y120.773 F9000
G1 F2400
G1 X165.94 Y124.282 E0.18018
G1 X165.94 Y124.929 F9000
G1 F2400
G1 X161.784 Y120.773 E0.21336
G1 X161.535 Y121.169 F9000
G1 F2400
G1 X165.94 Y125.575 E0.22618
G1 X165.94 Y126.222 F9000
G1 F2400
G1 X161.535 Y121.816 E0.22618
G1 X161.535 Y122.462 F9000
G1 F2400
G1 X165.94 Y126.868 E0.22618
G1 X165.94 Y127.514 F9000
G1 F2400
G1 X161.535 Y123.109 E0.22618
G1 X161.535 Y123.755 F9000
G1 F2400
G1 X165.94 Y128.161 E0.22618
G1 X165.94 Y128.807 F9000
G1 F2400
G1 X161.535 Y124.402 E0.22618
G1 X161.535 Y125.048 F9000
G1 F2400
G1 X165.94 Y129.454 E0.22618
G1 X165.94 Y130.1 F9000
G1 F2400
G1 X161.535 Y125.694 E0.22618
G1 X161.535 Y126.341 F9000
G1 F2400
G1 X165.94 Y130.746 E0.22618
G1 X165.94 Y131.393 F9000
G1 F2400
G1 X161.535 Y126.987 E0.22618
G1 X161.535 Y127.634 F9000
G1 F2400
G1 X165.94 Y132.039 E0.22618
G1 X165.94 Y132.686 F9000
G1 F2400
G1 X161.535 Y128.28 E0.22618
G1 X161.535 Y128.926 F9000
G1 F2400
G1 X165.94 Y133.332 E0.22618
G1 X165.94 Y133.978 F9000
G1 F2400
G1 X161.535 Y129.573 E0.22618
G1 X161.535 Y130.219 F9000
G1 F2400
G1 X165.94 Y134.625 E0.22618
G1 X165.94 Y135.271 F9000
G1 F2400
G1 X161.535 Y130.866 E0.22618
G1 X161.535 Y131.512 F9000
G1 F2400
G1 X165.94 Y135.918 E0.22618
G1 X165.94 Y136.564 F9000
G1 F2400
G1 X161.535 Y132.158 E0.22618
G1 X161.535 Y132.805 F9000
G1 F2400
G1 X165.94 Y137.21 E0.22618
G1 X165.94 Y137.857 F9000
G1 F2400
G1 X161.535 Y133.451 E0.22618
G1 X161.535 Y134.098 F9000
G1 F2400
G1 X165.94 Y138.503 E0.22618
G1 X165.94 Y139.15 F9000
G1 F2400
G1 X161.535 Y134.744 E0.22618
G1 X161.535 Y135.39 F9000
G1 F2400
G1 X165.94 Y139.796 E0.22618
G1 X165.94 Y140.443 F9000
G1 F2400
G1 X161.535 Y136.037 E0.22618
G1 X161.535 Y136.683 F9000
G1 F2400
G1 X165.94 Y141.089 E0.22618
G1 X165.94 Y141.735 F9000
G1 F2400
G1 X161.535 Y137.33 E0.22618
G1 X161.535 Y137.976 F9000
G1 F2400
G1 X165.94 Y142.382 E0.22618
G1 X165.94 Y143.028 F9000
G1 F2400
G1 X161.535 Y138.622 E0.22618
G1 X161.535 Y139.269 F9000
G1 F2400
G1 X165.94 Y143.675 E0.22618
G1 X165.94 Y144.321 F9000
G1 F2400
G1 X161.535 Y139.915 E0.22618
G1 X161.535 Y140.562 F9000
G1 F2400
G1 X165.94 Y144.967 E0.22618
G1 X165.94 Y145.614 F9000
G1 F2400
G1 X161.535 Y141.208 E0.22618
G1 X161.535 Y141.855 F9000
G1 F2400
G1 X165.94 Y146.26 E0.22618
G1 X165.94 Y146.907 F9000
G1 F2400
G1 X161.535 Y142.501 E0.22618
G1 X161.535 Y143.147 F9000
G1 F2400
G1 X165.94 Y147.553 E0.22618
G1 X165.94 Y148.199 F9000
G1 F2400
G1 X161.535 Y143.794 E0.22618
G1 X161.535 Y144.44 F9000
G1 F2400
G1 X166.14 Y149.046 E0.23645
G1 X166.14 Y149.692 F9000
G1 F2400
G1 X161.535 Y145.087 E0.23645
G1 X161.535 Y145.733 F9000
G1 F2400
G1 X166.14 Y150.339 E0.23645
G1 X165.94 Y150.785 F9000
G1 F2400
G1 X161.535 Y146.379 E0.22618
G1 X161.535 Y147.026 F9000
G1 F2400
G1 X165.94 Y151.431 E0.22618
G1 X165.94 Y152.078 F9000
G1 F2400
G1 X161.535 Y147.672 E0.22618
G1 X161.535 Y148.319 F9000
G1 F2400
G1 X165.94 Y152.724 E0.22618
G1 X165.94 Y153.371 F9000
G1 F2400
G1 X161.535 Y148.965 E0.22618
G1 X161.535 Y149.611 F9000
G1 F2400
G1 X165.94 Y154.017 E0.22618
G1 X165.94 Y154.663 F9000
G1 F2400
G1 X161.535 Y150.258 E0.22618
G1 X161.535 Y150.904 F9000
G1 F2400
G1 X165.94 Y155.31 E0.22618
G1 X165.94 Y155.956 F9000
G1 F2400
G1 X161.535 Y151.551 E0.22618
G1 X161.535 Y152.197 F9000
G1 F2400
G1 X165.94 Y156.603 E0.22618
G1 X165.94 Y157.249 F9000
G1 F2400
G1 X161.535 Y152.843 E0.22618
G1 X161.535 Y153.49 F9000
G1 F2400
G1 X165.94 Y157.896 E0.22618
G1 X165.94 Y158.542 F9000
G1 F2400
G1 X161.535 Y154.136 E0.22618
G1 X161.535 Y154.783 F9000
G1 F2400
G1 X165.94 Y159.188 E0.22618
G1 X165.94 Y159.835 F9000
G1 F2400
G1 X161.535 Y155.429 E0.22618
G1 X161.535 Y156.075 F9000
G1 F2400
G1 X165.94 Y160.481 E0.22618
M73 P2 R74
G1 X165.94 Y161.128 F9000
G1 F2400
G1 X161.535 Y156.722 E0.22618
G1 X161.535 Y157.368 F9000
G1 F2400
G1 X165.94 Y161.774 E0.22618
G1 X165.94 Y162.42 F9000
G1 F2400
G1 X161.535 Y158.015 E0.22618
G1 X161.535 Y158.661 F9000
G1 F2400
G1 X165.94 Y163.067 E0.22618
G1 X165.94 Y163.713 F9000
G1 F2400
G1 X161.535 Y159.308 E0.22618
G1 X161.535 Y159.954 F9000
G1 F2400
G1 X165.94 Y164.36 E0.22618
G1 X165.94 Y165.006 F9000
G1 F2400
G1 X161.535 Y160.6 E0.22618
G1 X161.535 Y161.247 F9000
G1 F2400
G1 X165.94 Y165.652 E0.22618
G1 X165.94 Y166.299 F9000
G1 F2400
G1 X161.535 Y161.893 E0.22618
G1 X161.535 Y162.54 F9000
G1 F2400
G1 X165.94 Y166.945 E0.22618
G1 X165.94 Y167.592 F9000
G1 F2400
G1 X161.535 Y163.186 E0.22618
G1 X161.535 Y163.832 F9000
G1 F2400
G1 X165.94 Y168.238 E0.22618
G1 X165.94 Y168.884 F9000
G1 F2400
G1 X161.535 Y164.479 E0.22618
G1 X161.535 Y165.125 F9000
G1 F2400
G1 X165.94 Y169.531 E0.22618
G1 X165.94 Y170.177 F9000
G1 F2400
G1 X161.535 Y165.772 E0.22618
G1 X161.535 Y166.418 F9000
G1 F2400
G1 X165.94 Y170.824 E0.22618
G1 X165.94 Y171.47 F9000
G1 F2400
G1 X161.535 Y167.064 E0.22618
G1 X161.535 Y167.711 F9000
G1 F2400
G1 X165.94 Y172.116 E0.22618
G1 X165.94 Y172.763 F9000
G1 F2400
G1 X161.535 Y168.357 E0.22618
G1 X161.535 Y169.004 F9000
G1 F2400
G1 X165.94 Y173.409 E0.22618
G1 X165.94 Y174.056 F9000
G1 F2400
G1 X161.535 Y169.65 E0.22618
G1 X161.535 Y170.296 F9000
G1 F2400
G1 X165.94 Y174.702 E0.22618
G1 X165.94 Y175.349 F9000
G1 F2400
G1 X161.535 Y170.943 E0.22618
G1 X161.535 Y171.589 F9000
G1 F2400
G1 X165.94 Y175.995 E0.22618
G1 X165.94 Y176.641 F9000
G1 F2400
G1 X161.535 Y172.236 E0.22618
G1 X161.535 Y172.882 F9000
G1 F2400
G1 X165.94 Y177.288 E0.22618
G1 X165.94 Y177.934 F9000
G1 F2400
G1 X161.535 Y173.528 E0.22618
G1 X161.535 Y174.175 F9000
G1 F2400
G1 X165.94 Y178.581 E0.22618
G1 X165.94 Y179.227 F9000
G1 F2400
G1 X161.535 Y174.821 E0.22618
G1 X161.535 Y175.468 F9000
G1 F2400
G1 X165.294 Y179.227 E0.19301
G1 X164.648 Y179.227 F9000
G1 F2400
G1 X161.535 Y176.114 E0.15982
G1 X161.535 Y176.761 F9000
G1 F2400
G1 X164.001 Y179.227 E0.12664
G1 X163.355 Y179.227 F9000
G1 F2400
G1 X161.535 Y177.407 E0.09345
G1 X161.535 Y178.053 F9000
G1 F2400
G1 X162.709 Y179.227 E0.06027
G1 X162.062 Y179.227 F9000
G1 F2400
G1 X161.535 Y178.7 E0.02708
G1 E-0.8 F3000
G1 X135.798 Y121.366 F9000
G1 E0.8 F1800
;TYPE:Internal perimeter
;WIDTH:0.5
G1 X133.1 Y138.384 E0.64179
G1 X131.647 Y138.154 E0.05481
G1 X134.344 Y121.135 E0.64179
G1 X135.798 Y121.366 E0.05481
G1 X136.321 Y120.986 F9000
G1 F1800
G1 X133.48 Y138.907 E0.67584
G1 X131.124 Y138.534 E0.08886
G1 X133.964 Y120.612 E0.67584
G1 X136.321 Y120.986 E0.08886
G1 X136.696 Y120.582 F9000
;TYPE:External perimeter
G1 F1800
G1 X136.844 Y120.606 E0.00559
G1 X133.86 Y139.43 E0.70989
G1 X130.601 Y138.914 E0.12291
G1 X133.585 Y120.089 E0.70989
G1 X136.696 Y120.582 E0.11733
;WIPE_START
M204 S3000
G1 X136.839 Y120.956 F9000
;WIPE_END
M204 S1000
G1 X135.593 Y122.221
;TYPE:Solid infill
;WIDTH:0.464724
G1 F2400
G1 X134.621 Y121.248 E0.0476
G1 X134.338 Y121.612 F9000
G1 F2400
G1 X135.504 Y122.779 E0.0571
G1 X135.416 Y123.337 F9000
G1 F2400
G1 X134.25 Y122.17 E0.0571
G1 X134.161 Y122.728 F9000
G1 F2400
G1 X135.328 Y123.895 E0.0571
G1 X135.239 Y124.453 F9000
G1 F2400
G1 X134.073 Y123.286 E0.0571
G1 X133.984 Y123.844 F9000
G1 F2400
G1 X135.151 Y125.011 E0.0571
G1 X135.062 Y125.568 F9000
G1 F2400
G1 X133.896 Y124.402 E0.0571
G1 X133.807 Y124.96 F9000
G1 F2400
G1 X134.974 Y126.126 E0.0571
G1 X134.885 Y126.684 F9000
G1 F2400
G1 X133.719 Y125.518 E0.0571
G1 X133.63 Y126.076 F9000
G1 F2400
G1 X134.797 Y127.242 E0.0571
G1 X134.708 Y127.8 F9000
G1 F2400
G1 X133.542 Y126.634 E0.0571
G1 X133.454 Y127.192 F9000
G1 F2400
G1 X134.62 Y128.358 E0.0571
G1 X134.532 Y128.916 F9000
G1 F2400
G1 X133.365 Y127.75 E0.0571
G1 X133.277 Y128.308 F9000
G1 F2400
G1 X134.443 Y129.474 E0.0571
G1 X134.355 Y130.032 F9000
G1 F2400
G1 X133.188 Y128.866 E0.0571
G1 X133.1 Y129.424 F9000
G1 F2400
G1 X134.266 Y130.59 E0.0571
G1 X134.178 Y131.148 F9000
G1 F2400
G1 X133.011 Y129.982 E0.0571
G1 X132.923 Y130.54 F9000
G1 F2400
G1 X134.089 Y131.706 E0.0571
G1 X134.001 Y132.264 F9000
G1 F2400
G1 X132.834 Y131.098 E0.0571
G1 X132.746 Y131.656 F9000
G1 F2400
G1 X133.912 Y132.822 E0.0571
G1 X133.824 Y133.38 F9000
G1 F2400
G1 X132.658 Y132.214 E0.0571
G1 X132.569 Y132.771 F9000
G1 F2400
G1 X133.736 Y133.938 E0.0571
G1 X133.647 Y134.496 F9000
G1 F2400
G1 X132.481 Y133.329 E0.0571
G1 X132.392 Y133.887 F9000
G1 F2400
G1 X133.559 Y135.054 E0.0571
G1 X133.47 Y135.612 F9000
G1 F2400
G1 X132.304 Y134.445 E0.0571
