; generated by SuperSlicer 2.4 on 2022-09-02 at 23:46:17 UTC


;
;

;
;
; 

; external perimeters extrusion width = 0.40mm
; perimeters extrusion width = 0.50mm
; infill extrusion width = 0.72mm
; solid infill extrusion width = 0.56mm
; top infill extrusion width = 0.40mm
; support material extrusion width = 0.50mm

; external perimeters extrusion width = 0.40mm
; perimeters extrusion width = 0.50mm
; infill extrusion width = 0.72mm
; solid infill extrusion width = 0.56mm
; top infill extrusion width = 0.40mm
; support material extrusion width = 0.50mm

; object:{"name":"jdo_wallet_v88_-_inset","id":"jdo_wallet_v88_-_inset.stl id:0 copy 0","object_center":[160.193029,150.000000,0.000000],"boundingbox_center":[160.193029,150.000000,3.762500],"boundingbox_size":[93.545013,63.000000,7.525001]}
; object:{"name":"jdo_wallet_v88_-_lever","id":"jdo_wallet_v88_-_lever.stl id:1 copy 0","object_center":[102.784798,148.352110,0.000000],"boundingbox_center":[102.784798,148.352110,3.812500],"boundingbox_size":[9.500671,59.500000,7.625000]}
; plater:{"center":[152.499999,150.000000,0.000000],"boundingbox_center":[152.499999,150.000000,3.812500],"boundingbox_size":[108.931073,63.000000,7.625000]}

M73 P0 R51
;TYPE:Custom
START_PRINT T_BED=70 T_EXTRUDER=235
M107
G21 ; set units to millimeters
G90 ; use absolute coordinates
M83 ; use relative distances for extrusion
; Filament gcode
;_TOOLCHANGE 0
M104 S235 ; set temperature
M109 S235 ; set temperature and wait for it to be reached
M190 S70 ; set bed temperature and wait for it to be reached
M107
;LAYER_CHANGE
;Z:0.2
;HEIGHT:0.2
G1 Z0.2 F9000
G92 E0
M73 P0 R51
G1 E-1 F3000
M204 S1000
G1 X90.9 Y114.967 F9000
G1 E1 F1800
;TYPE:Skirt
;WIDTH:0.52
G1 X89.8 Y116.279 E0.06793
G1 X89.405 Y117.946 E0.06793
G1 X89.405 Y140.731 E0.90387
G1 X89.537 Y141.713 E0.03932
G1 X98.551 Y174.593 E1.35244
G1 X98.925 Y175.483 E0.0383
G1 X101.253 Y179.473 E0.18324
G1 X101.946 Y180.334 E0.04388
G1 X103.44 Y181.172 E0.06793
G1 X116.13 Y184.805 E0.52363
G1 X117.056 Y185.002 E0.03757
G1 X118.424 Y185.116 E0.05444
G1 X203.258 Y185.108 E3.36532
G1 X204.989 Y184.883 E0.06925
G1 X206.053 Y184.56 E0.0441
G1 X207.066 Y184.102 E0.04411
G1 X208.012 Y183.518 E0.0441
G1 X208.872 Y182.818 E0.044
G1 X209.553 Y182.071 E0.0401
G1 X210.018 Y181.327 E0.0348
G1 X210.437 Y180.196 E0.04784
G1 X210.581 Y179.12 E0.04308
G1 X210.581 Y120.88 E2.31032
G1 X210.437 Y119.804 E0.04308
G1 X210.159 Y118.972 E0.0348
G1 X209.553 Y117.929 E0.04784
G1 X208.872 Y117.182 E0.0401
G1 X207.483 Y116.135 E0.06901
G1 X206.497 Y115.622 E0.0441
G1 X205.453 Y115.239 E0.04411
G1 X204.368 Y114.995 E0.0441
G1 X203.042 Y114.884 E0.0528
G1 X100.159 Y114.23 E4.0814
M73 P0 R51
G1 X93.121 Y114.23 E0.27919
G1 X90.9 Y114.967 E0.09283
G1 X91.278 Y115.317 F9000
G1 F1800
G1 X90.276 Y116.398 E0.05845
G1 X89.882 Y117.946 E0.06336
G1 X89.882 Y140.731 E0.90387
G1 X89.997 Y141.587 E0.03427
G1 X99.011 Y174.467 E1.35244
G1 X99.337 Y175.242 E0.03338
G1 X101.665 Y179.232 E0.18324
G1 X102.191 Y179.909 E0.03402
G1 X103.571 Y180.714 E0.06336
G1 X116.261 Y184.346 E0.52363
G1 X117.149 Y184.534 E0.03601
G1 X118.424 Y184.639 E0.05073
G1 X203.227 Y184.632 E3.3641
G1 X204.897 Y184.415 E0.0668
G1 X205.901 Y184.107 E0.04166
G1 X206.858 Y183.673 E0.04166
G1 X207.75 Y183.119 E0.04166
G1 X208.561 Y182.456 E0.04156
G1 X209.181 Y181.772 E0.03664
G1 X209.587 Y181.123 E0.03033
G1 X209.97 Y180.099 E0.04337
G1 X210.104 Y179.12 E0.03922
G1 X210.104 Y120.88 E2.31032
G1 X209.97 Y119.901 E0.03922
G1 X209.727 Y119.175 E0.03033
G1 X209.181 Y118.228 E0.04337
G1 X208.561 Y117.544 E0.03664
G1 X207.221 Y116.534 E0.06657
G1 X206.289 Y116.051 E0.04166
G1 X205.302 Y115.692 E0.04166
G1 X204.277 Y115.463 E0.04166
G1 X203.039 Y115.362 E0.04926
G1 X100.156 Y114.707 E4.0814
G1 X93.121 Y114.707 E0.27907
G1 X91.362 Y115.226 E0.07276
G1 X91.278 Y115.317 E0.0049
G1 E-1 F3000
; printing object jdo_wallet_v88_-_inset.stl id:0 copy 0
G1 X130.3 Y178.663 F9000
G1 E1 F1800
;TYPE:Internal perimeter
;WIDTH:0.5
G1 X183.489 Y178.657 E2.02153
G1 X183.562 Y178.928 E0.01066
G1 X183.409 Y179.016 E0.0067
G1 X183.763 Y180.336 E0.05194
G1 X130.3 Y180.336 E2.03192
G1 X130.424 Y180.037 E0.0123
G1 X130.495 Y179.5 E0.02058
G1 X130.424 Y178.963 E0.02058
G1 X130.3 Y178.663 E0.01234
G1 X129.444 Y178.206 F9000
G1 F1800
G1 X185.195 Y178.199 E2.11891
G1 X185.268 Y178.47 E0.01066
G1 X183.941 Y179.236 E0.05822
G1 X184.242 Y180.357 E0.04411
G1 X190.263 Y180.353 E0.22885
G1 X190.792 Y180.328 E0.02015
G1 X191.521 Y180.248 E0.02786
G1 X191.905 Y180.793 E0.02531
G1 X129.444 Y180.793 E2.37389
G1 X129.818 Y180.307 E0.0233
G1 X129.979 Y179.918 E0.016
G1 X130.034 Y179.5 E0.01601
G1 X129.979 Y179.082 E0.01601
G1 X129.818 Y178.693 E0.016
G1 X129.444 Y178.206 E0.02333
G1 E-1 F3000
G1 X202.078 Y180.336 F9000
G1 E1 F1800
G1 X202.432 Y179.016 E0.05194
G1 X202.288 Y178.933 E0.00631
G1 X202.361 Y178.662 E0.01067
G1 X205.402 Y178.664 E0.11557
G1 X205.548 Y178.681 E0.0056
G1 X205.62 Y178.708 E0.00294
G1 X205.685 Y178.752 E0.00294
G1 X205.737 Y178.808 E0.00294
G1 X205.774 Y178.876 E0.00294
G1 X205.795 Y178.951 E0.00294
G1 X205.797 Y179.028 E0.00294
G1 X205.782 Y179.104 E0.00294
G1 X205.749 Y179.174 E0.00294
G1 X205.681 Y179.259 E0.00414
G1 X205.329 Y179.561 E0.01761
G1 X204.916 Y179.833 E0.01881
G1 X204.47 Y180.049 E0.01881
G1 X204.001 Y180.206 E0.01881
G1 X203.515 Y180.301 E0.01881
G1 X202.984 Y180.336 E0.02024
G1 X202.078 Y180.336 E0.03442
G1 E-1 F3000
G1 X193.936 Y180.793 F9000
G1 E1 F1800
G1 X194.32 Y180.248 E0.02531
G1 X195.049 Y180.328 E0.02786
G1 X195.578 Y180.353 E0.02015
G1 X201.599 Y180.357 E0.22885
G1 X201.9 Y179.236 E0.04411
G1 X200.58 Y178.474 E0.05792
G1 X200.653 Y178.203 E0.01067
G1 X205.429 Y178.207 E0.18153
G1 X205.656 Y178.234 E0.00868
G1 X205.83 Y178.299 E0.00707
G1 X205.985 Y178.402 E0.00707
G1 X206.11 Y178.539 E0.00707
G1 X206.201 Y178.702 E0.00707
G1 X206.25 Y178.882 E0.00707
G1 X206.256 Y179.067 E0.00707
G1 X206.218 Y179.25 E0.00707
G1 X206.139 Y179.418 E0.00707
G1 X206.01 Y179.578 E0.0078
G1 X205.605 Y179.927 E0.02033
G1 X205.142 Y180.231 E0.02106
G1 X204.644 Y180.473 E0.02106
G1 X204.118 Y180.649 E0.02106
G1 X203.574 Y180.756 E0.02106
G1 X202.999 Y180.793 E0.02193
G1 X193.936 Y180.793 E0.34443
G1 E-1 F3000
G1 X202.078 Y119.664 F9000
G1 E1 F1800
G1 X202.984 Y119.664 E0.03442
G1 X203.515 Y119.699 E0.02024
G1 X204.001 Y119.794 E0.01881
G1 X204.47 Y119.951 E0.01881
G1 X204.916 Y120.167 E0.01881
G1 X205.329 Y120.439 E0.01881
G1 X205.681 Y120.741 E0.01761
G1 X205.749 Y120.826 E0.00414
G1 X205.782 Y120.896 E0.00294
G1 X205.797 Y120.972 E0.00294
G1 X205.795 Y121.049 E0.00294
G1 X205.774 Y121.124 E0.00294
G1 X205.737 Y121.191 E0.00294
G1 X205.685 Y121.248 E0.00294
G1 X205.62 Y121.292 E0.00294
G1 X205.548 Y121.319 E0.00294
G1 X205.402 Y121.336 E0.00559
G1 X202.363 Y121.338 E0.11549
G1 X202.29 Y121.067 E0.01068
G1 X202.432 Y120.985 E0.00622
G1 X202.078 Y119.664 E0.05198
G1 E-1 F3000
G1 X193.936 Y119.207 F9000
G1 E1 F1800
G1 X202.999 Y119.207 E0.34444
G1 X203.574 Y119.244 E0.02193
G1 X204.118 Y119.351 E0.02106
G1 X204.644 Y119.527 E0.02106
G1 X205.142 Y119.769 E0.02106
G1 X205.605 Y120.073 E0.02106
G1 X206.01 Y120.422 E0.02033
G1 X206.139 Y120.582 E0.0078
G1 X206.218 Y120.75 E0.00707
G1 X206.256 Y120.933 E0.00707
G1 X206.25 Y121.118 E0.00707
G1 X206.201 Y121.298 E0.00707
G1 X206.11 Y121.461 E0.00707
G1 X205.985 Y121.598 E0.00707
G1 X205.83 Y121.701 E0.00707
G1 X205.656 Y121.766 E0.00707
G1 X205.429 Y121.793 E0.00868
G1 X200.65 Y121.797 E0.18163
G1 X200.577 Y121.525 E0.01068
G1 X201.9 Y120.764 E0.05799
G1 X201.599 Y119.643 E0.04414
G1 X195.578 Y119.647 E0.22885
G1 X195.049 Y119.672 E0.02015
G1 X194.32 Y119.751 E0.02786
G1 X193.936 Y119.207 E0.02531
G1 E-1 F3000
G1 X130.3 Y119.664 F9000
G1 E1 F1800
G1 X183.763 Y119.664 E2.03192
M73 P1 R51
G1 X183.409 Y120.985 E0.05198
G1 X183.56 Y121.072 E0.00662
G1 X183.487 Y121.343 E0.01067
G1 X130.3 Y121.337 E2.02146
M73 P1 R51
G1 X130.424 Y121.037 E0.01234
G1 X130.495 Y120.5 E0.02058
G1 X130.424 Y119.963 E0.02058
G1 X130.3 Y119.664 E0.0123
G1 X130.027 Y120.553 F9000
G1 F1800
G1 X130.034 Y120.5 E0.00204
G1 X129.979 Y120.082 E0.01601
G1 X129.818 Y119.693 E0.016
G1 X129.444 Y119.207 E0.0233
G1 X191.905 Y119.207 E2.37389
G1 X191.521 Y119.751 E0.02531
G1 X190.792 Y119.672 E0.02786
G1 X190.263 Y119.647 E0.02015
G1 X184.242 Y119.643 E0.22885
G1 X183.941 Y120.764 E0.04414
G1 X185.271 Y121.529 E0.0583
G1 X185.198 Y121.801 E0.01067
G1 X129.444 Y121.794 E2.11902
G1 X129.818 Y121.307 E0.02333
G1 X129.979 Y120.918 E0.016
G1 X130.027 Y120.553 E0.01397
G1 E-1 F3000
G1 X115.856 Y170.16 F9000
G1 E1 F1800
G1 X115.624 Y170.463 E0.01449
G1 X115.417 Y170.963 E0.02058
G1 X115.346 Y171.5 E0.02058
G1 X115.417 Y172.037 E0.02058
G1 X115.624 Y172.537 E0.02058
G1 X115.954 Y172.967 E0.02058
G1 X116.383 Y173.296 E0.02058
G1 X116.884 Y173.504 E0.02058
G1 X117.421 Y173.574 E0.02058
G1 X117.957 Y173.504 E0.02058
G1 X118.256 Y173.38 E0.0123
G1 X118.256 Y174.382 E0.0381
G1 X120.393 Y176.519 E0.11485
G1 X120.457 Y176.726 E0.00821
G1 X120.751 Y177.27 E0.02353
G1 X121.145 Y177.748 E0.02353
G1 X121.625 Y178.139 E0.02353
G1 X122.171 Y178.43 E0.02353
G1 X122.764 Y178.609 E0.02353
G1 X123.323 Y178.664 E0.02136
G1 X126.541 Y178.664 E0.1223
G1 X126.417 Y178.963 E0.01232
G1 X126.346 Y179.5 E0.02058
G1 X126.417 Y180.037 E0.02058
G1 X126.541 Y180.336 E0.0123
G1 X118.459 Y180.336 E0.30718
G1 X117.92 Y180.301 E0.02051
G1 X117.428 Y180.203 E0.01906
G1 X116.954 Y180.042 E0.01906
G1 X116.504 Y179.82 E0.01906
G1 X116.087 Y179.541 E0.01906
G1 X115.71 Y179.211 E0.01906
G1 X115.379 Y178.834 E0.01906
G1 X115.101 Y178.417 E0.01906
G1 X114.879 Y177.967 E0.01906
G1 X114.718 Y177.492 E0.01906
G1 X114.62 Y177 E0.01906
G1 X114.585 Y176.462 E0.02051
G1 X114.585 Y123.538 E2.01144
G1 X114.62 Y123 E0.02051
G1 X114.718 Y122.508 E0.01906
G1 X114.879 Y122.033 E0.01906
G1 X115.101 Y121.583 E0.01906
G1 X115.379 Y121.166 E0.01906
G1 X115.71 Y120.789 E0.01906
G1 X116.087 Y120.459 E0.01906
G1 X116.504 Y120.18 E0.01906
G1 X116.954 Y119.958 E0.01906
G1 X117.428 Y119.797 E0.01906
G1 X117.92 Y119.699 E0.01906
G1 X118.459 Y119.664 E0.02051
G1 X126.541 Y119.664 E0.30718
G1 X126.417 Y119.963 E0.0123
G1 X126.346 Y120.5 E0.02058
G1 X126.417 Y121.037 E0.02058
G1 X126.541 Y121.336 E0.01232
G1 X123.363 Y121.336 E0.12077
G1 X122.802 Y121.391 E0.02143
G1 X122.207 Y121.571 E0.02362
G1 X121.659 Y121.864 E0.02362
G1 X121.179 Y122.259 E0.02362
G1 X120.785 Y122.739 E0.02364
G1 X120.489 Y123.293 E0.02385
G1 X120.347 Y123.781 E0.01932
G1 X120.033 Y123.585 E0.01408
G1 X119.417 Y123.304 E0.02573
G1 X118.762 Y123.098 E0.02611
G1 X118.096 Y122.975 E0.02573
G1 X116.256 Y122.862 E0.07005
G1 X116.256 Y126.801 E0.1497
G1 X115.954 Y127.033 E0.01449
G1 X115.624 Y127.463 E0.02058
G1 X115.417 Y127.963 E0.02058
G1 X115.346 Y128.5 E0.02058
G1 X115.417 Y129.037 E0.02058
G1 X115.624 Y129.537 E0.02058
G1 X115.856 Y129.84 E0.01449
G1 X115.856 Y170.16 E1.53244
G1 X116.313 Y170.315 F9000
G1 F1800
G1 X116.023 Y170.693 E0.0181
G1 X115.862 Y171.082 E0.01601
G1 X115.807 Y171.5 E0.01601
G1 X115.862 Y171.918 E0.01601
G1 X116.023 Y172.307 E0.01601
G1 X116.28 Y172.641 E0.01601
G1 X116.614 Y172.897 E0.01601
G1 X117.003 Y173.058 E0.01601
G1 X117.421 Y173.113 E0.01601
G1 X117.838 Y173.058 E0.01601
G1 X118.227 Y172.897 E0.01601
G1 X118.713 Y172.524 E0.0233
G1 X118.713 Y174.193 E0.06343
G1 X120.797 Y176.276 E0.11196
G1 X120.88 Y176.548 E0.01082
G1 X121.132 Y177.014 E0.02012
G1 X121.469 Y177.422 E0.02012
G1 X121.879 Y177.757 E0.02012
G1 X122.346 Y178.006 E0.02012
G1 X122.853 Y178.159 E0.02012
G1 X123.346 Y178.207 E0.0188
G1 X127.397 Y178.207 E0.15398
G1 X127.023 Y178.693 E0.02332
G1 X126.862 Y179.082 E0.016
G1 X126.807 Y179.5 E0.01601
G1 X126.862 Y179.918 E0.01601
G1 X127.023 Y180.307 E0.016
G1 X127.397 Y180.793 E0.0233
G1 X118.444 Y180.793 E0.34027
G1 X117.86 Y180.755 E0.02222
G1 X117.31 Y180.645 E0.02133
G1 X116.778 Y180.465 E0.02133
G1 X116.275 Y180.216 E0.02134
G1 X115.808 Y179.905 E0.02133
G1 X115.386 Y179.534 E0.02133
G1 X115.016 Y179.112 E0.02133
G1 X114.704 Y178.646 E0.02133
G1 X114.456 Y178.142 E0.02133
G1 X114.275 Y177.611 E0.02133
G1 X114.166 Y177.06 E0.02134
G1 X114.128 Y176.477 E0.02222
G1 X114.128 Y123.523 E2.01258
G1 X114.166 Y122.94 E0.02222
G1 X114.275 Y122.389 E0.02133
G1 X114.456 Y121.858 E0.02133
G1 X114.704 Y121.354 E0.02134
G1 X115.016 Y120.888 E0.02133
G1 X115.386 Y120.466 E0.02133
G1 X115.808 Y120.095 E0.02133
G1 X116.275 Y119.784 E0.02133
G1 X116.778 Y119.535 E0.02133
G1 X117.31 Y119.355 E0.02134
G1 X117.86 Y119.245 E0.02133
G1 X118.444 Y119.207 E0.02222
G1 X127.397 Y119.207 E0.34027
G1 X127.023 Y119.693 E0.0233
G1 X126.862 Y120.082 E0.016
G1 X126.807 Y120.5 E0.01601
G1 X126.862 Y120.918 E0.01601
G1 X127.023 Y121.307 E0.016
G1 X127.397 Y121.793 E0.02332
G1 X123.386 Y121.793 E0.15245
G1 X122.892 Y121.842 E0.01887
G1 X122.383 Y121.996 E0.02019
G1 X121.915 Y122.246 E0.02019
G1 X121.504 Y122.583 E0.02019
G1 X121.167 Y122.994 E0.02021
G1 X120.915 Y123.466 E0.02033
G1 X120.762 Y123.993 E0.02086
G1 X120.737 Y124.63 E0.02423
G1 X120.346 Y124.32 E0.01898
G1 X119.816 Y123.989 E0.02375
G1 X119.253 Y123.732 E0.02353
G1 X118.651 Y123.542 E0.02398
G1 X118.04 Y123.429 E0.02361
G1 X116.713 Y123.348 E0.05053
G1 X116.713 Y126.645 E0.1253
G1 X116.942 Y126.666 E0.00872
G1 X116.985 Y126.949 E0.01088
G1 X116.614 Y127.103 E0.01526
G1 X116.28 Y127.359 E0.01601
G1 X116.023 Y127.693 E0.01601
G1 X115.862 Y128.082 E0.01601
G1 X115.807 Y128.5 E0.01601
G1 X115.862 Y128.918 E0.01601
G1 X116.023 Y129.307 E0.01601
G1 X116.28 Y129.641 E0.01601
G1 X116.718 Y129.977 E0.02101
G1 X116.622 Y130.231 E0.01033
G1 X116.313 Y130.21 E0.01176
G1 X116.313 Y170.315 E1.52426
G1 E-1 F3000
G1 X191.791 Y179.22 F9000
G1 E1 F1800
;TYPE:External perimeter
;WIDTH:0.4
G1 X191.825 Y179.768 E0.01631
G1 X191.892 Y180.069 E0.00913
G1 X192.077 Y180.33 E0.00951
G1 X192.316 Y180.535 E0.00934
G1 X192.608 Y180.659 E0.00944
G1 X192.921 Y180.702 E0.00936
G1 X193.233 Y180.659 E0.00936
G1 X193.525 Y180.535 E0.00944
G1 X193.764 Y180.33 E0.00934
G1 X193.949 Y180.069 E0.00951
G1 X194.016 Y179.768 E0.00913
G1 X194.05 Y179.22 E0.01631
G1 X193.933 Y178.92 E0.00956
G1 X193.746 Y178.667 E0.00935
G1 X193.485 Y178.496 E0.00927
G1 X193.213 Y178.403 E0.00851
G1 X192.921 Y178.349 E0.00884
G1 X192.628 Y178.403 E0.00884
G1 X192.356 Y178.496 E0.00851
G1 X192.095 Y178.667 E0.00927
G1 X191.908 Y178.92 E0.00935
G1 X191.791 Y179.22 E0.00956
;WIPE_START
M204 S3000
G1 X191.43 Y179.391 F9000
;WIPE_END
G1 E-1 F3000
M204 S1000
G1 X194.05 Y120.78 F9000
G1 E1 F1800
G1 X194.016 Y120.232 E0.01631
G1 X193.949 Y119.931 E0.00913
G1 X193.764 Y119.67 E0.00951
G1 X193.525 Y119.465 E0.00934
G1 X193.233 Y119.341 E0.00944
G1 X192.921 Y119.298 E0.00936
G1 X192.608 Y119.341 E0.00936
G1 X192.316 Y119.465 E0.00944
G1 X192.077 Y119.67 E0.00934
G1 X191.892 Y119.931 E0.00951
G1 X191.825 Y120.232 E0.00913
G1 X191.791 Y120.78 E0.01631
G1 X191.908 Y121.08 E0.00956
G1 X192.095 Y121.333 E0.00935
G1 X192.356 Y121.504 E0.00927
G1 X192.628 Y121.597 E0.00851
G1 X192.921 Y121.651 E0.00884
G1 X193.213 Y121.597 E0.00884
G1 X193.485 Y121.504 E0.00851
G1 X193.746 Y121.333 E0.00927
G1 X193.933 Y121.08 E0.00935
G1 X194.05 Y120.78 E0.00956
;WIPE_START
M204 S3000
G1 X194.411 Y120.609 F9000
;WIPE_END
G1 E-1 F3000
M204 S1000
G1 X129.623 Y120.5 F9000
G1 E1 F1800
G1 X129.582 Y120.189 E0.00932
G1 X129.462 Y119.899 E0.00932
G1 X129.271 Y119.65 E0.00932
G1 X129.022 Y119.459 E0.00932
G1 X128.732 Y119.338 E0.00932
G1 X128.421 Y119.297 E0.00932
G1 X128.109 Y119.338 E0.00932
G1 X127.819 Y119.459 E0.00932
G1 X127.57 Y119.65 E0.00932
G1 X127.379 Y119.899 E0.00932
G1 X127.259 Y120.189 E0.00932
G1 X127.218 Y120.5 E0.00932
G1 X127.259 Y120.811 E0.00932
G1 X127.379 Y121.101 E0.00932
G1 X127.57 Y121.35 E0.00932
G1 X127.819 Y121.541 E0.00932
G1 X128.109 Y121.662 E0.00932
G1 X128.421 Y121.703 E0.00932
G1 X128.732 Y121.662 E0.00932
G1 X129.022 Y121.541 E0.00932
G1 X129.271 Y121.35 E0.00932
G1 X129.462 Y121.101 E0.00932
G1 X129.582 Y120.811 E0.00932
G1 X129.623 Y120.5 E0.00932
;WIPE_START
M204 S3000
G1 X129.96 Y120.285 F9000
;WIPE_END
G1 E-1 F3000
