; generated by SuperSlicer 2.3.57 on 2022-02-27 at 05:19:00 UTC


;
;

;
;
; 

; external perimeters extrusion width = 0.40mm
; perimeters extrusion width = 0.45mm
; infill extrusion width = 0.72mm
; solid infill extrusion width = 0.56mm
; top infill extrusion width = 0.40mm
; support material extrusion width = 0.42mm
; first layer extrusion width = 0.48mm

; external perimeters extrusion width = 0.40mm
; perimeters extrusion width = 0.45mm
; infill extrusion width = 0.72mm
; solid infill extrusion width = 0.56mm
; top infill extrusion width = 0.40mm
; support material extrusion width = 0.42mm
; first layer extrusion width = 0.48mm

; object:{"name":"bottom_10x3mm","id":"bottom_10x3mm.STL id:0 copy 0","object_center":[152.500000,150.000000,0.000000],"boundingbox_center":[152.500000,150.000000,3.000000],"boundingbox_size":[76.200005,16.000000,6.000000]}
; plater:{"center":[152.500000,150.000000,0.000000],"boundingbox_center":[152.500000,150.000000,3.000000],"boundingbox_size":[76.200005,16.000000,6.000000]}

;TYPE:Custom
START_PRINT T_BED=70 T_EXTRUDER=230
M107
G21 ; set units to millimeters
G90 ; use absolute coordinates
M83 ; use relative distances for extrusion
; Filament gcode
M104 S230 ; set temperature
M109 S230 ; set temperature and wait for it to be reached
M190 S70 ; set bed temperature and wait for it to be reached
M107
;LAYER_CHANGE
;Z:0.24
;HEIGHT:0.24
G1 Z0.24 F9000
G1 E-1 F3000
G1 X113.206 Y140.211 F9000
G1 E1 F1800
; External perimeter
;Skirt
SET_VELOCITY_LIMIT ACCEL=300 ACCEL_TO_DECEL=3000 SQUARE_CORNER_VELOCITY=5

; Support material

;TYPE:Skirt
;WIDTH:0.48
G1 X112.534 Y140.895 E0.04102
G1 X111.991 Y141.646 E0.0396
G1 X111.334 Y143.08 E0.06746
G1 X111.12 Y143.952 E0.03839
G1 X111.033 Y144.957 E0.04313
G1 X111.033 Y155.04 E0.4311
G1 X111.168 Y156.292 E0.05385
G1 X111.439 Y157.237 E0.04202
G1 X111.911 Y158.226 E0.04684
G1 X112.53 Y159.101 E0.04584
G1 X113.298 Y159.869 E0.04645
G1 X114.198 Y160.503 E0.04705
G1 X115.162 Y160.96 E0.04564
G1 X116.218 Y161.256 E0.04685
G1 X117.173 Y161.36 E0.04111
G1 X187.602 Y161.367 E3.01122
G1 X188.892 Y161.232 E0.05546
G1 X189.766 Y160.987 E0.0388
G1 X190.577 Y160.624 E0.03799
G1 X191.772 Y159.808 E0.06187
G1 X192.457 Y159.116 E0.04162
G1 X192.99 Y158.382 E0.0388
G1 X193.641 Y157.006 E0.06507
G1 X193.874 Y156.08 E0.04081
G1 X193.966 Y155.09 E0.04253
G1 X193.961 Y144.795 E0.44016
G1 X193.841 Y143.749 E0.04501
G1 X193.467 Y142.542 E0.05405
G1 X193.115 Y141.819 E0.03437
G1 X192.666 Y141.153 E0.03437
G1 X191.887 Y140.298 E0.04942
G1 X190.871 Y139.538 E0.05426
G1 X189.851 Y139.045 E0.04845
G1 X188.727 Y138.734 E0.04986
G1 X187.6 Y138.633 E0.04836
G1 X117.398 Y138.633 E3.00155
G1 X116.108 Y138.768 E0.05546
G1 X115.229 Y139.015 E0.039
G1 X114.414 Y139.38 E0.0382
G1 X113.256 Y140.177 E0.06011
G1 X113.496 Y140.527 F9000
G1 F1800
G1 X112.859 Y141.174 E0.03884
G1 X112.347 Y141.885 E0.03745
G1 X111.739 Y143.224 E0.06286
G1 X111.543 Y144.023 E0.03518
G1 X111.462 Y144.965 E0.04042
G1 X111.462 Y155.028 E0.43027
G1 X111.582 Y156.18 E0.04953
G1 X111.837 Y157.078 E0.03991
G1 X112.276 Y158.001 E0.04369
G1 X112.858 Y158.825 E0.04313
G1 X113.577 Y159.544 E0.0435
G1 X114.417 Y160.135 E0.04388
G1 X115.321 Y160.562 E0.04275
G1 X116.309 Y160.837 E0.04388
G1 X117.214 Y160.933 E0.0389
G1 X187.602 Y160.939 E3.00945
G1 X188.78 Y160.818 E0.05066
G1 X189.616 Y160.586 E0.03708
G1 X190.379 Y160.244 E0.03575
G1 X191.489 Y159.487 E0.05743
G1 X192.133 Y158.836 E0.03916
G1 X192.636 Y158.141 E0.03669
G1 X193.24 Y156.849 E0.06099
G1 X193.453 Y156.004 E0.03726
G1 X193.538 Y155.075 E0.03985
G1 X193.534 Y144.83 E0.43804
G1 X193.425 Y143.85 E0.04217
G1 X193.08 Y142.726 E0.05027
G1 X192.744 Y142.033 E0.03291
G1 X192.315 Y141.399 E0.03272
G1 X191.59 Y140.607 E0.04592
G1 X190.644 Y139.902 E0.05046
G1 X189.692 Y139.443 E0.0452
G1 X188.652 Y139.156 E0.04614
G1 X187.6 Y139.061 E0.04514
G1 X117.398 Y139.061 E3.0015
G1 X116.22 Y139.182 E0.05066
G1 X115.38 Y139.416 E0.03727
G1 X114.613 Y139.76 E0.03594
G1 X113.546 Y140.493 E0.05536
; INIT printing object bottom_10x3mm.STL id:0 copy 0
G1 E-1 F3000
; printing object bottom_10x3mm.STL id:0 copy 0
G1 X152.173 Y150.451 F9000
G1 E1 F1800
; External perimeter
;Perimeter
SET_VELOCITY_LIMIT ACCEL=2000 ACCEL_TO_DECEL=2000 SQUARE_CORNER_VELOCITY=5

; Overhang perimeter

;TYPE:Internal perimeter
G1 X152.526 Y150.3 E0.01637
G1 X152.609 Y150.466 E0.00793
G1 X152.94 Y150.885 E0.02282
G1 X153.331 Y151.276 E0.02365
G1 X152.385 Y151.231 E0.04048
G1 X152.304 Y150.818 E0.01802
G1 X152.194 Y150.507 E0.01409
G1 E-1 F3000
G1 X160.672 Y151.247 F9000
G1 E1 F1800
G1 X160.696 Y150.962 E0.01225
G1 X160.76 Y150.607 E0.01542
G1 X160.899 Y150.09 E0.0229
G1 X161.006 Y149.845 E0.0114
G1 X161.091 Y149.713 E0.00673
G1 X161.163 Y149.632 E0.00463
G1 X161.351 Y149.576 E0.00839
G1 X161.456 Y149.568 E0.00453
G1 X161.939 Y149.587 E0.02064
G1 X162.255 Y149.614 E0.01356
G1 X162.125 Y149.893 E0.01313
G1 X161.988 Y150.299 E0.01834
G1 X161.901 Y150.889 E0.0255
G1 X161.923 Y151.259 E0.01584
G1 X161.507 Y151.261 E0.01781
G1 X160.662 Y151.361 E0.03639
G1 X160.666 Y151.307 E0.00232
G1 E-1 F3000
G1 X170.513 Y152.609 F9000
G1 E1 F1800
G1 X170.184 Y153.987 E0.06055
G1 X169.794 Y153.902 E0.01706
G1 X170.054 Y152.583 E0.05747
G1 X170.454 Y152.606 E0.0171
G1 E-1 F3000
G1 X171.067 Y148.008 F9000
G1 E1 F1800
G1 X170.54 Y146.771 E0.05749
G1 X168.939 Y146.771 E0.06842
G1 X167.553 Y146.772 E0.05927
G1 X167.461 Y147.237 E0.02027
G1 X166.86 Y146.938 E0.02868
G1 X166.442 Y146.804 E0.01879
G1 X165.96 Y146.723 E0.02089
G1 X165.486 Y146.7 E0.0203
G1 X165.142 Y146.725 E0.01474
G1 X164.778 Y146.753 E0.01559
G1 X164.209 Y146.887 E0.02499
G1 X163.672 Y147.108 E0.02484
G1 X162.369 Y146.761 E0.05765
G1 X161.537 Y146.7 E0.03566
G1 X160.709 Y146.766 E0.03555
G1 X160.064 Y146.921 E0.02834
G1 X159.553 Y147.135 E0.02369
G1 X159.077 Y147.434 E0.02402
G1 X158.65 Y147.818 E0.02456
G1 X158.293 Y148.263 E0.02441
G1 X158.027 Y148.723 E0.02272
G1 X157.701 Y148.596 E0.01495
G1 X158.048 Y147.054 E0.0676
G1 X156.035 Y146.743 E0.08709
G1 X155.207 Y146.701 E0.03542
G1 X154.81 Y146.729 E0.01704
G1 X154.389 Y146.766 E0.01806
G1 X153.695 Y146.947 E0.03066
G1 X152.76 Y146.807 E0.04042
G1 X151.263 Y146.755 E0.06404
G1 X151.213 Y146.81 E0.00318
G1 X148.733 Y146.771 E0.10603
G1 X148.671 Y146.771 E0.00266
G1 X147.782 Y146.758 E0.03803
G1 X147.779 Y146.771 E0.00059
G1 X145.348 Y146.771 E0.10393
G1 X145.066 Y147.115 E0.01901
G1 X144.776 Y146.972 E0.01382
G1 X144.823 Y146.771 E0.00883
G1 X141.94 Y146.771 E0.12325
G1 X139.12 Y146.782 E0.12057
G1 X139.119 Y146.788 E0.00026
G1 X136.481 Y146.759 E0.11281
G1 X136.477 Y146.752 E0.00032
G1 X134.981 Y146.798 E0.06403
G1 X133.92 Y146.93 E0.0457
G1 X133.711 Y146.86 E0.00943
G1 X133.228 Y146.755 E0.02112
G1 X132.373 Y146.7 E0.03662
G1 X131.984 Y146.723 E0.01669
G1 X131.595 Y146.747 E0.01663
G1 X130.985 Y146.86 E0.02654
G1 X130.452 Y147.055 E0.02425
G1 X130.005 Y147.313 E0.0221
G1 X129.675 Y147.597 E0.0186
G1 X129.404 Y147.922 E0.01809
G1 X129.214 Y148.246 E0.01605
G1 X129.112 Y148.511 E0.01216
G1 X128.817 Y148.496 E0.01264
G1 X128.656 Y147.896 E0.02654
G1 X128.203 Y146.924 E0.04585
G1 X127.588 Y146.046 E0.04585
G1 X126.83 Y145.288 E0.04585
G1 X125.951 Y144.673 E0.04585
G1 X124.98 Y144.219 E0.04585
G1 X123.944 Y143.942 E0.04585
G1 X122.876 Y143.848 E0.04585
G1 X122.342 Y143.895 E0.02292
G1 X121.807 Y143.942 E0.02292
G1 X120.772 Y144.219 E0.04585
G1 X119.8 Y144.673 E0.04585
G1 X118.922 Y145.288 E0.04585
G1 X118.163 Y146.046 E0.04585
G1 X117.548 Y146.924 E0.04585
G1 X117.095 Y147.896 E0.04585
G1 X116.956 Y148.414 E0.02292
G1 X116.818 Y148.932 E0.02292
G1 X116.724 Y150 E0.04585
G1 X116.818 Y151.068 E0.04585
G1 X117.095 Y152.104 E0.04585
G1 X117.548 Y153.076 E0.04585
G1 X118.163 Y153.954 E0.04585
G1 X118.922 Y154.712 E0.04585
G1 X119.8 Y155.327 E0.04585
G1 X120.772 Y155.781 E0.04585
G1 X121.807 Y156.058 E0.04585
G1 X122.876 Y156.152 E0.04585
G1 X123.944 Y156.058 E0.04585
G1 X124.98 Y155.781 E0.04585
G1 X125.951 Y155.327 E0.04585
G1 X126.83 Y154.712 E0.04585
G1 X127.588 Y153.954 E0.04585
G1 X127.786 Y153.672 E0.01473
G1 X130.098 Y154.181 E0.10121
G1 X131.03 Y154.237 E0.03996
G1 X131.959 Y154.162 E0.03982
G1 X132.511 Y154.015 E0.02443
G1 X133.995 Y154.144 E0.06372
G1 X135.693 Y154.181 E0.07258
G1 X138.895 Y154.122 E0.13693
G1 X138.907 Y154.054 E0.00292
G1 X139.53 Y154.184 E0.0272
G1 X140.425 Y154.238 E0.03833
G1 X141.262 Y154.164 E0.03593
G1 X141.879 Y153.994 E0.02735
G1 X142.342 Y153.779 E0.02182
G1 X142.742 Y153.5 E0.02085
G1 X143.156 Y153.084 E0.0251
G1 X143.608 Y153.154 E0.01955
G1 X143.958 Y153.177 E0.01501
G1 X143.737 Y154.166 E0.04332
G1 X147.424 Y154.165 E0.15767
G1 X147.432 Y154.126 E0.00168
G1 X148.06 Y154.16 E0.0269
G1 X149.618 Y154.169 E0.06659
G1 X149.618 Y154.174 E0.00023
G1 X149.938 Y154.171 E0.01365
G1 X151.119 Y154.16 E0.05052
G1 X151.643 Y154.127 E0.02243
G1 X152.504 Y153.999 E0.03724
G1 X152.819 Y154.127 E0.01451
G1 X153.383 Y154.201 E0.02434
G1 X154.014 Y154.235 E0.02703
G1 X154.832 Y154.155 E0.03513
G1 X155.424 Y153.977 E0.02642
G1 X155.757 Y153.799 E0.01616
G1 X156.016 Y154.007 E0.01421
G1 X156.372 Y154.132 E0.01612
G1 X156.875 Y154.234 E0.02195
G1 X157.369 Y154.196 E0.02118
G1 X157.751 Y154.107 E0.01675
G1 X158.11 Y153.934 E0.01706
G1 X158.445 Y153.683 E0.01788
G1 X158.563 Y153.779 E0.00649
G1 X158.944 Y153.984 E0.01852
G1 X159.382 Y154.127 E0.01972
G1 X159.898 Y154.214 E0.02237
G1 X160.393 Y154.237 E0.02117
G1 X161.267 Y154.161 E0.0375
G1 X162.64 Y153.815 E0.06053
G1 X163.01 Y154.001 E0.01773
G1 X163.431 Y154.135 E0.0189
G1 X163.917 Y154.216 E0.02107
G1 X164.467 Y154.235 E0.02354
G1 X165.163 Y154.172 E0.02986
G1 X165.973 Y153.973 E0.03565
G1 X165.927 Y154.159 E0.0082
G1 X169.742 Y154.167 E0.1631
G1 X169.743 Y154.162 E0.00022
G1 X173.938 Y154.166 E0.17939
G1 X174.677 Y150.771 E0.14857
G1 X175.026 Y150.793 E0.01496
G1 X175.051 Y151.068 E0.01181
G1 X175.328 Y152.104 E0.04585
G1 X175.781 Y153.076 E0.04585
G1 X176.396 Y153.954 E0.04585
G1 X177.154 Y154.712 E0.04585
G1 X178.033 Y155.327 E0.04585
G1 X179.005 Y155.781 E0.04585
G1 X180.04 Y156.058 E0.04585
G1 X181.109 Y156.152 E0.04585
G1 X182.177 Y156.058 E0.04585
G1 X183.213 Y155.781 E0.04585
G1 X184.184 Y155.327 E0.04585
G1 X185.063 Y154.712 E0.04585
G1 X185.821 Y153.954 E0.04585
G1 X186.436 Y153.076 E0.04585
G1 X186.889 Y152.104 E0.04585
G1 X187.028 Y151.586 E0.02292
G1 X187.167 Y151.068 E0.02292
G1 X187.26 Y150 E0.04585
G1 X187.167 Y148.932 E0.04585
G1 X186.889 Y147.896 E0.04585
G1 X186.436 Y146.924 E0.04585
G1 X185.821 Y146.046 E0.04585
G1 X185.063 Y145.288 E0.04585
G1 X184.184 Y144.673 E0.04585
G1 X183.213 Y144.219 E0.04585
G1 X182.177 Y143.942 E0.04585
G1 X181.109 Y143.848 E0.04585
G1 X180.575 Y143.895 E0.02292
G1 X180.04 Y143.942 E0.02292
G1 X179.005 Y144.219 E0.04585
G1 X178.033 Y144.673 E0.04585
G1 X177.154 Y145.288 E0.04585
G1 X176.396 Y146.046 E0.04585
G1 X175.888 Y146.771 E0.03787
G1 X172.122 Y146.771 E0.16102
G1 X171.106 Y147.962 E0.06693
G1 E-1 F3000
G1 X155.771 Y149.623 F9000
G1 E1 F1800
G1 X156.988 Y149.816 E0.05268
G1 X157.529 Y147.407 E0.10555
G1 X155.991 Y147.169 E0.06655
G1 X155.212 Y147.13 E0.03336
G1 X154.844 Y147.156 E0.01575
G1 X154.463 Y147.19 E0.01637
G1 X153.884 Y147.341 E0.02559
G1 X153.788 Y147.394 E0.00468
G1 X152.721 Y147.235 E0.04612
G1 X151.443 Y147.19 E0.05467
G1 X151.396 Y147.241 E0.00297
G1 X148.73 Y147.2 E0.114
G1 X148.668 Y147.2 E0.00266
G1 X148.126 Y147.192 E0.02317
G1 X148.124 Y147.2 E0.00036
G1 X145.551 Y147.2 E0.11002
G1 X144.229 Y148.813 E0.08916
G1 X143.939 Y148.67 E0.01382
G1 X144.283 Y147.2 E0.06454
G1 X141.941 Y147.2 E0.10012
G1 X139.479 Y147.209 E0.10528
G1 X139.477 Y147.22 E0.00049
G1 X137.103 Y147.194 E0.10148
G1 X136.858 Y148.409 E0.05298
G1 X136.222 Y147.189 E0.05883
G1 X135.014 Y147.226 E0.05168
G1 X134.12 Y147.337 E0.03852
G1 X134.101 Y147.442 E0.00455
G1 X133.597 Y147.274 E0.02272
G1 X133.168 Y147.18 E0.01876
G1 X132.373 Y147.129 E0.03409
G1 X132.01 Y147.151 E0.01554
G1 X131.648 Y147.173 E0.01551
G1 X131.098 Y147.274 E0.02388
G1 X130.635 Y147.444 E0.02112
G1 X130.254 Y147.664 E0.01881
G1 X129.981 Y147.899 E0.01538
G1 X129.755 Y148.169 E0.01504
G1 X129.602 Y148.432 E0.01303
G1 X129.493 Y148.714 E0.01292
G1 X129.425 Y149.051 E0.01473
G1 X129.404 Y149.393 E0.01464
G1 X129.424 Y149.652 E0.01109
G1 X129.481 Y149.903 E0.01102
G1 X129.581 Y150.159 E0.01173
G1 X129.772 Y150.487 E0.01625
G1 X130.132 Y150.933 E0.0245
G1 X129.977 Y151.179 E0.01245
G1 X129.141 Y150.981 E0.03672
G1 X128.607 Y153.414 E0.10649
G1 X130.157 Y153.755 E0.06786
G1 X131.026 Y153.808 E0.03723
G1 X131.885 Y153.738 E0.03686
G1 X132.401 Y153.601 E0.0228
G1 X132.444 Y153.579 E0.00206
G1 X134.019 Y153.716 E0.06758
G1 X135.693 Y153.752 E0.07162
G1 X138.539 Y153.7 E0.12169
G1 X138.584 Y153.462 E0.01036
G1 X138.87 Y153.609 E0.01375
G1 X139.587 Y153.758 E0.03131
G1 X140.419 Y153.808 E0.03564
G1 X141.186 Y153.741 E0.03291
G1 X141.731 Y153.59 E0.02417
G1 X142.127 Y153.406 E0.0187
G1 X142.466 Y153.17 E0.01762
G1 X142.773 Y152.862 E0.01864
G1 X142.918 Y152.614 E0.01227
G1 X143.655 Y152.728 E0.03189
G1 X144.135 Y152.759 E0.02058
G1 X144.491 Y152.761 E0.01521
G1 X144.272 Y153.737 E0.04278
G1 X147.071 Y153.736 E0.11967
G1 X147.082 Y153.678 E0.00252
G1 X148.073 Y153.731 E0.04242
G1 X149.591 Y153.74 E0.0649
G1 X149.621 Y153.596 E0.00628
G1 X149.959 Y153.604 E0.01444
G1 X149.981 Y153.742 E0.00599
G1 X151.104 Y153.731 E0.048
G1 X151.598 Y153.701 E0.02116
G1 X152.558 Y153.557 E0.04148
G1 X152.929 Y153.709 E0.01717
G1 X153.423 Y153.774 E0.02128
G1 X154.005 Y153.806 E0.02495
G1 X154.749 Y153.733 E0.03193
G1 X155.259 Y153.579 E0.02282
G1 X155.866 Y153.256 E0.02937
G1 X155.961 Y153.414 E0.0079
G1 X156.227 Y153.627 E0.01457
G1 X156.486 Y153.718 E0.01173
G1 X156.902 Y153.802 E0.01814
G1 X157.304 Y153.772 E0.01722
G1 X157.607 Y153.7 E0.01333
G1 X157.887 Y153.566 E0.01326
G1 X158.098 Y153.407 E0.0113
G1 X158.26 Y153.26 E0.00937
G1 X158.383 Y153.082 E0.00925
G1 X158.801 Y153.42 E0.02299
G1 X159.114 Y153.588 E0.01517
G1 X159.485 Y153.71 E0.01672
G1 X159.944 Y153.788 E0.01989
G1 X160.384 Y153.808 E0.01884
G1 X161.195 Y153.737 E0.03481
G1 X162.733 Y153.349 E0.06782
G1 X162.859 Y153.445 E0.00677
G1 X163.172 Y153.603 E0.01499
G1 X163.532 Y153.717 E0.01613
G1 X163.96 Y153.788 E0.01856
G1 X164.456 Y153.806 E0.0212
G1 X165.092 Y153.748 E0.02732
G1 X165.585 Y153.627 E0.02169
G1 X166.039 Y153.437 E0.02106
G1 X166.638 Y153.065 E0.03014
G1 X166.474 Y153.732 E0.02937
G1 X169.389 Y153.738 E0.12467
G1 X169.706 Y152.134 E0.0699
G1 X170.527 Y152.181 E0.03515
G1 X171.063 Y152.155 E0.02294
G1 X170.685 Y153.734 E0.06944
G1 X173.593 Y153.737 E0.12435
G1 X175.016 Y147.2 E0.28606
G1 X172.32 Y147.2 E0.11528
G1 X170.945 Y148.812 E0.09061
G1 X170.257 Y147.2 E0.07495
G1 X168.94 Y147.2 E0.05632
G1 X167.905 Y147.2 E0.04422
G1 X167.714 Y148.169 E0.04221
G1 X167.275 Y147.682 E0.028
G1 X167.001 Y147.487 E0.0144
G1 X166.699 Y147.336 E0.01443
G1 X166.34 Y147.222 E0.01609
G1 X165.914 Y147.15 E0.0185
G1 X165.491 Y147.129 E0.01809
G1 X165.174 Y147.153 E0.0136
G1 X164.844 Y147.178 E0.01415
G1 X164.341 Y147.296 E0.0221
G1 X163.883 Y147.485 E0.02119
G1 X163.749 Y147.572 E0.00684
G1 X162.298 Y147.185 E0.06421
G1 X161.539 Y147.129 E0.03253
G1 X160.776 Y147.191 E0.03272
G1 X160.198 Y147.33 E0.02544
G1 X159.751 Y147.517 E0.02071
G1 X159.336 Y147.777 E0.02093
G1 X158.963 Y148.114 E0.02149
G1 X158.647 Y148.506 E0.02154
G1 X158.365 Y148.995 E0.02415
G1 X158.119 Y149.608 E0.02823
G1 X157.942 Y150.28 E0.0297
G1 X157.855 Y150.834 E0.02396
G1 X157.857 Y151.112 E0.0119
G1 X156.966 Y151.06 E0.03818
G1 X156.673 Y151.166 E0.0133
G1 X156.5 Y150.682 E0.02196
G1 X156.314 Y150.307 E0.0179
G1 X155.808 Y149.67 E0.03481
G1 E-1 F3000
G1 X152.163 Y152.651 F9000
G1 E1 F1800
; External perimeter
;ExternalPerimeter
SET_VELOCITY_LIMIT ACCEL=1000 ACCEL_TO_DECEL=1000 SQUARE_CORNER_VELOCITY=5

; Perimeter

;TYPE:External perimeter
G1 X151.962 Y151.526 E0.04884
G1 X151.951 Y151.243 E0.01212
G1 X151.89 Y150.931 E0.01358
G1 X151.779 Y150.621 E0.01409
G1 X151.645 Y150.393 E0.01132
G1 X151.405 Y150.129 E0.01526
