; generated by SuperSlicer 2.4 on 2022-05-10 at 01:16:01 UTC


;
;

;
;
; 

; external perimeters extrusion width = 0.40mm
; perimeters extrusion width = 0.45mm
; infill extrusion width = 0.72mm
; solid infill extrusion width = 0.56mm
; top infill extrusion width = 0.40mm
; first layer extrusion width = 0.48mm

; object:{"name":"latch_shuttle","id":"latch_shuttle.stl id:0 copy 0","object_center":[152.499992,150.000152,0.000000],"boundingbox_center":[152.499992,150.000152,5.299995],"boundingbox_size":[15.118256,26.658058,10.599991]}
; plater:{"center":[152.499992,150.000152,0.000000],"boundingbox_center":[152.499992,150.000152,5.299995],"boundingbox_size":[15.118256,26.658058,10.599991]}

M73 P0 R10
;TYPE:Custom
START_PRINT T_BED=70 T_EXTRUDER=230
M107
G21 ; set units to millimeters
G90 ; use absolute coordinates
M83 ; use relative distances for extrusion
; Filament gcode
M104 S230 ; set temperature
M109 S230 ; set temperature and wait for it to be reached
M190 S70 ; set bed temperature and wait for it to be reached
M107
;LAYER_CHANGE
;Z:0.24
;HEIGHT:0.24
G1 Z0.24 F9000
G92 E0
G1 E-1 F3000
M204 S1000
G1 X152.39 Y134.977 F9000
G1 E1 F1800
;TYPE:Skirt
;WIDTH:0.45
G1 X150.856 Y136.883 E0.09728
G1 X146.768 Y143.341 E0.30393
G1 X145.415 Y146.181 E0.12509
G1 X144.294 Y149.023 E0.12145
G1 X143.326 Y152.086 E0.12775
G1 X142.585 Y155.178 E0.12643
G1 X142.068 Y158.285 E0.12521
G1 X141.732 Y162.143 E0.15401
G1 X141.821 Y163.166 E0.04081
G1 X142.292 Y164.422 E0.05335
G1 X143.093 Y165.425 E0.05105
G1 X144.159 Y166.14 E0.05106
G1 X145.206 Y166.472 E0.04364
G1 X145.948 Y166.544 E0.02967
G1 X154.715 Y166.544 E0.3486
G1 X155.437 Y166.476 E0.0288
G1 X156.62 Y166.084 E0.04955
G1 X157.536 Y165.455 E0.04422
G1 X158.366 Y164.434 E0.0523
G1 X158.823 Y163.274 E0.04956
G1 X163.18 Y141.61 E0.87866
G1 X163.257 Y140.39 E0.04863
G1 X163.076 Y139.478 E0.03694
G1 X162.778 Y138.758 E0.03101
G1 X162.297 Y138.047 E0.03413
G1 X161.862 Y137.589 E0.02511
G1 X157.992 Y134.192 E0.20474
G1 X156.797 Y133.631 E0.05251
G1 X155.692 Y133.461 E0.04445
G1 X154.603 Y133.588 E0.04359
G1 X153.774 Y133.891 E0.03509
G1 X153.01 Y134.375 E0.03597
G1 X152.39 Y134.977 E0.03435
G1 X152.697 Y135.227 F9000
G1 F1800
G1 X151.171 Y137.124 E0.09682
G1 X147.123 Y143.519 E0.30091
G1 X145.781 Y146.333 E0.12399
G1 X144.666 Y149.159 E0.12076
G1 X143.708 Y152.189 E0.12637
G1 X142.975 Y155.251 E0.12519
G1 X142.461 Y158.33 E0.12411
G1 X142.128 Y162.163 E0.153
G1 X142.211 Y163.097 E0.03727
G1 X142.64 Y164.233 E0.04828
G1 X143.368 Y165.14 E0.04624
G1 X144.335 Y165.785 E0.04625
G1 X145.266 Y166.08 E0.03883
G1 X145.948 Y166.147 E0.02726
G1 X154.715 Y166.147 E0.3486
G1 X155.378 Y166.084 E0.02646
G1 X156.448 Y165.727 E0.04487
G1 X157.264 Y165.167 E0.03934
G1 X158.018 Y164.243 E0.04743
G1 X158.435 Y163.194 E0.04488
G1 X162.791 Y141.532 E0.87855
M73 P1 R10
G1 X162.862 Y140.417 E0.04441
G1 X162.696 Y139.59 E0.03358
G1 X162.43 Y138.948 E0.02759
G1 X161.997 Y138.306 E0.03082
G1 X161.598 Y137.884 E0.02307
G1 X157.778 Y134.525 E0.20228
G1 X156.696 Y134.014 E0.04758
G1 X155.692 Y133.858 E0.04039
G1 X154.693 Y133.974 E0.03997
G1 X153.943 Y134.249 E0.0318
G1 X153.263 Y134.681 E0.03201
G1 X152.697 Y135.227 E0.03129
; INIT printing object latch_shuttle.stl id:0 copy 0
G1 E-1 F3000
; printing object latch_shuttle.stl id:0 copy 0
G1 X154.71 Y144.843 F9000
G1 E1 F1800
;TYPE:Internal perimeter
;WIDTH:0.48
G1 X154.884 Y145.033 E0.01105
G1 X154.69 Y145.35 E0.01592
G1 X153.997 Y146.586 E0.06057
G1 X153.352 Y147.848 E0.06057
G1 X152.757 Y149.131 E0.06051
G1 X152.208 Y150.441 E0.06071
G1 X151.712 Y151.766 E0.0605
G1 X151.378 Y152.774 E0.04539
G1 X151.22 Y153.458 E0.03003
G1 X151.137 Y154.051 E0.02559
G1 X151.102 Y154.522 E0.02018
G1 X151.102 Y155.109 E0.02513
G1 X151.133 Y155.58 E0.02018
G1 X151.214 Y156.163 E0.02513
G1 X151.312 Y156.63 E0.02042
G1 X151.504 Y157.29 E0.02941
G1 X151.722 Y157.851 E0.0257
G1 X151.923 Y158.278 E0.02018
G1 X152.209 Y158.791 E0.02513
G1 X152.467 Y159.186 E0.02018
G1 X152.822 Y159.655 E0.02513
G1 X153.133 Y160.009 E0.02018
G1 X153.568 Y160.444 E0.02631
G1 X153.947 Y160.749 E0.02078
G1 X153.887 Y161.424 E0.02898
G1 X146.906 Y161.424 E0.29847
G1 X146.993 Y160.28 E0.04905
G1 X147.151 Y158.893 E0.05967
G1 X147.358 Y157.517 E0.05948
G1 X147.759 Y155.462 E0.08956
G1 X148.267 Y153.427 E0.08967
G1 X148.664 Y152.089 E0.05966
G1 X149.109 Y150.764 E0.05975
G1 X149.598 Y149.46 E0.05955
G1 X150.134 Y148.169 E0.05975
G1 X150.714 Y146.9 E0.05968
G1 X151.309 Y145.708 E0.05696
G1 X151.365 Y145.629 E0.00416
G1 X151.433 Y145.602 E0.00312
G1 X153.751 Y145.186 E0.10069
G1 X154.397 Y144.999 E0.02874
G1 X154.71 Y144.843 E0.01495
G1 X156.312 Y139.862 F9000
G1 F1800
G1 X156.536 Y139.697 E0.0119
G1 X157.816 Y140.84 E0.07338
G1 X157.047 Y141.808 E0.05287
G1 X156.951 Y141.941 E0.00698
G1 X156.708 Y141.853 E0.01103
G1 X156.725 Y141.604 E0.01069
G1 X156.702 Y141.122 E0.02063
G1 X156.613 Y140.65 E0.02054
G1 X156.496 Y140.265 E0.01722
G1 X156.312 Y139.862 E0.01892
G1 X155.135 Y139.048 F9000
G1 F1800
G1 X155.686 Y138.363 E0.03759
G1 X158.403 Y140.79 E0.15576
G1 X157.388 Y142.067 E0.06974
G1 X156.569 Y143.202 E0.05983
G1 X156.173 Y143.786 E0.03018
G1 X155.787 Y144.377 E0.03018
G1 X155.06 Y145.567 E0.05963
G1 X154.375 Y146.789 E0.05987
G1 X153.738 Y148.035 E0.05987
G1 X153.149 Y149.304 E0.05981
G1 X152.607 Y150.599 E0.06001
G1 X152.116 Y151.909 E0.0598
G1 X151.791 Y152.89 E0.04419
G1 X151.642 Y153.536 E0.02837
G1 X151.563 Y154.097 E0.02418
G1 X151.531 Y154.538 E0.01891
G1 X151.53 Y155.095 E0.02384
G1 X151.56 Y155.537 E0.01891
G1 X151.636 Y156.089 E0.02385
G1 X151.728 Y156.526 E0.01908
G1 X151.911 Y157.153 E0.02791
G1 X152.116 Y157.682 E0.02426
G1 X152.304 Y158.082 E0.01891
G1 X152.575 Y158.569 E0.02385
G1 X152.818 Y158.939 E0.01891
G1 X153.154 Y159.384 E0.02385
G1 X153.446 Y159.716 E0.0189
G1 X153.855 Y160.125 E0.02471
G1 X154.395 Y160.558 E0.0296
G1 X154.319 Y161.294 E0.03162
G1 X154.279 Y161.852 E0.02394
G1 X146.444 Y161.852 E0.33497
G1 X146.454 Y161.649 E0.00868
G1 X146.566 Y160.239 E0.06048
G1 X146.726 Y158.837 E0.06034
G1 X146.935 Y157.445 E0.0602
G1 X147.34 Y155.369 E0.09044
G1 X147.854 Y153.314 E0.09055
G1 X148.256 Y151.96 E0.06038
G1 X148.705 Y150.621 E0.06039
G1 X149.199 Y149.303 E0.06019
G1 X149.741 Y147.998 E0.06039
G1 X150.327 Y146.715 E0.06032
G1 X150.941 Y145.487 E0.0587
G1 X151.005 Y145.384 E0.00519
G1 X151.048 Y145.336 E0.00275
G1 X151.174 Y145.244 E0.00668
G1 X151.315 Y145.188 E0.00649
G1 X153.653 Y144.768 E0.10156
G1 X154.24 Y144.598 E0.02611
G1 X154.71 Y144.363 E0.02246
G1 X155.125 Y144.067 E0.02181
G1 X155.489 Y143.71 E0.02181
G1 X155.791 Y143.305 E0.0216
G1 X155.996 Y142.923 E0.01851
G1 X156.133 Y142.581 E0.01576
G1 X156.272 Y141.968 E0.0269
G1 X156.295 Y141.6 E0.01575
G1 X156.275 Y141.172 E0.01833
G1 X156.196 Y140.752 E0.01826
G1 X156.094 Y140.416 E0.01501
G1 X155.881 Y139.95 E0.02191
G1 X155.503 Y139.41 E0.02818
G1 X155.135 Y139.048 E0.0221
G1 X154.52 Y139.128 F9000
G1 F1800
G1 X155.635 Y137.743 E0.07604
G1 X158.99 Y140.74 E0.19233
G1 X157.73 Y142.326 E0.08661
G1 X156.92 Y143.448 E0.05915
G1 X156.53 Y144.023 E0.02974
G1 X156.15 Y144.606 E0.02975
G1 X155.43 Y145.784 E0.05902
G1 X154.753 Y146.991 E0.05917
G1 X154.123 Y148.223 E0.05917
G1 X153.541 Y149.477 E0.05911
G1 X153.005 Y150.757 E0.05931
G1 X152.521 Y152.052 E0.05911
M73 P2 R10
G1 X152.204 Y153.006 E0.04298
G1 X152.063 Y153.615 E0.02672
G1 X151.989 Y154.142 E0.02278
G1 X151.959 Y154.554 E0.01764
G1 X151.959 Y155.081 E0.02256
G1 X151.986 Y155.493 E0.01764
G1 X152.059 Y156.016 E0.02256
G1 X152.144 Y156.422 E0.01775
G1 X152.317 Y157.015 E0.02642
G1 X152.51 Y157.513 E0.02283
G1 X152.685 Y157.886 E0.01764
G1 X152.942 Y158.347 E0.02256
G1 X153.168 Y158.692 E0.01764
G1 X153.487 Y159.113 E0.02256
G1 X153.759 Y159.423 E0.01763
G1 X154.141 Y159.805 E0.02312
G1 X154.845 Y160.37 E0.03858
G1 X154.746 Y161.331 E0.04131
G1 X154.678 Y162.281 E0.0407
G1 X145.994 Y162.281 E0.37129
G1 X146.027 Y161.622 E0.02821
G1 X146.139 Y160.198 E0.06106
G1 X146.302 Y158.781 E0.06098
G1 X146.513 Y157.372 E0.06092
G1 X146.774 Y155.966 E0.06112
G1 X146.922 Y155.276 E0.0302
G1 X147.257 Y153.883 E0.06124
G1 X147.44 Y153.201 E0.0302
G1 X147.847 Y151.831 E0.0611
G1 X148.301 Y150.478 E0.06103
G1 X148.801 Y149.145 E0.06083
G1 X149.348 Y147.827 E0.06103
G1 X149.94 Y146.53 E0.06096
G1 X150.567 Y145.276 E0.05992
G1 X150.661 Y145.126 E0.00758
G1 X150.758 Y145.017 E0.00623
G1 X150.965 Y144.866 E0.011
G1 X151.197 Y144.774 E0.01067
G1 X153.556 Y144.351 E0.10244
G1 X154.083 Y144.198 E0.02349
G1 X154.488 Y143.995 E0.01936
G1 X154.849 Y143.738 E0.01895
G1 X155.166 Y143.428 E0.01895
G1 X155.428 Y143.075 E0.01881
G1 X155.607 Y142.742 E0.01614
G1 X155.722 Y142.454 E0.01328
G1 X155.846 Y141.906 E0.024
G1 X155.866 Y141.596 E0.01328
G1 X155.849 Y141.222 E0.01602
G1 X155.779 Y140.855 E0.01598
G1 X155.692 Y140.568 E0.0128
G1 X155.508 Y140.164 E0.01901
G1 X155.175 Y139.688 E0.02481
G1 X154.854 Y139.373 E0.01922
G1 X154.52 Y139.128 E0.01772
G1 X153.905 Y139.209 F9000
;TYPE:External perimeter
G1 F1800
G1 X154.241 Y138.771 E0.0236
G1 X154.634 Y138.291 E0.02652
G1 X155.345 Y137.421 E0.04805
G1 X155.432 Y137.349 E0.00484
G1 X155.501 Y137.316 E0.00328
G1 X155.587 Y137.296 E0.00376
G1 X155.659 Y137.296 E0.00308
G1 X155.69 Y137.304 E0.00137
G1 X155.78 Y137.328 E0.00399
G1 X155.9 Y137.405 E0.00611
G1 X159.296 Y140.438 E0.19466
G1 X159.378 Y140.533 E0.00536
G1 X159.397 Y140.567 E0.00166
G1 X159.403 Y140.579 E0.00055
G1 X159.434 Y140.684 E0.0047
G1 X159.437 Y140.736 E0.00222
G1 X159.423 Y140.834 E0.00424
G1 X159.371 Y140.949 E0.00539
G1 X159.115 Y141.272 E0.01765
G1 X158.072 Y142.585 E0.07167
G1 X157.272 Y143.693 E0.05847
G1 X157.128 Y143.905 E0.01092
G1 X156.886 Y144.261 E0.01839
G1 X156.739 Y144.487 E0.01157
G1 X156.512 Y144.835 E0.01774
G1 X155.799 Y146 E0.05841
G1 X155.342 Y146.817 E0.04002
G1 X155.131 Y147.193 E0.01846
G1 X154.508 Y148.411 E0.05847
G1 X153.933 Y149.65 E0.05841
G1 X153.662 Y150.28 E0.02931
G1 X153.404 Y150.915 E0.02931
G1 X152.93 Y152.181 E0.05781
G1 X152.925 Y152.194 E0.0006
G1 X152.617 Y153.122 E0.04178
G1 X152.485 Y153.693 E0.02506
G1 X152.473 Y153.777 E0.00364
G1 X152.416 Y154.188 E0.01773
G1 X152.388 Y154.569 E0.01636
G1 X152.387 Y155.067 E0.02128
G1 X152.413 Y155.449 E0.01637
G1 X152.481 Y155.942 E0.02128
G1 X152.56 Y156.318 E0.01641
G1 X152.723 Y156.877 E0.02492
G1 X152.887 Y157.301 E0.01942
G1 X152.904 Y157.344 E0.00198
G1 X153.067 Y157.69 E0.01636
G1 X153.309 Y158.125 E0.02128
G1 X153.519 Y158.445 E0.01637
G1 X153.73 Y158.725 E0.01498
G1 X153.819 Y158.842 E0.0063
G1 X154.071 Y159.13 E0.01636
G1 X154.249 Y159.308 E0.01076
G1 X154.428 Y159.486 E0.01077
G1 X155.157 Y160.071 E0.04
G1 X155.219 Y160.148 E0.0042
G1 X155.26 Y160.239 E0.00426
G1 X155.264 Y160.261 E0.00097
G1 X155.27 Y160.288 E0.0012
G1 X155.271 Y160.413 E0.00533
G1 X155.188 Y161.22 E0.0347
G1 X155.173 Y161.368 E0.00638
G1 X155.104 Y162.323 E0.0409
G1 X155.076 Y162.458 E0.00592
G1 X155.024 Y162.553 E0.00461
G1 X154.929 Y162.642 E0.00558
G1 X154.832 Y162.689 E0.00461
G1 X154.697 Y162.709 E0.00581
G1 X145.967 Y162.709 E0.37329
G1 X145.828 Y162.688 E0.00602
G1 X145.725 Y162.637 E0.00489
G1 X145.685 Y162.598 E0.00239
G1 X145.643 Y162.558 E0.00249
G1 X145.59 Y162.46 E0.00475
G1 X145.563 Y162.308 E0.00659
G1 X145.566 Y162.255 E0.00227
G1 X145.599 Y161.594 E0.02831
G1 X145.713 Y160.157 E0.06164
G1 X145.79 Y159.486 E0.02888
G1 X145.877 Y158.725 E0.03275
G1 X146.09 Y157.301 E0.06156
G1 X146.169 Y156.877 E0.01841
G1 X146.354 Y155.882 E0.04327
G1 X146.504 Y155.181 E0.03068
G1 X146.842 Y153.777 E0.06173
G1 X147.028 Y153.084 E0.03068
G1 X147.292 Y152.194 E0.0397
G1 X147.439 Y151.702 E0.02197
G1 X147.897 Y150.334 E0.06167
G1 X148.144 Y149.659 E0.03074
G1 X148.402 Y148.988 E0.03074
G1 X148.641 Y148.411 E0.0267
G1 X148.955 Y147.656 E0.03497
G1 X149.22 Y147.076 E0.02727
G1 X149.554 Y146.345 E0.03433
G1 X150.193 Y145.066 E0.06114
G1 X150.317 Y144.869 E0.00997
G1 X150.467 Y144.699 E0.0097
G1 X150.572 Y144.608 E0.00594
G1 X150.757 Y144.487 E0.00942
G1 X151.079 Y144.359 E0.01484
G1 X153.458 Y143.933 E0.10331
G1 X153.926 Y143.797 E0.02086
G1 X154.133 Y143.693 E0.00989
G1 X154.267 Y143.627 E0.00638
G1 X154.573 Y143.408 E0.01609
G1 X154.842 Y143.145 E0.01609
G1 X155.066 Y142.844 E0.01603
G1 X155.205 Y142.585 E0.01259
G1 X155.218 Y142.56 E0.00118
G1 X155.312 Y142.326 E0.01081
G1 X155.421 Y141.845 E0.02109
G1 X155.437 Y141.593 E0.0108
G1 X155.422 Y141.272 E0.01372
G1 X155.363 Y140.957 E0.0137
G1 X155.295 Y140.736 E0.0099
G1 X155.291 Y140.72 E0.0007
G1 X155.134 Y140.377 E0.01612
G1 X154.846 Y139.966 E0.02145
G1 X154.576 Y139.701 E0.01621
G1 X153.905 Y139.209 E0.03558
;WIPE_START
M204 S3000
G1 X154.273 Y139.053 F9000
;WIPE_END
M204 S1000
G1 X155.558 Y138.837
;TYPE:Gap fill
;WIDTH:0.518579
G1 F1800
G1 X155.649 Y138.925 E0.0059
;WIDTH:0.568226
G1 X155.739 Y139.013 E0.00652
G1 X155.866 Y139.134 E0.00904
G1 X155.984 Y139.267 E0.00916
;WIDTH:0.650174
G1 X156.102 Y139.4 E0.01062
G1 X156.195 Y139.517 E0.00895
;WIDTH:0.730248
G1 X156.289 Y139.634 E0.01014
G1 X156.703 Y140.156 F9000
;WIDTH:0.158451
G1 F1800
G1 X156.805 Y140.315 E0.00202
;WIDTH:0.259397
G1 X156.882 Y140.435 E0.00296
;WIDTH:0.351984
G1 X156.959 Y140.556 E0.00429
;WIDTH:0.384754
G1 X156.995 Y140.618 E0.0024
;WIDTH:0.466608
G1 X157.074 Y140.758 E0.00666
;WIDTH:0.587291
G1 X157.153 Y140.898 E0.0086
;WIDTH:0.624637
G1 X157.224 Y140.998 E0.00699
;WIDTH:0.869839
G1 X157.325 Y141.147 E0.01464
G1 X157.071 Y141.361 F9000
;WIDTH:0.176267
G1 F1800
G1 X156.938 Y141.472 E0.00216
;WIDTH:0.203955
G1 X156.904 Y141.316 E0.00243
;WIDTH:0.263474
G1 X156.917 Y141.166 E0.00318
;WIDTH:0.292401
G1 X156.889 Y141.059 E0.00267
G1 X156.835 Y140.862 E0.0049
G1 X156.749 Y142.077 F9000
;WIDTH:0.609219
G1 F1800
G1 X156.702 Y142.195 E0.00706
;WIDTH:0.558519
G1 X156.655 Y142.313 E0.00642
G1 X156.622 Y142.386 E0.00406
;WIDTH:0.498422
G1 X156.556 Y142.532 E0.00715
;WIDTH:0.418293
G1 X156.49 Y142.679 E0.00587
;WIDTH:0.389414
G1 X156.478 Y142.703 E0.00093
G1 X156.392 Y142.859 E0.00601
;WIDTH:0.291532
G1 X156.306 Y143.015 E0.00427
G1 X156.28 Y143.064 E0.00131
G1 X156.161 Y143.26 E0.0055
;WIDTH:0.247271
G1 X156.042 Y143.456 E0.00448
G1 X156.035 Y143.468 E0.00028
G1 X155.926 Y143.621 E0.00365
;WIDTH:0.275285
G1 X155.826 Y143.764 E0.00391
G1 X155.727 Y143.906 E0.00387
G1 X155.606 Y144.055 E0.00429
;WIDTH:0.375347
G1 X155.495 Y144.19 E0.00564
G1 X155.374 Y144.343 E0.00631
;WIDTH:0.403852
G1 X155.356 Y144.364 E0.00098
;WIDTH:0.431961
G1 X155.235 Y144.494 E0.00673
;WIDTH:0.52641
G1 X155.114 Y144.623 E0.0084
;WIDTH:0.571983
G1 X155.001 Y144.75 E0.0088
;WIDTH:0.616301
G1 X154.945 Y144.808 E0.00455
G1 X154.618 Y145.426 F9000
;TYPE:Solid infill
;WIDTH:0.45595
G1 F2400
G1 X154.37 Y145.178 E0.01425
G1 X153.88 Y145.293 E0.02047
G1 X154.28 Y145.694 E0.02301
G1 X154.08 Y146.099 E0.01837
G1 X153.389 Y145.408 E0.03967
G1 X152.898 Y145.524 E0.02047
G1 X153.879 Y146.504 E0.05633
G1 X153.678 Y146.91 E0.01837
G1 X152.408 Y145.639 E0.07298
G1 X151.917 Y145.754 E0.02047
G1 X153.478 Y147.315 E0.08964
G1 X153.277 Y147.721 E0.01837
G1 X151.489 Y145.932 E0.1027
G1 X151.284 Y146.333 E0.01828
G1 X153.077 Y148.126 E0.10298
G1 X152.876 Y148.531 E0.01837
G1 X151.078 Y146.734 E0.10326
G1 X150.941 Y147 E0.01218
G1 X150.886 Y147.147 E0.00638
G1 X152.675 Y148.937 E0.10277
G1 X152.475 Y149.342 E0.01837
G1 X150.721 Y147.588 E0.10074
G1 X150.556 Y148.029 E0.01912
G1 X152.274 Y149.748 E0.09871
G1 X152.074 Y150.153 E0.01837
G1 X150.391 Y148.47 E0.09668
G1 X150.225 Y148.911 E0.01912
G1 X151.909 Y150.595 E0.09673
G1 X151.78 Y151.071 E0.02006
G1 X150.06 Y149.351 E0.09879
G1 X149.895 Y149.792 E0.01912
G1 X151.651 Y151.548 E0.10085
G1 X151.522 Y152.025 E0.02006
G1 X149.73 Y150.233 E0.10292
G1 X149.564 Y150.674 E0.01912
G1 X151.392 Y152.502 E0.10498
G1 X151.263 Y152.978 E0.02006
M73 P3 R10
G1 X149.399 Y151.114 E0.10705
G1 X149.234 Y151.555 E0.01912
G1 X151.134 Y153.455 E0.10911
G1 X151.005 Y153.932 E0.02006
G1 X149.069 Y151.996 E0.11118
G1 X148.904 Y152.437 E0.01912
G1 X150.875 Y154.408 E0.11324
G1 X150.847 Y154.511 E0.00433
G1 X150.956 Y155.095 E0.02412
