; generated by SuperSlicer 2.3.56 on 2021-10-10 at 00:44:36 UTC


;
;

;
;
; 

; external perimeters extrusion width = 0.40mm
; perimeters extrusion width = 0.40mm
; infill extrusion width = 0.40mm
; solid infill extrusion width = 0.40mm
; top infill extrusion width = 0.40mm
; support material extrusion width = 0.40mm
; first layer extrusion width = 0.48mm


;TYPE:Custom
START_PRINT T_BED=70 T_EXTRUDER=235
M107
G21 ; set units to millimeters
G90 ; use absolute coordinates
M83 ; use relative distances for extrusion
M104 S235 ; set temperature
M109 S235 ; set temperature and wait for it to be reached
M190 S70 ; set bed temperature and wait for it to be reached
M107
;LAYER_CHANGE
;Z:0.24
;HEIGHT:0.24
G1 Z0.240000 F6000.000
G1 E-1.50000 F3000.000
G1 X107.978 Y131.116 F6000.000
G1 E1.50000 F1800.000
;TYPE:Skirt
;WIDTH:0.48
G1 F1200.000
G1 X109.424 Y130.074 E0.07616
G1 X110.336 Y129.641 E0.04320
G1 X111.226 Y129.357 E0.03993
G1 X163.955 Y115.292 E2.33327
G1 X199.969 Y108.318 E1.56842
G1 X201.197 Y108.141 E0.05302
G1 X202.479 Y108.076 E0.05488
G1 X203.697 Y108.126 E0.05213
G1 X204.911 Y108.286 E0.05237
G1 X206.129 Y108.560 E0.05338
G1 X207.140 Y108.883 E0.04535
G1 X208.716 Y109.563 E0.07340
G1 X209.673 Y110.098 E0.04686
G1 X210.700 Y110.796 E0.05312
G1 X211.652 Y111.577 E0.05263
G1 X212.524 Y112.437 E0.05237
G1 X213.331 Y113.389 E0.05337
G1 X213.950 Y114.265 E0.04585
G1 X214.798 Y115.765 E0.07366
G1 X215.239 Y116.768 E0.04685
G1 X215.651 Y117.996 E0.05538
G1 X215.919 Y119.119 E0.04937
G1 X223.256 Y157.043 E1.65151
G1 X223.450 Y158.444 E0.06047
G1 X223.499 Y159.762 E0.05641
G1 X223.331 Y161.777 E0.08645
G1 X223.038 Y163.160 E0.06043
G1 X222.631 Y164.428 E0.05693
G1 X222.061 Y165.727 E0.06067
G1 X221.025 Y167.464 E0.08645
G1 X220.142 Y168.596 E0.06143
G1 X219.214 Y169.560 E0.05718
G1 X218.303 Y170.345 E0.05141
G1 X217.322 Y171.050 E0.05166
G1 X180.118 Y195.245 E1.89747
G1 X179.068 Y195.856 E0.05195
G1 X177.941 Y196.382 E0.05317
G1 X176.760 Y196.807 E0.05367
G1 X175.659 Y197.095 E0.04866
G1 X149.420 Y202.568 E1.14600
G1 X130.043 Y202.920 E0.82859
G1 X128.687 Y202.730 E0.05857
G1 X111.645 Y198.003 E0.75614
G1 X110.668 Y197.601 E0.04516
G1 X110.001 Y197.232 E0.03259
G1 X109.174 Y196.641 E0.04344
G1 X108.399 Y195.905 E0.04570
G1 X107.547 Y194.784 E0.06021
G1 X106.949 Y193.607 E0.05645
G1 X106.554 Y192.310 E0.05796
G1 X106.399 Y191.052 E0.05421
G1 X105.497 Y136.818 E2.31908
G1 X105.626 Y135.358 E0.06269
G1 X106.075 Y133.846 E0.06744
G1 X106.464 Y133.029 E0.03868
G1 X106.958 Y132.264 E0.03894
G1 X107.939 Y131.161 E0.06312
G1 X108.258 Y131.445 F6000.000
G1 F1200.000
G1 X108.279 Y131.422 E0.00135
G1 X109.637 Y130.446 E0.07151
G1 X110.504 Y130.036 E0.04102
G1 X111.349 Y129.768 E0.03788
G1 X164.055 Y115.709 E2.33229
G1 X200.044 Y108.740 E1.56729
G1 X201.237 Y108.568 E0.05153
G1 X202.484 Y108.505 E0.05339
G1 X203.664 Y108.554 E0.05050
G1 X204.841 Y108.709 E0.05074
G1 X206.020 Y108.975 E0.05170
G1 X207.011 Y109.292 E0.04447
G1 X208.519 Y109.944 E0.07023
G1 X209.447 Y110.462 E0.04544
G1 X210.447 Y111.141 E0.05170
G1 X211.368 Y111.898 E0.05098
G1 X212.213 Y112.731 E0.05074
G1 X212.994 Y113.655 E0.05170
G1 X213.600 Y114.514 E0.04495
G1 X214.411 Y115.949 E0.07048
G1 X214.839 Y116.922 E0.04543
G1 X215.241 Y118.122 E0.05411
G1 X222.835 Y157.124 E1.69888
G1 X223.021 Y158.456 E0.05748
G1 X223.071 Y159.743 E0.05510
G1 X222.907 Y161.710 E0.08436
G1 X222.623 Y163.053 E0.05872
G1 X222.233 Y164.270 E0.05463
G1 X221.682 Y165.528 E0.05871
G1 X220.668 Y167.227 E0.08460
G1 X219.816 Y168.318 E0.05920
G1 X218.914 Y169.254 E0.05559
G1 X218.040 Y170.007 E0.04932
G1 X217.084 Y170.694 E0.05029
G1 X179.886 Y194.884 E1.89714
G1 X178.870 Y195.476 E0.05027
G1 X177.779 Y195.985 E0.05151
G1 X176.634 Y196.397 E0.05199
G1 X175.567 Y196.676 E0.04717
G1 X149.366 Y202.143 E1.14438
G1 X130.060 Y202.492 E0.82554
G1 X128.795 Y202.315 E0.05461
G1 X111.779 Y197.596 E0.75501
G1 X110.846 Y197.211 E0.04313
G1 X110.230 Y196.869 E0.03013
G1 X109.445 Y196.309 E0.04125
G1 X108.705 Y195.605 E0.04366
G1 X107.906 Y194.548 E0.05665
G1 X107.342 Y193.437 E0.05328
G1 X106.972 Y192.212 E0.05473
G1 X106.827 Y191.025 E0.05112
G1 X105.926 Y136.819 E2.31790
G1 X106.045 Y135.448 E0.05885
G1 X106.469 Y134.016 E0.06384
G1 X106.837 Y133.241 E0.03667
G1 X107.311 Y132.506 E0.03740
G1 X108.218 Y131.490 E0.05824
G1 E-1.50000 F3000.000
G1 X206.493 Y155.606 F6000.000
G1 E1.50000 F1800.000
;TYPE:Support material
G1 F1200.000
G1 X206.493 Y151.067 E0.19404
G1 X206.196 Y150.650 E0.02190
G1 X205.636 Y150.186 E0.03110
G1 X205.636 Y156.156 E0.25526
G1 X205.213 Y156.457 E0.02219
G1 X204.779 Y156.618 E0.01979
G1 X204.779 Y149.725 E0.29473
G1 X204.568 Y149.628 E0.00988
G1 X203.922 Y149.519 E0.02805
G1 X203.922 Y156.830 E0.31261
G1 X203.339 Y156.885 E0.02500
G1 X203.065 Y156.839 E0.01192
G1 X203.065 Y149.518 E0.31299
G1 X202.648 Y149.557 E0.01788
G1 X202.208 Y149.721 E0.02010
G1 X202.208 Y156.643 E0.29593
G1 X201.503 Y156.320 E0.03313
G1 X201.351 Y156.194 E0.00846
G1 X201.351 Y150.172 E0.25748
G1 X200.950 Y150.456 E0.02101
G1 X200.494 Y151.008 E0.03060
G1 X200.494 Y155.665 E0.19912
G1 E-1.50000 F3000.000
G1 X202.208 Y129.170 F6000.000
G1 E1.50000 F1800.000
G1 F1200.000
G1 X202.208 Y126.302 E0.12262
G1 X202.001 Y125.747 E0.02533
G1 X201.440 Y124.957 E0.04143
G1 X201.351 Y124.883 E0.00496
G1 X201.351 Y130.077 E0.22208
G1 X201.247 Y130.203 E0.00697
G1 X200.494 Y130.738 E0.03949
G1 X200.494 Y124.247 E0.27749
G1 X199.813 Y123.935 E0.03203
G1 X199.637 Y123.906 E0.00763
G1 X199.637 Y131.069 E0.30626
G1 X199.548 Y131.101 E0.00403
G1 X198.780 Y131.174 E0.03301
G1 X198.780 Y123.781 E0.31609
G1 X197.923 Y123.862 E0.03680
G1 X197.923 Y131.080 E0.30864
G1 X197.628 Y131.031 E0.01277
G1 X197.066 Y130.773 E0.02646
G1 X197.066 Y124.172 E0.28223
G1 X196.984 Y124.202 E0.00372
G1 X196.209 Y124.753 E0.04067
G1 X196.209 Y130.181 E0.23209
G1 X196.001 Y130.009 E0.01154
G1 X195.440 Y129.219 E0.04143
G1 X195.352 Y128.983 E0.01079
G1 X195.352 Y125.537 E0.14731
G1 E-1.50000 F3000.000
G1 X202.122 Y147.257 F6000.000
G1 E1.50000 F1800.000
;TYPE:Internal perimeter
G1 F1200.000
G1 X200.636 Y147.809 E0.06777
G1 X199.344 Y148.727 E0.06777
G1 X198.333 Y149.948 E0.06777
G1 X197.673 Y151.389 E0.06777
G1 X197.409 Y152.952 E0.06777
G1 X197.557 Y154.530 E0.06777
G1 X198.110 Y156.016 E0.06777
G1 X199.028 Y157.308 E0.06777
G1 X200.249 Y158.319 E0.06777
G1 X201.690 Y158.979 E0.06777
G1 X203.253 Y159.244 E0.06777
G1 X204.831 Y159.095 E0.06777
G1 X206.316 Y158.543 E0.06777
G1 X207.609 Y157.625 E0.06777
G1 X208.619 Y156.403 E0.06777
G1 X209.279 Y154.962 E0.06777
G1 X209.544 Y153.400 E0.06777
G1 X209.395 Y151.822 E0.06777
G1 X208.843 Y150.336 E0.06777
G1 X207.925 Y149.044 E0.06777
G1 X206.704 Y148.033 E0.06777
G1 X205.263 Y147.373 E0.06777
G1 X203.700 Y147.108 E0.06777
G1 X202.182 Y147.251 E0.06521
G1 X202.222 Y147.678 F6000.000
G1 F1200.000
G1 X202.218 Y147.678 E0.00015
G1 X200.838 Y148.191 E0.06295
G1 X199.638 Y149.044 E0.06295
G1 X198.699 Y150.178 E0.06295
G1 X198.086 Y151.516 E0.06295
G1 X197.840 Y152.968 E0.06295
G1 X197.979 Y154.434 E0.06295
G1 X198.492 Y155.814 E0.06295
G1 X199.344 Y157.014 E0.06295
G1 X200.478 Y157.953 E0.06295
G1 X201.817 Y158.566 E0.06295
G1 X203.268 Y158.812 E0.06295
G1 X204.734 Y158.673 E0.06295
G1 X206.114 Y158.161 E0.06295
G1 X207.314 Y157.308 E0.06295
G1 X208.253 Y156.174 E0.06295
G1 X208.866 Y154.835 E0.06295
G1 X209.112 Y153.384 E0.06295
G1 X208.974 Y151.918 E0.06295
G1 X208.461 Y150.538 E0.06295
G1 X207.608 Y149.338 E0.06295
G1 X206.474 Y148.399 E0.06295
G1 X205.136 Y147.786 E0.06295
G1 X203.684 Y147.540 E0.06295
G1 X202.282 Y147.672 E0.06023
G1 X202.322 Y148.099 F6000.000
G1 F1200.000
G1 X202.315 Y148.100 E0.00031
G1 X201.040 Y148.573 E0.05812
G1 X199.932 Y149.360 E0.05812
G1 X199.065 Y150.408 E0.05812
G1 X198.499 Y151.644 E0.05812
G1 X198.272 Y152.984 E0.05812
G1 X198.400 Y154.337 E0.05812
G1 X198.874 Y155.612 E0.05812
G1 X199.661 Y156.720 E0.05812
G1 X200.708 Y157.587 E0.05812
G1 X201.944 Y158.153 E0.05812
G1 X203.284 Y158.380 E0.05812
G1 X204.638 Y158.252 E0.05812
G1 X205.912 Y157.779 E0.05812
G1 X207.020 Y156.991 E0.05812
G1 X207.887 Y155.944 E0.05812
G1 X208.453 Y154.708 E0.05812
G1 X208.680 Y153.368 E0.05812
G1 X208.553 Y152.014 E0.05812
G1 X208.079 Y150.740 E0.05812
G1 X207.292 Y149.632 E0.05812
G1 X206.244 Y148.765 E0.05812
G1 X205.008 Y148.199 E0.05812
G1 X203.668 Y147.972 E0.05812
G1 X202.382 Y148.093 E0.05525
G1 X202.422 Y148.520 F6000.000
;TYPE:External perimeter
G1 F1200.000
G1 X202.411 Y148.521 E0.00046
G1 X201.243 Y148.955 E0.05330
G1 X200.226 Y149.677 E0.05330
G1 X199.432 Y150.637 E0.05330
G1 X198.912 Y151.771 E0.05330
G1 X198.704 Y153.000 E0.05330
G1 X198.821 Y154.241 E0.05330
G1 X199.256 Y155.410 E0.05330
G1 X199.978 Y156.426 E0.05330
G1 X200.938 Y157.221 E0.05330
G1 X202.071 Y157.740 E0.05330
G1 X203.300 Y157.948 E0.05330
G1 X204.541 Y157.831 E0.05330
G1 X205.710 Y157.397 E0.05330
G1 X206.726 Y156.675 E0.05330
G1 X207.521 Y155.714 E0.05330
G1 X208.040 Y154.581 E0.05330
G1 X208.248 Y153.352 E0.05330
G1 X208.131 Y152.111 E0.05330
G1 X207.697 Y150.942 E0.05330
G1 X206.975 Y149.926 E0.05330
G1 X206.015 Y149.131 E0.05330
G1 X204.881 Y148.612 E0.05330
G1 X203.652 Y148.404 E0.05330
G1 X202.482 Y148.514 E0.05027
G1 X202.416 Y148.511 F6000.000
G1 E-1.50000 F3000.000
G1 X200.075 Y133.402 F6000.000
G1 E1.50000 F1800.000
;TYPE:Internal perimeter
G1 F1200.000
G1 X201.561 Y132.850 E0.06777
G1 X202.853 Y131.932 E0.06777
G1 X203.863 Y130.711 E0.06777
G1 X204.523 Y129.270 E0.06777
G1 X204.788 Y127.707 E0.06777
G1 X204.639 Y126.129 E0.06777
G1 X204.087 Y124.643 E0.06777
G1 X203.169 Y123.351 E0.06777
G1 X201.948 Y122.340 E0.06777
G1 X200.507 Y121.680 E0.06777
G1 X198.944 Y121.415 E0.06777
G1 X197.366 Y121.564 E0.06777
G1 X195.880 Y122.116 E0.06777
G1 X194.588 Y123.034 E0.06777
G1 X193.577 Y124.255 E0.06777
G1 X192.917 Y125.696 E0.06777
G1 X192.653 Y127.259 E0.06777
G1 X192.802 Y128.837 E0.06777
G1 X193.354 Y130.323 E0.06777
G1 X194.272 Y131.615 E0.06777
G1 X195.493 Y132.626 E0.06777
G1 X196.934 Y133.286 E0.06777
G1 X198.497 Y133.551 E0.06777
G1 X200.015 Y133.408 E0.06521
G1 X199.975 Y132.981 F6000.000
G1 F1200.000
G1 X199.978 Y132.981 E0.00015
G1 X201.358 Y132.468 E0.06295
G1 X202.559 Y131.615 E0.06295
G1 X203.497 Y130.481 E0.06295
G1 X204.110 Y129.142 E0.06295
G1 X204.356 Y127.691 E0.06295
G1 X204.218 Y126.225 E0.06295
G1 X203.705 Y124.845 E0.06295
G1 X202.852 Y123.645 E0.06295
G1 X201.718 Y122.706 E0.06295
G1 X200.380 Y122.093 E0.06295
G1 X198.928 Y121.847 E0.06295
G1 X197.462 Y121.985 E0.06295
G1 X196.082 Y122.498 E0.06295
G1 X194.882 Y123.351 E0.06295
G1 X193.944 Y124.485 E0.06295
G1 X193.330 Y125.824 E0.06295
G1 X193.085 Y127.275 E0.06295
G1 X193.223 Y128.741 E0.06295
G1 X193.736 Y130.121 E0.06295
G1 X194.588 Y131.321 E0.06295
G1 X195.723 Y132.260 E0.06295
G1 X197.061 Y132.873 E0.06295
G1 X198.513 Y133.119 E0.06295
G1 X199.915 Y132.987 E0.06023
G1 X199.875 Y132.560 F6000.000
G1 F1200.000
G1 X199.882 Y132.559 E0.00031
G1 X201.156 Y132.086 E0.05812
G1 X202.264 Y131.298 E0.05812
G1 X203.131 Y130.251 E0.05812
G1 X203.697 Y129.015 E0.05812
G1 X203.924 Y127.675 E0.05812
G1 X203.797 Y126.321 E0.05812
G1 X203.323 Y125.047 E0.05812
G1 X202.536 Y123.939 E0.05812
G1 X201.489 Y123.072 E0.05812
G1 X200.253 Y122.506 E0.05812
G1 X198.912 Y122.279 E0.05812
G1 X197.559 Y122.407 E0.05812
G1 X196.285 Y122.880 E0.05812
G1 X195.176 Y123.668 E0.05812
G1 X194.310 Y124.715 E0.05812
G1 X193.743 Y125.951 E0.05812
G1 X193.517 Y127.291 E0.05812
G1 X193.644 Y128.645 E0.05812
G1 X194.118 Y129.919 E0.05812
G1 X194.905 Y131.027 E0.05812
G1 X195.952 Y131.894 E0.05812
G1 X197.188 Y132.460 E0.05812
G1 X198.529 Y132.687 E0.05812
G1 X199.815 Y132.566 E0.05525
G1 X199.775 Y132.139 F6000.000
;TYPE:External perimeter
G1 F1200.000
G1 X199.786 Y132.138 E0.00046
G1 X200.954 Y131.704 E0.05330
G1 X201.970 Y130.982 E0.05330
G1 X202.765 Y130.021 E0.05330
G1 X203.284 Y128.888 E0.05330
G1 X203.492 Y127.659 E0.05330
G1 X203.375 Y126.418 E0.05330
G1 X202.941 Y125.249 E0.05330
G1 X202.219 Y124.233 E0.05330
G1 X201.259 Y123.438 E0.05330
G1 X200.125 Y122.919 E0.05330
G1 X198.896 Y122.711 E0.05330
G1 X197.655 Y122.828 E0.05330
G1 X196.487 Y123.262 E0.05330
G1 X195.471 Y123.984 E0.05330
G1 X194.676 Y124.945 E0.05330
G1 X194.157 Y126.078 E0.05330
G1 X193.948 Y127.307 E0.05330
G1 X194.065 Y128.548 E0.05330
G1 X194.500 Y129.717 E0.05330
G1 X195.222 Y130.733 E0.05330
G1 X196.182 Y131.528 E0.05330
G1 X197.315 Y132.047 E0.05330
G1 X198.544 Y132.255 E0.05330
G1 X199.715 Y132.145 E0.05027
G1 X199.781 Y132.148 F6000.000
G1 E-1.50000 F3000.000
G1 X131.564 Y190.928 F6000.000
G1 E1.50000 F1800.000
;TYPE:Internal perimeter
G1 F1200.000
G1 X114.109 Y191.217 E0.74638
G1 X113.961 Y191.207 E0.00635
G1 X113.882 Y191.187 E0.00349
G1 X113.807 Y191.153 E0.00349
G1 X113.739 Y191.108 E0.00349
G1 X113.681 Y191.051 E0.00349
G1 X113.633 Y190.985 E0.00349
G1 X113.597 Y190.911 E0.00349
G1 X113.575 Y190.833 E0.00349
G1 X113.559 Y190.684 E0.00639
G1 X113.467 Y185.513 E0.22111
G1 X113.467 Y185.470 E0.00187
G1 X113.497 Y185.354 E0.00510
G1 X113.532 Y185.275 E0.00371
G1 X113.578 Y185.207 E0.00349
G1 X113.635 Y185.149 E0.00349
G1 X113.701 Y185.101 E0.00349
G1 X113.774 Y185.065 E0.00349
G1 X113.853 Y185.042 E0.00349
G1 X114.001 Y185.027 E0.00638
G1 X129.054 Y184.762 E0.64371
G1 X129.308 Y184.757 E0.01085
G1 X129.860 Y184.600 E0.02453
G1 X130.561 Y184.180 E0.03494
G1 X131.118 Y183.492 E0.03785
G1 X131.404 Y182.664 E0.03744
G1 X131.396 Y180.836 E0.07818
G1 X131.252 Y180.090 E0.03246
G1 X130.831 Y179.390 E0.03494
G1 X130.418 Y178.989 E0.02463
G1 X129.763 Y178.625 E0.03202
G1 X129.205 Y178.486 E0.02459
G1 X113.899 Y178.724 E0.65449
G1 X113.750 Y178.714 E0.00638
G1 X113.671 Y178.694 E0.00349
G1 X113.596 Y178.661 E0.00349
G1 X113.528 Y178.615 E0.00349
G1 X113.470 Y178.558 E0.00349
G1 X113.422 Y178.492 E0.00349
G1 X113.386 Y178.418 E0.00349
G1 X113.363 Y178.340 E0.00349
G1 X113.348 Y178.192 E0.00635
G1 X113.200 Y169.262 E0.38187
G1 X113.200 Y169.226 E0.00155
G1 X113.231 Y169.099 E0.00558
G1 X113.265 Y169.025 E0.00349
G1 X113.310 Y168.957 E0.00349
G1 X113.367 Y168.898 E0.00349
G1 X113.433 Y168.850 E0.00349
G1 X113.507 Y168.814 E0.00349
G1 X113.585 Y168.792 E0.00349
G1 X113.734 Y168.776 E0.00638
G1 X129.039 Y168.507 E0.65450
G1 X129.592 Y168.349 E0.02459
G1 X130.293 Y167.929 E0.03494
G1 X130.851 Y167.242 E0.03785
G1 X131.137 Y166.414 E0.03744
G1 X131.129 Y164.585 E0.07818
G1 X130.984 Y163.840 E0.03246
G1 X130.564 Y163.139 E0.03494
G1 X130.150 Y162.739 E0.02463
G1 X129.495 Y162.375 E0.03202
G1 X128.937 Y162.235 E0.02459
G1 X113.631 Y162.474 E0.65449
G1 X113.482 Y162.463 E0.00638
G1 X113.403 Y162.443 E0.00349
G1 X113.329 Y162.410 E0.00349
G1 X113.261 Y162.364 E0.00349
G1 X113.202 Y162.308 E0.00349
G1 X113.154 Y162.241 E0.00349
G1 X113.118 Y162.168 E0.00349
G1 X113.096 Y162.089 E0.00349
G1 X113.081 Y161.942 E0.00635
G1 X112.933 Y153.011 E0.38187
G1 X112.932 Y152.975 E0.00155
G1 X112.964 Y152.849 E0.00558
G1 X112.997 Y152.774 E0.00349
G1 X113.043 Y152.706 E0.00349
G1 X113.100 Y152.648 E0.00349
G1 X113.166 Y152.600 E0.00349
G1 X113.239 Y152.564 E0.00349
G1 X113.318 Y152.541 E0.00349
G1 X113.466 Y152.526 E0.00638
G1 X128.772 Y152.257 E0.65450
G1 X129.325 Y152.099 E0.02459
G1 X130.026 Y151.679 E0.03494
G1 X130.584 Y150.991 E0.03785
G1 X130.869 Y150.163 E0.03744
G1 X130.861 Y148.335 E0.07818
G1 X130.717 Y147.589 E0.03246
G1 X130.297 Y146.889 E0.03494
G1 X129.883 Y146.488 E0.02462
G1 X129.228 Y146.124 E0.03202
G1 X128.671 Y145.985 E0.02454
G1 X125.052 Y146.035 E0.15477
G1 X113.364 Y146.223 E0.49979
G1 X113.215 Y146.213 E0.00637
G1 X113.136 Y146.193 E0.00349
G1 X113.061 Y146.160 E0.00349
G1 X112.994 Y146.114 E0.00349
G1 X112.935 Y146.057 E0.00349
G1 X112.887 Y145.991 E0.00349
G1 X112.851 Y145.917 E0.00349
G1 X112.829 Y145.839 E0.00349
G1 X112.813 Y145.691 E0.00635
G1 X112.666 Y136.826 E0.37910
G1 X112.677 Y136.677 E0.00635
G1 X112.697 Y136.598 E0.00349
G1 X112.730 Y136.524 E0.00349
G1 X112.776 Y136.456 E0.00349
G1 X112.832 Y136.397 E0.00349
G1 X112.899 Y136.349 E0.00349
G1 X112.972 Y136.313 E0.00349
