; generated by SuperSlicer 2.3.57 on 2022-01-01 at 20:24:18 UTC


;
;

;
;
; 

; external perimeters extrusion width = 0.40mm
; perimeters extrusion width = 0.40mm
; infill extrusion width = 0.40mm
; solid infill extrusion width = 0.40mm
; top infill extrusion width = 0.40mm
; support material extrusion width = 0.40mm
; first layer extrusion width = 0.48mm


;TYPE:Custom
START_PRINT T_BED=70 T_EXTRUDER=235
M107
G21 ; set units to millimeters
G90 ; use absolute coordinates
M83 ; use relative distances for extrusion
M104 S235 ; set temperature
M109 S235 ; set temperature and wait for it to be reached
M190 S70 ; set bed temperature and wait for it to be reached
M107
;LAYER_CHANGE
;Z:0.24
;HEIGHT:0.24
G1 Z0.24 F6000
G1 E-1.5 F3000
G1 X93.041 Y105.536 F6000
G1 E1.5 F1800
;TYPE:Skirt
;WIDTH:0.48
G1 F1200
G1 X92.532 Y106.143 E0.03385
G1 X92.113 Y106.814 E0.03385
G1 X91.793 Y107.538 E0.03385
G1 X91.578 Y108.294 E0.0336
G1 X90.267 Y117.255 E0.38722
G1 X90.238 Y118.836 E0.06761
G1 X97.408 Y180.654 E2.66076
G1 X97.613 Y181.575 E0.04035
G1 X97.965 Y182.444 E0.0401
G1 X98.46 Y183.248 E0.04035
G1 X99.082 Y183.958 E0.04035
G1 X99.901 Y184.613 E0.04485
G1 X100.833 Y185.107 E0.0451
G1 X101.835 Y185.418 E0.04485
G1 X102.877 Y185.539 E0.04485
G1 X171.011 Y185.54 E2.91313
G1 X172.136 Y185.424 E0.04835
G1 X173.21 Y185.089 E0.0481
G1 X174.196 Y184.548 E0.0481
G1 X175.059 Y183.817 E0.04835
G1 X175.629 Y183.124 E0.03835
G1 X176.082 Y182.35 E0.03835
G1 X176.404 Y181.519 E0.0381
G1 X176.593 Y180.643 E0.03835
G1 X183.778 Y118.68 E2.66698
G1 X183.693 Y117.252 E0.06118
G1 X181.959 Y108.37 E0.38693
G1 X181.767 Y107.65 E0.03184
G1 X181.48 Y106.956 E0.03209
G1 X181.087 Y106.283 E0.03335
G1 X180.601 Y105.665 E0.0336
G1 X180.038 Y105.125 E0.03335
G1 X179.402 Y104.665 E0.0336
G1 X178.713 Y104.3 E0.03335
G1 X177.974 Y104.031 E0.0336
G1 X177.211 Y103.869 E0.03335
G1 X176.427 Y103.814 E0.0336
G1 X96.983 Y103.815 E3.39669
G1 X95.889 Y103.945 E0.0471
G1 X94.841 Y104.285 E0.0471
G1 X93.88 Y104.822 E0.0471
G1 X93.086 Y105.497 E0.04453
G1 X93.361 Y105.822 F6000
G1 F1200
G1 X92.882 Y106.39 E0.03176
G1 X92.491 Y107.016 E0.03157
G1 X92.195 Y107.686 E0.03133
G1 X91.994 Y108.397 E0.03157
G1 X90.692 Y117.311 E0.38517
G1 X90.666 Y118.806 E0.06395
G1 X97.832 Y180.588 E2.65922
G1 X98.02 Y181.441 E0.03734
G1 X98.345 Y182.246 E0.0371
G1 X98.799 Y182.985 E0.0371
G1 X99.369 Y183.639 E0.0371
G1 X100.129 Y184.25 E0.04167
G1 X100.989 Y184.708 E0.04167
G1 X101.919 Y184.998 E0.04167
G1 X102.893 Y185.11 E0.04191
G1 X171.01 Y185.111 E2.91238
G1 X172.041 Y185.006 E0.04431
G1 X173.036 Y184.697 E0.04455
G1 X173.945 Y184.2 E0.04431
G1 X174.742 Y183.529 E0.04455
G1 X175.27 Y182.89 E0.03542
G1 X175.692 Y182.171 E0.03566
G1 X175.993 Y181.399 E0.03542
G1 X176.169 Y180.584 E0.03566
G1 X183.349 Y118.699 E2.66366
G1 X183.255 Y117.241 E0.06246
G1 X181.523 Y108.376 E0.38619
G1 X181.124 Y107.204 E0.05294
G1 X180.762 Y106.567 E0.03133
G1 X180.314 Y105.987 E0.03133
G1 X179.794 Y105.479 E0.03109
G1 X179.203 Y105.046 E0.03133
G1 X178.557 Y104.699 E0.03133
G1 X177.875 Y104.449 E0.03109
G1 X177.158 Y104.294 E0.03133
G1 X176.427 Y104.242 E0.03133
G1 X96.999 Y104.243 E3.39597
G1 X95.992 Y104.361 E0.04335
G1 X95.022 Y104.674 E0.04359
G1 X94.136 Y105.166 E0.04335
G1 X93.407 Y105.783 E0.04083
G1 E-1.5 F3000
G1 X113.471 Y119.304 F6000
G1 E1.5 F1800
;TYPE:Support material interface
;WIDTH:0.4
G1 F1200
G1 X113.471 Y112.422 E0.23931
G1 X112.914 Y112.422 E0.01937
G1 X112.914 Y119.151 E0.23397
G1 X112.357 Y119.151 E0.01937
G1 X112.357 Y112.422 E0.23397
G1 X111.8 Y112.422 E0.01937
G1 X111.8 Y116.067 E0.12675
G1 X111.243 Y116.067 E0.01937
G1 X111.243 Y112.422 E0.12675
G1 X110.686 Y112.422 E0.01937
G1 X110.686 Y116.067 E0.12675
G1 X110.129 Y116.067 E0.01937
G1 X110.129 Y112.422 E0.12675
G1 X109.572 Y112.422 E0.01937
G1 X109.572 Y116.067 E0.12675
G1 X109.015 Y116.067 E0.01937
G1 X109.015 Y112.422 E0.12675
G1 X108.458 Y112.422 E0.01937
G1 X108.458 Y116.067 E0.12675
G1 X107.9 Y116.067 E0.01937
G1 X107.9 Y112.422 E0.12675
G1 X107.343 Y112.422 E0.01937
G1 X107.343 Y116.067 E0.12675
G1 X106.786 Y116.067 E0.01937
G1 X106.786 Y112.422 E0.12675
G1 X106.229 Y112.422 E0.01937
G1 X106.229 Y116.067 E0.12675
G1 X105.672 Y116.067 E0.01937
G1 X105.672 Y112.422 E0.12675
G1 X105.115 Y112.422 E0.01937
G1 X105.115 Y116.067 E0.12675
G1 X104.558 Y116.067 E0.01937
G1 X104.558 Y112.422 E0.12675
G1 X104.001 Y112.422 E0.01937
G1 X104.001 Y116.067 E0.12675
G1 X103.444 Y116.067 E0.01937
G1 X103.444 Y112.422 E0.12675
G1 X102.887 Y112.422 E0.01937
G1 X102.887 Y116.067 E0.12675
G1 X102.68 Y116.067 E0.00717
G1 X102.33 Y116.418 E0.01725
G1 X102.33 Y112.422 E0.13895
G1 X101.773 Y112.422 E0.01937
G1 X101.773 Y119.151 E0.23397
G1 X101.215 Y119.151 E0.01937
G1 X101.215 Y112.422 E0.23397
G1 X100.658 Y112.422 E0.01937
G1 X100.658 Y119.151 E0.23397
G1 X100.101 Y119.151 E0.01937
G1 X100.101 Y112.268 E0.23931
G1 E-1.5 F3000
G1 X147.027 Y119.304 F6000
G1 E1.5 F1800
G1 F1200
G1 X147.027 Y112.422 E0.23931
G1 X146.47 Y112.422 E0.01937
G1 X146.47 Y119.151 E0.23397
G1 X145.913 Y119.151 E0.01937
G1 X145.913 Y112.422 E0.23397
G1 X145.356 Y112.422 E0.01937
G1 X145.356 Y119.151 E0.23397
G1 X145.271 Y119.151 E0.00295
G1 X145.271 Y116.519 E0.09151
G1 X144.82 Y116.067 E0.02222
G1 X144.799 Y116.067 E0.00071
G1 X144.799 Y112.422 E0.12675
G1 X144.242 Y112.422 E0.01937
G1 X144.242 Y116.067 E0.12675
G1 X143.685 Y116.067 E0.01937
G1 X143.685 Y112.422 E0.12675
G1 X143.128 Y112.422 E0.01937
G1 X143.128 Y116.067 E0.12675
G1 X142.571 Y116.067 E0.01937
G1 X142.571 Y112.422 E0.12675
G1 X142.014 Y112.422 E0.01937
G1 X142.014 Y116.067 E0.12675
G1 X141.457 Y116.067 E0.01937
G1 X141.457 Y112.422 E0.12675
G1 X140.9 Y112.422 E0.01937
G1 X140.9 Y116.067 E0.12675
G1 X140.342 Y116.067 E0.01937
G1 X140.342 Y112.422 E0.12675
G1 X139.785 Y112.422 E0.01937
G1 X139.785 Y116.067 E0.12675
G1 X139.228 Y116.067 E0.01937
G1 X139.228 Y112.422 E0.12675
G1 X138.671 Y112.422 E0.01937
G1 X138.671 Y116.067 E0.12675
G1 X138.114 Y116.067 E0.01937
G1 X138.114 Y112.422 E0.12675
G1 X137.557 Y112.422 E0.01937
G1 X137.557 Y116.067 E0.12675
G1 X137. Y116.067 E0.01937
G1 X137. Y112.422 E0.12675
G1 X136.443 Y112.422 E0.01937
G1 X136.443 Y116.067 E0.12675
G1 X135.886 Y116.067 E0.01937
G1 X135.886 Y112.422 E0.12675
G1 X135.329 Y112.422 E0.01937
G1 X135.329 Y116.067 E0.12675
G1 X134.772 Y116.067 E0.01937
G1 X134.772 Y112.422 E0.12675
G1 X134.215 Y112.422 E0.01937
G1 X134.215 Y116.067 E0.12675
G1 X133.658 Y116.067 E0.01937
G1 X133.658 Y112.422 E0.12675
G1 X133.1 Y112.422 E0.01937
G1 X133.1 Y116.067 E0.12675
G1 X132.543 Y116.067 E0.01937
G1 X132.543 Y112.422 E0.12675
G1 X131.986 Y112.422 E0.01937
G1 X131.986 Y116.067 E0.12675
G1 X131.429 Y116.067 E0.01937
G1 X131.429 Y112.422 E0.12675
G1 X130.872 Y112.422 E0.01937
G1 X130.872 Y116.067 E0.12675
G1 X130.315 Y116.067 E0.01937
G1 X130.315 Y112.422 E0.12675
G1 X129.758 Y112.422 E0.01937
G1 X129.758 Y116.067 E0.12675
G1 X129.201 Y116.067 E0.01937
G1 X129.201 Y112.422 E0.12675
G1 X128.644 Y112.422 E0.01937
G1 X128.644 Y119.151 E0.23397
G1 X128.087 Y119.151 E0.01937
G1 X128.087 Y112.422 E0.23397
G1 X127.53 Y112.422 E0.01937
G1 X127.53 Y119.151 E0.23397
G1 X126.973 Y119.151 E0.01937
G1 X126.973 Y112.268 E0.23931
G1 E-1.5 F3000
G1 X173.899 Y119.304 F6000
G1 E1.5 F1800
G1 F1200
G1 X173.899 Y112.422 E0.23931
G1 X173.342 Y112.422 E0.01937
G1 X173.342 Y119.151 E0.23397
G1 X172.784 Y119.151 E0.01937
G1 X172.784 Y112.422 E0.23397
G1 X172.227 Y112.422 E0.01937
G1 X172.227 Y119.151 E0.23397
G1 X171.771 Y119.151 E0.01586
G1 X171.771 Y116.519 E0.09151
G1 X171.67 Y116.418 E0.00497
G1 X171.67 Y112.422 E0.13895
G1 X171.113 Y112.422 E0.01937
G1 X171.113 Y116.067 E0.12675
G1 X170.556 Y116.067 E0.01937
G1 X170.556 Y112.422 E0.12675
G1 X169.999 Y112.422 E0.01937
G1 X169.999 Y116.067 E0.12675
G1 X169.442 Y116.067 E0.01937
G1 X169.442 Y112.422 E0.12675
G1 X168.885 Y112.422 E0.01937
G1 X168.885 Y116.067 E0.12675
G1 X168.328 Y116.067 E0.01937
G1 X168.328 Y112.422 E0.12675
G1 X167.771 Y112.422 E0.01937
G1 X167.771 Y116.067 E0.12675
G1 X167.214 Y116.067 E0.01937
G1 X167.214 Y112.422 E0.12675
G1 X166.657 Y112.422 E0.01937
G1 X166.657 Y116.067 E0.12675
G1 X166.1 Y116.067 E0.01937
G1 X166.1 Y112.422 E0.12675
G1 X165.542 Y112.422 E0.01937
G1 X165.542 Y116.067 E0.12675
G1 X164.985 Y116.067 E0.01937
G1 X164.985 Y112.422 E0.12675
G1 X164.428 Y112.422 E0.01937
G1 X164.428 Y116.067 E0.12675
G1 X163.871 Y116.067 E0.01937
G1 X163.871 Y112.422 E0.12675
G1 X163.314 Y112.422 E0.01937
G1 X163.314 Y116.067 E0.12675
G1 X162.757 Y116.067 E0.01937
G1 X162.757 Y112.422 E0.12675
G1 X162.2 Y112.422 E0.01937
G1 X162.2 Y116.067 E0.12675
G1 X162.18 Y116.067 E0.00068
G1 X161.729 Y116.519 E0.02222
G1 X161.729 Y119.151 E0.09151
G1 X161.643 Y119.151 E0.00298
G1 X161.643 Y112.422 E0.23397
G1 X161.086 Y112.422 E0.01937
G1 X161.086 Y119.151 E0.23397
G1 X160.529 Y119.151 E0.01937
G1 X160.529 Y112.268 E0.23931
G1 X178.136 Y118.586 F6000
;TYPE:Support material
;WIDTH:0.48
G1 F1200
G1 X178.136 Y118.23 E0.01524
G1 X177.279 Y117.373 E0.05182
G1 X177.279 Y118.402 E0.044
G1 X176.901 Y118.402 E0.01616
G1 X176.901 Y122.116 E0.1588
G1 X176.422 Y122.116 E0.02048
G1 X176.422 Y109.456 E0.54127
G1 X175.565 Y109.456 E0.03664
G1 X175.565 Y122.116 E0.54127
G1 X174.708 Y122.116 E0.03664
G1 X174.708 Y109.456 E0.54127
G1 X173.851 Y109.456 E0.03664
G1 X173.851 Y112.045 E0.11067
G1 X172.994 Y112.045 E0.03664
G1 X172.994 Y109.456 E0.11067
G1 X172.137 Y109.456 E0.03664
G1 X172.137 Y112.045 E0.11067
G1 X171.28 Y112.045 E0.03664
G1 X171.28 Y109.456 E0.11067
G1 X170.423 Y109.456 E0.03664
G1 X170.423 Y112.045 E0.11067
G1 X169.566 Y112.045 E0.03664
G1 X169.566 Y109.456 E0.11067
G1 X168.709 Y109.456 E0.03664
G1 X168.709 Y112.045 E0.11067
G1 X167.852 Y112.045 E0.03664
G1 X167.852 Y109.456 E0.11067
G1 X166.995 Y109.456 E0.03664
G1 X166.995 Y112.045 E0.11067
G1 X166.138 Y112.045 E0.03664
G1 X166.138 Y109.456 E0.11067
G1 X165.281 Y109.456 E0.03664
G1 X165.281 Y112.045 E0.11067
G1 X164.424 Y112.045 E0.03664
G1 X164.424 Y109.456 E0.11067
G1 X163.567 Y109.456 E0.03664
G1 X163.567 Y112.045 E0.11067
G1 X162.71 Y112.045 E0.03664
G1 X162.71 Y109.456 E0.11067
G1 X161.853 Y109.456 E0.03664
G1 X161.853 Y112.045 E0.11067
G1 X160.996 Y112.045 E0.03664
G1 X160.996 Y109.456 E0.11067
G1 X160.139 Y109.456 E0.03664
G1 X160.139 Y122.116 E0.54127
G1 X160.996 Y122.116 E0.03664
G1 X160.996 Y119.343 E0.11855
G1 E-1.5 F3000
G1 X173.851 Y122.3 F6000
G1 E1.5 F1800
G1 F1200
G1 X173.851 Y119.528 E0.11855
G1 X172.994 Y119.528 E0.03664
G1 X172.994 Y122.116 E0.11067
G1 X172.137 Y122.116 E0.03664
G1 X172.137 Y119.343 E0.11855
G1 E-1.5 F3000
G1 X159.282 Y122.3 F6000
G1 E1.5 F1800
G1 F1200
G1 X159.282 Y109.456 E0.54915
G1 X158.425 Y109.456 E0.03664
G1 X158.425 Y122.116 E0.54127
G1 X157.568 Y122.116 E0.03664
G1 X157.568 Y109.456 E0.54127
G1 X157.527 Y109.456 E0.00175
G1 X157.527 Y116.067 E0.28266
G1 X156.711 Y116.883 E0.04934
G1 X156.711 Y118.402 E0.06493
G1 X155.854 Y118.402 E0.03664
G1 X155.854 Y117.48 E0.03943
G1 E-1.5 F3000
G1 X151.569 Y118.586 F6000
G1 E1.5 F1800
G1 F1200
G1 X151.569 Y118.163 E0.01809
G1 X150.712 Y117.306 E0.05182
G1 X150.712 Y118.402 E0.04686
G1 X150.044 Y118.402 E0.02855
G1 X150.044 Y122.116 E0.1588
G1 X149.855 Y122.116 E0.00809
G1 X149.855 Y109.456 E0.54127
G1 X148.998 Y109.456 E0.03664
G1 X148.998 Y122.116 E0.54127
G1 X148.141 Y122.116 E0.03664
G1 X148.141 Y109.456 E0.54127
G1 X147.284 Y109.456 E0.03664
G1 X147.284 Y122.116 E0.54127
G1 X146.427 Y122.116 E0.03664
G1 X146.427 Y119.528 E0.11067
G1 X145.57 Y119.528 E0.03664
G1 X145.57 Y122.3 E0.11855
G1 X146.427 Y112.229 F6000
G1 F1200
G1 X146.427 Y109.456 E0.11855
G1 X145.57 Y109.456 E0.03664
G1 X145.57 Y112.045 E0.11067
G1 X144.713 Y112.045 E0.03664
G1 X144.713 Y109.456 E0.11067
G1 X143.856 Y109.456 E0.03664
G1 X143.856 Y112.045 E0.11067
G1 X142.999 Y112.045 E0.03664
G1 X142.999 Y109.456 E0.11067
G1 X142.142 Y109.456 E0.03664
G1 X142.142 Y112.045 E0.11067
G1 X141.285 Y112.045 E0.03664
G1 X141.285 Y109.456 E0.11067
G1 X140.428 Y109.456 E0.03664
G1 X140.428 Y112.045 E0.11067
G1 X139.571 Y112.045 E0.03664
G1 X139.571 Y109.456 E0.11067
G1 X138.714 Y109.456 E0.03664
G1 X138.714 Y112.045 E0.11067
G1 X137.857 Y112.045 E0.03664
G1 X137.857 Y109.456 E0.11067
G1 X137. Y109.456 E0.03664
G1 X137. Y112.045 E0.11067
G1 X136.143 Y112.045 E0.03664
G1 X136.143 Y109.456 E0.11067
G1 X135.286 Y109.456 E0.03664
G1 X135.286 Y112.045 E0.11067
G1 X134.429 Y112.045 E0.03664
G1 X134.429 Y109.456 E0.11067
G1 X133.572 Y109.456 E0.03664
G1 X133.572 Y112.045 E0.11067
G1 X132.715 Y112.045 E0.03664
G1 X132.715 Y109.456 E0.11067
G1 X131.858 Y109.456 E0.03664
G1 X131.858 Y112.045 E0.11067
G1 X131.001 Y112.045 E0.03664
G1 X131.001 Y109.456 E0.11067
G1 X130.144 Y109.456 E0.03664
G1 X130.144 Y112.045 E0.11067
G1 X129.287 Y112.045 E0.03664
G1 X129.287 Y109.456 E0.11067
G1 X128.43 Y109.456 E0.03664
G1 X128.43 Y112.045 E0.11067
G1 X127.573 Y112.045 E0.03664
G1 X127.573 Y109.456 E0.11067
G1 X126.716 Y109.456 E0.03664
G1 X126.716 Y122.116 E0.54127
G1 X127.573 Y122.116 E0.03664
G1 X127.573 Y119.528 E0.11067
G1 X128.43 Y119.528 E0.03664
G1 X128.43 Y122.3 E0.11855
G1 X125.859 Y122.3 F6000
G1 F1200
G1 X125.859 Y109.456 E0.54915
G1 X125.002 Y109.456 E0.03664
G1 X125.002 Y122.116 E0.54127
G1 X124.145 Y122.116 E0.03664
G1 X124.145 Y109.456 E0.54127
G1 X123.956 Y109.456 E0.00809
G1 X123.956 Y116.638 E0.30706
G1 X123.288 Y117.306 E0.04038
G1 X123.288 Y118.402 E0.04686
G1 X122.431 Y118.402 E0.03664
G1 X122.431 Y117.902 E0.02136
G1 E-1.5 F3000
G1 X118.146 Y118.586 F6000
G1 E1.5 F1800
G1 F1200
G1 X118.146 Y117.74 E0.03616
G1 X117.289 Y116.883 E0.05182
G1 X117.289 Y118.402 E0.06493
G1 X116.473 Y118.402 E0.03489
G1 X116.473 Y122.116 E0.1588
G1 X116.432 Y122.116 E0.00175
G1 X116.432 Y109.456 E0.54127
G1 X115.575 Y109.456 E0.03664
G1 X115.575 Y122.116 E0.54127
G1 X114.718 Y122.116 E0.03664
G1 X114.718 Y109.456 E0.54127
G1 X113.861 Y109.456 E0.03664
G1 X113.861 Y122.116 E0.54127
G1 X113.004 Y122.116 E0.03664
G1 X113.004 Y119.343 E0.11855
G1 X113.004 Y112.229 F6000
G1 F1200
G1 X113.004 Y109.456 E0.11855
G1 X112.147 Y109.456 E0.03664
G1 X112.147 Y112.045 E0.11067
G1 X111.29 Y112.045 E0.03664
G1 X111.29 Y109.456 E0.11067
G1 X110.433 Y109.456 E0.03664
G1 X110.433 Y112.045 E0.11067
G1 X109.576 Y112.045 E0.03664
G1 X109.576 Y109.456 E0.11067
G1 X108.719 Y109.456 E0.03664
G1 X108.719 Y112.045 E0.11067
G1 X107.862 Y112.045 E0.03664
G1 X107.862 Y109.456 E0.11067
G1 X107.005 Y109.456 E0.03664
G1 X107.005 Y112.045 E0.11067
G1 X106.148 Y112.045 E0.03664
G1 X106.148 Y109.456 E0.11067
G1 X105.291 Y109.456 E0.03664
G1 X105.291 Y112.045 E0.11067
G1 X104.434 Y112.045 E0.03664
G1 X104.434 Y109.456 E0.11067
G1 X103.577 Y109.456 E0.03664
G1 X103.577 Y112.045 E0.11067
G1 X102.72 Y112.045 E0.03664
G1 X102.72 Y109.456 E0.11067
G1 X101.863 Y109.456 E0.03664
G1 X101.863 Y112.045 E0.11067
G1 X101.006 Y112.045 E0.03664
G1 X101.006 Y109.456 E0.11067
G1 X100.149 Y109.456 E0.03664
G1 X100.149 Y112.045 E0.11067
G1 X99.688 Y112.045 E0.01973
G1 X99.688 Y119.528 E0.31992
G1 X100.149 Y119.528 E0.01973
G1 X100.149 Y122.116 E0.11067
G1 X101.006 Y122.116 E0.03664
G1 X101.006 Y119.528 E0.11067
G1 X101.863 Y119.528 E0.03664
G1 X101.863 Y122.3 E0.11855
G1 X99.292 Y122.3 F6000
G1 F1200
G1 X99.292 Y109.456 E0.54915
G1 X98.435 Y109.456 E0.03664
G1 X98.435 Y122.116 E0.54127
G1 X97.578 Y122.116 E0.03664
G1 X97.578 Y109.456 E0.54127
G1 X97.099 Y109.456 E0.02048
G1 X97.099 Y116.995 E0.32231
G1 X96.721 Y117.373 E0.02285
G1 X96.721 Y118.402 E0.044
G1 X95.864 Y118.402 E0.03664
G1 X95.864 Y117.969 E0.0185
G1 E-1.5 F3000
G1 X171.28 Y117.863 F6000
G1 E1.5 F1800
G1 F1200
G1 X171.28 Y116.56 E0.05568
G1 X171.163 Y116.444 E0.00703
G1 X170.423 Y116.444 E0.03167
G1 X170.423 Y117.656 E0.05182
G1 X169.566 Y117.656 E0.03664
G1 X169.566 Y116.444 E0.05182
G1 X168.709 Y116.444 E0.03664
G1 X168.709 Y117.656 E0.05182
G1 X167.852 Y117.656 E0.03664
G1 X167.852 Y116.444 E0.05182
G1 X166.995 Y116.444 E0.03664
G1 X166.995 Y117.656 E0.05182
G1 X166.138 Y117.656 E0.03664
G1 X166.138 Y116.444 E0.05182
G1 X165.281 Y116.444 E0.03664
