; generated by SuperSlicer 2.4 on 2022-05-28 at 03:29:02 UTC


;
;

;
;
; 

; external perimeters extrusion width = 0.40mm
; perimeters extrusion width = 0.40mm
; infill extrusion width = 0.72mm
; solid infill extrusion width = 0.56mm
; top infill extrusion width = 0.40mm
; first layer extrusion width = 0.48mm

; object:{"name":"Steambox Version 3","id":"Steambox Version 3.0 XL Lid.stl id:0 copy 0","object_center":[165.000000,164.992180,0.000000],"boundingbox_center":[165.000000,164.992180,3.000000],"boundingbox_size":[53.749947,96.682686,6.000000]}
; plater:{"center":[165.000000,164.992180,0.000000],"boundingbox_center":[165.000000,164.992180,3.000000],"boundingbox_size":[53.749947,96.682686,6.000000]}

M73 P0 R40
;TYPE:Custom
START_PRINT T_BED=60 T_EXTRUDER=200
M107
G21 ; set units to millimeters
G90 ; use absolute coordinates
M83 ; use relative distances for extrusion
; Filament gcode
M104 S200 ; set temperature
M109 S200 ; set temperature and wait for it to be reached
M190 S60 ; set bed temperature and wait for it to be reached
M107
;LAYER_CHANGE
;Z:0.24
;HEIGHT:0.24
G1 Z0.24 F9000
G92 E0
G1 E-0.8 F3000
M204 S1000
G1 X142.181 Y124.031 F9000
G1 E0.8 F1800
;TYPE:Skirt
;WIDTH:0.52
G1 X140.79 Y125.66 E0.09811
G1 X139.532 Y127.408 E0.09871
G1 X138.239 Y129.6 E0.11659
G1 X137.778 Y131.322 E0.08164
G1 X136.302 Y212.095 E3.70097
M73 P1 R40
G1 X136.34 Y212.766 E0.03079
G1 X137.027 Y214.661 E0.09234
G1 X138.319 Y215.78 E0.07828
G1 X139.975 Y216.199 E0.07828
G1 X190.118 Y216.947 E2.29737
G1 X192.168 Y216.363 E0.09767
G1 X193.355 Y215.134 E0.07828
G1 X193.863 Y213.503 E0.07828
G1 X193.901 Y212.34 E0.05329
G1 X192.843 Y132.186 E3.67232
G1 X192.444 Y130.563 E0.07659
G1 X191.818 Y129.328 E0.06342
G1 X190.711 Y127.471 E0.09903
G1 X189.434 Y125.686 E0.10057
G1 X188.403 Y124.451 E0.07368
G1 X186.897 Y122.892 E0.09931
G1 X185.83 Y121.931 E0.06578
G1 X183.723 Y120.315 E0.12164
G1 X180.928 Y118.639 E0.14932
M73 P1 R39
G1 X178.502 Y117.538 E0.12202
G1 X176.927 Y116.978 E0.07663
G1 X175.373 Y116.532 E0.07402
G1 X173.42 Y116.118 E0.09147
G1 X171.244 Y115.837 E0.10052
G1 X169.662 Y115.751 E0.07258
G1 X161.183 Y115.741 E0.38845
G1 X158.509 Y115.881 E0.12265
G1 X156.799 Y116.114 E0.07907
G1 X154.849 Y116.528 E0.09132
G1 X152.746 Y117.152 E0.1005
G1 X151.263 Y117.715 E0.07269
G1 X149.328 Y118.61 E0.09765
G1 X147.351 Y119.74 E0.10435
G1 X145.539 Y120.993 E0.1009
G1 X143.737 Y122.488 E0.10727
G1 X142.181 Y124.031 E0.10038
G1 X142.53 Y124.34 F9000
G1 F1800
G1 X141.164 Y125.939 E0.09635
G1 X139.927 Y127.655 E0.09693
G1 X138.647 Y129.826 E0.11545
G1 X138.244 Y131.33 E0.07135
G1 X136.768 Y211.619 E3.67877
G1 X136.805 Y212.732 E0.05105
G1 X137.288 Y214.213 E0.07136
G1 X138.442 Y215.316 E0.07311
G1 X139.982 Y215.733 E0.07311
G1 X190.125 Y216.481 E2.29737
G1 X191.735 Y216.078 E0.07606
G1 X192.899 Y214.986 E0.07311
G1 X193.398 Y213.471 E0.07311
G1 X192.377 Y132.192 E3.7238
G1 X192.028 Y130.773 E0.06693
G1 X191.402 Y129.539 E0.06342
G1 X190.315 Y127.717 E0.09718
G1 X189.063 Y125.969 E0.09851
G1 X188.062 Y124.769 E0.07159
G1 X186.583 Y123.237 E0.09753
G1 X185.536 Y122.293 E0.06459
G1 X183.45 Y120.693 E0.12046
G1 X180.724 Y119.058 E0.14562
G1 X178.322 Y117.968 E0.12083
G1 X176.772 Y117.418 E0.07534
G1 X175.265 Y116.985 E0.07184
G1 X173.33 Y116.576 E0.09058
G1 X171.199 Y116.301 E0.09846
G1 X169.662 Y116.217 E0.07052
G1 X161.182 Y116.208 E0.38845
G1 X158.546 Y116.345 E0.12093
G1 X156.883 Y116.573 E0.07689
G1 X154.952 Y116.982 E0.09043
G1 X152.893 Y117.595 E0.09844
G1 X151.451 Y118.141 E0.07063
G1 X149.548 Y119.021 E0.09604
G1 X147.59 Y120.14 E0.10334
G1 X145.816 Y121.368 E0.09883
G1 X144.055 Y122.83 E0.10483
G1 X142.53 Y124.34 E0.09832
G1 E-0.8 F3000
; printing object Steambox Version 3.0 XL Lid.stl id:0 copy 0
G1 X188.475 Y206.721 F9000
G1 E0.8 F1800
;TYPE:Internal perimeter
;WIDTH:0.48
G1 X188.475 Y207.149 E0.01795
G1 X189.433 Y207.149 E0.04014
G1 X189.438 Y210.868 E0.15582
G1 X189.462 Y211.344 E0.01996
G1 X188.799 Y210.772 E0.03668
G1 X188.083 Y210.292 E0.03614
G1 X187.338 Y209.89 E0.03546
G1 X186.574 Y209.567 E0.03476
G1 X186.156 Y209.425 E0.01851
G1 X185.34 Y209.211 E0.03533
G1 X184.518 Y209.077 E0.0349
G1 X184.071 Y209.037 E0.0188
G1 X146.651 Y209.037 E1.56793
G1 X146.247 Y209.021 E0.01693
G1 X145.399 Y209.048 E0.03557
G1 X144.548 Y209.157 E0.03596
G1 X143.711 Y209.349 E0.03596
G1 X142.897 Y209.621 E0.03596
G1 X142.113 Y209.97 E0.03597
G1 X141.363 Y210.397 E0.03615
G1 X140.748 Y210.842 E0.03183
G1 X140.767 Y210.2 E0.0269
G1 X140.769 Y207.149 E0.12784
G1 X142.145 Y207.149 E0.05765
G1 X142.145 Y131.562 E3.16712
G1 X142.588 Y130.761 E0.03837
G1 X143.229 Y129.734 E0.05072
G1 X143.561 Y129.249 E0.02464
G1 X144.281 Y128.285 E0.0504
G1 X144.65 Y127.832 E0.02446
G1 X145.44 Y126.939 E0.04995
G1 X146.278 Y126.092 E0.04994
G1 X146.704 Y125.694 E0.02445
G1 X147.617 Y124.912 E0.05033
G1 X148.141 Y124.501 E0.02793
G1 X148.617 Y124.15 E0.02477
G1 X149.609 Y123.479 E0.05018
G1 X150.63 Y122.868 E0.04989
G1 X151.919 Y122.201 E0.06081
G1 X153.012 Y121.717 E0.05008
G1 X154.132 Y121.294 E0.05013
G1 X154.686 Y121.111 E0.02446
G1 X155.833 Y120.783 E0.05
G1 X156.999 Y120.519 E0.05006
G1 X157.574 Y120.413 E0.0245
G1 X158.875 Y120.233 E0.05506
G1 X160.065 Y120.139 E0.05001
G1 X161.187 Y120.109 E0.04704
G1 X162.674 Y120.111 E0.06229
G1 X169.639 Y120.119 E0.29184
G1 X170.832 Y120.186 E0.05008
G1 X171.413 Y120.242 E0.02445
G1 X172.595 Y120.408 E0.05002
G1 X173.769 Y120.639 E0.05013
G1 X174.34 Y120.776 E0.02459
G1 X175.498 Y121.105 E0.05044
G1 X176.827 Y121.573 E0.05906
G1 X177.924 Y122.034 E0.04986
G1 X179.002 Y122.559 E0.05023
G1 X179.518 Y122.838 E0.02456
G1 X180.687 Y123.539 E0.05714
G1 X181.173 Y123.861 E0.0244
G1 X182.139 Y124.561 E0.05
G1 X183.063 Y125.31 E0.04984
G1 X183.95 Y126.116 E0.05024
G1 X184.369 Y126.53 E0.02466
G1 X185.194 Y127.415 E0.05071
G1 X185.971 Y128.348 E0.05086
G1 X186.325 Y128.812 E0.02447
G1 X187.01 Y129.791 E0.05004
G1 X187.641 Y130.806 E0.0501
G1 X187.929 Y131.316 E0.0245
G1 X188.475 Y132.395 E0.05068
G1 X188.475 Y206.721 E3.1143
M73 P2 R39
G1 X188.904 Y206.721 F9000
;TYPE:External perimeter
G1 F1800
G1 X189.861 Y206.721 E0.04012
G1 X189.866 Y210.857 E0.1733
G1 X189.893 Y211.368 E0.02146
G1 X189.954 Y211.859 E0.02075
G1 X189.959 Y212.615 E0.03164
G1 X189.157 Y211.647 E0.05267
G1 X188.539 Y211.114 E0.0342
G1 X187.861 Y210.659 E0.03419
G1 X187.153 Y210.277 E0.03375
G1 X186.421 Y209.968 E0.03326
G1 X186.032 Y209.835 E0.01722
G1 X185.252 Y209.63 E0.03382
G1 X184.465 Y209.503 E0.0334
G1 X184.052 Y209.466 E0.01736
G1 X146.642 Y209.466 E1.5675
G1 X146.245 Y209.45 E0.01665
G1 X145.433 Y209.475 E0.03404
G1 X144.623 Y209.58 E0.03422
G1 X143.827 Y209.762 E0.03422
G1 X143.053 Y210.021 E0.03422
G1 X142.307 Y210.353 E0.03422
G1 X141.595 Y210.757 E0.03428
G1 X141.258 Y211.002 E0.01745
G1 X140.927 Y211.27 E0.01785
G1 X140.669 Y211.581 E0.01693
G1 X140.378 Y211.831 E0.01606
G1 X140.241 Y211.974 E0.00829
G1 X140.241 Y211.629 E0.01444
G1 X140.324 Y210.68 E0.0399
G1 X140.338 Y210.194 E0.0204
G1 X140.341 Y206.721 E0.14552
G1 X141.717 Y206.721 E0.05764
G1 X141.717 Y131.452 E3.1538
G1 X142.219 Y130.543 E0.04348
G1 X142.871 Y129.499 E0.05158
G1 X143.213 Y128.999 E0.02539
G1 X143.943 Y128.021 E0.05115
G1 X144.323 Y127.555 E0.0252
G1 X145.127 Y126.647 E0.05082
G1 X145.979 Y125.784 E0.0508
G1 X146.419 Y125.374 E0.02519
G1 X147.345 Y124.581 E0.05109
G1 X147.881 Y124.16 E0.02858
G1 X148.369 Y123.8 E0.0254
G1 X149.379 Y123.118 E0.05105
G1 X150.422 Y122.494 E0.05093
G1 X151.734 Y121.814 E0.06192
G1 X152.85 Y121.32 E0.05113
G1 X153.989 Y120.89 E0.051
G1 X154.56 Y120.701 E0.02521
G1 X155.727 Y120.368 E0.05087
G1 X156.913 Y120.099 E0.05093
G1 X157.506 Y119.99 E0.02526
G1 X158.829 Y119.807 E0.05597
G1 X160.042 Y119.71 E0.05101
G1 X161.182 Y119.681 E0.04776
G1 X162.674 Y119.683 E0.06254
G1 X169.651 Y119.69 E0.29234
G1 X170.865 Y119.758 E0.05094
G1 X171.464 Y119.817 E0.0252
G1 X172.666 Y119.985 E0.05089
G1 X173.861 Y120.22 E0.051
G1 X174.449 Y120.361 E0.02534
G1 X175.628 Y120.697 E0.05136
G1 X176.982 Y121.173 E0.06014
G1 X178.101 Y121.644 E0.05089
G1 X179.198 Y122.178 E0.0511
G1 X179.73 Y122.465 E0.02534
G1 X180.916 Y123.176 E0.05796
G1 X181.417 Y123.509 E0.02518
G1 X182.4 Y124.221 E0.05087
G1 X183.342 Y124.985 E0.05083
G1 X184.245 Y125.805 E0.05111
G1 X184.677 Y126.231 E0.02541
G1 X185.516 Y127.132 E0.05159
G1 X186.306 Y128.081 E0.05174
G1 X186.671 Y128.559 E0.02522
G1 X187.368 Y129.554 E0.05091
G1 X188.01 Y130.588 E0.05097
G1 X188.306 Y131.113 E0.02528
G1 X188.904 Y132.292 E0.05538
G1 X188.904 Y206.721 E3.11859
;WIPE_START
M204 S3000
G1 X188.904 Y207.121 F9000
;WIPE_END
M204 S1000
G1 X185.923 Y128.453
;TYPE:Solid infill
;WIDTH:0.477621
G1 F2400
G1 X183.718 Y126.248 E0.13003
G1 X181.032 Y124.067 E0.14423
G1 X180.801 Y123.937 E0.01106
G1 X186.574 Y129.71 E0.34041
G1 X187.484 Y131.226 E0.0737
G1 X179.416 Y123.158 E0.4757
G1 X178.032 Y122.379 E0.06624
G1 X188.227 Y132.575 E0.60114
G1 X188.227 Y133.181 E0.02527
G1 X177.029 Y121.983 E0.66023
G1 X176.096 Y121.655 E0.04126
G1 X188.227 Y133.787 E0.71529
G1 X188.227 Y134.393 E0.02527
G1 X175.162 Y121.328 E0.77034
G1 X174.276 Y121.017 E0.03914
G1 X174.238 Y121.01 E0.00162
G1 X188.227 Y134.999 E0.82482
G1 X188.227 Y135.605 E0.02527
G1 X173.497 Y120.875 E0.86851
G1 X172.756 Y120.74 E0.0314
G1 X188.227 Y136.211 E0.9122
G1 X188.227 Y136.817 E0.02527
G1 X172.015 Y120.605 E0.95589
G1 X171.389 Y120.491 E0.02654
G1 X171.294 Y120.489 E0.00397
G1 X188.227 Y137.423 E0.99843
G1 X188.227 Y138.029 E0.02527
G1 X170.678 Y120.48 E1.0347
G1 X170.063 Y120.471 E0.02565
G1 X188.227 Y138.634 E1.07098
G1 X188.227 Y139.24 E0.02527
G1 X169.448 Y120.461 E1.10726
G1 X168.833 Y120.452 E0.02565
G1 X188.227 Y139.846 E1.14353
G1 X188.227 Y140.452 E0.02527
G1 X168.217 Y120.443 E1.17981
G1 X167.602 Y120.434 E0.02565
G1 X188.227 Y141.058 E1.21608
G1 X188.227 Y141.664 E0.02527
G1 X166.987 Y120.424 E1.25236
G1 X166.372 Y120.415 E0.02565
G1 X188.227 Y142.27 E1.28863
G1 X188.227 Y142.876 E0.02527
G1 X165.756 Y120.406 E1.32491
M73 P3 R39
G1 X165.141 Y120.397 E0.02565
G1 X188.227 Y143.482 E1.36119
G1 X188.227 Y144.088 E0.02527
G1 X164.526 Y120.387 E1.39746
G1 X163.911 Y120.378 E0.02565
G1 X188.227 Y144.694 E1.43374
G1 X188.227 Y145.3 E0.02527
G1 X163.295 Y120.369 E1.47001
G1 X162.68 Y120.36 E0.02565
G1 X188.227 Y145.906 E1.50629
G1 X188.227 Y146.512 E0.02527
G1 X162.093 Y120.378 E1.54092
G1 X161.506 Y120.397 E0.02449
G1 X188.227 Y147.118 E1.57553
G1 X188.227 Y147.724 E0.02527
G1 X160.919 Y120.416 E1.61015
G1 X160.332 Y120.435 E0.02449
G1 X188.227 Y148.33 E1.64477
G1 X188.227 Y148.936 E0.02527
G1 X159.745 Y120.454 E1.67938
G1 X159.157 Y120.473 E0.02449
G1 X188.227 Y149.542 E1.714
G1 X188.227 Y150.148 E0.02527
G1 X158.612 Y120.533 E1.74616
G1 X158.099 Y120.626 E0.02174
G1 X188.227 Y150.754 E1.77642
G1 X188.227 Y151.36 E0.02527
G1 X157.586 Y120.719 E1.80668
G1 X157.072 Y120.812 E0.02174
G1 X188.227 Y151.966 E1.83694
G1 X188.227 Y152.572 E0.02527
G1 X156.559 Y120.905 E1.8672
M73 P3 R38
G1 X156.046 Y120.997 E0.02174
G1 X188.227 Y153.178 E1.89745
G1 X188.227 Y153.784 E0.02527
G1 X155.591 Y121.148 E1.92429
G1 X155.158 Y121.321 E0.01943
G1 X188.227 Y154.39 E1.9498
G1 X188.227 Y154.996 E0.02527
G1 X154.726 Y121.495 E1.97531
G1 X154.293 Y121.668 E0.01943
G1 X188.227 Y155.602 E2.00082
G1 X188.227 Y156.208 E0.02527
G1 X153.86 Y121.842 E2.02633
M73 P4 R38
G1 X153.428 Y122.015 E0.01943
G1 X188.227 Y156.814 E2.05184
G1 X188.227 Y157.42 E0.02527
G1 X152.995 Y122.188 E2.07735
G1 X152.562 Y122.362 E0.01943
G1 X188.227 Y158.026 E2.10286
G1 X188.227 Y158.632 E0.02527
G1 X152.13 Y122.535 E2.12837
G1 X151.697 Y122.708 E0.01943
G1 X188.227 Y159.238 E2.15387
G1 X188.227 Y159.844 E0.02527
G1 X151.265 Y122.882 E2.17938
G1 X150.832 Y123.055 E0.01943
G1 X188.227 Y160.45 E2.20489
G1 X188.227 Y161.056 E0.02527
G1 X150.453 Y123.282 E2.22725
G1 X150.087 Y123.522 E0.01825
G1 X188.227 Y161.662 E2.24883
G1 X188.227 Y162.268 E0.02527
G1 X149.721 Y123.762 E2.27041
G1 X149.355 Y124.002 E0.01825
G1 X188.227 Y162.874 E2.29198
G1 X188.227 Y163.48 E0.02527
G1 X148.989 Y124.242 E2.31356
G1 X148.623 Y124.482 E0.01825
G1 X188.227 Y164.086 E2.33514
G1 X188.227 Y164.692 E0.02527
G1 X148.262 Y124.727 E2.35644
G1 X147.943 Y125.014 E0.01789
G1 X188.227 Y165.298 E2.37522
G1 X188.227 Y165.904 E0.02527
G1 X147.625 Y125.302 E2.39399
G1 X147.306 Y125.589 E0.01789
G1 X188.227 Y166.51 E2.41277
G1 X188.227 Y167.116 E0.02527
G1 X146.988 Y125.877 E2.43155
M73 P5 R38
G1 X146.669 Y126.164 E0.01789
G1 X188.227 Y167.722 E2.45033
G1 X188.227 Y168.328 E0.02527
G1 X146.351 Y126.452 E2.46911
G1 X146.032 Y126.739 E0.01789
G1 X188.227 Y168.934 E2.48789
G1 X188.227 Y169.54 E0.02527
G1 X145.714 Y127.027 E2.50666
G1 X145.626 Y127.106 E0.00491
G1 X145.444 Y127.362 E0.01314
G1 X188.227 Y170.146 E2.52261
G1 X188.227 Y170.752 E0.02527
G1 X145.191 Y127.716 E2.53747
G1 X144.939 Y128.07 E0.01811
G1 X188.227 Y171.358 E2.55234
G1 X188.227 Y171.964 E0.02527
G1 X144.687 Y128.424 E2.56721
G1 X144.435 Y128.778 E0.01811
G1 X188.227 Y172.57 E2.58208
G1 X188.227 Y173.176 E0.02527
G1 X144.183 Y129.131 E2.59695
G1 X143.931 Y129.485 E0.01811
G1 X188.227 Y173.782 E2.61181
G1 X188.227 Y174.388 E0.02527
G1 X143.678 Y129.839 E2.62668
G1 X143.426 Y130.193 E0.01811
G1 X188.227 Y174.994 E2.64155
G1 X188.227 Y175.599 E0.02527
G1 X143.174 Y130.547 E2.65642
G1 X142.922 Y130.901 E0.01811
G1 X188.227 Y176.205 E2.67129
M73 P6 R38
G1 X188.227 Y176.811 E0.02527
G1 X142.67 Y131.254 E2.68616
G1 X142.418 Y131.608 E0.01811
G1 X188.227 Y177.417 E2.70102
G1 X188.227 Y178.023 E0.02527
M73 P6 R37
G1 X142.394 Y132.19 E2.70244
G1 X142.394 Y132.796 E0.02527
G1 X188.227 Y178.629 E2.70244
G1 X188.227 Y179.235 E0.02527
G1 X142.394 Y133.402 E2.70244
G1 X142.394 Y134.008 E0.02527
G1 X188.227 Y179.841 E2.70244
G1 X188.227 Y180.447 E0.02527
G1 X142.394 Y134.614 E2.70244
G1 X142.394 Y135.22 E0.02527
G1 X188.227 Y181.053 E2.70244
G1 X188.227 Y181.659 E0.02527
G1 X142.394 Y135.826 E2.70244
G1 X142.394 Y136.432 E0.02527
G1 X188.227 Y182.265 E2.70244
G1 X188.227 Y182.871 E0.02527
G1 X142.394 Y137.038 E2.70244
G1 X142.394 Y137.644 E0.02527
G1 X188.227 Y183.477 E2.70244
G1 X188.227 Y184.083 E0.02527
G1 X142.394 Y138.25 E2.70244
G1 X142.394 Y138.856 E0.02527
G1 X188.227 Y184.689 E2.70244
G1 X188.227 Y185.295 E0.02527
G1 X142.394 Y139.462 E2.70244
M73 P7 R37
G1 X142.394 Y140.068 E0.02527
G1 X188.227 Y185.901 E2.70244
G1 X188.227 Y186.507 E0.02527
G1 X142.394 Y140.674 E2.70244
G1 X142.394 Y141.28 E0.02527
G1 X188.227 Y187.113 E2.70244
G1 X188.227 Y187.719 E0.02527
G1 X142.394 Y141.886 E2.70244
G1 X142.394 Y142.492 E0.02527
G1 X188.227 Y188.325 E2.70244
G1 X188.227 Y188.931 E0.02527
G1 X142.394 Y143.098 E2.70244
G1 X142.394 Y143.704 E0.02527
G1 X188.227 Y189.537 E2.70244
G1 X188.227 Y190.143 E0.02527
G1 X142.394 Y144.31 E2.70244
G1 X142.394 Y144.916 E0.02527
G1 X188.227 Y190.749 E2.70244
G1 X188.227 Y191.355 E0.02527
G1 X142.394 Y145.522 E2.70244
G1 X142.394 Y146.128 E0.02527
G1 X188.227 Y191.961 E2.70244
G1 X188.227 Y192.567 E0.02527
G1 X142.394 Y146.734 E2.70244
G1 X142.394 Y147.34 E0.02527
G1 X188.227 Y193.173 E2.70244
G1 X188.227 Y193.779 E0.02527
G1 X142.394 Y147.946 E2.70244
M73 P8 R37
G1 X142.394 Y148.552 E0.02527
G1 X188.227 Y194.385 E2.70244
G1 X188.227 Y194.991 E0.02527
G1 X142.394 Y149.158 E2.70244
G1 X142.394 Y149.764 E0.02527
G1 X188.227 Y195.597 E2.70244
G1 X188.227 Y196.203 E0.02527
G1 X142.394 Y150.37 E2.70244
G1 X142.394 Y150.976 E0.02527
G1 X188.227 Y196.809 E2.70244
G1 X188.227 Y197.415 E0.02527
G1 X142.394 Y151.582 E2.70244
G1 X142.394 Y152.188 E0.02527
G1 X188.227 Y198.021 E2.70244
G1 X188.227 Y198.627 E0.02527
G1 X142.394 Y152.794 E2.70244
G1 X142.394 Y153.4 E0.02527
G1 X188.227 Y199.233 E2.70244
M73 P8 R36
G1 X188.227 Y199.839 E0.02527
G1 X142.394 Y154.006 E2.70244
G1 X142.394 Y154.612 E0.02527
G1 X188.227 Y200.445 E2.70244
G1 X188.227 Y201.051 E0.02527
G1 X142.394 Y155.218 E2.70244
G1 X142.394 Y155.823 E0.02527
G1 X188.227 Y201.657 E2.70244
G1 X188.227 Y202.263 E0.02527
G1 X142.394 Y156.429 E2.70244
M73 P9 R36
G1 X142.394 Y157.035 E0.02527
