; generated by SuperSlicer 2.4 on 2022-05-28 at 05:22:00 UTC


;
;

;
;
; 

; external perimeters extrusion width = 0.40mm
; perimeters extrusion width = 0.40mm
; infill extrusion width = 0.72mm
; solid infill extrusion width = 0.56mm
; top infill extrusion width = 0.40mm
; first layer extrusion width = 0.48mm

; object:{"name":"Steambox Version 3","id":"Steambox Version 3.0 XL Lid.stl id:0 copy 0","object_center":[165.000000,164.992180,0.000000],"boundingbox_center":[165.000000,164.992180,3.000000],"boundingbox_size":[53.749947,96.682686,6.000000]}
; plater:{"center":[165.000000,164.992180,0.000000],"boundingbox_center":[165.000000,164.992180,3.000000],"boundingbox_size":[53.749947,96.682686,6.000000]}

M73 P0 R40
;TYPE:Custom
START_PRINT T_BED=60 T_EXTRUDER=200
M107
G21 ; set units to millimeters
G90 ; use absolute coordinates
M83 ; use relative distances for extrusion
; Filament gcode
M104 S200 ; set temperature
M109 S200 ; set temperature and wait for it to be reached
M190 S60 ; set bed temperature and wait for it to be reached
M107
;LAYER_CHANGE
;Z:0.24
;HEIGHT:0.24
G1 Z0.24 F9000
G92 E0
G1 E-0.8 F3000
M204 S1000
G1 X142.181 Y124.031 F9000
G1 E0.8 F1800
;TYPE:Skirt
;WIDTH:0.52
G1 X140.79 Y125.66 E0.09811
G1 X139.532 Y127.408 E0.09871
G1 X138.239 Y129.6 E0.11659
G1 X137.778 Y131.322 E0.08164
G1 X136.302 Y212.095 E3.70097
M73 P1 R40
G1 X136.34 Y212.766 E0.03079
G1 X137.027 Y214.661 E0.09234
G1 X138.319 Y215.78 E0.07828
G1 X139.975 Y216.199 E0.07828
G1 X190.118 Y216.947 E2.29737
G1 X192.168 Y216.363 E0.09767
G1 X193.355 Y215.134 E0.07828
G1 X193.863 Y213.503 E0.07828
G1 X193.901 Y212.34 E0.05329
G1 X192.843 Y132.186 E3.67232
G1 X192.444 Y130.563 E0.07659
G1 X191.818 Y129.328 E0.06342
G1 X190.711 Y127.471 E0.09903
G1 X189.434 Y125.686 E0.10057
G1 X188.403 Y124.451 E0.07368
G1 X186.897 Y122.892 E0.09931
G1 X185.83 Y121.931 E0.06578
G1 X183.723 Y120.315 E0.12164
G1 X180.928 Y118.639 E0.14932
G1 X178.502 Y117.538 E0.12202
G1 X176.927 Y116.978 E0.07663
G1 X175.373 Y116.532 E0.07402
G1 X173.42 Y116.118 E0.09147
G1 X171.244 Y115.837 E0.10052
G1 X169.662 Y115.751 E0.07258
G1 X161.183 Y115.741 E0.38845
G1 X158.509 Y115.881 E0.12265
G1 X156.799 Y116.114 E0.07907
G1 X154.849 Y116.528 E0.09132
G1 X152.746 Y117.152 E0.1005
G1 X151.263 Y117.715 E0.07269
G1 X149.328 Y118.61 E0.09765
G1 X147.351 Y119.74 E0.10435
G1 X145.539 Y120.993 E0.1009
G1 X143.737 Y122.488 E0.10727
G1 X142.181 Y124.031 E0.10038
G1 X142.53 Y124.34 F9000
G1 F1800
G1 X141.164 Y125.939 E0.09635
G1 X139.927 Y127.655 E0.09693
G1 X138.647 Y129.826 E0.11545
G1 X138.244 Y131.33 E0.07135
G1 X136.768 Y211.619 E3.67877
G1 X136.805 Y212.732 E0.05105
G1 X137.288 Y214.213 E0.07136
G1 X138.442 Y215.316 E0.07311
G1 X139.982 Y215.733 E0.07311
G1 X190.125 Y216.481 E2.29737
G1 X191.735 Y216.078 E0.07606
G1 X192.899 Y214.986 E0.07311
G1 X193.398 Y213.471 E0.07311
G1 X192.377 Y132.192 E3.7238
G1 X192.028 Y130.773 E0.06693
G1 X191.402 Y129.539 E0.06342
G1 X190.315 Y127.717 E0.09718
G1 X189.063 Y125.969 E0.09851
G1 X188.062 Y124.769 E0.07159
G1 X186.583 Y123.237 E0.09753
G1 X185.536 Y122.293 E0.06459
G1 X183.45 Y120.693 E0.12046
G1 X180.724 Y119.058 E0.14562
G1 X178.322 Y117.968 E0.12083
G1 X176.772 Y117.418 E0.07534
G1 X175.265 Y116.985 E0.07184
G1 X173.33 Y116.576 E0.09058
G1 X171.199 Y116.301 E0.09846
G1 X169.662 Y116.217 E0.07052
G1 X161.182 Y116.208 E0.38845
G1 X158.546 Y116.345 E0.12093
G1 X156.883 Y116.573 E0.07689
G1 X154.952 Y116.982 E0.09043
G1 X152.893 Y117.595 E0.09844
G1 X151.451 Y118.141 E0.07063
G1 X149.548 Y119.021 E0.09604
G1 X147.59 Y120.14 E0.10334
G1 X145.816 Y121.368 E0.09883
G1 X144.055 Y122.83 E0.10483
G1 X142.53 Y124.34 E0.09832
G1 E-0.8 F3000
; printing object Steambox Version 3.0 XL Lid.stl id:0 copy 0
G1 X188.047 Y206.721 F9000
G1 E0.8 F1800
;TYPE:Internal perimeter
;WIDTH:0.48
G1 X188.047 Y207.578 E0.03591
G1 X189.005 Y207.578 E0.04016
G1 X189.009 Y210.397 E0.11812
G1 X188.305 Y209.925 E0.03552
G1 X187.524 Y209.503 E0.03718
G1 X186.727 Y209.166 E0.03625
G1 X186.28 Y209.014 E0.01979
G1 X185.429 Y208.791 E0.03683
G1 X184.572 Y208.652 E0.0364
G1 X184.091 Y208.609 E0.02025
G1 X146.66 Y208.609 E1.56836
G1 X146.249 Y208.592 E0.01721
G1 X145.365 Y208.62 E0.03709
G1 X144.472 Y208.735 E0.0377
G1 X143.595 Y208.936 E0.0377
G1 X142.742 Y209.221 E0.0377
G1 X141.92 Y209.587 E0.03771
G1 X141.196 Y209.999 E0.0349
G1 X141.197 Y207.578 E0.10145
G1 X142.574 Y207.578 E0.05767
G1 X142.574 Y131.673 E3.18044
G1 X142.958 Y130.978 E0.03326
G1 X143.588 Y129.968 E0.04987
G1 X143.91 Y129.498 E0.02389
G1 X144.619 Y128.548 E0.04966
G1 X144.977 Y128.109 E0.02372
G1 X145.753 Y127.232 E0.04908
G1 X146.576 Y126.399 E0.04907
G1 X146.99 Y126.014 E0.0237
G1 X147.888 Y125.244 E0.04957
G1 X148.401 Y124.842 E0.02728
G1 X148.864 Y124.5 E0.02413
G1 X149.839 Y123.841 E0.04931
G1 X150.839 Y123.242 E0.04884
G1 X152.105 Y122.587 E0.05971
G1 X153.175 Y122.114 E0.04903
G1 X154.275 Y121.698 E0.04926
G1 X154.812 Y121.521 E0.02372
G1 X155.94 Y121.198 E0.04914
G1 X157.085 Y120.939 E0.0492
G1 X157.642 Y120.836 E0.02373
G1 X158.922 Y120.659 E0.05414
G1 X160.087 Y120.567 E0.049
G1 X161.192 Y120.538 E0.04631
G1 X162.673 Y120.54 E0.06205
G1 X169.627 Y120.547 E0.29135
G1 X170.799 Y120.613 E0.04921
G1 X171.362 Y120.668 E0.02371
G1 X172.524 Y120.831 E0.04916
G1 X173.678 Y121.057 E0.04926
G1 X174.231 Y121.19 E0.02384
G1 X175.368 Y121.514 E0.04952
G1 X176.673 Y121.973 E0.05797
G1 X177.747 Y122.424 E0.04882
G1 X178.806 Y122.94 E0.04936
G1 X179.306 Y123.21 E0.02378
G1 X180.458 Y123.901 E0.05633
G1 X180.929 Y124.213 E0.02363
G1 X181.878 Y124.901 E0.04914
G1 X182.783 Y125.636 E0.04885
G1 X183.656 Y126.428 E0.04937
G1 X184.062 Y126.828 E0.02391
G1 X184.873 Y127.699 E0.04984
G1 X185.636 Y128.615 E0.04998
G1 X185.979 Y129.065 E0.02372
G1 X186.653 Y130.027 E0.04917
M73 P1 R39
G1 X187.272 Y131.025 E0.04923
G1 X187.551 Y131.518 E0.02372
G1 X188.047 Y132.497 E0.04599
G1 X188.047 Y206.721 E3.11001
M73 P2 R39
G1 X188.475 Y206.721 F9000
G1 F1800
G1 X188.475 Y207.149 E0.01795
G1 X189.433 Y207.149 E0.04014
G1 X189.438 Y210.868 E0.15582
G1 X189.462 Y211.344 E0.01996
G1 X188.799 Y210.772 E0.03668
G1 X188.083 Y210.292 E0.03614
G1 X187.338 Y209.89 E0.03546
G1 X186.574 Y209.567 E0.03476
G1 X186.156 Y209.425 E0.01851
G1 X185.34 Y209.211 E0.03533
G1 X184.518 Y209.077 E0.0349
G1 X184.071 Y209.037 E0.0188
G1 X146.651 Y209.037 E1.56793
G1 X146.247 Y209.021 E0.01693
G1 X145.399 Y209.048 E0.03557
G1 X144.548 Y209.157 E0.03596
G1 X143.711 Y209.349 E0.03596
G1 X142.897 Y209.621 E0.03596
G1 X142.113 Y209.97 E0.03597
G1 X141.363 Y210.397 E0.03615
G1 X140.748 Y210.842 E0.03183
G1 X140.767 Y210.2 E0.0269
G1 X140.769 Y207.149 E0.12784
G1 X142.145 Y207.149 E0.05765
G1 X142.145 Y131.562 E3.16712
G1 X142.588 Y130.761 E0.03837
G1 X143.229 Y129.734 E0.05072
G1 X143.561 Y129.249 E0.02464
G1 X144.281 Y128.285 E0.0504
G1 X144.65 Y127.832 E0.02446
G1 X145.44 Y126.939 E0.04995
G1 X146.278 Y126.092 E0.04994
G1 X146.704 Y125.694 E0.02445
G1 X147.617 Y124.912 E0.05033
G1 X148.141 Y124.501 E0.02793
G1 X148.617 Y124.15 E0.02477
G1 X149.609 Y123.479 E0.05018
G1 X150.63 Y122.868 E0.04989
G1 X151.919 Y122.201 E0.06081
G1 X153.012 Y121.717 E0.05008
G1 X154.132 Y121.294 E0.05013
G1 X154.686 Y121.111 E0.02446
G1 X155.833 Y120.783 E0.05
G1 X156.999 Y120.519 E0.05006
G1 X157.574 Y120.413 E0.0245
G1 X158.875 Y120.233 E0.05506
G1 X160.065 Y120.139 E0.05001
G1 X161.187 Y120.109 E0.04704
G1 X162.674 Y120.111 E0.06229
G1 X169.639 Y120.119 E0.29184
G1 X170.832 Y120.186 E0.05008
G1 X171.413 Y120.242 E0.02445
G1 X172.595 Y120.408 E0.05002
G1 X173.769 Y120.639 E0.05013
G1 X174.34 Y120.776 E0.02459
G1 X175.498 Y121.105 E0.05044
G1 X176.827 Y121.573 E0.05906
G1 X177.924 Y122.034 E0.04986
G1 X179.002 Y122.559 E0.05023
G1 X179.518 Y122.838 E0.02456
G1 X180.687 Y123.539 E0.05714
G1 X181.173 Y123.861 E0.0244
G1 X182.139 Y124.561 E0.05
G1 X183.063 Y125.31 E0.04984
G1 X183.95 Y126.116 E0.05024
G1 X184.369 Y126.53 E0.02466
G1 X185.194 Y127.415 E0.05071
G1 X185.971 Y128.348 E0.05086
G1 X186.325 Y128.812 E0.02447
G1 X187.01 Y129.791 E0.05004
G1 X187.641 Y130.806 E0.0501
G1 X187.929 Y131.316 E0.0245
G1 X188.475 Y132.395 E0.05068
G1 X188.475 Y206.721 E3.1143
G1 X188.904 Y206.721 F9000
;TYPE:External perimeter
G1 F1800
G1 X189.861 Y206.721 E0.04012
G1 X189.866 Y210.857 E0.1733
G1 X189.893 Y211.368 E0.02146
G1 X189.954 Y211.859 E0.02075
G1 X189.959 Y212.615 E0.03164
G1 X189.157 Y211.647 E0.05267
G1 X188.539 Y211.114 E0.0342
G1 X187.861 Y210.659 E0.03419
G1 X187.153 Y210.277 E0.03375
G1 X186.421 Y209.968 E0.03326
G1 X186.032 Y209.835 E0.01722
G1 X185.252 Y209.63 E0.03382
G1 X184.465 Y209.503 E0.0334
G1 X184.052 Y209.466 E0.01736
G1 X146.642 Y209.466 E1.5675
G1 X146.245 Y209.45 E0.01665
G1 X145.433 Y209.475 E0.03404
G1 X144.623 Y209.58 E0.03422
G1 X143.827 Y209.762 E0.03422
G1 X143.053 Y210.021 E0.03422
G1 X142.307 Y210.353 E0.03422
G1 X141.595 Y210.757 E0.03428
G1 X141.258 Y211.002 E0.01745
G1 X140.927 Y211.27 E0.01785
G1 X140.669 Y211.581 E0.01693
G1 X140.378 Y211.831 E0.01606
G1 X140.241 Y211.974 E0.00829
G1 X140.241 Y211.629 E0.01444
G1 X140.324 Y210.68 E0.0399
G1 X140.338 Y210.194 E0.0204
G1 X140.341 Y206.721 E0.14552
G1 X141.717 Y206.721 E0.05764
G1 X141.717 Y131.452 E3.1538
G1 X142.219 Y130.543 E0.04348
G1 X142.871 Y129.499 E0.05158
G1 X143.213 Y128.999 E0.02539
G1 X143.943 Y128.021 E0.05115
G1 X144.323 Y127.555 E0.0252
G1 X145.127 Y126.647 E0.05082
G1 X145.979 Y125.784 E0.0508
G1 X146.419 Y125.374 E0.02519
G1 X147.345 Y124.581 E0.05109
G1 X147.881 Y124.16 E0.02858
G1 X148.369 Y123.8 E0.0254
G1 X149.379 Y123.118 E0.05105
G1 X150.422 Y122.494 E0.05093
G1 X151.734 Y121.814 E0.06192
G1 X152.85 Y121.32 E0.05113
G1 X153.989 Y120.89 E0.051
G1 X154.56 Y120.701 E0.02521
G1 X155.727 Y120.368 E0.05087
G1 X156.913 Y120.099 E0.05093
G1 X157.506 Y119.99 E0.02526
G1 X158.829 Y119.807 E0.05597
G1 X160.042 Y119.71 E0.05101
G1 X161.182 Y119.681 E0.04776
G1 X162.674 Y119.683 E0.06254
G1 X169.651 Y119.69 E0.29234
G1 X170.865 Y119.758 E0.05094
G1 X171.464 Y119.817 E0.0252
G1 X172.666 Y119.985 E0.05089
G1 X173.861 Y120.22 E0.051
G1 X174.449 Y120.361 E0.02534
G1 X175.628 Y120.697 E0.05136
G1 X176.982 Y121.173 E0.06014
G1 X178.101 Y121.644 E0.05089
G1 X179.198 Y122.178 E0.0511
G1 X179.73 Y122.465 E0.02534
G1 X180.916 Y123.176 E0.05796
G1 X181.417 Y123.509 E0.02518
G1 X182.4 Y124.221 E0.05087
G1 X183.342 Y124.985 E0.05083
G1 X184.245 Y125.805 E0.05111
G1 X184.677 Y126.231 E0.02541
G1 X185.516 Y127.132 E0.05159
G1 X186.306 Y128.081 E0.05174
G1 X186.671 Y128.559 E0.02522
G1 X187.368 Y129.554 E0.05091
G1 X188.01 Y130.588 E0.05097
G1 X188.306 Y131.113 E0.02528
G1 X188.904 Y132.292 E0.05538
G1 X188.904 Y206.721 E3.11859
;WIPE_START
M204 S3000
G1 X188.904 Y207.121 F9000
;WIPE_END
M204 S1000
G1 X182.16 Y125.296
;TYPE:Solid infill
;WIDTH:0.47763
G1 F2400
G1 X183.566 Y126.702 E0.08288
G1 X185.778 Y129.213 E0.13952
G1 X186.243 Y129.985 E0.0376
G1 X180.535 Y124.277 E0.33657
G1 X179.151 Y123.499 E0.06622
G1 X187.162 Y131.51 E0.47235
G1 X187.798 Y132.566 E0.05142
G1 X187.798 Y132.752 E0.00776
G1 X177.767 Y122.72 E0.59151
G1 X177.644 Y122.652 E0.00585
G1 X176.793 Y122.353 E0.03761
G1 X187.798 Y133.358 E0.64891
G1 X187.798 Y133.964 E0.02527
G1 X175.859 Y122.025 E0.70396
G1 X174.926 Y121.697 E0.04126
G1 X187.798 Y134.57 E0.75901
G1 X187.798 Y135.176 E0.02527
G1 X174.028 Y121.406 E0.81193
G1 X173.287 Y121.271 E0.0314
G1 X187.798 Y135.782 E0.85561
G1 X187.798 Y136.388 E0.02527
G1 X172.547 Y121.136 E0.8993
M73 P3 R39
G1 X171.806 Y121.001 E0.0314
G1 X187.798 Y136.994 E0.94298
G1 X187.798 Y137.6 E0.02527
G1 X171.111 Y120.913 E0.98393
G1 X170.496 Y120.904 E0.02565
G1 X187.798 Y138.206 E1.02019
G1 X187.798 Y138.812 E0.02527
G1 X169.881 Y120.895 E1.05646
G1 X169.266 Y120.886 E0.02565
G1 X187.798 Y139.418 E1.09273
G1 X187.798 Y140.024 E0.02527
G1 X168.651 Y120.876 E1.129
G1 X168.036 Y120.867 E0.02565
G1 X187.798 Y140.63 E1.16526
G1 X187.798 Y141.236 E0.02527
G1 X167.421 Y120.858 E1.20153
G1 X166.806 Y120.849 E0.02565
G1 X187.798 Y141.842 E1.2378
G1 X187.798 Y142.448 E0.02527
G1 X166.191 Y120.84 E1.27407
G1 X165.576 Y120.831 E0.02565
G1 X187.798 Y143.054 E1.31033
G1 X187.798 Y143.66 E0.02527
G1 X164.961 Y120.822 E1.3466
G1 X164.345 Y120.813 E0.02565
G1 X187.798 Y144.266 E1.38287
G1 X187.798 Y144.872 E0.02527
G1 X163.73 Y120.804 E1.41913
G1 X163.115 Y120.795 E0.02565
G1 X187.798 Y145.478 E1.4554
G1 X187.798 Y146.084 E0.02527
G1 X162.508 Y120.793 E1.4912
G1 X161.921 Y120.812 E0.0245
G1 X187.798 Y146.69 E1.52583
G1 X187.798 Y147.296 E0.02527
G1 X161.334 Y120.831 E1.56045
G1 X160.746 Y120.85 E0.0245
G1 X187.798 Y147.902 E1.59508
G1 X187.798 Y148.508 E0.02527
G1 X160.159 Y120.868 E1.6297
G1 X159.572 Y120.887 E0.0245
G1 X187.798 Y149.114 E1.66433
G1 X187.798 Y149.72 E0.02527
G1 X158.985 Y120.906 E1.69895
G1 X158.948 Y120.907 E0.00154
G1 X158.467 Y120.994 E0.02038
G1 X187.798 Y150.326 E1.72948
G1 X187.798 Y150.932 E0.02527
G1 X157.954 Y121.087 E1.75974
G1 X157.441 Y121.18 E0.02174
G1 X187.798 Y151.538 E1.79
G1 X187.798 Y152.144 E0.02527
G1 X156.927 Y121.272 E1.82026
G1 X156.414 Y121.365 E0.02174
G1 X187.798 Y152.75 E1.85052
M73 P4 R39
G1 X187.798 Y153.355 E0.02527
G1 X155.918 Y121.475 E1.87979
G1 X155.485 Y121.648 E0.01943
G1 X187.798 Y153.961 E1.90529
G1 X187.798 Y154.567 E0.02527
G1 X155.053 Y121.822 E1.9308
G1 X154.62 Y121.995 E0.01943
G1 X187.798 Y155.173 E1.95631
G1 X187.798 Y155.779 E0.02527
G1 X154.187 Y122.168 E1.98182
G1 X153.755 Y122.342 E0.01943
G1 X187.798 Y156.385 E2.00733
G1 X187.798 Y156.991 E0.02527
G1 X153.322 Y122.515 E2.03284
G1 X152.89 Y122.689 E0.01943
G1 X187.798 Y157.597 E2.05835
M73 P4 R38
G1 X187.798 Y158.203 E0.02527
G1 X152.457 Y122.862 E2.08386
G1 X152.024 Y123.035 E0.01943
G1 X187.798 Y158.809 E2.10936
G1 X187.798 Y159.415 E0.02527
G1 X151.592 Y123.209 E2.13487
G1 X151.159 Y123.382 E0.01943
G1 X187.798 Y160.021 E2.16038
G1 X187.798 Y160.627 E0.02527
G1 X150.762 Y123.591 E2.18382
G1 X150.396 Y123.831 E0.01825
G1 X187.798 Y161.233 E2.2054
G1 X187.798 Y161.839 E0.02527
G1 X150.03 Y124.071 E2.22697
G1 X149.664 Y124.311 E0.01825
G1 X187.798 Y162.445 E2.24855
G1 X187.798 Y163.051 E0.02527
G1 X149.298 Y124.551 E2.27013
G1 X148.932 Y124.791 E0.01825
G1 X187.798 Y163.657 E2.29171
G1 X187.798 Y164.263 E0.02527
G1 X148.566 Y125.031 E2.31329
M73 P5 R38
G1 X148.553 Y125.039 E0.00065
G1 X148.246 Y125.316 E0.01725
G1 X187.798 Y164.869 E2.33216
G1 X187.798 Y165.475 E0.02527
G1 X147.927 Y125.604 E2.35094
G1 X147.609 Y125.892 E0.01789
G1 X187.798 Y166.081 E2.36972
G1 X187.798 Y166.687 E0.02527
G1 X147.29 Y126.179 E2.3885
G1 X146.972 Y126.467 E0.01789
G1 X187.798 Y167.293 E2.40728
G1 X187.798 Y167.899 E0.02527
G1 X146.653 Y126.754 E2.42605
G1 X146.335 Y127.042 E0.01789
G1 X187.798 Y168.505 E2.44483
G1 X187.798 Y169.111 E0.02527
G1 X146.016 Y127.329 E2.46361
G1 X145.939 Y127.399 E0.00433
G1 X145.748 Y127.666 E0.01373
G1 X187.798 Y169.717 E2.47946
G1 X187.798 Y170.323 E0.02527
G1 X145.495 Y128.019 E2.49436
G1 X145.242 Y128.373 E0.01811
G1 X187.798 Y170.929 E2.50927
G1 X187.798 Y171.535 E0.02527
G1 X144.989 Y128.726 E2.52418
G1 X144.736 Y129.079 E0.01811
G1 X187.798 Y172.141 E2.53909
G1 X187.798 Y172.747 E0.02527
G1 X144.483 Y129.432 E2.554
G1 X144.231 Y129.785 E0.01811
G1 X187.798 Y173.353 E2.5689
G1 X187.798 Y173.959 E0.02527
G1 X143.978 Y130.138 E2.58381
M73 P6 R38
G1 X143.725 Y130.492 E0.01811
G1 X187.798 Y174.565 E2.59872
G1 X187.798 Y175.171 E0.02527
G1 X143.472 Y130.845 E2.61363
G1 X143.219 Y131.198 E0.01811
G1 X187.798 Y175.777 E2.62854
G1 X187.798 Y176.383 E0.02527
G1 X142.966 Y131.551 E2.64345
G1 X142.822 Y131.753 E0.01034
G1 X142.822 Y132.013 E0.01084
G1 X187.798 Y176.989 E2.65196
G1 X187.798 Y177.595 E0.02527
G1 X142.822 Y132.619 E2.65196
G1 X142.822 Y133.225 E0.02527
G1 X187.798 Y178.201 E2.65196
G1 X187.798 Y178.807 E0.02527
G1 X142.822 Y133.831 E2.65196
G1 X142.822 Y134.436 E0.02527
G1 X187.798 Y179.413 E2.65196
G1 X187.798 Y180.019 E0.02527
G1 X142.822 Y135.042 E2.65196
G1 X142.822 Y135.648 E0.02527
G1 X187.798 Y180.625 E2.65196
G1 X187.798 Y181.231 E0.02527
G1 X142.822 Y136.254 E2.65196
