; generated by SuperSlicer 2.4 on 2022-09-03 at 03:09:08 UTC


;
;

;
;
; 

; external perimeters extrusion width = 0.20mm
; perimeters extrusion width = 0.25mm
; infill extrusion width = 0.36mm
; solid infill extrusion width = 0.28mm
; top infill extrusion width = 0.20mm
; support material extrusion width = 0.25mm

; object:{"name":"jdo_wallet_v88_-_pressure_lock","id":"jdo_wallet_v88_-_pressure_lock.stl id:0 copy 0","object_center":[152.500000,150.000000,0.000000],"boundingbox_center":[152.500000,150.000000,3.762500],"boundingbox_size":[14.623978,3.000000,7.525001]}
; plater:{"center":[152.500000,150.000000,0.000000],"boundingbox_center":[152.500000,150.000000,3.762500],"boundingbox_size":[14.623978,3.000000,7.525001]}

M73 P0 R12
;TYPE:Custom
START_PRINT T_BED=60 T_EXTRUDER=220
M107
G21 ; set units to millimeters
G90 ; use absolute coordinates
M83 ; use relative distances for extrusion
; Filament gcode
;_TOOLCHANGE 0
M104 S220 ; set temperature
M109 S220 ; set temperature and wait for it to be reached
M190 S60 ; set bed temperature and wait for it to be reached
M107
;LAYER_CHANGE
;Z:0.12
;HEIGHT:0.12
G1 Z0.12 F9000
G92 E0
M204 S1000
M73 P0 R12
G1 X145.033 Y146.371
;TYPE:Skirt
;WIDTH:0.26
G1 F1553
G1 X144.269 Y147.223 E0.01337
G1 X142.672 Y149.22 E0.02988
M73 P0 R12
G1 X141.958 Y150.933 E0.0217
G1 X142.427 Y153.129 E0.02623
G1 X143.658 Y154.307 E0.01992
G1 X145.255 Y154.767 E0.01941
G1 X159.274 Y154.781 E0.16385
G1 X159.743 Y154.767 E0.00547
G1 X161.013 Y154.476 E0.01524
G1 X161.83 Y153.981 E0.01117
G1 X162.799 Y152.674 E0.01901
G1 X162.954 Y150.455 E0.026
G1 X162.332 Y149.223 E0.01612
G1 X160.731 Y147.223 E0.02994
G1 X159.965 Y146.368 E0.01342
G1 X159.419 Y145.884 E0.00852
G1 X158.131 Y145.318 E0.01645
G1 X157.424 Y145.242 E0.00832
G1 X147.561 Y145.245 E0.11526
G1 X145.903 Y145.684 E0.02005
G1 X145.033 Y146.371 E0.01296
G1 X145.209 Y146.532 F9000
G1 F1553
G1 X144.455 Y147.372 E0.01319
G1 X142.858 Y149.369 E0.02988
G1 X142.195 Y150.964 E0.0202
G1 X142.587 Y152.931 E0.02344
G1 X144.063 Y154.25 E0.02312
G1 X145.262 Y154.528 E0.01439
G1 X159.267 Y154.543 E0.16368
G1 X159.735 Y154.529 E0.00547
G1 X160.92 Y154.257 E0.0142
G1 X161.634 Y153.833 E0.00971
G1 X162.579 Y152.583 E0.01831
G1 X162.724 Y150.516 E0.02421
G1 X162.146 Y149.372 E0.01498
G1 X160.545 Y147.372 E0.02994
G1 X159.788 Y146.528 E0.01324
G1 X159.28 Y146.078 E0.00794
G1 X158.081 Y145.551 E0.0153
G1 X157.424 Y145.481 E0.00773
G1 X147.561 Y145.484 E0.11526
G1 X146.021 Y145.892 E0.01863
G1 X145.209 Y146.532 E0.01208
; printing object jdo_wallet_v88_-_pressure_lock.stl id:0 copy 0
G1 X151.11 Y149.284 F9000
;TYPE:Internal perimeter
;WIDTH:0.25
G1 F1553
G1 X148.433 Y150.001 E0.03101
G1 X149.16 Y150.874 E0.01271
G1 X147.345 Y150.881 E0.02031
G1 X147.31 Y150.747 E0.00155
G1 X147.849 Y150.443 E0.00693
G1 X148.074 Y149.9 E0.00658
G1 X147.853 Y149.365 E0.00648
G1 X147.664 Y149.252 E0.00245
G1 X147.776 Y149.127 E0.00188
G1 X151.089 Y149.128 E0.03707
G1 X151.11 Y149.284 E0.00176
G1 X155.928 Y149.83 F9000
G1 F1553
G1 X153.894 Y149.285 E0.02356
G1 X153.914 Y149.129 E0.00176
G1 X157.22 Y149.13 E0.03698
G1 X157.332 Y149.254 E0.00188
G1 X157.147 Y149.365 E0.00241
G1 X156.926 Y149.9 E0.00648
G1 X157.151 Y150.443 E0.00658
G1 X157.695 Y150.749 E0.00698
G1 X157.659 Y150.883 E0.00155
G1 X155.839 Y150.876 E0.02037
G1 X156.567 Y150.001 E0.01273
G1 X155.928 Y149.83 E0.00741
G1 X156.17 Y150.127 F9000
G1 F1553
G1 X152.5 Y149.143 E0.04251
G1 X148.83 Y150.127 E0.04251
G1 X149.637 Y151.097 E0.01412
G1 X146.796 Y151.1 E0.03178
G1 X146.487 Y151.108 E0.00346
G1 X146.45 Y150.973 E0.00157
G1 X147.672 Y150.286 E0.01569
G1 X147.832 Y149.9 E0.00467
G1 X147.674 Y149.519 E0.00461
G1 X147.317 Y149.306 E0.00465
G1 X147.675 Y148.902 E0.00604
G1 X157.32 Y148.905 E0.1079
G1 X157.681 Y149.307 E0.00604
G1 X157.326 Y149.519 E0.00463
G1 X157.168 Y149.9 E0.00461
G1 X157.328 Y150.286 E0.00467
G1 X158.557 Y150.977 E0.01578
G1 X158.522 Y151.111 E0.00155
G1 X155.362 Y151.098 E0.03535
G1 X156.17 Y150.127 E0.01414
G1 X155.818 Y150.239 F9000
;TYPE:External perimeter
;WIDTH:0.2
G1 F1553
G1 X152.5 Y149.35 E0.02986
G1 X149.182 Y150.239 E0.02986
G1 X150.062 Y151.295 E0.01195
G1 X146.799 Y151.3 E0.02836
M73 P1 R12
G1 X145.825 Y151.325 E0.00847
G1 X145.49 Y151.302 E0.00292
G1 X145.77 Y151.127 E0.00287
G1 X147.514 Y150.146 E0.0174
G1 X147.616 Y149.9 E0.00231
G1 X147.515 Y149.656 E0.00229
G1 X147.008 Y149.353 E0.00514
G1 X147.586 Y148.703 E0.00756
G1 X157.408 Y148.706 E0.08539
G1 X157.992 Y149.353 E0.00757
G1 X157.485 Y149.656 E0.00513
G1 X157.384 Y149.9 E0.00229
G1 X157.486 Y150.146 E0.00231
G1 X159.231 Y151.128 E0.01741
G1 X159.507 Y151.315 E0.00289
G1 X154.938 Y151.295 E0.03972
G1 X155.818 Y150.239 E0.01195
;WIPE_START
M204 S3000
G1 X155.897 Y150.055 F9000
;WIPE_END
M204 S1000
G1 X155.507 Y149.418
;TYPE:Gap fill
;WIDTH:0.377299
G1 F1553
G1 X155.344 Y149.396 E0.00288
;WIDTH:0.341532
G1 X155.166 Y149.373 E0.00282
;WIDTH:0.290526
G1 X154.988 Y149.35 E0.00237
;WIDTH:0.239521
G1 X154.811 Y149.326 E0.00191
;WIDTH:0.188515
G1 X154.633 Y149.303 E0.00146
;WIDTH:0.13751
G1 X154.455 Y149.279 E0.001
;WIDTH:0.086505
G1 X154.277 Y149.256 E0.00054
;WIDTH:0.070804
G1 X154.254 Y149.253 E0.00005
G1 X153.802 Y149.193 F9000
;WIDTH:0.377299
G1 F1553
G1 X153.639 Y149.172 E0.00288
;WIDTH:0.341533
G1 X153.461 Y149.148 E0.00282
;WIDTH:0.290527
G1 X153.283 Y149.125 E0.00237
;WIDTH:0.239522
G1 X153.105 Y149.101 E0.00191
;WIDTH:0.188516
G1 X152.928 Y149.078 E0.00146
;WIDTH:0.13751
G1 X152.75 Y149.054 E0.001
;WIDTH:0.086505
G1 X152.572 Y149.031 E0.00054
;WIDTH:0.070804
G1 X152.548 Y149.028 E0.00005
G1 X152.452 Y149.028 F9000
;WIDTH:0.070796
G1 F1553
G1 X152.428 Y149.031 E0.00005
;WIDTH:0.086496
G1 X152.251 Y149.054 E0.00054
;WIDTH:0.137466
G1 X152.074 Y149.078 E0.001
;WIDTH:0.188436
G1 X151.896 Y149.101 E0.00145
;WIDTH:0.239406
G1 X151.719 Y149.124 E0.00191
;WIDTH:0.290377
G1 X151.542 Y149.148 E0.00236
;WIDTH:0.341347
G1 X151.365 Y149.171 E0.00281
;WIDTH:0.377148
G1 X151.202 Y149.192 E0.00288
G1 X150.751 Y149.252 F9000
;WIDTH:0.070796
G1 F1553
G1 X150.727 Y149.255 E0.00005
;WIDTH:0.086496
G1 X150.549 Y149.278 E0.00054
;WIDTH:0.137466
G1 X150.372 Y149.301 E0.001
;WIDTH:0.188436
G1 X150.195 Y149.325 E0.00145
;WIDTH:0.239407
G1 X150.018 Y149.348 E0.00191
;WIDTH:0.290377
G1 X149.841 Y149.371 E0.00236
;WIDTH:0.341348
G1 X149.663 Y149.395 E0.00281
;WIDTH:0.37715
G1 X149.5 Y149.416 E0.00288
G1 X149.474 Y149.692 F9000
;TYPE:Solid infill
;WIDTH:0.337126
G1 F1553
G1 X149.047 Y149.266 E0.00921
G1 X148.688 Y149.265 E0.00549
G1 X149.101 Y149.679 E0.00893
G1 X148.817 Y149.755 E0.00448
G1 X148.328 Y149.265 E0.01057
G1 X147.968 Y149.265 E0.00549
G1 X148.534 Y149.831 E0.01221
G1 X148.25 Y149.907 E0.00448
G1 X148.009 Y149.665 E0.00522
G1 X148.041 Y150.057 F9000
G1 F1553
G1 X148.721 Y150.737 E0.01469
G1 X148.363 Y150.739 E0.00547
G1 X148.019 Y150.395 E0.00743
G1 X148 Y150.441 E0.00076
G1 X147.978 Y150.714 E0.00418
G1 X148.114 Y150.849 E0.00292
G1 X147.91 Y150.614 F9000
;TYPE:Gap fill
;WIDTH:0.169302
G1 F1553
G1 X147.787 Y150.693 E0.00104
;WIDTH:0.145214
G1 X147.596 Y150.743 E0.00118
;WIDTH:0.071694
G1 X147.535 Y150.759 E0.00015
G1 X147.228 Y150.84 F9000
;WIDTH:0.323121
G1 F1553
G1 X147.102 Y150.873 E0.00192
;WIDTH:0.245469
G1 X146.922 Y150.921 E0.00205
;WIDTH:0.139797
G1 X146.741 Y150.969 E0.00106
;WIDTH:0.071904
G1 X146.673 Y150.987 E0.00016
G1 X146.381 Y151.065 F9000
;WIDTH:0.333047
G1 F1553
G1 X146.251 Y151.101 E0.00207
;WIDTH:0.255688
G1 X146.063 Y151.153 E0.00224
;WIDTH:0.149625
G1 X145.874 Y151.205 E0.00121
;WIDTH:0.078136
G1 X145.788 Y151.227 E0.00023
G1 X156.693 Y149.159 F9000
;TYPE:Solid infill
;WIDTH:0.311032
G1 F1553
G1 X156.969 Y149.434 E0.00549
G1 X156.864 Y149.688 E0.00388
G1 X156.443 Y149.268 E0.00838
G1 X156.083 Y149.268 E0.00507
G1 X156.712 Y149.897 E0.01253
G1 X156.221 Y149.765 E0.00716
G1 X155.724 Y149.268 E0.00991
G1 X155.65 Y149.268 E0.00104
G1 X155.616 Y149.52 E0.00359
G1 X155.884 Y149.788 E0.00534
G1 X156.745 Y149.93 F9000
G1 F1553
G1 X156.818 Y150.003 E0.00145
G1 X157.022 Y150.495 E0.00751
G1 X156.995 Y150.539 E0.00073
G1 X156.615 Y150.159 E0.00756
G1 X156.452 Y150.355 E0.0036
G1 X156.838 Y150.741 E0.00769
G1 X156.477 Y150.74 E0.00509
G1 X156.211 Y150.474 E0.0053
G1 X157.091 Y150.615 F9000
;TYPE:Gap fill
;WIDTH:0.170491
G1 F1553
G1 X157.215 Y150.694 E0.00106
;WIDTH:0.146001
G1 X157.408 Y150.745 E0.0012
;WIDTH:0.071711
G1 X157.469 Y150.761 E0.00015
G1 X157.777 Y150.843 F9000
;WIDTH:0.323227
G1 F1553
G1 X157.902 Y150.876 E0.00193
;WIDTH:0.245578
G1 X158.083 Y150.923 E0.00205
;WIDTH:0.139839
G1 X158.263 Y150.971 E0.00106
;WIDTH:0.071908
G1 X158.332 Y150.989 E0.00016
G1 X158.627 Y151.067 F9000
;WIDTH:0.328982
G1 F1553
G1 X158.755 Y151.101 E0.002
;WIDTH:0.249656
G1 X158.94 Y151.15 E0.00214
;WIDTH:0.141407
G1 X159.125 Y151.199 E0.0011
;WIDTH:0.071936
G1 X159.194 Y151.217 E0.00017
;LAYER_CHANGE
;Z:0.24
;HEIGHT:0.12
; stop printing object jdo_wallet_v88_-_pressure_lock.stl id:0 copy 0
M204 S3000
G1 Z0.24 F9000
G92 E0
; printing object jdo_wallet_v88_-_pressure_lock.stl id:0 copy 0
M204 S2000
G1 X158.781 Y151.112
G1 X156.148 Y150.134
G1 X152.5 Y149.157
G1 X151.553 Y149.41
G1 X151.547 Y149.412
G1 X151.498 Y149.231
;TYPE:Internal perimeter
;WIDTH:0.25
G1 F982
G1 X148.521 Y150.029 E0.03449
G1 X149.265 Y150.922 E0.013
G1 X147.18 Y150.924 E0.02333
G1 X147.145 Y150.792 E0.00154
G1 X147.811 Y150.405 E0.00862
G1 X148.02 Y149.9 E0.00611
G1 X147.813 Y149.399 E0.00607
G1 X147.587 Y149.264 E0.00293
G1 X147.761 Y149.076 E0.00287
G1 X151.478 Y149.075 E0.04158
G1 X151.498 Y149.231 E0.00176
G1 X151.547 Y149.412 F9000
G1 X152.5 Y149.157
G1 X155.141 Y149.864
G1 X155.791 Y150.038
G1 X155.839 Y149.858
G1 F982
G1 X153.499 Y149.231 E0.0271
G1 X153.52 Y149.075 E0.00176
G1 X157.246 Y149.074 E0.04169
G1 X157.417 Y149.262 E0.00284
G1 X157.187 Y149.399 E0.00299
G1 X156.98 Y149.9 E0.00607
G1 X157.189 Y150.405 E0.00611
G1 X157.855 Y150.792 E0.00862
G1 X157.82 Y150.924 E0.00154
G1 X155.735 Y150.922 E0.02333
G1 X156.479 Y150.029 E0.013
G1 X155.839 Y149.858 E0.00741
G1 X156.082 Y150.155 F9000
G1 F982
G1 X152.5 Y149.195 E0.04149
G1 X148.918 Y150.155 E0.04149
G1 X149.744 Y151.146 E0.01443
G1 X146.345 Y151.15 E0.03802
G1 X146.309 Y151.017 E0.00154
G1 X147.633 Y150.249 E0.01712
G1 X147.778 Y149.9 E0.00422
G1 X147.634 Y149.553 E0.0042
G1 X147.235 Y149.315 E0.0052
G1 X147.663 Y148.852 E0.00706
G1 X157.345 Y148.849 E0.10832
G1 X157.767 Y149.314 E0.00702
G1 X157.366 Y149.553 E0.00522
G1 X157.223 Y149.9 E0.0042
G1 X157.367 Y150.249 E0.00422
G1 X158.691 Y151.017 E0.01712
G1 X158.655 Y151.15 E0.00154
G1 X155.256 Y151.146 E0.03802
G1 X156.082 Y150.155 E0.01443
M204 S1000
G1 X155.73 Y150.267 F9000
;TYPE:External perimeter
;WIDTH:0.2
G1 F982
G1 X152.5 Y149.401 E0.02907
M73 P2 R11
G1 X149.27 Y150.267 E0.02907
G1 X150.169 Y151.344 E0.0122
G1 X145.364 Y151.35 E0.04177
G1 X145.36 Y151.337 E0.00012
G1 X147.475 Y150.11 E0.02125
G1 X147.562 Y149.9 E0.00198
G1 X147.475 Y149.691 E0.00197
G1 X146.922 Y149.36 E0.0056
G1 X147.576 Y148.653 E0.00838
G1 X157.404 Y148.65 E0.08543
G1 X157.454 Y148.673 E0.00048
G1 X158.078 Y149.361 E0.00807
G1 X157.525 Y149.691 E0.0056
G1 X157.438 Y149.9 E0.00197
G1 X157.525 Y150.11 E0.00198
G1 X159.64 Y151.337 E0.02125
G1 X159.636 Y151.35 E0.00012
G1 X154.831 Y151.344 E0.04177
G1 X155.73 Y150.267 E0.0122
;WIPE_START
M204 S3000
G1 X155.809 Y150.083 F9000
;WIPE_END
M204 S1000
G1 X155.819 Y150.046
G1 X155.109 Y149.363
;TYPE:Gap fill
;WIDTH:0.377158
G1 F982
G1 X154.946 Y149.342 E0.00288
;WIDTH:0.341357
G1 X154.769 Y149.318 E0.00282
;WIDTH:0.290385
G1 X154.592 Y149.295 E0.00236
;WIDTH:0.239412
G1 X154.414 Y149.272 E0.00191
;WIDTH:0.18844
G1 X154.237 Y149.248 E0.00145
;WIDTH:0.137468
G1 X154.06 Y149.225 E0.001
;WIDTH:0.086495
G1 X153.883 Y149.202 E0.00054
;WIDTH:0.070797
G1 X153.859 Y149.199 E0.00005
G1 X153.407 Y149.139 F9000
;WIDTH:0.370517
G1 F982
G1 X153.245 Y149.118 E0.00282
;WIDTH:0.340416
G1 X153.063 Y149.094 E0.00288
;WIDTH:0.285676
G1 X152.881 Y149.07 E0.00238
;WIDTH:0.230936
G1 X152.699 Y149.046 E0.00188
;WIDTH:0.176197
G1 X152.518 Y149.022 E0.00138
G1 X152.482 Y149.022 E0.00027
G1 X152.3 Y149.046 E0.00138
;WIDTH:0.23099
G1 X152.118 Y149.07 E0.00188
;WIDTH:0.285783
G1 X151.935 Y149.094 E0.00239
;WIDTH:0.340576
G1 X151.753 Y149.118 E0.00289
;WIDTH:0.377291
G1 X151.59 Y149.14 E0.00288
G1 X151.138 Y149.199 F9000
;WIDTH:0.070804
G1 F982
G1 X151.115 Y149.203 E0.00005
;WIDTH:0.086504
G1 X150.937 Y149.226 E0.00054
;WIDTH:0.137508
G1 X150.759 Y149.249 E0.001
;WIDTH:0.188512
G1 X150.581 Y149.273 E0.00146
;WIDTH:0.239516
G1 X150.404 Y149.296 E0.00191
;WIDTH:0.29052
G1 X150.226 Y149.32 E0.00237
;WIDTH:0.341523
G1 X150.048 Y149.343 E0.00282
;WIDTH:0.377291
G1 X149.885 Y149.365 E0.00288
M204 S2000
G1 X149.348 Y149.777 F9000
;TYPE:Solid infill
;WIDTH:0.319476
G1 F982
G1 X149.762 Y149.364 E0.00847
G1 X149.742 Y149.214 E0.00218
G1 X149.552 Y149.214 E0.00276
G1 X148.857 Y149.909 E0.01422
G1 X148.925 Y150.56 F9000
G1 F982
G1 X148.701 Y150.784 E0.00459
G1 X148.341 Y150.785 E0.00521
G1 X148.684 Y150.441 E0.00703
G1 X148.521 Y150.245 E0.00369
G1 X147.981 Y150.785 E0.01105
G1 X147.917 Y150.785 E0.00093
G1 X147.997 Y150.591 E0.00304
G1 X147.927 Y150.487 E0.00182
G1 X147.932 Y150.474 E0.0002
G1 X149.192 Y149.214 E0.02579
G1 X148.832 Y149.215 E0.00521
G1 X148.163 Y149.884 E0.01369
G1 X148.058 Y149.629 E0.00398
G1 X148.473 Y149.215 E0.00849
G1 X148.113 Y149.215 E0.00521
G1 X147.869 Y149.459 E0.005
M204 S1000
G1 X147.859 Y150.605 F9000
;TYPE:Gap fill
;WIDTH:0.212663
G1 F982
G1 X147.698 Y150.713 E0.00181
;WIDTH:0.198579
G1 X147.521 Y150.761 E0.00158
;WIDTH:0.09654
G1 X147.365 Y150.803 E0.00057
G1 X147.063 Y150.885 F9000
;WIDTH:0.319985
G1 F982
G1 X146.94 Y150.918 E0.00187
;WIDTH:0.242285
G1 X146.768 Y150.964 E0.00192
;WIDTH:0.138573
G1 X146.596 Y151.011 E0.001
;WIDTH:0.071791
G1 X146.53 Y151.028 E0.00016
G1 X146.24 Y151.107 F9000
;WIDTH:0.325911
G1 F982
G1 X146.114 Y151.141 E0.00195
;WIDTH:0.246464
G1 X145.938 Y151.188 E0.00201
;WIDTH:0.14018
G1 X145.762 Y151.236 E0.00104
;WIDTH:0.071822
G1 X145.695 Y151.254 E0.00016
M204 S2000
G1 X149.664 Y151.109 F9000
G1 X149.664 Y151.109
G1 X148.852 Y150.134
G1 X152.5 Y149.157
G1 X156.148 Y150.134
G1 X156.246 Y151.11
G1 X156.72 Y151.11
G1 X156.72 Y150.894
;TYPE:Solid infill
;WIDTH:0.323873
G1 F982
G1 X157.005 Y150.609 E0.00592
G1 X156.999 Y150.597 E0.0002
G1 X157.073 Y150.487 E0.00194
G1 X156.984 Y150.271 E0.00343
G1 X156.47 Y150.784 E0.01065
G1 X156.111 Y150.784 E0.00527
G1 X156.878 Y150.017 E0.01592
G1 X156.83 Y149.9 E0.00185
G1 X156.967 Y149.568 E0.00527
G1 X156.614 Y149.922 E0.00734
G1 X156.33 Y149.846 E0.00431
G1 X156.964 Y149.212 E0.01315
G1 X156.604 Y149.212 E0.00528
G1 X156.046 Y149.77 E0.01157
G1 X155.763 Y149.694 E0.00431
G1 X156.244 Y149.212 E0.00999
G1 X155.885 Y149.213 E0.00528
G1 X155.479 Y149.618 E0.00841
G1 X155.208 Y149.545 E0.00412
G1 X155.21 Y149.527 E0.00027
G1 X155.634 Y149.103 E0.00879
M204 S1000
G1 X157.141 Y150.605 F9000
;TYPE:Gap fill
;WIDTH:0.212703
G1 F982
G1 X157.302 Y150.713 E0.00181
;WIDTH:0.198602
G1 X157.479 Y150.761 E0.00158
;WIDTH:0.096545
G1 X157.635 Y150.803 E0.00057
G1 X157.937 Y150.885 F9000
;WIDTH:0.319984
G1 F982
G1 X158.06 Y150.918 E0.00187
;WIDTH:0.242284
G1 X158.232 Y150.964 E0.00192
;WIDTH:0.138572
G1 X158.404 Y151.011 E0.001
;WIDTH:0.071791
G1 X158.47 Y151.028 E0.00016
G1 X158.76 Y151.107 F9000
;WIDTH:0.325912
G1 F982
G1 X158.886 Y151.141 E0.00195
;WIDTH:0.246464
G1 X159.062 Y151.188 E0.00201
;WIDTH:0.14018
G1 X159.238 Y151.236 E0.00104
;WIDTH:0.071822
G1 X159.305 Y151.254 E0.00016
;LAYER_CHANGE
;Z:0.36
;HEIGHT:0.12
; stop printing object jdo_wallet_v88_-_pressure_lock.stl id:0 copy 0
M204 S3000
G1 Z0.36 F9000
G92 E0
; printing object jdo_wallet_v88_-_pressure_lock.stl id:0 copy 0
M204 S2000
G1 X158.967 Y151.162
G1 X156.06 Y150.162
G1 X152.5 Y149.208
G1 X151.927 Y149.362
G1 X151.878 Y149.181
;TYPE:Internal perimeter
;WIDTH:0.25
G1 F802
G1 X148.609 Y150.057 E0.03787
G1 X149.372 Y150.971 E0.01332
G1 X146.995 Y150.974 E0.0266
G1 X146.959 Y150.842 E0.00154
G1 X147.771 Y150.37 E0.01051
