; generated by SuperSlicer 2.3.57 on 2022-02-02 at 21:30:33 UTC


;
;

;
;
; 

; external perimeters extrusion width = 0.40mm
; perimeters extrusion width = 0.40mm
; infill extrusion width = 0.40mm
; solid infill extrusion width = 0.40mm
; top infill extrusion width = 0.40mm
; first layer extrusion width = 0.48mm


;TYPE:Custom
START_PRINT T_BED=60 T_EXTRUDER=200
M107
G21 ; set units to millimeters
G90 ; use absolute coordinates
M83 ; use relative distances for extrusion
; Filament gcode
M109 S200 ; set temperature and wait for it to be reached
M190 S60 ; set bed temperature and wait for it to be reached
;LAYER_CHANGE
;Z:0.24
;HEIGHT:0.24
G1 Z0.24 F9000
G1 E-0.6 F3000
M204 S1000
G1 X133.131 Y141.902 F9000
G1 E0.6 F1800
;TYPE:Skirt
;WIDTH:0.48
G1 F900
G1 X130.274 Y144.758 E0.17275
G1 X129.537 Y145.684 E0.05059
G1 X128.942 Y146.938 E0.05932
G1 X128.671 Y148.292 E0.05907
G1 X128.661 Y152.418 E0.17638
G1 X128.744 Y153.164 E0.03209
G1 X128.924 Y153.886 E0.03184
G1 X129.39 Y154.949 E0.04959
G1 X130.063 Y155.893 E0.04959
G1 X133.153 Y158.998 E0.1873
G1 X134.025 Y159.681 E0.04735
G1 X135.334 Y160.295 E0.06181
G1 X136.755 Y160.556 E0.06181
G1 X141.327 Y160.553 E0.19545
G1 X142.215 Y160.425 E0.03835
G1 X143.066 Y160.161 E0.0381
G1 X152.487 Y154.959 E0.46017
G1 X153.18 Y154.389 E0.03835
G1 X156.038 Y151.532 E0.17275
G1 X156.778 Y150.602 E0.05084
G1 X157.141 Y149.938 E0.03234
G1 X157.411 Y149.232 E0.03234
G1 X157.584 Y148.501 E0.03209
G1 X157.658 Y147.748 E0.03234
G1 X157.634 Y143.576 E0.17838
G1 X157.438 Y142.552 E0.0446
G1 X157.056 Y141.581 E0.0446
G1 X156.648 Y140.896 E0.0341
G1 X156.147 Y140.276 E0.0341
G1 X152.653 Y136.856 E0.20904
G1 X151.885 Y136.37 E0.03885
G1 X151.049 Y136.013 E0.03885
G1 X150.167 Y135.796 E0.03885
G1 X149.267 Y135.723 E0.0386
G1 X144.82 Y135.747 E0.19017
G1 X143.783 Y135.943 E0.0451
G1 X142.801 Y136.328 E0.0451
G1 X133.8 Y141.348 E0.44067
G1 X133.178 Y141.863 E0.03453
G1 X133.314 Y142.028 F9000
M204 S500
G1 X133.45 Y142.193
G1 F900
G1 X133.428 Y142.211 E0.00122
G1 X130.591 Y145.047 E0.1715
G1 X129.927 Y145.871 E0.04527
G1 X129.358 Y147.046 E0.05581
G1 X129.098 Y148.32 E0.05557
G1 X129.088 Y152.39 E0.174
G1 X129.331 Y153.752 E0.05916
G1 X129.762 Y154.737 E0.04599
G1 X130.387 Y155.613 E0.04599
G1 X133.44 Y158.679 E0.18499
G1 X134.212 Y159.292 E0.04215
G1 X135.44 Y159.879 E0.0582
G1 X136.773 Y160.128 E0.05796
G1 X141.28 Y160.126 E0.19272
G1 X142.106 Y160.011 E0.03566
G1 X142.908 Y159.763 E0.0359
G1 X152.23 Y154.615 E0.45529
G1 X152.884 Y154.079 E0.03614
G1 X155.725 Y151.239 E0.17174
G1 X156.389 Y150.415 E0.04527
G1 X156.992 Y149.138 E0.06036
G1 X157.229 Y147.747 E0.06036
G1 X157.21 Y143.644 E0.17544
G1 X157.032 Y142.691 E0.04143
G1 X156.683 Y141.793 E0.04119
G1 X156.304 Y141.153 E0.03181
G1 X155.834 Y140.569 E0.03205
G1 X152.418 Y137.215 E0.2047
G1 X151.706 Y136.76 E0.03614
G1 X150.93 Y136.425 E0.03614
G1 X150.109 Y136.221 E0.03614
G1 X149.267 Y136.151 E0.03614
G1 X144.884 Y136.171 E0.1874
G1 X143.915 Y136.351 E0.04215
G1 X143.001 Y136.707 E0.04191
G1 X134.062 Y141.687 E0.43751
G1 X133.496 Y142.155 E0.03139
G1 E-0.6 F3000
M204 S1000
G1 X135.033 Y144.456 F9000
M204 S500
G1 X136.571 Y146.756
G1 E0.6 F1800
G1 F900
G1 X136.958 Y146.498 E0.01991
G1 X137.505 Y146.271 E0.0253
G1 X138.001 Y146.172 E0.02165
G1 X140.025 Y146.172 E0.08654
G1 X140.522 Y146.271 E0.02165
G1 X141.069 Y146.498 E0.0253
G1 X141.49 Y146.779 E0.02165
G1 X142.908 Y148.197 E0.08573
G1 X143.189 Y148.618 E0.02165
G1 X143.415 Y149.164 E0.0253
G1 X143.514 Y149.661 E0.02165
G1 X143.514 Y151.218 E0.06654
G1 X143.415 Y151.714 E0.02165
G1 X143.189 Y152.261 E0.0253
G1 X142.908 Y152.682 E0.02165
G1 X141.49 Y154.1 E0.08573
G1 X141.069 Y154.381 E0.02165
G1 X140.522 Y154.608 E0.0253
G1 X140.025 Y154.706 E0.02165
G1 X138.001 Y154.706 E0.08654
G1 X137.505 Y154.608 E0.02165
G1 X136.958 Y154.381 E0.0253
G1 X136.537 Y154.1 E0.02165
G1 X135.119 Y152.682 E0.08573
G1 X134.838 Y152.261 E0.02165
G1 X134.611 Y151.714 E0.0253
G1 X134.513 Y151.218 E0.02165
G1 X134.513 Y149.661 E0.06654
G1 X134.611 Y149.164 E0.02165
G1 X134.838 Y148.618 E0.0253
G1 X135.119 Y148.197 E0.02165
G1 X136.523 Y146.793 E0.0849
M204 S1000
G1 X136.667 Y146.952 F9000
M204 S500
G1 X136.81 Y147.112
G1 F900
G1 X137.161 Y146.877 E0.01804
G1 X137.63 Y146.683 E0.02169
G1 X138.044 Y146.601 E0.01804
G1 X139.983 Y146.601 E0.08293
G1 X140.397 Y146.683 E0.01804
G1 X140.866 Y146.877 E0.02169
G1 X141.217 Y147.112 E0.01804
G1 X142.575 Y148.47 E0.08212
G1 X142.809 Y148.821 E0.01804
G1 X143.003 Y149.289 E0.02169
G1 X143.086 Y149.703 E0.01804
G1 X143.086 Y151.175 E0.06293
G1 X143.003 Y151.589 E0.01804
G1 X142.809 Y152.058 E0.02169
G1 X142.575 Y152.409 E0.01804
G1 X141.217 Y153.767 E0.08212
G1 X140.866 Y154.001 E0.01804
G1 X140.397 Y154.195 E0.02169
G1 X139.983 Y154.278 E0.01804
G1 X138.044 Y154.278 E0.08293
G1 X137.63 Y154.195 E0.01804
G1 X137.161 Y154.001 E0.02169
G1 X136.81 Y153.767 E0.01804
G1 X135.452 Y152.409 E0.08212
G1 X135.218 Y152.058 E0.01804
G1 X135.023 Y151.589 E0.02169
G1 X134.941 Y151.175 E0.01804
G1 X134.941 Y149.703 E0.06294
G1 X135.023 Y149.289 E0.01804
G1 X135.218 Y148.821 E0.02169
G1 X135.452 Y148.47 E0.01804
G1 X136.768 Y147.154 E0.07955
M204 S1000
G1 X136.919 Y147.306 F9000
M204 S500
G1 X137.071 Y147.457
G1 F900
G1 X137.083 Y147.445 E0.00076
G1 X137.364 Y147.257 E0.01443
G1 X137.755 Y147.095 E0.01808
G1 X138.086 Y147.029 E0.01444
G1 X139.941 Y147.029 E0.07932
G1 X140.272 Y147.095 E0.01444
G1 X140.663 Y147.257 E0.01808
G1 X140.944 Y147.445 E0.01443
G1 X142.242 Y148.743 E0.07851
G1 X142.43 Y149.024 E0.01444
G1 X142.591 Y149.414 E0.01808
G1 X142.657 Y149.746 E0.01444
G1 X142.657 Y151.133 E0.05933
G1 X142.591 Y151.464 E0.01444
G1 X142.43 Y151.855 E0.01808
G1 X142.242 Y152.136 E0.01444
G1 X140.944 Y153.434 E0.07851
G1 X140.663 Y153.622 E0.01444
G1 X140.272 Y153.783 E0.01808
G1 X139.941 Y153.849 E0.01444
G1 X138.086 Y153.849 E0.07932
G1 X137.755 Y153.783 E0.01444
G1 X137.364 Y153.622 E0.01808
G1 X137.083 Y153.434 E0.01444
G1 X135.785 Y152.136 E0.07851
G1 X135.597 Y151.855 E0.01443
G1 X135.435 Y151.464 E0.01808
G1 X135.37 Y151.133 E0.01444
G1 X135.37 Y149.746 E0.05933
G1 X135.435 Y149.414 E0.01444
G1 X135.597 Y149.024 E0.01808
G1 X135.785 Y148.743 E0.01443
G1 X137.028 Y147.5 E0.07518
M204 S1000
G1 X137.18 Y147.651 F9000
M204 S500
G1 X137.331 Y147.803
G1 F900
G1 X137.356 Y147.777 E0.00152
G1 X137.567 Y147.637 E0.01083
G1 X137.88 Y147.507 E0.01447
G1 X138.128 Y147.458 E0.01083
G1 X139.899 Y147.458 E0.07571
G1 X140.147 Y147.507 E0.01083
G1 X140.46 Y147.637 E0.01447
G1 X140.67 Y147.777 E0.01083
G1 X141.909 Y149.016 E0.0749
G1 X142.05 Y149.227 E0.01083
G1 X142.179 Y149.539 E0.01447
G1 X142.229 Y149.788 E0.01083
G1 X142.229 Y151.091 E0.05572
G1 X142.179 Y151.339 E0.01083
G1 X142.05 Y151.652 E0.01447
G1 X141.909 Y151.862 E0.01083
G1 X140.67 Y153.101 E0.0749
G1 X140.46 Y153.242 E0.01083
G1 X140.147 Y153.371 E0.01447
G1 X139.899 Y153.421 E0.01083
G1 X138.128 Y153.421 E0.07571
G1 X137.88 Y153.371 E0.01083
G1 X137.567 Y153.242 E0.01447
G1 X137.356 Y153.101 E0.01083
G1 X136.118 Y151.862 E0.0749
G1 X135.977 Y151.652 E0.01083
G1 X135.847 Y151.339 E0.01447
G1 X135.798 Y151.091 E0.01083
G1 X135.798 Y149.788 E0.05572
G1 X135.847 Y149.539 E0.01083
G1 X135.977 Y149.227 E0.01447
G1 X136.118 Y149.016 E0.01083
G1 X137.289 Y147.845 E0.07081
M204 S1000
G1 X137.44 Y147.997 F9000
M204 S500
G1 X137.592 Y148.148
G1 F900
G1 X137.63 Y148.11 E0.00228
G1 X137.77 Y148.016 E0.00722
G1 X138.005 Y147.919 E0.01086
G1 X138.17 Y147.886 E0.00722
G1 X139.857 Y147.886 E0.07211
G1 X140.022 Y147.919 E0.00722
G1 X140.257 Y148.016 E0.01086
G1 X140.397 Y148.11 E0.00722
G1 X141.576 Y149.289 E0.07129
G1 X141.67 Y149.43 E0.00722
G1 X141.767 Y149.664 E0.01086
G1 X141.8 Y149.83 E0.00722
G1 X141.8 Y151.049 E0.05211
G1 X141.767 Y151.214 E0.00722
G1 X141.67 Y151.449 E0.01086
G1 X141.576 Y151.589 E0.00722
G1 X140.397 Y152.768 E0.07129
G1 X140.257 Y152.862 E0.00722
G1 X140.022 Y152.959 E0.01086
G1 X139.857 Y152.992 E0.00722
G1 X138.17 Y152.992 E0.07211
G1 X138.005 Y152.959 E0.00722
G1 X137.77 Y152.862 E0.01086
G1 X137.63 Y152.768 E0.00722
G1 X136.45 Y151.589 E0.07129
G1 X136.357 Y151.449 E0.00722
G1 X136.259 Y151.214 E0.01086
G1 X136.227 Y151.049 E0.00722
G1 X136.227 Y149.83 E0.05211
G1 X136.259 Y149.664 E0.00722
G1 X136.357 Y149.43 E0.01086
G1 X136.45 Y149.289 E0.00722
G1 X137.549 Y148.19 E0.06644
M204 S1000
G1 X137.701 Y148.342 F9000
M204 S500
G1 X137.852 Y148.493
G1 F900
G1 X137.903 Y148.443 E0.00304
G1 X137.973 Y148.396 E0.00361
G1 X138.13 Y148.331 E0.00725
G1 X138.212 Y148.315 E0.00361
G1 X139.814 Y148.315 E0.0685
G1 X139.897 Y148.331 E0.00361
G1 X140.054 Y148.396 E0.00725
G1 X140.124 Y148.443 E0.00361
G1 X141.244 Y149.562 E0.06768
G1 X141.29 Y149.633 E0.00361
G1 X141.355 Y149.789 E0.00725
G1 X141.372 Y149.872 E0.00361
G1 X141.372 Y151.006 E0.0485
G1 X141.355 Y151.089 E0.00361
G1 X141.29 Y151.246 E0.00725
G1 X141.244 Y151.316 E0.00361
G1 X140.124 Y152.436 E0.06768
G1 X140.054 Y152.482 E0.00361
G1 X139.897 Y152.547 E0.00725
G1 X139.814 Y152.564 E0.00361
G1 X138.212 Y152.564 E0.0685
G1 X138.13 Y152.547 E0.00361
G1 X137.973 Y152.482 E0.00725
G1 X137.903 Y152.436 E0.00361
G1 X136.783 Y151.316 E0.06768
G1 X136.736 Y151.246 E0.00361
G1 X136.672 Y151.089 E0.00725
G1 X136.655 Y151.006 E0.00361
G1 X136.655 Y149.872 E0.0485
G1 X136.672 Y149.789 E0.00361
G1 X136.736 Y149.633 E0.00725
G1 X136.783 Y149.562 E0.00361
G1 X137.81 Y148.536 E0.06207
M204 S1000
G1 X137.961 Y148.687 F9000
M204 S500
G1 X138.113 Y148.839
G1 F900
G1 X138.176 Y148.776 E0.0038
G1 X138.255 Y148.743 E0.00364
G1 X139.772 Y148.743 E0.06489
G1 X139.851 Y148.776 E0.00364
G1 X140.911 Y149.836 E0.06407
G1 X140.943 Y149.914 E0.00364
G1 X140.943 Y150.964 E0.04489
G1 X140.911 Y151.043 E0.00364
G1 X139.851 Y152.103 E0.06407
G1 X139.772 Y152.135 E0.00364
G1 X138.255 Y152.135 E0.06489
G1 X138.176 Y152.103 E0.00364
G1 X137.116 Y151.043 E0.06407
G1 X137.084 Y150.964 E0.00364
G1 X137.084 Y149.914 E0.04489
G1 X137.116 Y149.836 E0.00364
G1 X138.07 Y148.881 E0.0577
G1 E-0.6 F3000
M204 S1000
G1 X140.485 Y148.002 F9000
M204 S500
G1 X142.9 Y147.122
G1 E0.6 F1800
G1 F900
G1 X142.802 Y146.625 E0.02165
G1 X142.802 Y145.069 E0.06654
G1 X142.9 Y144.572 E0.02165
G1 X143.127 Y144.026 E0.0253
G1 X143.408 Y143.605 E0.02165
G1 X144.826 Y142.187 E0.08573
G1 X145.247 Y141.905 E0.02165
G1 X145.794 Y141.679 E0.0253
G1 X146.29 Y141.58 E0.02165
G1 X148.315 Y141.58 E0.08654
G1 X148.811 Y141.679 E0.02165
G1 X149.358 Y141.905 E0.0253
G1 X149.779 Y142.187 E0.02165
G1 X151.197 Y143.605 E0.08573
G1 X151.478 Y144.026 E0.02165
G1 X151.705 Y144.572 E0.0253
G1 X151.803 Y145.069 E0.02165
G1 X151.803 Y146.625 E0.06654
G1 X151.705 Y147.122 E0.02165
G1 X151.478 Y147.669 E0.0253
G1 X151.197 Y148.09 E0.02165
G1 X149.779 Y149.508 E0.08573
G1 X149.358 Y149.789 E0.02165
G1 X148.811 Y150.015 E0.0253
G1 X148.315 Y150.114 E0.02165
G1 X146.29 Y150.114 E0.08654
G1 X145.794 Y150.015 E0.02165
G1 X145.247 Y149.789 E0.0253
G1 X144.826 Y149.508 E0.02165
G1 X143.408 Y148.09 E0.08573
G1 X143.127 Y147.669 E0.02165
G1 X142.923 Y147.178 E0.02273
M204 S1000
G1 X143.121 Y147.096 F9000
M204 S500
G1 X143.319 Y147.014
G1 F900
G1 X143.312 Y146.997 E0.00076
G1 X143.23 Y146.583 E0.01804
G1 X143.23 Y145.111 E0.06294
G1 X143.312 Y144.697 E0.01804
G1 X143.507 Y144.229 E0.02169
G1 X143.741 Y143.878 E0.01804
G1 X145.099 Y142.52 E0.08212
G1 X145.45 Y142.285 E0.01804
G1 X145.919 Y142.091 E0.02169
G1 X146.333 Y142.009 E0.01804
G1 X148.272 Y142.009 E0.08293
G1 X148.686 Y142.091 E0.01804
G1 X149.155 Y142.285 E0.02169
G1 X149.506 Y142.52 E0.01804
G1 X150.864 Y143.878 E0.08212
G1 X151.098 Y144.229 E0.01804
G1 X151.293 Y144.697 E0.02169
G1 X151.375 Y145.111 E0.01804
G1 X151.375 Y146.583 E0.06293
G1 X151.293 Y146.997 E0.01804
G1 X151.098 Y147.466 E0.02169
G1 X150.864 Y147.817 E0.01804
G1 X149.506 Y149.175 E0.08212
G1 X149.155 Y149.409 E0.01804
G1 X148.686 Y149.603 E0.02169
G1 X148.272 Y149.686 E0.01804
G1 X146.333 Y149.686 E0.08293
G1 X145.919 Y149.603 E0.01804
G1 X145.45 Y149.409 E0.02169
G1 X145.099 Y149.175 E0.01804
G1 X143.741 Y147.817 E0.08212
G1 X143.507 Y147.466 E0.01804
G1 X143.342 Y147.069 E0.01836
M204 S1000
G1 X143.54 Y146.987 F9000
M204 S500
G1 X143.738 Y146.905
G1 F900
G1 X143.725 Y146.872 E0.00152
G1 X143.659 Y146.541 E0.01444
G1 X143.659 Y145.153 E0.05933
G1 X143.725 Y144.822 E0.01444
G1 X143.886 Y144.432 E0.01808
G1 X144.074 Y144.151 E0.01443
G1 X145.372 Y142.852 E0.07851
G1 X145.653 Y142.665 E0.01443
G1 X146.044 Y142.503 E0.01808
G1 X146.375 Y142.437 E0.01444
G1 X148.23 Y142.437 E0.07932
G1 X148.561 Y142.503 E0.01444
G1 X148.952 Y142.665 E0.01808
G1 X149.233 Y142.852 E0.01443
G1 X150.531 Y144.151 E0.07851
G1 X150.719 Y144.432 E0.01444
G1 X150.88 Y144.822 E0.01808
G1 X150.946 Y145.153 E0.01444
G1 X150.946 Y146.541 E0.05933
G1 X150.88 Y146.872 E0.01444
G1 X150.719 Y147.263 E0.01808
G1 X150.531 Y147.543 E0.01444
G1 X149.233 Y148.842 E0.07851
G1 X148.952 Y149.029 E0.01444
G1 X148.561 Y149.191 E0.01808
G1 X148.23 Y149.257 E0.01444
G1 X146.375 Y149.257 E0.07932
G1 X146.044 Y149.191 E0.01444
G1 X145.653 Y149.029 E0.01808
G1 X145.372 Y148.842 E0.01444
G1 X144.074 Y147.543 E0.07851
G1 X143.886 Y147.263 E0.01443
G1 X143.761 Y146.96 E0.01399
M204 S1000
G1 X143.959 Y146.878 F9000
M204 S500
G1 X144.157 Y146.796
G1 F900
G1 X144.137 Y146.747 E0.00228
G1 X144.087 Y146.499 E0.01083
G1 X144.087 Y145.196 E0.05572
G1 X144.137 Y144.947 E0.01083
G1 X144.266 Y144.635 E0.01447
G1 X144.407 Y144.424 E0.01083
G1 X145.645 Y143.185 E0.0749
G1 X145.856 Y143.045 E0.01083
G1 X146.169 Y142.915 E0.01447
G1 X146.417 Y142.866 E0.01083
G1 X148.188 Y142.866 E0.07571
G1 X148.436 Y142.915 E0.01083
G1 X148.749 Y143.045 E0.01447
G1 X148.96 Y143.185 E0.01083
G1 X150.198 Y144.424 E0.0749
G1 X150.339 Y144.635 E0.01083
G1 X150.468 Y144.947 E0.01447
G1 X150.518 Y145.196 E0.01083
G1 X150.518 Y146.499 E0.05572
G1 X150.468 Y146.747 E0.01083
G1 X150.339 Y147.06 E0.01447
G1 X150.198 Y147.27 E0.01083
G1 X148.96 Y148.509 E0.0749
G1 X148.749 Y148.65 E0.01083
G1 X148.436 Y148.779 E0.01447
G1 X148.188 Y148.829 E0.01083
G1 X146.417 Y148.829 E0.07571
G1 X146.169 Y148.779 E0.01083
G1 X145.856 Y148.65 E0.01447
G1 X145.645 Y148.509 E0.01083
G1 X144.407 Y147.27 E0.0749
G1 X144.266 Y147.06 E0.01083
G1 X144.18 Y146.852 E0.00962
M204 S1000
G1 X144.378 Y146.77 F9000
M204 S500
G1 X144.576 Y146.688
G1 F900
G1 X144.549 Y146.622 E0.00304
G1 X144.516 Y146.457 E0.00722
G1 X144.516 Y145.238 E0.05211
G1 X144.549 Y145.072 E0.00722
G1 X144.646 Y144.838 E0.01086
G1 X144.74 Y144.697 E0.00722
G1 X145.919 Y143.518 E0.07129
G1 X146.059 Y143.424 E0.00722
G1 X146.294 Y143.327 E0.01086
G1 X146.459 Y143.294 E0.00722
G1 X148.146 Y143.294 E0.07211
G1 X148.311 Y143.327 E0.00722
G1 X148.546 Y143.424 E0.01086
G1 X148.686 Y143.518 E0.00722
G1 X149.865 Y144.697 E0.07129
G1 X149.959 Y144.838 E0.00722
G1 X150.056 Y145.072 E0.01086
G1 X150.089 Y145.238 E0.00722
G1 X150.089 Y146.457 E0.05211
G1 X150.056 Y146.622 E0.00722
G1 X149.959 Y146.857 E0.01086
G1 X149.865 Y146.997 E0.00722
G1 X148.686 Y148.176 E0.07129
G1 X148.546 Y148.27 E0.00722
G1 X148.311 Y148.367 E0.01086
G1 X148.146 Y148.4 E0.00722
G1 X146.459 Y148.4 E0.07211
G1 X146.294 Y148.367 E0.00722
G1 X146.059 Y148.27 E0.01086
G1 X145.919 Y148.176 E0.00722
G1 X144.74 Y146.997 E0.07129
G1 X144.646 Y146.857 E0.00722
G1 X144.599 Y146.743 E0.00525
M204 S1000
G1 X144.797 Y146.661 F9000
M204 S500
G1 X144.995 Y146.579
G1 F900
G1 X144.961 Y146.497 E0.0038
G1 X144.944 Y146.414 E0.00361
G1 X144.944 Y145.28 E0.0485
G1 X144.961 Y145.197 E0.00361
G1 X145.026 Y145.04 E0.00725
G1 X145.072 Y144.97 E0.00361
G1 X146.192 Y143.851 E0.06768
G1 X146.262 Y143.804 E0.00361
G1 X146.419 Y143.739 E0.00725
G1 X146.501 Y143.723 E0.00361
G1 X148.104 Y143.723 E0.0685
G1 X148.186 Y143.739 E0.00361
G1 X148.343 Y143.804 E0.00725
G1 X148.413 Y143.851 E0.00361
G1 X149.533 Y144.97 E0.06768
G1 X149.579 Y145.04 E0.00361
G1 X149.644 Y145.197 E0.00725
G1 X149.661 Y145.28 E0.00361
G1 X149.661 Y146.414 E0.0485
G1 X149.644 Y146.497 E0.00361
G1 X149.579 Y146.654 E0.00725
G1 X149.533 Y146.724 E0.00361
G1 X148.413 Y147.843 E0.06768
