; generated by SuperSlicer 2.3.57 on 2022-02-03 at 00:54:36 UTC


;
;

;
;
; 

; external perimeters extrusion width = 0.40mm
; perimeters extrusion width = 0.40mm
; infill extrusion width = 0.40mm
; solid infill extrusion width = 0.40mm
; top infill extrusion width = 0.40mm
; first layer extrusion width = 0.48mm


;TYPE:Custom
START_PRINT T_BED=60 T_EXTRUDER=200
M107
G21 ; set units to millimeters
G90 ; use absolute coordinates
M83 ; use relative distances for extrusion
; Filament gcode
M104 S200 ; set temperature
M109 S200 ; set temperature and wait for it to be reached
M190 S60 ; set bed temperature and wait for it to be reached
;LAYER_CHANGE
;Z:0.24
;HEIGHT:0.24
G1 Z0.24 F9000
G1 E-0.6 F3000
M204 S1000
G1 X146.134 Y155.281 F9000
G1 E0.6 F1800
;TYPE:Skirt
;WIDTH:0.48
G1 F900
G1 X145.444 Y156.011 E0.04292
G1 X144.88 Y156.755 E0.0399
G1 X144.361 Y157.62 E0.04317
G1 X143.945 Y158.534 E0.04291
G1 X143.652 Y159.42 E0.0399
G1 X143.446 Y160.378 E0.04191
G1 X143.336 Y161.732 E0.05807
G1 X143.374 Y169.051 E0.31294
G1 X143.53 Y170.078 E0.04442
G1 X143.799 Y171.063 E0.04367
G1 X144.149 Y171.948 E0.04065
G1 X144.624 Y172.845 E0.04342
G1 X145.233 Y173.73 E0.04592
G1 X145.94 Y174.53 E0.04567
G1 X146.742 Y175.245 E0.04592
G1 X147.594 Y175.839 E0.04441
G1 X148.536 Y176.343 E0.04568
G1 X149.442 Y176.702 E0.04165
G1 X150.444 Y176.974 E0.04441
G1 X151.53 Y177.132 E0.04693
G1 X178.054 Y177.158 E1.13401
G1 X179.152 Y177.049 E0.04717
G1 X180.318 Y176.779 E0.05118
G1 X181.374 Y176.384 E0.04818
G1 X182.351 Y175.873 E0.04717
G1 X183.711 Y174.862 E0.07246
G1 X184.913 Y173.538 E0.07645
G1 X185.786 Y172.086 E0.07245
G1 X186.387 Y170.432 E0.07521
G1 X186.595 Y169.337 E0.04767
G1 X186.664 Y168.274 E0.04554
G1 X186.662 Y161.553 E0.28738
G1 X186.48 Y159.974 E0.06796
G1 X186.061 Y158.55 E0.06345
G1 X185.376 Y157.155 E0.06645
G1 X184.46 Y155.899 E0.06645
G1 X183.399 Y154.87 E0.0632
G1 X182.117 Y153.991 E0.06646
G1 X180.703 Y153.348 E0.06645
G1 X179.273 Y152.972 E0.0632
G1 X177.728 Y152.836 E0.06632
G1 X151.935 Y152.843 E1.1028
G1 X150.744 Y152.969 E0.05118
G1 X149.676 Y153.223 E0.04692
G1 X148.627 Y153.616 E0.04792
G1 X147.654 Y154.124 E0.04693
G1 X146.826 Y154.691 E0.04291
G1 X146.179 Y155.242 E0.03634
G1 X146.316 Y155.406 F9000
M204 S500
G1 X146.453 Y155.57
G1 F900
G1 X145.781 Y156.276 E0.04169
G1 X145.246 Y156.979 E0.0378
G1 X144.758 Y157.787 E0.04035
G1 X144.385 Y158.588 E0.03779
G1 X144.075 Y159.498 E0.04107
G1 X143.87 Y160.442 E0.04131
G1 X143.764 Y161.734 E0.05542
G1 X143.798 Y168.986 E0.31007
G1 X143.941 Y169.947 E0.04155
G1 X144.168 Y170.813 E0.03828
G1 X144.514 Y171.715 E0.04131
G1 X144.963 Y172.577 E0.04155
G1 X145.552 Y173.441 E0.04468
G1 X146.206 Y174.189 E0.04251
G1 X146.966 Y174.874 E0.04373
G1 X147.722 Y175.413 E0.03971
G1 X148.581 Y175.891 E0.04202
G1 X149.538 Y176.282 E0.04421
G1 X150.519 Y176.552 E0.04347
G1 X151.564 Y176.705 E0.04517
G1 X178.018 Y176.73 E1.13108
G1 X179.036 Y176.633 E0.04372
G1 X180.079 Y176.403 E0.04565
G1 X181.149 Y176.015 E0.04868
G1 X182.078 Y175.537 E0.04467
G1 X183.406 Y174.56 E0.07045
G1 X184.556 Y173.299 E0.07299
G1 X185.396 Y171.908 E0.06949
G1 X185.971 Y170.33 E0.07179
G1 X186.169 Y169.287 E0.0454
G1 X186.236 Y168.278 E0.04325
G1 X186.234 Y161.584 E0.28619
G1 X186.085 Y160.183 E0.06022
G1 X185.683 Y158.76 E0.06325
G1 X185.037 Y157.423 E0.06348
G1 X184.219 Y156.276 E0.06023
G1 X183.16 Y155.227 E0.06372
G1 X181.919 Y154.371 E0.06445
G1 X180.569 Y153.755 E0.06348
G1 X179.201 Y153.394 E0.06046
G1 X177.727 Y153.265 E0.06325
G1 X151.97 Y153.27 E1.10125
G1 X150.958 Y153.368 E0.04347
G1 X149.916 Y153.599 E0.04564
G1 X148.851 Y153.985 E0.04844
G1 X147.922 Y154.463 E0.04468
G1 X147.187 Y154.955 E0.03779
G1 X146.499 Y155.531 E0.03836
G1 E-0.6 F3000
M204 S1000
G1 X159.976 Y157.427 F9000
M204 S500
G1 X173.453 Y159.322
G1 E0.6 F1800
;TYPE:External perimeter
G1 F900
G1 X171.269 Y159.322 E0.09339
G1 X171.218 Y159.323 E0.00217
G1 X171.18 Y159.324 E0.00163
G1 X171.128 Y159.327 E0.00222
G1 X171.09 Y159.329 E0.00163
G1 X171.038 Y159.334 E0.00222
G1 X171 Y159.338 E0.00163
G1 X170.949 Y159.345 E0.00222
G1 X170.911 Y159.35 E0.00163
G1 X170.86 Y159.358 E0.00222
G1 X170.822 Y159.365 E0.00163
G1 X170.771 Y159.375 E0.00222
G1 X170.734 Y159.383 E0.00163
G1 X170.683 Y159.396 E0.00222
G1 X170.646 Y159.405 E0.00163
G1 X170.596 Y159.419 E0.00222
G1 X170.56 Y159.43 E0.00163
G1 X170.51 Y159.446 E0.00222
G1 X170.474 Y159.458 E0.00163
G1 X170.425 Y159.475 E0.00222
G1 X170.39 Y159.489 E0.00163
G1 X170.341 Y159.508 E0.00222
G1 X170.306 Y159.523 E0.00163
G1 X170.259 Y159.544 E0.00222
G1 X170.224 Y159.56 E0.00163
G1 X170.178 Y159.583 E0.00222
G1 X170.144 Y159.6 E0.00163
G1 X170.098 Y159.625 E0.00222
G1 X170.064 Y159.643 E0.00163
G1 X170.02 Y159.669 E0.00222
G1 X169.987 Y159.689 E0.00163
G1 X169.943 Y159.717 E0.00222
G1 X169.911 Y159.738 E0.00163
G1 X169.868 Y159.767 E0.00222
G1 X169.837 Y159.789 E0.00163
G1 X169.796 Y159.82 E0.00222
G1 X169.765 Y159.843 E0.00163
G1 X169.725 Y159.876 E0.00222
G1 X169.695 Y159.9 E0.00164
G1 X169.639 Y159.949 E0.00319
G1 X169.573 Y160.01 E0.00384
G1 X169.526 Y160.057 E0.00284
G1 X169.498 Y160.086 E0.00172
G1 X169.464 Y160.123 E0.00213
G1 X169.437 Y160.153 E0.00172
G1 X169.404 Y160.19 E0.00213
G1 X169.389 Y160.208 E0.00101
G1 X169.347 Y160.26 E0.00284
G1 X169.322 Y160.292 E0.00173
G1 X169.293 Y160.332 E0.00213
G1 X169.269 Y160.364 E0.00172
G1 X169.241 Y160.405 E0.00213
G1 X169.228 Y160.424 E0.00099
G1 X169.192 Y160.481 E0.00286
G1 X169.18 Y160.5 E0.00098
G1 X169.146 Y160.558 E0.00287
G1 X169.134 Y160.578 E0.00097
G1 X169.102 Y160.637 E0.00288
G1 X169.084 Y160.673 E0.00172
G1 X169.062 Y160.718 E0.00213
G1 X169.045 Y160.754 E0.00172
G1 X169.024 Y160.799 E0.00213
G1 X169.015 Y160.82 E0.00095
G1 X169.008 Y160.837 E0.00078
G1 X168.99 Y160.883 E0.00213
G1 X168.982 Y160.903 E0.00094
G1 X168.975 Y160.92 E0.00078
G1 X168.958 Y160.967 E0.00213
G1 X168.951 Y160.988 E0.00093
G1 X168.93 Y161.053 E0.00292
G1 X168.918 Y161.091 E0.00172
G1 X168.905 Y161.139 E0.00213
G1 X168.895 Y161.178 E0.00172
G1 X168.883 Y161.226 E0.00213
G1 X168.878 Y161.247 E0.00091
G1 X168.874 Y161.266 E0.00082
G1 X168.864 Y161.315 E0.00213
G1 X168.86 Y161.335 E0.0009
G1 X168.857 Y161.354 E0.00082
G1 X168.849 Y161.403 E0.00213
G1 X168.846 Y161.424 E0.00089
G1 X168.837 Y161.492 E0.00296
G1 X168.832 Y161.533 E0.00172
G1 X168.828 Y161.582 E0.00213
G1 X168.825 Y161.622 E0.00172
G1 X168.822 Y161.672 E0.00213
G1 X168.821 Y161.692 E0.00087
G1 X168.82 Y161.712 E0.00085
G1 X168.819 Y161.781 E0.00294
G1 X168.819 Y168.215 E0.27507
G1 X168.82 Y168.265 E0.00217
G1 X168.821 Y168.303 E0.00163
G1 X168.824 Y168.355 E0.00222
G1 X168.827 Y168.393 E0.00163
G1 X168.831 Y168.445 E0.00222
G1 X168.835 Y168.483 E0.00163
G1 X168.842 Y168.535 E0.00222
G1 X168.847 Y168.572 E0.00163
G1 X168.856 Y168.624 E0.00222
G1 X168.862 Y168.661 E0.00163
G1 X168.873 Y168.712 E0.00222
G1 X168.881 Y168.749 E0.00163
G1 X168.893 Y168.8 E0.00222
G1 X168.902 Y168.837 E0.00163
G1 X168.916 Y168.887 E0.00222
G1 X168.927 Y168.923 E0.00163
G1 X168.943 Y168.973 E0.00222
G1 X168.955 Y169.009 E0.00163
G1 X168.973 Y169.058 E0.00222
G1 X168.986 Y169.094 E0.00163
G1 X169.005 Y169.142 E0.00222
G1 X169.02 Y169.177 E0.00163
G1 X169.041 Y169.224 E0.00222
G1 X169.057 Y169.259 E0.00163
G1 X169.08 Y169.306 E0.00222
G1 X169.097 Y169.34 E0.00163
G1 X169.122 Y169.385 E0.00222
G1 X169.14 Y169.419 E0.00163
G1 X169.167 Y169.464 E0.00222
G1 X169.186 Y169.496 E0.00163
G1 X169.214 Y169.54 E0.00222
G1 X169.235 Y169.572 E0.00163
G1 X169.264 Y169.615 E0.00222
G1 X169.286 Y169.646 E0.00163
G1 X169.317 Y169.688 E0.00222
G1 X169.341 Y169.718 E0.00163
G1 X169.373 Y169.759 E0.00222
G1 X169.398 Y169.788 E0.00164
G1 X169.446 Y169.845 E0.0032
G1 X169.508 Y169.911 E0.00384
G1 X169.554 Y169.958 E0.00284
G1 X169.572 Y169.974 E0.00103
G1 X169.62 Y170.02 E0.00282
G1 X169.637 Y170.036 E0.00102
G1 X169.687 Y170.079 E0.00283
G1 X169.705 Y170.094 E0.00101
G1 X169.757 Y170.136 E0.00284
G1 X169.776 Y170.151 E0.001
G1 X169.829 Y170.191 E0.00285
G1 X169.848 Y170.204 E0.001
G1 X169.903 Y170.242 E0.00286
G1 X169.922 Y170.255 E0.00099
G1 X169.978 Y170.291 E0.00286
G1 X169.998 Y170.304 E0.00098
G1 X170.055 Y170.338 E0.00287
G1 X170.091 Y170.357 E0.00173
G1 X170.134 Y170.381 E0.00213
G1 X170.17 Y170.4 E0.00173
G1 X170.215 Y170.421 E0.00213
G1 X170.235 Y170.431 E0.00096
G1 X170.297 Y170.459 E0.00289
G1 X170.334 Y170.475 E0.00172
G1 X170.38 Y170.493 E0.00213
G1 X170.4 Y170.501 E0.00094
G1 X170.418 Y170.508 E0.00078
G1 X170.464 Y170.525 E0.00213
G1 X170.485 Y170.532 E0.00093
G1 X170.502 Y170.538 E0.00079
G1 X170.55 Y170.553 E0.00213
G1 X170.57 Y170.56 E0.00092
G1 X170.636 Y170.578 E0.00293
G1 X170.675 Y170.589 E0.00173
G1 X170.724 Y170.6 E0.00213
G1 X170.744 Y170.605 E0.00091
G1 X170.812 Y170.619 E0.00294
G1 X170.851 Y170.626 E0.00173
G1 X170.9 Y170.634 E0.00213
G1 X170.921 Y170.638 E0.00089
G1 X170.94 Y170.64 E0.00083
G1 X170.99 Y170.647 E0.00213
G1 X171.01 Y170.649 E0.00089
G1 X171.079 Y170.656 E0.00296
G1 X171.12 Y170.659 E0.00173
G1 X171.169 Y170.661 E0.00213
G1 X171.209 Y170.663 E0.00172
G1 X171.278 Y170.664 E0.00294
G1 X173.453 Y170.664 E0.09298
G1 X173.453 Y159.382 E0.48236
;WIPE_START
G1 X173.453 Y158.922 F9000
;WIPE_END
M204 S1000
G1 X173.747 Y158.82
M204 S500
G1 X174.04 Y158.719
G1 F900
G1 X174.04 Y171.281 E0.53711
G1 X171.302 Y171.281 E0.11707
G1 X171.208 Y171.28 E0.00403
G1 X171.115 Y171.276 E0.00395
G1 X171.023 Y171.269 E0.00395
G1 X170.931 Y171.259 E0.00395
G1 X170.84 Y171.246 E0.00395
G1 X170.748 Y171.231 E0.00395
G1 X170.658 Y171.213 E0.00395
G1 X170.568 Y171.192 E0.00395
G1 X170.478 Y171.169 E0.00395
G1 X170.39 Y171.143 E0.00395
G1 X170.302 Y171.114 E0.00395
G1 X170.215 Y171.082 E0.00395
G1 X170.129 Y171.048 E0.00395
G1 X170.044 Y171.012 E0.00395
G1 X169.96 Y170.972 E0.00395
G1 X169.878 Y170.931 E0.00395
G1 X169.797 Y170.886 E0.00395
G1 X169.717 Y170.84 E0.00395
G1 X169.639 Y170.791 E0.00395
G1 X169.562 Y170.739 E0.00395
G1 X169.486 Y170.686 E0.00395
G1 X169.413 Y170.63 E0.00395
G1 X169.341 Y170.572 E0.00395
G1 X169.271 Y170.512 E0.00395
G1 X169.203 Y170.449 E0.00395
G1 X169.136 Y170.385 E0.00395
G1 X169.072 Y170.319 E0.00395
G1 X169.01 Y170.25 E0.00395
G1 X168.949 Y170.18 E0.00395
G1 X168.891 Y170.108 E0.00395
G1 X168.835 Y170.035 E0.00395
G1 X168.782 Y169.959 E0.00395
G1 X168.73 Y169.883 E0.00395
G1 X168.681 Y169.804 E0.00395
G1 X168.635 Y169.724 E0.00395
G1 X168.591 Y169.643 E0.00395
G1 X168.549 Y169.561 E0.00395
G1 X168.51 Y169.477 E0.00395
G1 X168.473 Y169.392 E0.00395
G1 X168.439 Y169.306 E0.00395
G1 X168.407 Y169.219 E0.00395
G1 X168.379 Y169.132 E0.00395
G1 X168.352 Y169.043 E0.00395
G1 X168.329 Y168.953 E0.00395
G1 X168.308 Y168.863 E0.00395
G1 X168.29 Y168.773 E0.00395
G1 X168.275 Y168.682 E0.00395
G1 X168.262 Y168.59 E0.00395
G1 X168.253 Y168.498 E0.00395
G1 X168.246 Y168.406 E0.00395
G1 X168.241 Y168.314 E0.00395
G1 X168.24 Y168.219 E0.00403
G1 X168.24 Y161.781 E0.27529
G1 X168.241 Y161.686 E0.00403
G1 X168.246 Y161.594 E0.00395
G1 X168.253 Y161.502 E0.00395
G1 X168.262 Y161.41 E0.00395
G1 X168.275 Y161.318 E0.00395
G1 X168.29 Y161.227 E0.00395
G1 X168.308 Y161.137 E0.00395
G1 X168.329 Y161.047 E0.00395
G1 X168.352 Y160.957 E0.00395
G1 X168.379 Y160.868 E0.00395
G1 X168.407 Y160.781 E0.00395
G1 X168.439 Y160.694 E0.00395
G1 X168.473 Y160.608 E0.00395
G1 X168.51 Y160.523 E0.00395
G1 X168.549 Y160.439 E0.00395
G1 X168.591 Y160.357 E0.00395
G1 X168.635 Y160.276 E0.00395
G1 X168.681 Y160.196 E0.00395
G1 X168.73 Y160.117 E0.00395
G1 X168.782 Y160.041 E0.00395
G1 X168.835 Y159.965 E0.00395
G1 X168.891 Y159.892 E0.00395
G1 X168.949 Y159.82 E0.00395
G1 X169.01 Y159.75 E0.00395
G1 X169.072 Y159.681 E0.00395
G1 X169.136 Y159.615 E0.00395
G1 X169.203 Y159.551 E0.00395
G1 X169.271 Y159.488 E0.00395
G1 X169.341 Y159.428 E0.00395
G1 X169.413 Y159.37 E0.00395
G1 X169.486 Y159.314 E0.00395
G1 X169.562 Y159.261 E0.00395
G1 X169.639 Y159.209 E0.00395
G1 X169.717 Y159.16 E0.00395
G1 X169.797 Y159.114 E0.00395
G1 X169.878 Y159.069 E0.00395
G1 X169.96 Y159.028 E0.00395
G1 X170.044 Y158.988 E0.00395
G1 X170.129 Y158.952 E0.00395
G1 X170.215 Y158.918 E0.00395
G1 X170.302 Y158.886 E0.00395
G1 X170.39 Y158.857 E0.00395
G1 X170.478 Y158.831 E0.00395
G1 X170.568 Y158.808 E0.00395
G1 X170.658 Y158.787 E0.00395
G1 X170.748 Y158.769 E0.00395
G1 X170.84 Y158.754 E0.00395
G1 X170.931 Y158.741 E0.00395
G1 X171.023 Y158.731 E0.00395
G1 X171.115 Y158.724 E0.00395
G1 X171.208 Y158.72 E0.00395
G1 X171.302 Y158.719 E0.00403
G1 X173.98 Y158.719 E0.11451
;WIPE_START
G1 X173.84 Y159.065 F9000
;WIPE_END
M204 S1000
G1 X173.793 Y159.095
M204 S500
G1 X173.747 Y159.125
;TYPE:Gap fill
;WIDTH:0.24482
G1 F900
G1 X173.747 Y170.861 E0.22637
;WIDTH:0.319293
G1 X173.65 Y170.973 E0.00395
;WIDTH:0.275054
G1 X171.304 Y170.973 E0.05232
G1 X171.134 Y170.968 E0.0038
G1 X170.968 Y170.954 E0.00371
;WIDTH:0.271627
G1 X170.776 Y170.924 E0.00428
G1 X170.601 Y170.885 E0.00392
G1 X170.457 Y170.844 E0.00329
G1 X170.29 Y170.785 E0.00389
G1 X170.126 Y170.715 E0.00394
G1 X169.992 Y170.648 E0.00329
G1 X169.839 Y170.56 E0.00386
G1 X169.673 Y170.449 E0.00439
G1 X169.529 Y170.338 E0.004
G1 X169.408 Y170.231 E0.00354
G1 X169.289 Y170.114 E0.00366
G1 X169.169 Y169.979 E0.00396
G1 X169.075 Y169.859 E0.00337
G1 X168.965 Y169.7 E0.00424
G1 X168.883 Y169.564 E0.00349
;WIDTH:0.247263
G1 X168.792 Y169.387 E0.00389
G1 X168.734 Y169.253 E0.00285
G1 X168.678 Y169.104 E0.0031
G1 X168.62 Y168.913 E0.00389
G1 X168.577 Y168.72 E0.00387
G1 X168.551 Y168.555 E0.00327
G1 X168.535 Y168.372 E0.00358
G1 X168.53 Y168.216 E0.00305
G1 X168.53 Y165 E0.06283
G1 X168.53 Y161.783 E0.06283
G1 X168.535 Y161.605 E0.00348
G1 X168.55 Y161.445 E0.00313
G1 X168.58 Y161.257 E0.00371
G1 X168.619 Y161.085 E0.00345
G1 X168.676 Y160.894 E0.00389
G1 X168.742 Y160.719 E0.00366
G1 X168.823 Y160.543 E0.0038
G1 X168.893 Y160.411 E0.00291
G1 X168.985 Y160.262 E0.00342
G1 X169.101 Y160.1 E0.00389
G1 X169.216 Y159.959 E0.00355
G1 X169.344 Y159.823 E0.00365
G1 X169.466 Y159.709 E0.00326
G1 X169.619 Y159.584 E0.00384
G1 X169.748 Y159.492 E0.0031
G1 X169.917 Y159.386 E0.00389
G1 X170.09 Y159.295 E0.00383
G1 X170.243 Y159.227 E0.00326
G1 X170.418 Y159.162 E0.00365
G1 X170.571 Y159.116 E0.00311
G1 X170.765 Y159.071 E0.00389
G1 X170.909 Y159.047 E0.00286
G1 X171.068 Y159.03 E0.00311
G1 X171.267 Y159.021 E0.00389
G1 X171.304 Y159.021 E0.00073
G1 X172.477 Y159.02 E0.02291
G1 X173.65 Y159.02 E0.02291
;WIDTH:0.312324
G1 X173.706 Y159.081 E0.00215
G1 E-0.6 F3000
M204 S1000
G1 X172.554 Y163.07 F9000
M204 S500
G1 X171.402 Y167.058
G1 E0.6 F1800
;TYPE:Internal perimeter
;WIDTH:0.48
G1 F900
G1 X171.455 Y167.077 E0.00238
G1 X171.505 Y167.101 E0.00238
G1 X171.553 Y167.13 E0.00238
G1 X171.598 Y167.163 E0.00238
G1 X171.619 Y167.181 E0.00119
G1 X171.658 Y167.22 E0.00238
G1 X171.694 Y167.263 E0.00238
G1 X171.725 Y167.31 E0.00238
G1 X171.751 Y167.359 E0.00238
G1 X171.772 Y167.41 E0.00238
G1 X171.788 Y167.464 E0.00238
G1 X171.799 Y167.518 E0.00238
G1 X171.805 Y167.574 E0.00238
G1 X171.805 Y167.63 E0.00238
G1 X171.799 Y167.685 E0.00238
G1 X171.788 Y167.74 E0.00238
G1 X171.772 Y167.793 E0.00238
G1 X171.751 Y167.845 E0.00238
G1 X171.725 Y167.894 E0.00238
G1 X171.694 Y167.94 E0.00238
G1 X171.658 Y167.983 E0.00238
G1 X171.619 Y168.023 E0.00238
G1 X171.576 Y168.058 E0.00238
G1 X171.529 Y168.089 E0.00238
G1 X171.48 Y168.115 E0.00238
G1 X171.429 Y168.137 E0.00238
G1 X171.375 Y168.153 E0.00238
G1 X171.321 Y168.164 E0.00238
G1 X171.265 Y168.169 E0.00238
G1 X171.21 Y168.169 E0.00238
G1 X171.154 Y168.164 E0.00238
G1 X171.099 Y168.153 E0.00238
G1 X171.046 Y168.137 E0.00238
G1 X171.02 Y168.126 E0.00119
G1 X170.97 Y168.103 E0.00238
G1 X170.922 Y168.074 E0.00238
G1 X170.877 Y168.041 E0.00238
G1 X170.836 Y168.003 E0.00238
G1 X170.798 Y167.962 E0.00238
G1 X170.765 Y167.917 E0.00238
G1 X170.737 Y167.869 E0.00238
G1 X170.713 Y167.819 E0.00238
G1 X170.694 Y167.767 E0.00238
G1 X170.68 Y167.713 E0.00238
G1 X170.672 Y167.657 E0.00238
G1 X170.669 Y167.602 E0.00238
G1 X170.672 Y167.546 E0.00238
G1 X170.68 Y167.491 E0.00238
G1 X170.694 Y167.437 E0.00238
