; generated by SuperSlicer 2.3.57 on 2022-03-31 at 21:24:54 UTC


;
;

;
;
; 

; external perimeters extrusion width = 0.15mm
; perimeters extrusion width = 0.17mm
; infill extrusion width = 0.27mm
; solid infill extrusion width = 0.21mm
; top infill extrusion width = 0.15mm
; support material extrusion width = 0.16mm
; first layer extrusion width = 0.18mm

; external perimeters extrusion width = 0.16mm
; perimeters extrusion width = 0.17mm
; infill extrusion width = 0.27mm
; solid infill extrusion width = 0.21mm
; top infill extrusion width = 0.15mm
; support material extrusion width = 0.16mm
; first layer extrusion width = 0.18mm

; object:{"name":"LogoVancouver","id":"LogoVancouver.STL id:0 copy 0","object_center":[147.742050,156.402597,0.000000],"boundingbox_center":[147.742050,156.402597,2.224427],"boundingbox_size":[28.515906,11.193152,4.448854]}
; object:{"name":"LogoVancouver","id":"LogoVancouver.STL id:1 copy 0","object_center":[147.742050,173.596575,0.000000],"boundingbox_center":[147.742050,173.596575,2.224427],"boundingbox_size":[28.515906,11.193152,4.448854]}
; object:{"name":"LogoVancouver","id":"LogoVancouver.STL id:2 copy 0","object_center":[182.257950,156.402597,0.000000],"boundingbox_center":[182.257950,156.402597,2.224427],"boundingbox_size":[28.515906,11.193152,4.448854]}
; object:{"name":"LogoVancouver","id":"LogoVancouver.STL id:3 copy 0","object_center":[182.257950,173.596575,0.000000],"boundingbox_center":[182.257950,173.596575,2.224427],"boundingbox_size":[28.515906,11.193152,4.448854]}
; plater:{"center":[165.000000,164.999586,0.000000],"boundingbox_center":[165.000000,164.999586,2.224427],"boundingbox_size":[63.031806,28.387130,4.448854]}

;TYPE:Custom
START_PRINT T_BED=60 T_EXTRUDER=210
M107
G21 ; set units to millimeters
G90 ; use absolute coordinates
M83 ; use relative distances for extrusion
; Filament gcode
M109 S230 ; set temperature and wait for it to be reached
M190 S60 ; set bed temperature and wait for it to be reached
;LAYER_CHANGE
;Z:0.1
;HEIGHT:0.1
G1 Z0.1 F9000
G1 E-0.8 F3000
G1 X131.407 Y148.509 F9000
G1 E0.8 F1800
; External perimeter
;Skirt
SET_VELOCITY_LIMIT ACCEL=300 ACCEL_TO_DECEL=3000 SQUARE_CORNER_VELOCITY=5

; Support material

;TYPE:Skirt
;WIDTH:0.18
G1 X130.96 Y149.009 E0.00442
G1 X130.628 Y149.585 E0.00439
G1 X130.42 Y150.218 E0.00439
G1 X130.346 Y150.884 E0.00442
G1 X130.348 Y179.182 E0.18652
G1 X130.415 Y179.756 E0.0038
G1 X130.581 Y180.304 E0.00377
G1 X130.841 Y180.814 E0.00377
G1 X131.187 Y181.27 E0.00377
G1 X131.687 Y181.717 E0.00442
G1 X132.268 Y182.051 E0.00442
G1 X132.909 Y182.26 E0.00445
G1 X133.575 Y182.331 E0.00442
G1 X196.456 Y182.312 E0.41447
G1 X197.039 Y182.251 E0.00386
G1 X197.602 Y182.087 E0.00386
G1 X198.125 Y181.824 E0.00386
G1 X198.593 Y181.471 E0.00386
G1 X199.04 Y180.971 E0.00442
G1 X199.372 Y180.395 E0.00439
G1 X199.58 Y179.762 E0.00439
G1 X199.654 Y179.096 E0.00442
G1 X199.652 Y151.528 E0.18171
G1 X199.586 Y150.964 E0.00375
G1 X199.421 Y150.415 E0.00377
G1 X199.164 Y149.908 E0.00375
G1 X198.823 Y149.454 E0.00375
G1 X198.358 Y149.029 E0.00415
G1 X197.819 Y148.702 E0.00415
G1 X197.227 Y148.485 E0.00415
G1 X196.604 Y148.388 E0.00415
G1 X168.176 Y147.668 E0.18744
G1 X133.508 Y147.669 E0.22851
G1 X132.935 Y147.734 E0.0038
G1 X132.382 Y147.9 E0.0038
G1 X131.867 Y148.161 E0.0038
G1 X131.425 Y148.496 E0.00366
G1 X131.52 Y148.621 F9000
G1 F1800
G1 X131.095 Y149.094 E0.00419
G1 X130.775 Y149.644 E0.00419
G1 X130.575 Y150.252 E0.00422
G1 X130.505 Y150.884 E0.00419
G1 X130.506 Y179.174 E0.18647
G1 X130.569 Y179.716 E0.0036
G1 X130.724 Y180.234 E0.00357
G1 X130.97 Y180.721 E0.0036
G1 X131.299 Y181.157 E0.0036
G1 X131.775 Y181.585 E0.00422
G1 X132.33 Y181.905 E0.00422
G1 X132.939 Y182.104 E0.00422
G1 X133.575 Y182.172 E0.00422
G1 X196.454 Y182.153 E0.41445
G1 X197.005 Y182.097 E0.00365
G1 X197.541 Y181.94 E0.00368
G1 X198.037 Y181.692 E0.00365
G1 X198.48 Y181.359 E0.00365
G1 X198.905 Y180.887 E0.00419
G1 X199.225 Y180.336 E0.00419
G1 X199.425 Y179.728 E0.00422
G1 X199.495 Y179.096 E0.00419
G1 X199.494 Y151.539 E0.18164
G1 X199.431 Y150.997 E0.0036
G1 X199.274 Y150.474 E0.0036
G1 X199.029 Y149.992 E0.00357
G1 X198.701 Y149.556 E0.0036
G1 X198.26 Y149.154 E0.00394
G1 X197.745 Y148.842 E0.00397
G1 X197.179 Y148.637 E0.00397
G1 X196.589 Y148.546 E0.00394
G1 X168.176 Y147.827 E0.18734
G1 X133.516 Y147.828 E0.22846
G1 X132.97 Y147.889 E0.00362
G1 X132.447 Y148.044 E0.0036
G1 X131.96 Y148.29 E0.0036
G1 X131.538 Y148.607 E0.00348
; INIT printing object LogoVancouver.STL id:0 copy 0
G1 E-0.8 F3000
; printing object LogoVancouver.STL id:0 copy 0
G1 X148.808 Y158.256 F9000
G1 E0.8 F1800
; External perimeter
;Perimeter
SET_VELOCITY_LIMIT ACCEL=2000 ACCEL_TO_DECEL=2000 SQUARE_CORNER_VELOCITY=5

; Overhang perimeter

;TYPE:Internal perimeter
G1 X149.396 Y157.676 E0.00545
G1 X149.456 Y157.871 E0.00135
G1 X150.069 Y157.881 E0.00404
G1 X150.458 Y156.748 E0.00789
G1 X151.633 Y156.028 E0.00909
G1 X152.01 Y157.548 E0.01033
G1 X152.686 Y157.532 E0.00446
G1 X153.034 Y155.789 E0.01172
G1 X154.372 Y157.048 E0.01211
G1 X158.102 Y154.306 E0.03051
G1 X161.651 Y151.801 E0.02864
G1 X161.651 Y161.632 E0.0648
G1 X133.833 Y161.65 E0.18336
G1 X133.833 Y151.338 E0.06797
G1 X143.499 Y158.242 E0.0783
G1 X145.898 Y155.871 E0.02223
G1 X148.791 Y158.242 E0.02466
G1 X148.798 Y158.043 F9000
; External perimeter
;ExternalPerimeter
SET_VELOCITY_LIMIT ACCEL=1000 ACCEL_TO_DECEL=1000 SQUARE_CORNER_VELOCITY=5

; Perimeter

;TYPE:External perimeter
G1 F1800
G1 X149.47 Y157.379 E0.00623
G1 X149.484 Y157.422 E0.00021
G1 X149.51 Y157.508 E0.0005
G1 X149.573 Y157.714 E0.00142
G1 X149.618 Y157.715 E0.00028
G1 X149.708 Y157.716 E0.00058
G1 X149.956 Y157.72 E0.00163
G1 X149.971 Y157.678 E0.00028
G1 X150 Y157.593 E0.00058
G1 X150.326 Y156.643 E0.00662
G1 X151.734 Y155.779 E0.01089
G1 X151.745 Y155.823 E0.00023
G1 X151.767 Y155.91 E0.00053
G1 X152.134 Y157.387 E0.01003
G1 X152.179 Y157.385 E0.00028
G1 X152.268 Y157.383 E0.00057
G1 X152.556 Y157.377 E0.00189
G1 X152.564 Y157.333 E0.00028
G1 X152.582 Y157.244 E0.00057
G1 X152.934 Y155.478 E0.01187
G1 X152.967 Y155.508 E0.00019
G1 X153.032 Y155.57 E0.00049
G1 X154.385 Y156.842 E0.01224
G1 X154.421 Y156.815 E0.00028
G1 X154.494 Y156.762 E0.00057
G1 X158.009 Y154.178 E0.02876
G1 X161.506 Y151.71 E0.02821
G1 X161.81 Y151.71 E0.002
G1 X161.81 Y151.755 E0.00026
G1 X161.81 Y151.845 E0.00056
G1 X161.81 Y161.79 E0.06555
G1 X161.765 Y161.79 E0.00027
G1 X161.675 Y161.79 E0.00056
G1 X133.674 Y161.809 E0.18456
G1 X133.674 Y161.764 E0.00026
G1 X133.674 Y161.674 E0.00056
G1 X133.674 Y151.03 E0.07016
G1 X133.711 Y151.056 E0.00017
G1 X133.784 Y151.108 E0.00047
G1 X133.969 Y151.24 E0.0015
G1 X143.482 Y158.035 E0.07706
G1 X143.514 Y158.004 E0.00028
G1 X143.578 Y157.941 E0.00057
G1 X145.888 Y155.658 E0.0214
G1 X145.923 Y155.686 E0.00027
G1 X145.992 Y155.743 E0.00057
G1 X148.781 Y158.029 E0.02377
;WIPE_START
G1 X148.907 Y158.146 F9000
;WIPE_END
G1 E-0.8 F3000
G1 X161.628 Y152.16 F9000
G1 E0.8 F1800
; External perimeter
;SolidInfill
SET_VELOCITY_LIMIT ACCEL=2000 ACCEL_TO_DECEL=2000 SQUARE_CORNER_VELOCITY=5

; Bridge infill

;TYPE:Solid infill
;WIDTH:0.183562
G1 F2400
G1 X161.493 Y152.026 E0.00128
G1 X161.362 Y152.118 E0.00108
G1 X161.56 Y152.316 E0.00188
G1 X161.56 Y152.541 E0.00151
G1 X161.23 Y152.211 E0.00313
G1 X161.099 Y152.304 E0.00108
G1 X161.56 Y152.765 E0.00438
G1 X161.56 Y152.989 E0.00151
G1 X160.967 Y152.397 E0.00563
G1 X160.836 Y152.49 E0.00108
G1 X161.56 Y153.213 E0.00688
G1 X161.56 Y153.437 E0.00151
G1 X160.704 Y152.582 E0.00813
G1 X160.573 Y152.675 E0.00108
G1 X161.56 Y153.662 E0.00938
G1 X161.56 Y153.886 E0.00151
G1 X160.441 Y152.768 E0.01063
G1 X160.31 Y152.861 E0.00108
G1 X161.56 Y154.11 E0.01188
G1 X161.56 Y154.334 E0.00151
G1 X160.179 Y152.953 E0.01313
G1 X160.047 Y153.046 E0.00108
G1 X161.56 Y154.559 E0.01438
G1 X161.56 Y154.783 E0.00151
G1 X159.916 Y153.139 E0.01563
G1 X159.784 Y153.232 E0.00108
G1 X161.56 Y155.007 E0.01688
G1 X161.56 Y155.231 E0.00151
G1 X159.653 Y153.324 E0.01813
G1 X159.521 Y153.417 E0.00108
G1 X161.56 Y155.455 E0.01937
G1 X161.56 Y155.68 E0.00151
G1 X159.39 Y153.51 E0.02062
G1 X159.258 Y153.603 E0.00108
G1 X161.56 Y155.904 E0.02187
G1 X161.56 Y156.128 E0.00151
G1 X159.127 Y153.695 E0.02312
G1 X158.996 Y153.788 E0.00108
G1 X161.56 Y156.352 E0.02437
G1 X161.56 Y156.576 E0.00151
G1 X158.864 Y153.881 E0.02562
G1 X158.733 Y153.974 E0.00108
G1 X161.56 Y156.801 E0.02687
G1 X161.56 Y157.025 E0.00151
G1 X158.601 Y154.067 E0.02812
G1 X158.47 Y154.159 E0.00108
G1 X161.56 Y157.249 E0.02937
G1 X161.56 Y157.473 E0.00151
G1 X158.338 Y154.252 E0.03062
G1 X158.207 Y154.345 E0.00108
G1 X161.56 Y157.697 E0.03187
G1 X161.56 Y157.922 E0.00151
G1 X158.077 Y154.439 E0.03311
G1 X157.948 Y154.534 E0.00108
G1 X161.56 Y158.146 E0.03433
G1 X161.56 Y158.37 E0.00151
G1 X157.818 Y154.629 E0.03556
G1 X157.689 Y154.724 E0.00108
G1 X161.56 Y158.594 E0.03679
G1 X161.56 Y158.818 E0.00151
G1 X157.56 Y154.819 E0.03802
G1 X157.431 Y154.914 E0.00108
G1 X161.56 Y159.043 E0.03925
G1 X161.56 Y159.267 E0.00151
G1 X157.301 Y155.009 E0.04048
G1 X157.172 Y155.104 E0.00108
G1 X161.56 Y159.491 E0.04171
G1 X161.56 Y159.715 E0.00151
G1 X157.043 Y155.199 E0.04293
G1 X156.914 Y155.294 E0.00108
G1 X161.56 Y159.94 E0.04416
G1 X161.56 Y160.164 E0.00151
G1 X156.785 Y155.389 E0.04539
G1 X156.655 Y155.484 E0.00108
G1 X161.56 Y160.388 E0.04662
G1 X161.56 Y160.612 E0.00151
G1 X156.526 Y155.579 E0.04785
G1 X156.397 Y155.674 E0.00108
G1 X161.56 Y160.836 E0.04908
G1 X161.56 Y161.061 E0.00151
G1 X156.268 Y155.769 E0.0503
G1 X156.138 Y155.864 E0.00108
G1 X161.56 Y161.285 E0.05153
G1 X161.56 Y161.509 E0.00151
G1 X156.009 Y155.959 E0.05276
G1 X155.88 Y156.054 E0.00108
G1 X161.366 Y161.54 E0.05215
G1 X161.142 Y161.54 E0.00151
G1 X155.751 Y156.149 E0.05125
G1 X155.622 Y156.244 E0.00108
G1 X160.918 Y161.54 E0.05035
G1 X160.694 Y161.541 E0.00151
G1 X155.492 Y156.339 E0.04945
G1 X155.363 Y156.434 E0.00108
G1 X160.47 Y161.541 E0.04855
G1 X160.246 Y161.541 E0.00151
G1 X155.234 Y156.529 E0.04765
G1 X155.105 Y156.624 E0.00108
G1 X160.022 Y161.541 E0.04674
G1 X159.798 Y161.541 E0.00151
G1 X154.975 Y156.719 E0.04584
G1 X154.846 Y156.814 E0.00108
G1 X159.574 Y161.541 E0.04494
G1 X159.35 Y161.541 E0.00151
G1 X154.717 Y156.909 E0.04404
G1 X154.588 Y157.004 E0.00108
G1 X159.126 Y161.542 E0.04314
G1 X158.902 Y161.542 E0.00151
G1 X154.459 Y157.099 E0.04224
G1 X154.365 Y157.167 E0.00078
G1 X153.324 Y156.188 E0.00961
G1 X158.678 Y161.542 E0.05089
G1 X158.454 Y161.542 E0.00151
G1 X153.056 Y156.145 E0.05131
G1 X153.019 Y156.332 E0.00128
G1 X158.23 Y161.542 E0.04953
G1 X158.006 Y161.542 E0.00151
G1 X152.982 Y156.519 E0.04775
G1 X152.945 Y156.706 E0.00128
G1 X157.781 Y161.542 E0.04598
G1 X157.557 Y161.543 E0.00151
G1 X152.907 Y156.893 E0.0442
G1 X152.87 Y157.08 E0.00128
G1 X157.333 Y161.543 E0.04243
G1 X157.109 Y161.543 E0.00151
G1 X152.833 Y157.267 E0.04065
G1 X152.796 Y157.453 E0.00128
G1 X156.885 Y161.543 E0.03888
G1 X156.661 Y161.543 E0.00151
G1 X152.741 Y157.623 E0.03727
G1 X152.522 Y157.628 E0.00147
G1 X156.437 Y161.543 E0.03722
G1 X156.213 Y161.544 E0.00151
G1 X152.236 Y157.566 E0.03781
G1 X151.687 Y156.345 F9000
G1 F2400
G1 X151.537 Y156.194 E0.00143
G1 X151.398 Y156.28 E0.0011
G1 X151.668 Y156.55 E0.00257
G1 X151.742 Y156.848 E0.00207
G1 X151.259 Y156.365 E0.00459
G1 X151.12 Y156.45 E0.0011
G1 X151.909 Y157.24 E0.00751
G1 X150.931 Y156.486 F9000
G1 F2400
G1 X151.89 Y157.445 E0.00911
G1 X151.939 Y157.642 E0.00136
G1 X152.084 Y157.638 E0.00097
G1 X155.989 Y161.544 E0.03713
G1 X155.765 Y161.544 E0.00151
G1 X150.842 Y156.621 E0.0468
G1 X150.703 Y156.706 E0.0011
G1 X155.541 Y161.544 E0.04599
G1 X155.317 Y161.544 E0.00151
G1 X150.564 Y156.791 E0.04518
G1 X150.534 Y156.81 E0.00024
G1 X150.489 Y156.94 E0.00093
G1 X155.093 Y161.544 E0.04376
G1 X154.869 Y161.544 E0.00151
G1 X150.432 Y157.107 E0.04218
G1 X150.374 Y157.274 E0.00119
G1 X154.645 Y161.545 E0.04059
G1 X154.421 Y161.545 E0.00151
G1 X150.317 Y157.441 E0.03901
G1 X150.26 Y157.608 E0.00119
G1 X154.197 Y161.545 E0.03742
G1 X153.972 Y161.545 E0.00151
G1 X150.202 Y157.775 E0.03584
G1 X150.145 Y157.942 E0.00119
G1 X153.748 Y161.545 E0.03425
G1 X153.524 Y161.545 E0.00151
G1 X149.95 Y157.971 E0.03398
G1 X149.722 Y157.967 E0.00153
G1 X153.3 Y161.545 E0.03402
G1 X153.076 Y161.546 E0.00151
G1 X149.494 Y157.963 E0.03405
G1 X149.387 Y157.962 E0.00072
G1 X149.352 Y157.848 E0.0008
G1 X149.253 Y157.946 E0.00094
G1 X152.852 Y161.546 E0.03422
G1 X152.628 Y161.546 E0.00151
G1 X149.14 Y158.058 E0.03316
G1 X149.027 Y158.169 E0.00107
G1 X152.404 Y161.546 E0.0321
G1 X152.18 Y161.546 E0.00151
G1 X148.914 Y158.281 E0.03104
G1 X148.814 Y158.38 E0.00095
G1 X148.679 Y158.27 E0.00117
G1 X151.956 Y161.546 E0.03115
G1 X151.732 Y161.547 E0.00151
G1 X147.436 Y157.251 E0.04083
G1 X146.193 Y156.232 E0.0108
G1 X151.508 Y161.547 E0.05052
G1 X151.284 Y161.547 E0.00151
G1 X145.817 Y156.08 E0.05197
G1 X145.704 Y156.191 E0.00107
G1 X151.06 Y161.547 E0.05091
G1 X150.836 Y161.547 E0.00151
G1 X145.591 Y156.303 E0.04985
G1 X145.479 Y156.414 E0.00107
G1 X150.612 Y161.547 E0.04879
G1 X150.388 Y161.547 E0.00151
G1 X145.366 Y156.526 E0.04774
G1 X145.253 Y156.637 E0.00107
G1 X150.163 Y161.548 E0.04668
G1 X149.939 Y161.548 E0.00151
G1 X145.14 Y156.749 E0.04562
G1 X145.028 Y156.86 E0.00107
G1 X149.715 Y161.548 E0.04456
G1 X149.491 Y161.548 E0.00151
G1 X144.915 Y156.972 E0.0435
G1 X144.802 Y157.083 E0.00107
G1 X149.267 Y161.548 E0.04245
G1 X149.043 Y161.548 E0.00151
G1 X144.689 Y157.195 E0.04139
G1 X144.577 Y157.306 E0.00107
G1 X148.819 Y161.548 E0.04033
G1 X148.595 Y161.549 E0.00151
G1 X144.464 Y157.417 E0.03927
G1 X144.351 Y157.529 E0.00107
G1 X148.371 Y161.549 E0.03821
G1 X148.147 Y161.549 E0.00151
G1 X144.238 Y157.64 E0.03715
G1 X144.126 Y157.752 E0.00107
G1 X147.923 Y161.549 E0.0361
G1 X147.699 Y161.549 E0.00151
G1 X144.013 Y157.863 E0.03504
G1 X143.9 Y157.975 E0.00107
G1 X147.475 Y161.549 E0.03398
G1 X147.251 Y161.55 E0.00151
G1 X143.787 Y158.086 E0.03292
G1 X143.675 Y158.198 E0.00107
G1 X147.027 Y161.55 E0.03186
G1 X146.803 Y161.55 E0.00151
G1 X143.562 Y158.309 E0.03081
G1 X143.508 Y158.362 E0.00051
G1 X143.096 Y158.067 E0.00341
G1 X146.579 Y161.55 E0.03311
G1 X146.354 Y161.55 E0.00151
G1 X142.311 Y157.507 E0.03844
G1 X141.526 Y156.946 E0.00648
G1 X146.13 Y161.55 E0.04377
G1 X145.906 Y161.55 E0.00151
G1 X140.741 Y156.385 E0.0491
G1 X139.957 Y155.825 E0.00648
G1 X145.682 Y161.551 E0.05443
G1 X145.458 Y161.551 E0.00151
G1 X139.172 Y155.264 E0.05976
G1 X138.387 Y154.704 E0.00648
G1 X145.234 Y161.551 E0.06509
G1 X145.01 Y161.551 E0.00151
G1 X137.603 Y154.143 E0.07042
G1 X136.818 Y153.583 E0.00648
G1 X144.786 Y161.551 E0.07575
G1 X144.562 Y161.551 E0.00151
G1 X136.033 Y153.022 E0.08108
G1 X135.248 Y152.462 E0.00648
G1 X144.338 Y161.551 E0.08641
G1 X144.114 Y161.552 E0.00151
G1 X134.464 Y151.901 E0.09173
G1 X133.925 Y151.516 E0.00445
G1 X133.925 Y151.586 E0.00047
G1 X143.89 Y161.552 E0.09473
G1 X143.666 Y161.552 E0.00151
G1 X133.925 Y151.811 E0.0926
G1 X133.925 Y152.035 E0.00151
G1 X143.442 Y161.552 E0.09047
G1 X143.218 Y161.552 E0.00151
G1 X133.925 Y152.259 E0.08834
G1 X133.925 Y152.483 E0.00151
G1 X142.994 Y161.552 E0.08621
G1 X142.77 Y161.552 E0.00151
G1 X133.925 Y152.708 E0.08408
G1 X133.925 Y152.932 E0.00151
G1 X142.546 Y161.553 E0.08195
G1 X142.321 Y161.553 E0.00151
G1 X133.925 Y153.156 E0.07982
G1 X133.925 Y153.38 E0.00151
G1 X142.097 Y161.553 E0.07769
G1 X141.873 Y161.553 E0.00151
G1 X133.925 Y153.604 E0.07556
G1 X133.925 Y153.829 E0.00151
G1 X141.649 Y161.553 E0.07343
G1 X141.425 Y161.553 E0.00151
G1 X133.925 Y154.053 E0.0713
G1 X133.925 Y154.277 E0.00151
G1 X141.201 Y161.554 E0.06917
G1 X140.977 Y161.554 E0.00151
G1 X133.925 Y154.501 E0.06704
G1 X133.925 Y154.725 E0.00151
G1 X140.753 Y161.554 E0.06491
G1 X140.529 Y161.554 E0.00151
G1 X133.925 Y154.95 E0.06278
G1 X133.925 Y155.174 E0.00151
G1 X140.305 Y161.554 E0.06065
G1 X140.081 Y161.554 E0.00151
G1 X133.925 Y155.398 E0.05852
G1 X133.925 Y155.622 E0.00151
G1 X139.857 Y161.554 E0.05639
G1 X139.633 Y161.555 E0.00151
