; generated by SuperSlicer 2.3.57 on 2022-04-10 at 02:36:32 UTC


;
;

;
;
; 

; external perimeters extrusion width = 0.20mm
; perimeters extrusion width = 0.23mm
; infill extrusion width = 0.36mm
; solid infill extrusion width = 0.28mm
; top infill extrusion width = 0.20mm
; support material extrusion width = 0.21mm
; first layer extrusion width = 0.24mm

; external perimeters extrusion width = 0.16mm
; perimeters extrusion width = 0.16mm
; infill extrusion width = 0.36mm
; solid infill extrusion width = 0.28mm
; top infill extrusion width = 0.20mm
; support material extrusion width = 0.21mm
; first layer extrusion width = 0.24mm

; external perimeters extrusion width = 0.16mm
; perimeters extrusion width = 0.16mm
; infill extrusion width = 0.36mm
; solid infill extrusion width = 0.28mm
; top infill extrusion width = 0.20mm
; support material extrusion width = 0.21mm
; first layer extrusion width = 0.24mm

; object:{"name":"LogoBoard","id":"LogoBoard id:0 copy 0","object_center":[152.500001,150.000001,0.000000],"boundingbox_center":[152.500001,150.000001,2.424427],"boundingbox_size":[28.999146,20.953796,4.848854]}
; plater:{"center":[152.500001,150.000001,0.000000],"boundingbox_center":[152.500001,150.000001,2.424427],"boundingbox_size":[28.999146,20.953796,4.848854]}

;TYPE:Custom
START_PRINT T_BED=60 T_EXTRUDER=200
M107
G21 ; set units to millimeters
G90 ; use absolute coordinates
M83 ; use relative distances for extrusion
; Filament gcode
M104 S200 ; set temperature
M109 S200 ; set temperature and wait for it to be reached
M190 S60 ; set bed temperature and wait for it to be reached
M107
;LAYER_CHANGE
;Z:0.1
;HEIGHT:0.1
G1 Z0.1 F9000
G1 E-0.8 F3000
G1 X133.872 Y134.388 F9000
G1 E0.8 F1800
; External perimeter
;Skirt
SET_VELOCITY_LIMIT ACCEL=300 ACCEL_TO_DECEL=3000 SQUARE_CORNER_VELOCITY=5

; Support material

;TYPE:Skirt
;WIDTH:0.24
G1 X133.336 Y134.926 E0.00691
G1 X132.864 Y135.514 E0.00685
G1 X132.458 Y136.148 E0.00685
G1 X132.121 Y136.823 E0.00685
G1 X131.859 Y137.529 E0.00685
G1 X131.674 Y138.26 E0.00685
G1 X131.568 Y139.006 E0.00685
G1 X131.062 Y152.609 E0.12368
G1 X131.065 Y153.71 E0.01001
G1 X131.184 Y154.725 E0.00928
G1 X131.45 Y155.712 E0.00928
G1 X131.855 Y156.65 E0.00928
G1 X132.392 Y157.52 E0.00928
G1 X133.085 Y158.34 E0.00976
G1 X133.896 Y159.045 E0.00976
G1 X144.124 Y166.248 E0.11366
G1 X144.918 Y166.695 E0.00827
G1 X145.756 Y167.033 E0.00822
G1 X146.631 Y167.261 E0.00822
G1 X147.534 Y167.376 E0.00827
G1 X153.696 Y167.374 E0.05598
G1 X154.9 Y167.302 E0.01097
G1 X157.708 Y167.019 E0.02563
G1 X158.379 Y166.904 E0.00619
G1 X159.037 Y166.725 E0.00619
G1 X161.734 Y165.612 E0.02651
G1 X162.522 Y165.209 E0.00804
G1 X170.578 Y159.871 E0.08781
G1 X171.121 Y159.437 E0.00631
G1 X171.622 Y158.947 E0.00637
G1 X172.069 Y158.414 E0.00631
G1 X172.46 Y157.841 E0.00631
G1 X172.794 Y157.231 E0.00631
G1 X173.065 Y156.592 E0.00631
G1 X173.273 Y155.929 E0.00631
G1 X173.413 Y155.248 E0.00631
G1 X173.485 Y154.584 E0.00607
G1 X173.94 Y146.466 E0.07387
G1 X173.942 Y139.568 E0.06267
G1 X173.88 Y138.686 E0.00804
G1 X173.768 Y138.067 E0.00572
G1 X173.6 Y137.454 E0.00578
G1 X173.38 Y136.864 E0.00572
G1 X173.105 Y136.291 E0.00578
G1 X172.782 Y135.751 E0.00572
G1 X172.409 Y135.236 E0.00578
G1 X171.996 Y134.762 E0.00572
G1 X171.537 Y134.322 E0.00578
G1 X171.04 Y133.925 E0.00578
G1 X170.515 Y133.579 E0.00572
G1 X169.955 Y133.277 E0.00578
G1 X169.376 Y133.03 E0.00572
G1 X168.772 Y132.834 E0.00578
G1 X168.158 Y132.694 E0.00572
G1 X167.535 Y132.609 E0.00572
G1 X166.906 Y132.58 E0.00572
G1 X138.294 Y132.586 E0.25996
G1 X137.273 Y132.703 E0.00934
G1 X136.279 Y132.968 E0.00934
G1 X135.334 Y133.375 E0.00934
G1 X134.459 Y133.914 E0.00934
G1 X133.896 Y134.369 E0.00657
G1 X134.04 Y134.531 F9000
G1 F1800
G1 X133.519 Y135.05 E0.00668
G1 X133.056 Y135.621 E0.00668
G1 X132.657 Y136.239 E0.00668
G1 X132.328 Y136.896 E0.00668
G1 X132.071 Y137.585 E0.00668
G1 X131.889 Y138.298 E0.00668
G1 X131.786 Y139.02 E0.00662
G1 X131.28 Y152.619 E0.12364
G1 X131.282 Y153.679 E0.00963
G1 X131.394 Y154.659 E0.00896
G1 X131.647 Y155.613 E0.00896
G1 X132.034 Y156.521 E0.00896
G1 X132.548 Y157.363 E0.00896
G1 X133.232 Y158.177 E0.00967
G1 X134.029 Y158.872 E0.00961
G1 X144.24 Y166.062 E0.11346
G1 X145.003 Y166.493 E0.00797
G1 X145.822 Y166.825 E0.00803
G1 X146.677 Y167.048 E0.00803
G1 X147.548 Y167.158 E0.00797
G1 X153.677 Y167.157 E0.05569
G1 X154.88 Y167.084 E0.01095
G1 X157.677 Y166.803 E0.02554
G1 X158.332 Y166.691 E0.00604
G1 X158.973 Y166.516 E0.00604
G1 X161.647 Y165.412 E0.02629
G1 X162.411 Y165.021 E0.00779
G1 X170.425 Y159.712 E0.08734
G1 X170.955 Y159.291 E0.00615
G1 X171.442 Y158.82 E0.00615
G1 X171.879 Y158.303 E0.00615
G1 X172.266 Y157.739 E0.00621
G1 X172.595 Y157.139 E0.00621
G1 X172.86 Y156.516 E0.00615
G1 X173.062 Y155.869 E0.00615
G1 X173.199 Y155.206 E0.00615
G1 X173.267 Y154.571 E0.0058
G1 X173.721 Y146.463 E0.07379
G1 X173.724 Y139.578 E0.06255
G1 X173.667 Y138.742 E0.00762
G1 X173.56 Y138.138 E0.00557
G1 X173.4 Y137.546 E0.00557
G1 X173.188 Y136.971 E0.00557
G1 X172.921 Y136.412 E0.00563
G1 X172.606 Y135.88 E0.00563
G1 X172.247 Y135.383 E0.00557
G1 X171.845 Y134.92 E0.00557
G1 X171.403 Y134.495 E0.00557
G1 X170.924 Y134.112 E0.00557
G1 X170.414 Y133.773 E0.00557
G1 X169.875 Y133.481 E0.00557
G1 X169.312 Y133.239 E0.00557
G1 X168.729 Y133.049 E0.00557
G1 X168.132 Y132.911 E0.00557
G1 X167.525 Y132.827 E0.00557
G1 X166.906 Y132.799 E0.00563
G1 X138.317 Y132.804 E0.25976
G1 X137.336 Y132.914 E0.00896
G1 X136.376 Y133.166 E0.00902
G1 X135.462 Y133.554 E0.00902
G1 X134.614 Y134.072 E0.00902
G1 X134.064 Y134.512 E0.00641
G1 X134.208 Y134.674 F9000
G1 F1800
G1 X133.702 Y135.173 E0.00646
G1 X133.248 Y135.728 E0.00652
G1 X132.857 Y136.33 E0.00652
G1 X132.537 Y136.964 E0.00646
G1 X132.284 Y137.635 E0.00652
G1 X132.107 Y138.324 E0.00646
G1 X132.004 Y139.033 E0.00652
G1 X131.499 Y152.623 E0.12355
G1 X131.499 Y153.647 E0.00931
G1 X131.604 Y154.593 E0.00865
G1 X131.844 Y155.514 E0.00865
G1 X132.216 Y156.397 E0.0087
G1 X132.708 Y157.211 E0.00865
G1 X133.374 Y158.01 E0.00945
G1 X134.157 Y158.695 E0.00945
G1 X144.349 Y165.873 E0.11326
G1 X145.089 Y166.292 E0.00773
G1 X145.882 Y166.614 E0.00778
G1 X146.711 Y166.832 E0.00778
G1 X147.554 Y166.939 E0.00773
G1 X153.664 Y166.938 E0.05551
G1 X154.866 Y166.866 E0.01094
G1 X157.646 Y166.586 E0.02539
G1 X158.284 Y166.478 E0.00588
G1 X158.902 Y166.309 E0.00582
G1 X161.56 Y165.211 E0.02613
G1 X162.3 Y164.832 E0.00755
G1 X170.27 Y159.554 E0.08686
G1 X170.794 Y159.142 E0.00606
G1 X171.27 Y158.684 E0.006
G1 X171.697 Y158.181 E0.006
G1 X172.072 Y157.638 E0.006
G1 X172.394 Y157.054 E0.00606
G1 X172.653 Y156.447 E0.006
G1 X172.852 Y155.811 E0.00606
G1 X172.984 Y155.164 E0.006
G1 X173.049 Y154.552 E0.00559
G1 X173.503 Y146.46 E0.07364
G1 X173.505 Y139.578 E0.06253
G1 X173.453 Y138.792 E0.00715
G1 X173.353 Y138.211 E0.00536
G1 X173.199 Y137.634 E0.00542
G1 X172.994 Y137.074 E0.00542
G1 X172.739 Y136.534 E0.00542
G1 X172.436 Y136.02 E0.00542
G1 X172.089 Y135.535 E0.00542
G1 X171.699 Y135.084 E0.00542
G1 X171.269 Y134.669 E0.00542
G1 X170.805 Y134.295 E0.00542
G1 X170.313 Y133.968 E0.00536
G1 X169.789 Y133.683 E0.00542
G1 X169.241 Y133.446 E0.00542
G1 X168.674 Y133.26 E0.00542
G1 X168.093 Y133.126 E0.00542
G1 X167.502 Y133.045 E0.00542
G1 X166.906 Y133.017 E0.00542
G1 X138.335 Y133.022 E0.25959
G1 X137.383 Y133.127 E0.0087
G1 X136.462 Y133.367 E0.00865
G1 X135.585 Y133.737 E0.00865
G1 X134.77 Y134.229 E0.00865
G1 X134.232 Y134.655 E0.00624
G1 X134.377 Y134.817 F9000
G1 F1800
G1 X133.877 Y135.305 E0.00635
G1 X133.437 Y135.841 E0.00629
G1 X133.057 Y136.42 E0.00629
G1 X132.743 Y137.037 E0.00629
G1 X132.497 Y137.685 E0.00629
G1 X132.323 Y138.356 E0.00629
G1 X132.222 Y139.047 E0.00635
G1 X131.717 Y152.633 E0.12352
G1 X131.717 Y153.62 E0.00898
G1 X131.815 Y154.532 E0.00833
G1 X132.043 Y155.421 E0.00833
G1 X132.395 Y156.267 E0.00833
G1 X132.865 Y157.055 E0.00833
G1 X133.517 Y157.843 E0.00929
G1 X134.285 Y158.518 E0.00929
G1 X144.458 Y165.683 E0.11305
G1 X145.179 Y166.093 E0.00754
G1 X145.942 Y166.404 E0.00748
G1 X146.744 Y166.616 E0.00754
G1 X147.567 Y166.721 E0.00754
G1 X153.646 Y166.721 E0.05523
G1 X154.845 Y166.648 E0.01092
G1 X157.614 Y166.37 E0.02529
G1 X158.23 Y166.266 E0.00567
G1 X158.832 Y166.102 E0.00567
G1 X161.467 Y165.014 E0.02591
G1 X162.189 Y164.644 E0.00737
G1 X170.116 Y159.396 E0.08637
G1 X170.628 Y158.997 E0.0059
G1 X171.093 Y158.553 E0.00584
G1 X171.511 Y158.065 E0.00584
G1 X171.881 Y157.531 E0.0059
G1 X172.192 Y156.969 E0.00584
G1 X172.447 Y156.372 E0.0059
G1 X172.639 Y155.759 E0.00584
G1 X172.769 Y155.123 E0.0059
G1 X172.831 Y154.539 E0.00533
G1 X173.284 Y146.456 E0.07355
G1 X173.287 Y139.586 E0.06242
G1 X173.239 Y138.845 E0.00675
G1 X173.143 Y138.273 E0.00527
G1 X172.996 Y137.718 E0.00522
G1 X172.798 Y137.172 E0.00527
G1 X172.551 Y136.647 E0.00527
G1 X172.261 Y136.151 E0.00522
G1 X171.923 Y135.679 E0.00527
G1 X171.549 Y135.243 E0.00522
G1 X171.132 Y134.839 E0.00527
G1 X170.68 Y134.475 E0.00527
G1 X170.203 Y134.156 E0.00522
G1 X169.698 Y133.882 E0.00522
G1 X169.166 Y133.651 E0.00527
G1 X168.614 Y133.47 E0.00527
G1 X168.055 Y133.341 E0.00522
G1 X167.479 Y133.262 E0.00527
G1 X166.906 Y133.236 E0.00522
G1 X138.356 Y133.24 E0.2594
G1 X137.444 Y133.338 E0.00833
G1 X136.556 Y133.566 E0.00833
G1 X135.709 Y133.919 E0.00833
G1 X134.922 Y134.39 E0.00833
G1 X134.4 Y134.798 E0.00602
G1 X134.541 Y134.964 F9000
G1 F1800
G1 X134.056 Y135.433 E0.00613
G1 X133.626 Y135.952 E0.00613
G1 X133.258 Y136.51 E0.00607
G1 X132.95 Y137.111 E0.00613
G1 X132.709 Y137.741 E0.00613
G1 X132.539 Y138.394 E0.00613
G1 X132.441 Y139.061 E0.00613
G1 X131.935 Y152.636 E0.12343
G1 X131.935 Y153.599 E0.00874
G1 X132.027 Y154.477 E0.00802
G1 X132.244 Y155.333 E0.00802
G1 X132.58 Y156.149 E0.00802
G1 X133.03 Y156.909 E0.00802
G1 X133.668 Y157.685 E0.00913
G1 X134.419 Y158.345 E0.00908
G1 X144.571 Y165.496 E0.11283
G1 X145.264 Y165.891 E0.00724
G1 X146.007 Y166.195 E0.0073
G1 X146.784 Y166.401 E0.0073
G1 X147.58 Y166.503 E0.0073
G1 X153.633 Y166.502 E0.055
G1 X154.825 Y166.431 E0.01084
G1 X157.583 Y166.154 E0.02518
G1 X158.181 Y166.053 E0.00552
G1 X158.761 Y165.896 E0.00546
G1 X161.38 Y164.813 E0.02574
G1 X162.078 Y164.456 E0.00713
G1 X169.965 Y159.234 E0.08594
G1 X170.466 Y158.848 E0.00574
G1 X170.92 Y158.418 E0.00568
G1 X171.332 Y157.939 E0.00574
G1 X171.689 Y157.426 E0.00568
G1 X171.996 Y156.873 E0.00574
G1 X172.242 Y156.298 E0.00568
G1 X172.43 Y155.695 E0.00574
G1 X172.556 Y155.076 E0.00574
G1 X172.613 Y154.527 E0.00502
G1 X173.066 Y146.447 E0.07352
G1 X173.068 Y139.591 E0.06229
G1 X173.025 Y138.894 E0.00635
G1 X172.934 Y138.343 E0.00507
G1 X172.794 Y137.803 E0.00507
G1 X172.605 Y137.277 E0.00507
G1 X172.37 Y136.771 E0.00507
G1 X172.089 Y136.288 E0.00507
G1 X171.767 Y135.833 E0.00507
G1 X171.404 Y135.408 E0.00507
G1 X171 Y135.014 E0.00513
G1 X170.567 Y134.663 E0.00507
G1 X170.098 Y134.348 E0.00513
G1 X169.608 Y134.081 E0.00507
G1 X169.096 Y133.859 E0.00507
G1 X168.56 Y133.682 E0.00513
G1 X168.016 Y133.556 E0.00507
G1 X167.463 Y133.48 E0.00507
G1 X166.906 Y133.454 E0.00507
G1 X138.372 Y133.458 E0.25925
G1 X137.5 Y133.55 E0.00797
G1 X136.645 Y133.767 E0.00802
G1 X135.829 Y134.104 E0.00802
G1 X135.074 Y134.55 E0.00797
G1 X134.565 Y134.945 E0.00586
G1 X134.701 Y135.114 F9000
G1 F1800
G1 X134.232 Y135.565 E0.00591
G1 X133.811 Y136.069 E0.00597
G1 X133.452 Y136.611 E0.00591
G1 X133.151 Y137.195 E0.00597
G1 X132.919 Y137.802 E0.00591
G1 X132.754 Y138.432 E0.00591
G1 X132.659 Y139.075 E0.00591
G1 X132.154 Y152.646 E0.12339
G1 X132.153 Y153.576 E0.00845
G1 X132.239 Y154.42 E0.00771
G1 X132.443 Y155.238 E0.00766
G1 X132.763 Y156.025 E0.00771
G1 X133.191 Y156.758 E0.00771
G1 X133.811 Y157.519 E0.00891
G1 X134.547 Y158.168 E0.00891
G1 X144.684 Y165.308 E0.11266
G1 X145.359 Y165.694 E0.00706
G1 X146.078 Y165.988 E0.00706
G1 X146.829 Y166.187 E0.00706
G1 X147.593 Y166.285 E0.007
G1 X153.615 Y166.285 E0.05471
G1 X154.804 Y166.213 E0.01082
G1 X157.55 Y165.937 E0.02508
G1 X158.127 Y165.841 E0.00531
G1 X158.697 Y165.687 E0.00536
G1 X161.292 Y164.613 E0.02552
G1 X161.967 Y164.268 E0.00689
G1 X169.814 Y159.072 E0.08551
G1 X170.303 Y158.7 E0.00558
G1 X170.746 Y158.283 E0.00553
G1 X171.145 Y157.823 E0.00553
G1 X171.497 Y157.32 E0.00558
G1 X171.796 Y156.783 E0.00558
G1 X172.038 Y156.219 E0.00558
G1 X172.221 Y155.632 E0.00558
G1 X172.341 Y155.035 E0.00553
G1 X172.847 Y146.444 E0.0782
G1 X172.85 Y139.593 E0.06224
G1 X172.811 Y138.944 E0.00591
G1 X172.726 Y138.415 E0.00487
G1 X172.592 Y137.889 E0.00493
G1 X172.41 Y137.378 E0.00493
G1 X172.183 Y136.886 E0.00493
G1 X171.912 Y136.416 E0.00493
G1 X171.599 Y135.974 E0.00493
G1 X171.252 Y135.565 E0.00487
G1 X170.864 Y135.186 E0.00493
G1 X170.444 Y134.844 E0.00493
G1 X169.994 Y134.541 E0.00493
G1 X169.524 Y134.283 E0.00487
G1 X169.027 Y134.066 E0.00493
G1 X168.512 Y133.896 E0.00493
G1 X167.984 Y133.773 E0.00493
G1 X167.447 Y133.698 E0.00493
G1 X166.906 Y133.673 E0.00493
G1 X138.391 Y133.676 E0.25907
G1 X137.553 Y133.763 E0.00766
G1 X136.735 Y133.967 E0.00766
G1 X135.949 Y134.288 E0.00771
G1 X135.222 Y134.714 E0.00766
G1 X134.725 Y135.096 E0.00569
G1 X134.867 Y135.26 F9000
G1 F1800
G1 X134.408 Y135.696 E0.00575
G1 X134.001 Y136.18 E0.00575
G1 X133.65 Y136.706 E0.00575
G1 X133.358 Y137.268 E0.00575
G1 X133.131 Y137.858 E0.00575
G1 X132.969 Y138.469 E0.00575
G1 X132.876 Y139.095 E0.00575
G1 X132.372 Y152.65 E0.12324
G1 X132.371 Y153.552 E0.00819
G1 X132.451 Y154.363 E0.00741
G1 X132.644 Y155.15 E0.00736
G1 X132.946 Y155.901 E0.00736
G1 X133.353 Y156.607 E0.00741
G1 X133.958 Y157.357 E0.00875
G1 X134.68 Y157.994 E0.00875
G1 X144.801 Y165.124 E0.11249
G1 X145.448 Y165.494 E0.00677
G1 X146.142 Y165.779 E0.00682
G1 X146.862 Y165.97 E0.00677
G1 X147.606 Y166.067 E0.00682
G1 X153.603 Y166.066 E0.05449
G1 X154.784 Y165.996 E0.01075
G1 X157.524 Y165.72 E0.02502
G1 X158.084 Y165.627 E0.00516
G1 X158.626 Y165.48 E0.0051
G1 X161.203 Y164.413 E0.02535
G1 X161.856 Y164.079 E0.00666
G1 X169.668 Y158.908 E0.08512
G1 X170.144 Y158.548 E0.00543
G1 X170.577 Y158.144 E0.00537
G1 X170.969 Y157.694 E0.00543
G1 X171.308 Y157.21 E0.00537
G1 X171.599 Y156.689 E0.00543
G1 X171.832 Y156.145 E0.00537
G1 X172.008 Y155.581 E0.00537
G1 X172.126 Y154.996 E0.00543
G1 X172.629 Y146.441 E0.07786
G1 X172.631 Y139.598 E0.06217
G1 X172.597 Y138.996 E0.00548
G1 X172.39 Y137.977 E0.00945
G1 X172 Y137.008 E0.0095
G1 X171.44 Y136.125 E0.0095
G1 X170.729 Y135.358 E0.0095
G1 X169.891 Y134.734 E0.0095
G1 X168.953 Y134.272 E0.0095
G1 X167.946 Y133.988 E0.0095
G1 X166.905 Y133.891 E0.0095
G1 X138.407 Y133.894 E0.25893
G1 X137.602 Y133.976 E0.00736
G1 X136.816 Y134.171 E0.00736
G1 X136.065 Y134.474 E0.00736
G1 X135.37 Y134.877 E0.0073
G1 X134.89 Y135.242 E0.00547
G1 X135.028 Y135.41 F9000
G1 F1800
G1 X134.585 Y135.828 E0.00553
G1 X134.191 Y136.292 E0.00553
G1 X133.847 Y136.801 E0.00558
G1 X133.565 Y137.34 E0.00553
G1 X133.342 Y137.913 E0.00558
G1 X133.186 Y138.502 E0.00553
G1 X133.094 Y139.109 E0.00558
G1 X132.591 Y152.66 E0.1232
G1 X132.589 Y153.532 E0.00793
G1 X132.664 Y154.311 E0.00711
G1 X132.847 Y155.066 E0.00706
G1 X133.133 Y155.788 E0.00706
G1 X133.519 Y156.462 E0.00706
G1 X134.106 Y157.195 E0.00853
G1 X134.808 Y157.817 E0.00853
G1 X144.913 Y164.935 E0.1123
G1 X145.536 Y165.294 E0.00653
G1 X146.206 Y165.57 E0.00658
G1 X146.9 Y165.755 E0.00653
G1 X147.619 Y165.849 E0.00658
G1 X153.585 Y165.848 E0.05421
G1 X154.769 Y165.778 E0.01078
G1 X157.497 Y165.504 E0.02491
G1 X158.035 Y165.414 E0.00495
G1 X158.561 Y165.271 E0.00495
G1 X161.115 Y164.213 E0.02512
G1 X161.745 Y163.891 E0.00643
G1 X169.521 Y158.744 E0.08473
G1 X169.98 Y158.4 E0.00522
G1 X170.402 Y158.01 E0.00522
G1 X170.781 Y157.579 E0.00522
G1 X171.116 Y157.106 E0.00527
G1 X171.397 Y156.605 E0.00522
G1 X171.626 Y156.073 E0.00527
G1 X171.797 Y155.525 E0.00522
G1 X171.911 Y154.956 E0.00527
G1 X172.41 Y146.432 E0.07759
G1 X172.413 Y139.6 E0.06207
G1 X172.382 Y139.039 E0.00511
G1 X172.184 Y138.051 E0.00916
G1 X171.809 Y137.115 E0.00916
G1 X171.27 Y136.263 E0.00916
G1 X170.586 Y135.523 E0.00916
