; generated by SuperSlicer 2.3.57 on 2022-02-20 at 07:23:01 UTC


;
;

;
;
; 

; external perimeters extrusion width = 0.30mm
; perimeters extrusion width = 0.34mm
; infill extrusion width = 0.54mm
; solid infill extrusion width = 0.42mm
; top infill extrusion width = 0.30mm
; support material extrusion width = 0.31mm
; first layer extrusion width = 0.36mm

; external perimeters extrusion width = 0.11mm
; perimeters extrusion width = 0.34mm
; infill extrusion width = 0.54mm
; solid infill extrusion width = 0.42mm
; top infill extrusion width = 0.30mm
; support material extrusion width = 0.31mm
; first layer extrusion width = 0.36mm

; object:{"name":"LogoVancouver","id":"LogoVancouver.STL id:0 copy 0","object_center":[152.495754,143.903290,0.000000],"boundingbox_center":[152.495754,143.903290,2.224427],"boundingbox_size":[28.515906,11.193152,4.448854]}
; object:{"name":"LogoVancouver","id":"LogoVancouver.STL id:1 copy 0","object_center":[152.504246,156.096572,0.000000],"boundingbox_center":[152.504246,156.096572,2.224427],"boundingbox_size":[28.515906,11.193152,4.448854]}
; plater:{"center":[152.500000,149.999931,0.000000],"boundingbox_center":[152.500000,149.999931,2.224427],"boundingbox_size":[28.524398,23.386434,4.448854]}

;TYPE:Custom
START_PRINT T_BED=60 T_EXTRUDER=200
M107
G21 ; set units to millimeters
G90 ; use absolute coordinates
M83 ; use relative distances for extrusion
; Filament gcode
M104 S200 ; set temperature
M109 S200 ; set temperature and wait for it to be reached
M190 S60 ; set bed temperature and wait for it to be reached
M107
;LAYER_CHANGE
;Z:0.12
;HEIGHT:0.12
G1 Z0.12 F9000
G1 E-0.6 F3000
G1 X135.997 Y135.803 F9000
G1 E0.6 F1800
; External perimeter
;Skirt
SET_VELOCITY_LIMIT ACCEL=300 ACCEL_TO_DECEL=3000 SQUARE_CORNER_VELOCITY=5

; Support material

;TYPE:Skirt
;WIDTH:0.36
G1 X135.552 Y136.285 E0.01093
G1 X135.204 Y136.846 E0.01101
G1 X134.966 Y137.462 E0.01101
G1 X134.849 Y138.111 E0.01101
G1 X134.848 Y161.742 E0.39406
G1 X134.941 Y162.409 E0.01124
G1 X135.161 Y163.047 E0.01124
G1 X135.498 Y163.63 E0.01124
G1 X135.941 Y164.138 E0.01124
G1 X136.442 Y164.531 E0.01062
G1 X137.006 Y164.828 E0.01062
G1 X137.614 Y165.017 E0.01062
G1 X138.242 Y165.093 E0.01055
G1 X166.679 Y165.075 E0.47421
G1 X167.382 Y165.001 E0.01177
G1 X168.054 Y164.787 E0.01177
G1 X168.671 Y164.442 E0.01177
G1 X169.208 Y163.978 E0.01185
G1 X169.597 Y163.484 E0.01047
G1 X169.891 Y162.929 E0.01047
G1 X170.081 Y162.331 E0.01047
G1 X170.161 Y161.708 E0.01047
G1 X170.155 Y139.1 E0.37701
G1 X170.08 Y138.397 E0.01177
G1 X169.865 Y137.725 E0.01177
G1 X169.519 Y137.109 E0.01177
G1 X169.058 Y136.575 E0.01177
G1 X168.576 Y136.194 E0.01024
G1 X168.035 Y135.903 E0.01024
G1 X167.452 Y135.712 E0.01024
G1 X166.844 Y135.625 E0.01024
G1 X138.414 Y134.905 E0.47423
G1 X137.755 Y134.954 E0.01103
G1 X137.117 Y135.125 E0.01101
G1 X136.527 Y135.41 E0.01093
G1 X136.033 Y135.776 E0.01026
G1 X136.232 Y136.044 F9000
G1 F1800
G1 X136.214 Y136.057 E0.00038
G1 X135.811 Y136.498 E0.00996
G1 X135.495 Y137.01 E0.01003
G1 X135.284 Y137.568 E0.00996
G1 X135.18 Y138.161 E0.01003
G1 X135.182 Y161.716 E0.3928
G1 X135.266 Y162.329 E0.01032
G1 X135.466 Y162.91 E0.01025
G1 X135.777 Y163.445 E0.01032
G1 X136.187 Y163.91 E0.01032
G1 X136.641 Y164.262 E0.00959
G1 X137.148 Y164.525 E0.00952
G1 X137.694 Y164.692 E0.00952
G1 X138.26 Y164.759 E0.00952
G1 X166.678 Y164.741 E0.47388
G1 X167.319 Y164.672 E0.01076
G1 X167.929 Y164.477 E0.01069
G1 X168.491 Y164.16 E0.01076
G1 X168.977 Y163.735 E0.01076
G1 X169.325 Y163.288 E0.00945
G1 X169.588 Y162.787 E0.00945
G1 X169.757 Y162.246 E0.00945
G1 X169.827 Y161.684 E0.00945
G1 X169.821 Y139.102 E0.37658
G1 X169.751 Y138.46 E0.01076
G1 X169.553 Y137.846 E0.01076
G1 X169.235 Y137.285 E0.01076
G1 X168.812 Y136.803 E0.01069
G1 X168.376 Y136.463 E0.00923
G1 X167.891 Y136.205 E0.00915
G1 X167.365 Y136.035 E0.00923
G1 X166.817 Y135.958 E0.00923
G1 X138.414 Y135.24 E0.47379
G1 X137.81 Y135.284 E0.01009
G1 X137.234 Y135.438 E0.00996
G1 X136.696 Y135.698 E0.00996
G1 X136.268 Y136.017 E0.0089
; INIT printing object LogoVancouver.STL id:0 copy 0
G1 E-0.6 F3000
; printing object LogoVancouver.STL id:0 copy 0
G1 X153.578 Y146.114 F9000
G1 E0.6 F1800
; External perimeter
;Perimeter
SET_VELOCITY_LIMIT ACCEL=2000 ACCEL_TO_DECEL=2000 SQUARE_CORNER_VELOCITY=5

; Overhang perimeter

;TYPE:Internal perimeter
G1 X154.063 Y145.635 E0.01137
G1 X155.011 Y145.65 E0.0158
G1 X155.432 Y144.426 E0.02159
G1 X156.216 Y143.944 E0.01535
G1 X156.557 Y145.319 E0.02362
G1 X157.659 Y145.294 E0.01837
G1 X157.954 Y143.811 E0.0252
G1 X159.105 Y144.894 E0.02635
G1 X163.011 Y142.023 E0.08083
G1 X166.139 Y139.815 E0.06385
G1 X166.139 Y148.867 E0.15095
G1 X138.852 Y148.885 E0.45504
G1 X138.852 Y139.355 E0.15893
G1 X148.28 Y146.089 E0.19321
G1 X150.668 Y143.729 E0.05599
G1 X153.544 Y146.086 E0.062
G1 X153.557 Y145.665 F9000
; External perimeter
;ExternalPerimeter
SET_VELOCITY_LIMIT ACCEL=1000 ACCEL_TO_DECEL=1000 SQUARE_CORNER_VELOCITY=5

; Perimeter

;TYPE:External perimeter
G1 F1800
G1 X154.182 Y145.048 E0.01464
G1 X154.208 Y145.134 E0.00104
G1 X154.26 Y145.304 E0.0025
G1 X154.35 Y145.305 E0.00143
G1 X154.53 Y145.308 E0.00293
G1 X154.774 Y145.312 E0.00406
G1 X154.803 Y145.227 E0.00143
G1 X154.861 Y145.057 E0.00293
G1 X155.154 Y144.204 E0.01504
G1 X156.43 Y143.421 E0.02496
G1 X156.452 Y143.508 E0.00119
G1 X156.495 Y143.683 E0.00269
G1 X156.817 Y144.979 E0.02227
G1 X156.907 Y144.977 E0.00141
G1 X157.087 Y144.973 E0.00291
G1 X157.383 Y144.966 E0.00494
G1 X157.401 Y144.877 E0.00141
G1 X157.436 Y144.701 E0.00291
G1 X157.744 Y143.155 E0.02628
G1 X157.81 Y143.217 E0.00097
G1 X157.941 Y143.34 E0.00247
G1 X159.132 Y144.459 E0.02725
G1 X159.204 Y144.406 E0.0014
G1 X159.349 Y144.3 E0.0029
G1 X162.816 Y141.751 E0.07174
G1 X166.288 Y139.301 E0.07088
G1 X166.474 Y139.301 E0.00309
G1 X166.474 Y139.391 E0.00134
G1 X166.474 Y139.571 E0.00284
G1 X166.474 Y149.201 E0.16059
G1 X166.384 Y149.201 E0.00135
G1 X166.204 Y149.201 E0.00285
G1 X138.518 Y149.22 E0.46168
G1 X138.518 Y149.13 E0.00134
G1 X138.518 Y148.95 E0.00284
G1 X138.518 Y138.705 E0.17083
G1 X138.591 Y138.757 E0.00088
G1 X138.67 Y138.814 E0.00099
G1 X148.245 Y145.653 E0.19623
G1 X148.309 Y145.59 E0.0014
G1 X148.437 Y145.464 E0.0029
G1 X150.647 Y143.279 E0.05181
G1 X150.717 Y143.337 E0.00138
G1 X150.856 Y143.451 E0.00288
G1 X153.523 Y145.636 E0.0575
;WIPE_START
G1 X153.776 Y145.871 F9000
;WIPE_END
G1 E-0.6 F3000
G1 X165.702 Y140.185 F9000
G1 E0.6 F1800
; External perimeter
;SolidInfill
SET_VELOCITY_LIMIT ACCEL=2000 ACCEL_TO_DECEL=2000 SQUARE_CORNER_VELOCITY=5

; Bridge infill

;TYPE:Solid infill
;WIDTH:0.35327
G1 F2400
G1 X165.946 Y140.428 E0.00563
G1 X165.946 Y140.901 E0.00774
G1 X165.528 Y140.483 E0.00966
G1 X165.251 Y140.679 E0.00555
G1 X165.946 Y141.373 E0.01607
G1 X165.946 Y141.846 E0.00774
G1 X164.974 Y140.875 E0.02248
G1 X164.697 Y141.07 E0.00555
G1 X165.946 Y142.319 E0.0289
G1 X165.946 Y142.791 E0.00774
G1 X164.42 Y141.266 E0.03531
G1 X164.143 Y141.461 E0.00555
G1 X165.946 Y143.264 E0.04172
G1 X165.946 Y143.737 E0.00774
G1 X163.866 Y141.657 E0.04814
G1 X163.588 Y141.852 E0.00555
G1 X165.946 Y144.21 E0.05455
G1 X165.946 Y144.682 E0.00774
G1 X163.311 Y142.048 E0.06096
G1 X163.124 Y142.18 E0.00375
G1 X163.036 Y142.245 E0.0018
G1 X165.946 Y145.155 E0.06734
G1 X165.946 Y145.628 E0.00774
G1 X162.763 Y142.445 E0.07365
G1 X162.491 Y142.646 E0.00553
G1 X165.946 Y146.1 E0.07995
G1 X165.946 Y146.573 E0.00774
G1 X162.218 Y142.846 E0.08626
G1 X161.946 Y143.046 E0.00553
G1 X165.946 Y147.046 E0.09256
G1 X165.946 Y147.518 E0.00774
G1 X161.674 Y143.246 E0.09886
G1 X161.401 Y143.447 E0.00553
G1 X165.946 Y147.991 E0.10517
G1 X165.946 Y148.464 E0.00774
G1 X161.129 Y143.647 E0.11147
G1 X160.856 Y143.847 E0.00553
G1 X165.683 Y148.673 E0.11169
G1 X165.21 Y148.674 E0.00773
G1 X160.584 Y144.047 E0.10706
G1 X160.311 Y144.248 E0.00553
G1 X164.738 Y148.674 E0.10244
G1 X164.265 Y148.674 E0.00773
G1 X160.039 Y144.448 E0.09781
G1 X159.766 Y144.648 E0.00553
G1 X163.793 Y148.675 E0.09318
G1 X163.321 Y148.675 E0.00773
G1 X159.494 Y144.848 E0.08856
G1 X159.222 Y145.049 E0.00553
G1 X162.848 Y148.675 E0.08393
G1 X162.376 Y148.676 E0.00773
G1 X158.046 Y144.345 E0.10021
G1 X157.967 Y144.739 E0.00658
G1 X161.903 Y148.676 E0.0911
G1 X161.431 Y148.676 E0.00773
G1 X157.888 Y145.134 E0.08198
G1 X157.819 Y145.484 E0.00584
G1 X157.767 Y145.485 E0.00085
G1 X160.959 Y148.677 E0.07386
G1 X160.486 Y148.677 E0.00773
G1 X157.165 Y145.355 E0.07687
G1 X156.3 Y144.491 F9000
G1 F2400
G1 X156.071 Y144.261 E0.00531
G1 X155.778 Y144.441 E0.00562
G1 X156.259 Y144.922 E0.01114
G1 X156.407 Y145.517 E0.01002
G1 X156.843 Y145.506 E0.00715
G1 X160.014 Y148.677 E0.07338
G1 X159.542 Y148.678 E0.00773
G1 X155.548 Y144.684 E0.09242
G1 X155.427 Y145.036 E0.00609
G1 X159.069 Y148.678 E0.08429
G1 X158.597 Y148.678 E0.00773
G1 X155.306 Y145.388 E0.07615
G1 X155.185 Y145.739 E0.00609
G1 X158.124 Y148.678 E0.06802
G1 X157.652 Y148.679 E0.00773
G1 X154.814 Y145.841 E0.06567
G1 X154.334 Y145.833 E0.00787
G1 X157.18 Y148.679 E0.06586
G1 X156.707 Y148.679 E0.00773
G1 X153.999 Y145.971 E0.06268
G1 X153.761 Y146.206 E0.00547
G1 X156.235 Y148.68 E0.05725
G1 X155.763 Y148.68 E0.00773
G1 X152.852 Y145.77 E0.06736
G1 X150.68 Y143.989 E0.04595
G1 X150.639 Y144.03 E0.00094
G1 X155.29 Y148.68 E0.10763
G1 X154.818 Y148.681 E0.00773
G1 X150.402 Y144.265 E0.1022
G1 X150.164 Y144.5 E0.00547
G1 X154.345 Y148.681 E0.09677
G1 X153.873 Y148.681 E0.00773
G1 X149.926 Y144.735 E0.09134
G1 X149.689 Y144.97 E0.00547
G1 X153.401 Y148.682 E0.08591
G1 X152.928 Y148.682 E0.00773
G1 X149.451 Y145.205 E0.08048
G1 X149.213 Y145.439 E0.00547
G1 X152.456 Y148.682 E0.07505
G1 X151.983 Y148.683 E0.00773
G1 X148.975 Y145.674 E0.06961
G1 X148.738 Y145.909 E0.00547
G1 X151.511 Y148.683 E0.06418
G1 X151.039 Y148.683 E0.00773
G1 X148.5 Y146.144 E0.05875
G1 X148.3 Y146.342 E0.00459
G1 X148.035 Y146.152 E0.00534
G1 X150.566 Y148.684 E0.05859
G1 X150.094 Y148.684 E0.00773
G1 X146.38 Y144.97 E0.08594
G1 X144.726 Y143.788 E0.03327
G1 X149.622 Y148.684 E0.1133
G1 X149.149 Y148.684 E0.00773
G1 X143.071 Y142.607 E0.14065
G1 X141.417 Y141.425 E0.03327
G1 X148.677 Y148.685 E0.16801
G1 X148.204 Y148.685 E0.00773
G1 X139.763 Y140.243 E0.19536
G1 X139.046 Y139.731 E0.01441
G1 X139.046 Y139.999 E0.00438
G1 X147.732 Y148.685 E0.20102
G1 X147.26 Y148.686 E0.00773
G1 X139.046 Y140.472 E0.19008
G1 X139.046 Y140.945 E0.00774
G1 X146.787 Y148.686 E0.17915
G1 X146.315 Y148.686 E0.00773
G1 X139.046 Y141.417 E0.16822
G1 X139.046 Y141.89 E0.00774
G1 X145.843 Y148.687 E0.15729
G1 X145.37 Y148.687 E0.00773
G1 X139.046 Y142.363 E0.14636
G1 X139.046 Y142.835 E0.00774
G1 X144.898 Y148.687 E0.13542
G1 X144.425 Y148.688 E0.00773
G1 X139.046 Y143.308 E0.12449
G1 X139.046 Y143.781 E0.00774
G1 X143.953 Y148.688 E0.11356
G1 X143.481 Y148.688 E0.00773
G1 X139.046 Y144.254 E0.10263
G1 X139.046 Y144.726 E0.00774
G1 X143.008 Y148.689 E0.0917
G1 X142.536 Y148.689 E0.00773
G1 X139.046 Y145.199 E0.08077
G1 X139.046 Y145.672 E0.00774
G1 X142.063 Y148.689 E0.06983
G1 X141.591 Y148.69 E0.00773
G1 X139.046 Y146.144 E0.0589
G1 X139.046 Y146.617 E0.00774
G1 X141.119 Y148.69 E0.04797
G1 X140.646 Y148.69 E0.00773
G1 X139.046 Y147.09 E0.03704
G1 X139.046 Y147.562 E0.00774
G1 X140.174 Y148.69 E0.02611
G1 X139.702 Y148.691 E0.00773
G1 X139.046 Y148.035 E0.01517
G1 X139.046 Y148.508 E0.00774
G1 X139.373 Y148.835 E0.00757
G1 X144.1 Y143.353 F9000
; External perimeter
;GapFill
SET_VELOCITY_LIMIT ACCEL=2000 ACCEL_TO_DECEL=2000 SQUARE_CORNER_VELOCITY=5

; Skirt

;TYPE:Gap fill
;WIDTH:0.0977522
G1 F1800
G1 X144.199 Y143.436 E0.00046
;WIDTH:0.12616
G1 X144.297 Y143.52 E0.00065
;WIDTH:0.154568
G1 X144.396 Y143.603 E0.00083
;WIDTH:0.189751
G1 X144.494 Y143.687 E0.00106
G1 X144.554 Y143.738 E0.00064
G1 X147.381 Y145.693 F9000
;WIDTH:0.0977531
G1 F1800
G1 X147.507 Y145.8 E0.00059
;WIDTH:0.126158
G1 X147.606 Y145.883 E0.00065
;WIDTH:0.154563
G1 X147.705 Y145.967 E0.00083
;WIDTH:0.189742
G1 X147.803 Y146.05 E0.00106
G1 X147.863 Y146.101 E0.00064
G1 X141.245 Y141.374 F9000
;WIDTH:0.189759
G1 F1800
G1 X141.185 Y141.323 E0.00064
G1 X141.087 Y141.24 E0.00106
;WIDTH:0.154574
G1 X140.988 Y141.156 E0.00083
;WIDTH:0.126163
G1 X140.89 Y141.073 E0.00065
;WIDTH:0.0977522
G1 X140.791 Y140.989 E0.00046
; INIT stop printing object LogoVancouver.STL id:0 copy 0
; INIT printing object LogoVancouver.STL id:1 copy 0
G1 E-0.6 F3000
; stop printing object LogoVancouver.STL id:0 copy 0
; printing object LogoVancouver.STL id:1 copy 0
G1 X153.587 Y158.308 F9000
G1 E0.6 F1800
; External perimeter
;Perimeter
SET_VELOCITY_LIMIT ACCEL=2000 ACCEL_TO_DECEL=2000 SQUARE_CORNER_VELOCITY=5

; Overhang perimeter

;TYPE:Internal perimeter
;WIDTH:0.36
G1 X154.072 Y157.828 E0.01137
G1 X155.019 Y157.844 E0.0158
G1 X155.44 Y156.619 E0.02159
G1 X156.225 Y156.138 E0.01535
G1 X156.566 Y157.513 E0.02362
G1 X157.667 Y157.487 E0.01837
G1 X157.963 Y156.005 E0.0252
G1 X159.114 Y157.087 E0.02635
G1 X163.019 Y154.216 E0.08083
G1 X166.148 Y152.008 E0.06385
G1 X166.148 Y161.06 E0.15095
G1 X138.861 Y161.078 E0.45504
G1 X138.861 Y151.548 E0.15893
G1 X148.289 Y158.282 E0.19321
G1 X150.676 Y155.922 E0.05599
G1 X153.552 Y158.279 E0.062
G1 X153.566 Y157.858 F9000
; External perimeter
;ExternalPerimeter
SET_VELOCITY_LIMIT ACCEL=1000 ACCEL_TO_DECEL=1000 SQUARE_CORNER_VELOCITY=5

; Perimeter

;TYPE:External perimeter
G1 F1800
G1 X154.19 Y157.241 E0.01464
G1 X154.217 Y157.327 E0.00104
G1 X154.269 Y157.497 E0.0025
G1 X154.359 Y157.498 E0.00143
G1 X154.539 Y157.501 E0.00293
G1 X154.782 Y157.505 E0.00406
G1 X154.811 Y157.42 E0.00143
G1 X154.87 Y157.25 E0.00293
G1 X155.163 Y156.397 E0.01504
G1 X156.439 Y155.614 E0.02496
G1 X156.461 Y155.701 E0.00119
G1 X156.504 Y155.876 E0.00269
G1 X156.826 Y157.172 E0.02227
G1 X156.916 Y157.17 E0.00141
G1 X157.096 Y157.166 E0.00291
G1 X157.392 Y157.159 E0.00494
G1 X157.41 Y157.071 E0.00141
G1 X157.445 Y156.894 E0.00291
G1 X157.753 Y155.348 E0.02628
G1 X157.818 Y155.41 E0.00097
G1 X157.949 Y155.533 E0.00247
G1 X159.14 Y156.653 E0.02725
G1 X159.213 Y156.599 E0.0014
G1 X159.358 Y156.493 E0.0029
G1 X162.824 Y153.945 E0.07174
G1 X166.297 Y151.494 E0.07088
G1 X166.482 Y151.494 E0.00309
G1 X166.482 Y151.584 E0.00134
G1 X166.482 Y151.764 E0.00284
G1 X166.482 Y161.394 E0.16059
G1 X166.392 Y161.394 E0.00135
G1 X166.212 Y161.394 E0.00285
G1 X138.526 Y161.413 E0.46168
G1 X138.526 Y161.323 E0.00134
G1 X138.526 Y161.143 E0.00284
G1 X138.526 Y150.898 E0.17083
G1 X138.6 Y150.951 E0.00088
G1 X138.678 Y151.007 E0.00099
G1 X148.254 Y157.847 E0.19623
G1 X148.318 Y157.783 E0.0014
G1 X148.446 Y157.657 E0.0029
G1 X150.656 Y155.473 E0.05181
G1 X150.725 Y155.53 E0.00138
G1 X150.864 Y155.644 E0.00288
G1 X153.531 Y157.83 E0.0575
;WIPE_START
G1 X153.784 Y158.064 F9000
;WIPE_END
G1 E-0.6 F3000
G1 X165.711 Y152.378 F9000
G1 E0.6 F1800
; External perimeter
;SolidInfill
SET_VELOCITY_LIMIT ACCEL=2000 ACCEL_TO_DECEL=2000 SQUARE_CORNER_VELOCITY=5

; Bridge infill

;TYPE:Solid infill
;WIDTH:0.35327
G1 F2400
G1 X165.954 Y152.621 E0.00563
G1 X165.954 Y153.094 E0.00774
G1 X165.537 Y152.677 E0.00966
G1 X165.26 Y152.872 E0.00555
G1 X165.954 Y153.567 E0.01607
G1 X165.954 Y154.039 E0.00774
G1 X164.983 Y153.068 E0.02248
G1 X164.705 Y153.263 E0.00555
G1 X165.954 Y154.512 E0.0289
G1 X165.954 Y154.985 E0.00774
G1 X164.428 Y153.459 E0.03531
G1 X164.151 Y153.655 E0.00555
G1 X165.954 Y155.457 E0.04172
G1 X165.954 Y155.93 E0.00774
G1 X163.874 Y153.85 E0.04814
G1 X163.597 Y154.046 E0.00555
G1 X165.954 Y156.403 E0.05455
G1 X165.954 Y156.876 E0.00774
G1 X163.32 Y154.241 E0.06096
G1 X163.133 Y154.373 E0.00375
G1 X163.044 Y154.438 E0.0018
G1 X165.954 Y157.348 E0.06734
G1 X165.954 Y157.821 E0.00774
G1 X162.772 Y154.639 E0.07365
G1 X162.499 Y154.839 E0.00553
G1 X165.954 Y158.294 E0.07995
G1 X165.954 Y158.766 E0.00774
G1 X162.227 Y155.039 E0.08626
G1 X161.954 Y155.239 E0.00553
G1 X165.954 Y159.239 E0.09256
G1 X165.954 Y159.712 E0.00774
G1 X161.682 Y155.44 E0.09886
G1 X161.41 Y155.64 E0.00553
G1 X165.954 Y160.184 E0.10517
G1 X165.954 Y160.657 E0.00774
