; generated by SuperSlicer 2.3.57 on 2022-02-19 at 22:56:06 UTC


;
;

;
;
; 

; external perimeters extrusion width = 0.40mm
; perimeters extrusion width = 0.45mm
; infill extrusion width = 0.72mm
; solid infill extrusion width = 0.56mm
; top infill extrusion width = 0.40mm
; first layer extrusion width = 0.48mm

; external perimeters extrusion width = 0.20mm
; perimeters extrusion width = 0.45mm
; infill extrusion width = 0.72mm
; solid infill extrusion width = 0.56mm
; top infill extrusion width = 0.40mm
; first layer extrusion width = 0.48mm

; object:{"name":"LogoMountains","id":"LogoMountains.STL id:0 copy 0","object_center":[152.270049,154.573186,0.000000],"boundingbox_center":[152.270049,154.573186,2.830534],"boundingbox_size":[28.515906,10.542389,5.661068]}
; object:{"name":"LogoBoard","id":"LogoBoard.STL id:1 copy 0","object_center":[152.729952,144.434443,0.000000],"boundingbox_center":[152.729952,144.434443,3.030534],"boundingbox_size":[28.515906,8.557648,6.061068]}
; plater:{"center":[152.500000,150.000000,0.000000],"boundingbox_center":[152.500000,150.000000,3.030534],"boundingbox_size":[28.975809,19.688761,6.061068]}

;TYPE:Custom
START_PRINT T_BED=60 T_EXTRUDER=200
M107
G21 ; set units to millimeters
G90 ; use absolute coordinates
M83 ; use relative distances for extrusion
; Filament gcode
M104 S200 ; set temperature
M109 S200 ; set temperature and wait for it to be reached
M190 S60 ; set bed temperature and wait for it to be reached
;LAYER_CHANGE
;Z:0.24
;HEIGHT:0.24
G1 Z0.24 F9000
G1 E-0.6 F3000
G1 X136.206 Y137.486 F9000
G1 E0.6 F1800
; External perimeter
;Skirt
SET_VELOCITY_LIMIT ACCEL=300 ACCEL_TO_DECEL=3000 SQUARE_CORNER_VELOCITY=5

; Support material

;TYPE:Skirt
;WIDTH:0.48
G1 X135.608 Y138.137 E0.03781
G1 X135.185 Y138.914 E0.03781
G1 X134.961 Y139.774 E0.03801
G1 X134.469 Y150.259 E0.44877
G1 X134.516 Y151.599 E0.05735
G1 X134.856 Y152.65 E0.04719
G1 X135.223 Y153.236 E0.02959
G1 X135.691 Y153.739 E0.02939
G1 X145.609 Y162.466 E0.5648
G1 X146.572 Y163.06 E0.04839
G1 X147.191 Y163.256 E0.02778
G1 X147.836 Y163.34 E0.02778
G1 X153.464 Y163.335 E0.24063
G1 X157.433 Y162.89 E0.17075
G1 X158.502 Y162.548 E0.04799
G1 X160.707 Y161.393 E0.10646
G1 X161.259 Y161.016 E0.02859
G1 X168.925 Y154.649 E0.42604
G1 X169.528 Y153.934 E0.04001
G1 X169.931 Y153.084 E0.04021
G1 X170.074 Y152.46 E0.02738
G1 X170.528 Y148.759 E0.1594
G1 X170.531 Y140.234 E0.36449
G1 X170.471 Y139.597 E0.02738
G1 X170.303 Y138.988 E0.02698
G1 X170.033 Y138.418 E0.02698
G1 X169.669 Y137.903 E0.02698
G1 X169.221 Y137.458 E0.02698
G1 X168.703 Y137.097 E0.02698
G1 X168.131 Y136.831 E0.02698
G1 X167.521 Y136.668 E0.02698
G1 X166.893 Y136.613 E0.02698
G1 X138.524 Y136.613 E1.2129
G1 X137.712 Y136.716 E0.035
G1 X136.943 Y136.997 E0.035
G1 X136.256 Y137.453 E0.03524
G1 X136.506 Y137.793 F9000
G1 F1800
G1 X135.965 Y138.376 E0.034
G1 X135.583 Y139.074 E0.034
G1 X135.384 Y139.844 E0.034
G1 X134.898 Y150.247 E0.44529
G1 X134.933 Y151.49 E0.05317
G1 X135.221 Y152.422 E0.04169
G1 X135.549 Y152.957 E0.02685
G1 X135.975 Y153.418 E0.02685
G1 X145.883 Y162.137 E0.56427
G1 X146.727 Y162.66 E0.04244
G1 X147.283 Y162.838 E0.02496
G1 X147.862 Y162.912 E0.02496
G1 X153.443 Y162.907 E0.23863
G1 X157.347 Y162.47 E0.16797
G1 X158.275 Y162.183 E0.0415
G1 X160.485 Y161.026 E0.10664
G1 X160.969 Y160.7 E0.02496
G1 X168.616 Y154.351 E0.42495
G1 X169.146 Y153.735 E0.03475
G1 X169.505 Y153.006 E0.03475
G1 X169.649 Y152.404 E0.02647
G1 X170.099 Y148.746 E0.15756
G1 X170.06 Y139.736 E0.38525
G1 X169.921 Y139.191 E0.02402
G1 X169.687 Y138.676 E0.02421
G1 X169.366 Y138.209 E0.02421
G1 X168.972 Y137.809 E0.02402
G1 X168.51 Y137.481 E0.02421
G1 X167.998 Y137.239 E0.02421
G1 X167.456 Y137.092 E0.02402
G1 X166.892 Y137.041 E0.02421
G1 X138.538 Y137.042 E1.2123
G1 X137.836 Y137.127 E0.03024
G1 X137.17 Y137.363 E0.03024
G1 X136.556 Y137.761 E0.03125
; INIT printing object LogoMountains.STL id:0 copy 0
G1 E-0.6 F3000
; printing object LogoMountains.STL id:0 copy 0
G1 X150.32 Y155.063 F9000
G1 E0.6 F1800
; External perimeter
;Perimeter
SET_VELOCITY_LIMIT ACCEL=2000 ACCEL_TO_DECEL=2000 SQUARE_CORNER_VELOCITY=5

; Overhang perimeter

;TYPE:Internal perimeter
G1 X147.851 Y158.115 E0.16785
G1 X140.139 Y151.23 E0.44199
G1 X140.885 Y151.163 E0.03202
G1 X141.392 Y151.04 E0.02229
G1 X142.235 Y150.654 E0.03965
G1 X142.871 Y150.652 E0.02717
G1 X143.455 Y150.728 E0.02521
G1 X143.813 Y150.696 E0.01534
G1 X144.113 Y150.604 E0.01344
G1 X144.28 Y150.574 E0.00723
G1 X145.464 Y150.572 E0.05061
G1 X145.705 Y150.578 E0.01031
G1 X146.192 Y150.833 E0.0235
G1 X146.579 Y150.983 E0.01774
G1 X147.023 Y151.063 E0.01932
G1 X147.489 Y151.051 E0.01992
G1 X147.978 Y150.938 E0.02144
G1 X148.739 Y150.701 E0.03408
G1 X149.196 Y150.509 E0.02122
G1 X149.39 Y150.501 E0.0083
G1 X149.852 Y150.532 E0.01976
G1 X150.187 Y150.606 E0.01466
G1 X150.459 Y150.723 E0.0127
G1 X150.915 Y150.968 E0.0221
G1 X151.363 Y151.138 E0.0205
G1 X151.797 Y151.215 E0.01883
G1 X152.344 Y151.155 E0.02354
G1 X152.705 Y150.997 E0.01683
G1 X153.198 Y150.677 E0.02516
G1 X153.305 Y150.655 E0.00467
G1 X153.438 Y150.652 E0.00567
G1 X153.739 Y150.7 E0.01305
G1 X154.488 Y150.914 E0.03328
G1 X154.899 Y150.953 E0.01765
G1 X155.439 Y150.848 E0.02352
G1 X155.738 Y150.698 E0.01433
G1 X156.158 Y150.759 E0.01814
G1 X157.429 Y150.82 E0.05439
G1 X157.916 Y150.78 E0.02091
G1 X158.531 Y150.645 E0.02693
G1 X159.07 Y150.583 E0.02317
G1 X159.294 Y150.592 E0.00961
G1 X159.556 Y150.657 E0.01154
G1 X160.297 Y150.918 E0.03359
G1 X160.865 Y151.29 E0.02902
G1 X161.66 Y151.647 E0.03726
G1 X162.163 Y151.781 E0.02227
G1 X162.769 Y151.818 E0.02596
G1 X162.99 Y151.984 E0.0118
G1 X163.403 Y152.21 E0.02012
G1 X163.866 Y152.278 E0.02003
G1 X161.622 Y154.253 E0.1278
G1 X159.031 Y156.633 E0.15042
G1 X158.547 Y156.068 E0.03181
G1 X157.708 Y155.179 E0.05228
G1 X156.215 Y155.598 E0.06629
G1 X156.207 Y155.809 E0.00903
G1 X155.438 Y156.228 E0.03747
G1 X155.012 Y156.512 E0.02188
G1 X154.619 Y156.814 E0.02121
G1 X154.233 Y157.151 E0.02188
G1 X153.712 Y157.699 E0.03235
G1 X153.692 Y157.771 E0.00321
G1 X153.303 Y158.119 E0.02232
G1 X150.362 Y155.106 E0.18
G1 X150.35 Y155.707 F9000
G1 F1800
G1 X147.901 Y158.734 E0.16647
G1 X139.273 Y151.031 E0.49451
G1 X139.398 Y150.758 E0.01283
G1 X139.587 Y150.782 E0.00813
G1 X140.308 Y150.785 E0.03083
G1 X140.816 Y150.739 E0.0218
G1 X141.251 Y150.634 E0.01916
G1 X142.096 Y150.247 E0.03973
G1 X142.175 Y150.226 E0.00348
G1 X142.898 Y150.223 E0.03092
G1 X143.464 Y150.297 E0.02442
G1 X143.73 Y150.273 E0.01142
G1 X144.013 Y150.187 E0.01263
G1 X144.241 Y150.146 E0.00994
G1 X145.469 Y150.143 E0.0525
G1 X145.779 Y150.152 E0.01326
G1 X145.84 Y150.166 E0.00265
G1 X146.37 Y150.442 E0.02555
G1 X146.695 Y150.569 E0.01494
G1 X147.056 Y150.633 E0.01567
G1 X147.435 Y150.624 E0.0162
G1 X147.865 Y150.524 E0.0189
G1 X148.592 Y150.298 E0.03253
G1 X149.048 Y150.107 E0.02115
G1 X149.134 Y150.083 E0.00382
G1 X149.395 Y150.072 E0.01117
G1 X149.912 Y150.107 E0.02216
G1 X150.318 Y150.196 E0.01776
G1 X150.646 Y150.337 E0.01525
G1 X151.093 Y150.577 E0.0217
G1 X151.478 Y150.723 E0.01759
G1 X151.811 Y150.782 E0.01448
G1 X152.232 Y150.736 E0.01812
G1 X152.501 Y150.619 E0.01254
G1 X152.99 Y150.301 E0.02491
G1 X153.094 Y150.26 E0.00479
G1 X153.258 Y150.227 E0.00715
G1 X153.467 Y150.223 E0.00895
G1 X153.832 Y150.281 E0.01581
G1 X154.568 Y150.491 E0.03271
G1 X154.878 Y150.521 E0.01331
G1 X155.299 Y150.438 E0.01836
G1 X155.667 Y150.254 E0.01759
G1 X156.2 Y150.332 E0.02301
G1 X157.422 Y150.391 E0.05231
G1 X157.852 Y150.356 E0.01848
G1 X158.461 Y150.222 E0.02664
G1 X159.053 Y150.154 E0.02551
G1 X159.354 Y150.166 E0.01287
G1 X159.679 Y150.246 E0.0143
G1 X160.489 Y150.531 E0.03671
G1 X161.071 Y150.913 E0.02979
G1 X161.804 Y151.242 E0.03433
G1 X162.232 Y151.356 E0.01895
G1 X162.924 Y151.398 E0.02964
G1 X163.223 Y151.623 E0.01599
G1 X163.541 Y151.797 E0.01552
G1 X163.918 Y151.853 E0.01627
G1 X164.186 Y151.812 E0.01161
G1 X164.472 Y151.711 E0.01295
G1 X164.547 Y151.7 E0.00325
G1 X165.052 Y151.862 E0.02267
G1 X164.44 Y152.344 E0.03328
G1 X161.908 Y154.571 E0.14418
G1 X158.994 Y157.249 E0.1692
G1 X158.229 Y156.354 E0.05033
G1 X157.574 Y155.662 E0.04076
G1 X156.632 Y155.926 E0.04183
G1 X156.627 Y156.068 E0.00609
G1 X155.66 Y156.595 E0.04709
G1 X155.262 Y156.861 E0.02045
G1 X154.89 Y157.146 E0.02003
G1 X154.53 Y157.461 E0.02045
G1 X154.096 Y157.916 E0.0269
G1 X154.072 Y158.007 E0.004
G1 X153.282 Y158.712 E0.04525
G1 X150.392 Y155.75 E0.17692
G1 X154.226 Y158.443 F9000
; External perimeter
;ExternalPerimeter
SET_VELOCITY_LIMIT ACCEL=1000 ACCEL_TO_DECEL=1000 SQUARE_CORNER_VELOCITY=5

; Perimeter

;TYPE:External perimeter
G1 F1800
G1 X153.608 Y158.995 E0.03543
G1 X153.3 Y159.343 E0.01986
G1 X153.216 Y159.257 E0.00448
G1 X153.048 Y159.085 E0.00961
G1 X150.38 Y156.351 E0.16334
G1 X150.305 Y156.445 E0.00443
G1 X150.154 Y156.631 E0.00956
G1 X147.951 Y159.353 E0.14971
G1 X147.861 Y159.273 E0.00453
G1 X147.682 Y159.113 E0.00966
G1 X138.352 Y150.783 E0.53478
G1 X138.352 Y150.527 E0.01093
G1 X138.439 Y150.527 E0.00037
G1 X138.447 Y150.407 E0.00466
G1 X138.463 Y150.168 E0.00979
G1 X138.465 Y150.14 E0.00118
G1 X138.581 Y150.169 E0.00431
G1 X138.814 Y150.227 E0.00944
G1 X139.02 Y150.277 E0.00904
G1 X139.615 Y150.354 E0.02565
G1 X140.289 Y150.356 E0.02884
G1 X140.746 Y150.315 E0.01958
G1 X141.11 Y150.227 E0.01604
G1 X141.951 Y149.842 E0.03955
G1 X142.118 Y149.798 E0.0074
G1 X142.925 Y149.794 E0.03449
G1 X143.473 Y149.866 E0.02362
G1 X143.647 Y149.85 E0.00749
G1 X143.912 Y149.77 E0.01182
G1 X144.203 Y149.717 E0.01264
G1 X145.475 Y149.715 E0.05438
G1 X145.833 Y149.725 E0.01533
G1 X145.989 Y149.76 E0.00683
G1 X146.547 Y150.051 E0.02693
G1 X146.812 Y150.155 E0.01215
G1 X147.089 Y150.204 E0.01203
G1 X147.38 Y150.197 E0.01248
G1 X147.753 Y150.11 E0.01636
G1 X148.445 Y149.895 E0.03099
G1 X148.908 Y149.701 E0.02145
G1 X149.067 Y149.657 E0.00706
G1 X149.4 Y149.643 E0.01426
G1 X149.973 Y149.682 E0.02455
G1 X150.45 Y149.786 E0.02086
G1 X150.832 Y149.95 E0.01779
G1 X151.271 Y150.186 E0.0213
G1 X151.592 Y150.308 E0.01468
G1 X151.826 Y150.35 E0.01013
G1 X152.121 Y150.317 E0.0127
G1 X152.297 Y150.24 E0.00824
G1 X152.793 Y149.918 E0.02527
G1 X152.973 Y149.848 E0.00825
G1 X153.21 Y149.8 E0.01036
G1 X153.496 Y149.794 E0.01222
G1 X153.925 Y149.861 E0.01856
G1 X154.648 Y150.068 E0.03214
G1 X154.856 Y150.088 E0.00897
G1 X155.16 Y150.029 E0.01321
G1 X155.528 Y149.845 E0.01762
G1 X155.589 Y149.832 E0.00265
G1 X155.727 Y149.83 E0.00592
G1 X156.241 Y149.905 E0.0222
G1 X157.414 Y149.962 E0.05023
G1 X157.788 Y149.931 E0.01604
G1 X158.39 Y149.798 E0.02634
G1 X159.037 Y149.725 E0.02785
G1 X159.414 Y149.739 E0.01614
G1 X159.802 Y149.835 E0.01706
G1 X160.68 Y150.144 E0.03982
G1 X161.278 Y150.536 E0.03056
G1 X161.948 Y150.837 E0.03139
G1 X162.301 Y150.931 E0.01564
G1 X162.977 Y150.972 E0.02895
G1 X163.072 Y150.995 E0.0042
G1 X163.144 Y151.027 E0.00335
G1 X163.456 Y151.262 E0.01669
G1 X163.68 Y151.384 E0.01091
G1 X163.916 Y151.419 E0.01023
G1 X164.081 Y151.394 E0.00713
G1 X164.369 Y151.293 E0.01303
G1 X164.544 Y151.268 E0.00758
G1 X164.659 Y151.286 E0.00495
G1 X165.039 Y151.408 E0.01709
G1 X165.362 Y151.485 E0.01418
G1 X165.602 Y151.482 E0.01028
G1 X165.671 Y151.492 E0.00298
G1 X165.772 Y151.69 E0.00947
G1 X165.892 Y151.69 E0.00498
G1 X166.132 Y151.69 E0.01011
G1 X166.2 Y151.69 E0.0029
G1 X166.225 Y151.695 E0.00111
G1 X166.224 Y151.77 E0.00032
G1 X166.104 Y151.77 E0.0046
G1 X165.885 Y151.77 E0.00883
G1 X165.466 Y152.126 E0.02353
G1 X165.087 Y152.38 E0.01953
G1 X164.715 Y152.673 E0.02025
G1 X162.195 Y154.89 E0.14348
G1 X158.957 Y157.865 E0.18798
G1 X158.879 Y157.773 E0.00453
G1 X158.723 Y157.591 E0.00966
G1 X157.91 Y156.641 E0.05347
G1 X157.44 Y156.144 E0.02923
G1 X157.325 Y156.176 E0.00498
G1 X157.094 Y156.241 E0.01011
G1 X157.049 Y156.254 E0.00197
G1 X157.045 Y156.374 E0.00488
G1 X157.037 Y156.614 E0.01001
G1 X157.025 Y156.957 E0.01468
G1 X156.848 Y158.066 E0.04802
G1 X156.849 Y158.106 F9000
; External perimeter
;ThinWall
SET_VELOCITY_LIMIT ACCEL=2000 ACCEL_TO_DECEL=2000 SQUARE_CORNER_VELOCITY=5

; Other

;TYPE:Thin wall
;WIDTH:0.158083
G1 F1800
G1 X156.851 Y158.215 E0.00121
;WIDTH:0.354608
G1 X156.853 Y158.306 E0.0028
G1 X156.856 Y158.474 E0.00517
G1 X156.864 Y158.887 E0.01271
;WIDTH:0.258468
G1 X156.863 Y159 E0.00239
;WIDTH:0.010715
G1 X156.864 Y159.027 E0.00008
G1 X156.863 Y159 E0.00008
;WIDTH:0.0287186
G1 X156.864 Y158.887 E0.00027
;WIDTH:0.0394009
G1 X156.856 Y158.474 E0.00141
G1 X156.853 Y158.306 E0.00057
G1 X156.851 Y158.215 E0.00031
;WIDTH:0.0175648
G1 X156.849 Y158.106 E0.00013
G1 X156.848 Y158.066 F9000
; External perimeter
;ExternalPerimeter
SET_VELOCITY_LIMIT ACCEL=1000 ACCEL_TO_DECEL=1000 SQUARE_CORNER_VELOCITY=5

; Perimeter

;TYPE:External perimeter
;WIDTH:0.48
G1 F1800
G1 X156.556 Y156.595 E0.06413
G1 X156.451 Y156.652 E0.00406
G1 X156.24 Y156.767 E0.00919
G1 X155.882 Y156.962 E0.01744
G1 X155.512 Y157.209 E0.01902
G1 X155.162 Y157.477 E0.01885
G1 X154.827 Y157.77 E0.01902
G1 X154.481 Y158.134 E0.02146
G1 X154.306 Y158.771 E0.02823
G1 X154.278 Y158.654 E0.00046
G1 X154.24 Y158.502 E0.00203
;WIPE_START
G1 X154.011 Y158.106 F9000
;WIPE_END
G1 X163.164 Y152.811
; External perimeter
;SolidInfill
SET_VELOCITY_LIMIT ACCEL=2000 ACCEL_TO_DECEL=2000 SQUARE_CORNER_VELOCITY=5

; Bridge infill

;TYPE:Solid infill
;WIDTH:0.470334
G1 F2400
G1 X162.397 Y152.044 E0.04542
G1 X162.124 Y152.028 E0.01147
G1 X161.648 Y151.901 E0.02064
G1 X162.711 Y152.964 E0.06298
G1 X162.388 Y153.247 E0.01799
G1 X160.467 Y151.326 E0.11381
G1 X160.186 Y151.142 E0.01408
G1 X159.485 Y150.895 E0.03115
G1 X159.412 Y150.877 E0.00316
G1 X162.066 Y153.531 E0.15724
G1 X161.743 Y153.815 E0.01799
G1 X158.794 Y150.865 E0.17476
G1 X158.572 Y150.89 E0.00935
G1 X158.278 Y150.955 E0.01262
G1 X161.422 Y154.099 E0.18626
G1 X161.106 Y154.389 E0.01797
G1 X157.76 Y151.043 E0.19827
G1 X157.433 Y151.069 E0.01372
G1 X157.167 Y151.056 E0.01114
G1 X160.79 Y154.679 E0.21464
G1 X160.474 Y154.969 E0.01797
G1 X156.531 Y151.026 E0.23365
G1 X156.134 Y151.007 E0.01663
G1 X155.867 Y150.968 E0.01133
G1 X160.159 Y155.26 E0.25429
G1 X159.843 Y155.55 E0.01797
G1 X155.401 Y151.108 E0.26315
G1 X154.911 Y151.204 E0.02093
G1 X154.889 Y151.202 E0.00093
G1 X159.527 Y155.84 E0.2748
G1 X159.211 Y156.13 E0.01797
G1 X154.16 Y151.079 E0.2993
G1 X153.686 Y150.943 E0.02065
G1 X153.421 Y150.901 E0.01122
G1 X153.377 Y150.902 E0.00184
G1 X157.464 Y154.989 E0.24216
G1 X156.991 Y155.122 E0.02059
G1 X152.982 Y151.113 E0.2375
G1 X152.823 Y151.217 E0.00796
G1 X152.584 Y151.321 E0.01092
G1 X156.518 Y155.255 E0.23306
G1 X156.045 Y155.387 E0.02059
G1 X152.09 Y151.433 E0.23431
G1 X151.789 Y151.466 E0.0127
G1 X151.458 Y151.407 E0.01406
G1 X155.799 Y155.748 E0.25719
G1 X155.407 Y155.962 E0.01872
G1 X150.44 Y150.995 E0.29428
G1 X150.351 Y150.947 E0.0042
G1 X150.11 Y150.843 E0.011
G1 X149.816 Y150.779 E0.0126
G1 X149.604 Y150.764 E0.00893
G1 X155.036 Y156.197 E0.32188
G1 X154.867 Y156.31 E0.00851
G1 X154.684 Y156.451 E0.00968
G1 X149.067 Y150.833 E0.33283
G1 X148.824 Y150.935 E0.01103
G1 X148.624 Y150.997 E0.00875
G1 X154.348 Y156.721 E0.33912
G1 X154.061 Y156.971 E0.01595
G1 X154.028 Y157.007 E0.00203
G1 X148.162 Y151.141 E0.34754
G1 X148.043 Y151.178 E0.00523
G1 X147.678 Y151.263 E0.01569
G1 X153.732 Y157.317 E0.35872
G1 X153.437 Y157.628 E0.01796
G1 X147.118 Y151.309 E0.37436
G1 X147.004 Y151.312 E0.00477
G1 X146.511 Y151.224 E0.021
G1 X146.373 Y151.17 E0.00619
G1 X150.119 Y154.916 E0.22195
G1 X149.848 Y155.251 E0.01805
G1 X145.423 Y150.826 E0.26217
G1 X144.816 Y150.824 E0.02546
G1 X149.577 Y155.586 E0.28212
G1 X149.306 Y155.921 E0.01805
G1 X144.222 Y150.837 E0.30121
G1 X144.172 Y150.846 E0.00215
G1 X143.861 Y150.941 E0.01364
G1 X143.732 Y150.953 E0.00541
G1 X149.035 Y156.256 E0.3142
G1 X148.764 Y156.591 E0.01805
G1 X143.106 Y150.933 E0.33521
G1 X142.855 Y150.9 E0.01062
G1 X142.469 Y150.902 E0.01617
G1 X148.493 Y156.926 E0.35692
G1 X148.222 Y157.261 E0.01805
G1 X141.998 Y151.036 E0.36878
G1 X141.582 Y151.227 E0.01915
G1 X147.951 Y157.596 E0.37735
G1 X147.822 Y157.756 E0.00862
