; generated by SuperSlicer 2.3.57 on 2022-03-23 at 19:49:17 UTC


;
;

;
;
; 

; external perimeters extrusion width = 0.15mm
; perimeters extrusion width = 0.17mm
; infill extrusion width = 0.27mm
; solid infill extrusion width = 0.21mm
; top infill extrusion width = 0.15mm
; support material extrusion width = 0.16mm
; first layer extrusion width = 0.18mm

; external perimeters extrusion width = 0.15mm
; perimeters extrusion width = 0.17mm
; infill extrusion width = 0.27mm
; solid infill extrusion width = 0.21mm
; top infill extrusion width = 0.15mm
; support material extrusion width = 0.16mm
; first layer extrusion width = 0.18mm

; external perimeters extrusion width = 0.15mm
; perimeters extrusion width = 0.17mm
; infill extrusion width = 0.27mm
; solid infill extrusion width = 0.21mm
; top infill extrusion width = 0.15mm
; support material extrusion width = 0.16mm
; first layer extrusion width = 0.18mm

; object:{"name":"LogoBase-80p","id":"LogoBase-80p.STL id:0 copy 0","object_center":[134.362049,136.990010,0.000000],"boundingbox_center":[134.362049,136.990010,1.407800],"boundingbox_size":[30.275903,20.018280,2.815599]}
; object:{"name":"LogoBase-80p","id":"LogoBase-80p.STL id:1 copy 0","object_center":[134.362049,163.009140,0.000000],"boundingbox_center":[134.362049,163.009140,1.407800],"boundingbox_size":[30.275903,20.018280,2.815599]}
; object:{"name":"LogoBase-80p","id":"LogoBase-80p.STL id:2 copy 0","object_center":[170.637951,149.999575,0.000000],"boundingbox_center":[170.637951,149.999575,1.407800],"boundingbox_size":[30.275903,20.018280,2.815599]}
; plater:{"center":[152.500000,149.999575,0.000000],"boundingbox_center":[152.500000,149.999575,1.407800],"boundingbox_size":[66.551805,46.037410,2.815599]}

;TYPE:Custom
START_PRINT T_BED=60 T_EXTRUDER=230
M107
G21 ; set units to millimeters
G90 ; use absolute coordinates
M83 ; use relative distances for extrusion
; Filament gcode
M109 S230 ; set temperature and wait for it to be reached
M190 S60 ; set bed temperature and wait for it to be reached
;LAYER_CHANGE
;Z:0.1
;HEIGHT:0.1
G1 Z0.1 F9000
G1 E-0.8 F3000
G1 X117.053 Y124.773 F9000
G1 E0.8 F1800
; External perimeter
;Skirt
SET_VELOCITY_LIMIT ACCEL=300 ACCEL_TO_DECEL=3000 SQUARE_CORNER_VELOCITY=5

; Support material

;TYPE:Skirt
;WIDTH:0.18
G1 X116.789 Y125.067 E0.00261
G1 X116.565 Y125.387 E0.00258
G1 X116.362 Y125.772 E0.00287
G1 X116.212 Y126.186 E0.0029
G1 X116.12 Y126.616 E0.0029
G1 X116.086 Y127.05 E0.00287
G1 X116.087 Y172.987 E0.30279
G1 X116.121 Y173.39 E0.00266
G1 X116.205 Y173.786 E0.00266
G1 X116.337 Y174.168 E0.00266
G1 X116.516 Y174.53 E0.00266
G1 X116.739 Y174.868 E0.00266
G1 X117.002 Y175.175 E0.00266
G1 X117.301 Y175.446 E0.00266
G1 X117.632 Y175.679 E0.00266
G1 X118.018 Y175.881 E0.00287
G1 X118.427 Y176.029 E0.00287
G1 X118.852 Y176.121 E0.00287
G1 X119.286 Y176.156 E0.00287
G1 X149.408 Y176.135 E0.19854
G1 X150.031 Y176.073 E0.00413
G1 X150.489 Y175.947 E0.00313
G1 X186.82 Y162.917 E0.25441
G1 X187.301 Y162.688 E0.00351
G1 X187.739 Y162.384 E0.00351
G1 X188.12 Y162.012 E0.00351
G1 X188.435 Y161.582 E0.00351
G1 X188.634 Y161.205 E0.00281
G1 X188.783 Y160.8 E0.00284
G1 X188.876 Y160.384 E0.00281
G1 X188.913 Y159.959 E0.00281
G1 X188.913 Y140.023 E0.13141
G1 X188.838 Y139.392 E0.00418
G1 X188.642 Y138.793 E0.00415
G1 X188.335 Y138.243 E0.00415
G1 X187.927 Y137.763 E0.00415
G1 X187.668 Y137.538 E0.00226
G1 X187.388 Y137.342 E0.00226
G1 X186.777 Y137.046 E0.00447
G1 X150.477 Y124.027 E0.25419
G1 X149.949 Y123.89 E0.0036
G1 X149.404 Y123.843 E0.0036
G1 X119.173 Y123.847 E0.19927
G1 X118.784 Y123.888 E0.00258
G1 X118.399 Y123.978 E0.00261
G1 X118.028 Y124.114 E0.00261
G1 X117.679 Y124.292 E0.00258
G1 X117.352 Y124.513 E0.00261
G1 X117.07 Y124.758 E0.00246
G1 X117.174 Y124.877 F9000
G1 F1800
G1 X116.916 Y125.162 E0.00253
G1 X116.7 Y125.47 E0.00248
G1 X116.507 Y125.838 E0.00274
G1 X116.365 Y126.229 E0.00274
G1 X116.277 Y126.636 E0.00274
G1 X116.245 Y127.051 E0.00274
G1 X116.245 Y172.98 E0.30273
G1 X116.277 Y173.36 E0.00251
G1 X116.356 Y173.737 E0.00254
G1 X116.481 Y174.102 E0.00254
G1 X116.652 Y174.448 E0.00254
G1 X116.864 Y174.77 E0.00254
G1 X117.114 Y175.063 E0.00254
G1 X117.396 Y175.319 E0.00251
G1 X117.711 Y175.541 E0.00254
G1 X118.08 Y175.735 E0.00274
G1 X118.47 Y175.877 E0.00274
G1 X118.877 Y175.965 E0.00274
G1 X119.287 Y175.997 E0.00271
G1 X149.407 Y175.977 E0.19853
G1 X150.001 Y175.918 E0.00394
G1 X150.435 Y175.798 E0.00297
G1 X186.761 Y162.77 E0.25436
G1 X187.222 Y162.551 E0.00337
G1 X187.638 Y162.261 E0.00334
G1 X188.001 Y161.907 E0.00334
G1 X188.3 Y161.499 E0.00334
G1 X188.49 Y161.138 E0.00268
G1 X188.63 Y160.756 E0.00268
G1 X188.719 Y160.359 E0.00268
G1 X188.754 Y159.953 E0.00268
G1 X188.754 Y140.025 E0.13135
G1 X188.683 Y139.427 E0.00397
G1 X188.497 Y138.855 E0.00397
G1 X188.203 Y138.33 E0.00397
G1 X187.812 Y137.873 E0.00397
G1 X187.304 Y137.477 E0.00425
G1 X186.724 Y137.195 E0.00425
G1 X150.425 Y124.177 E0.25418
G1 X149.922 Y124.046 E0.00342
G1 X149.404 Y124.002 E0.00342
G1 X119.187 Y124.005 E0.19917
G1 X118.812 Y124.045 E0.00248
G1 X118.449 Y124.129 E0.00246
G1 X118.095 Y124.258 E0.00248
G1 X117.763 Y124.427 E0.00246
G1 X117.45 Y124.637 E0.00248
G1 X117.191 Y124.863 E0.00226
; INIT printing object LogoBase-80p.STL id:0 copy 0
G1 E-0.8 F3000
; printing object LogoBase-80p.STL id:0 copy 0
G1 X119.573 Y127.329 F9000
G1 E0.8 F1800
; External perimeter
;Perimeter
SET_VELOCITY_LIMIT ACCEL=2000 ACCEL_TO_DECEL=2000 SQUARE_CORNER_VELOCITY=5

; Overhang perimeter

;TYPE:Internal perimeter
G1 X149.151 Y127.329 E0.19496
G1 X149.151 Y146.63 E0.12722
G1 X119.573 Y146.65 E0.19496
G1 X119.573 Y127.352 E0.1272
G1 X119.414 Y146.809 F9000
; External perimeter
;ExternalPerimeter
SET_VELOCITY_LIMIT ACCEL=1000 ACCEL_TO_DECEL=1000 SQUARE_CORNER_VELOCITY=5

; Perimeter

;TYPE:External perimeter
G1 F1800
G1 X119.414 Y127.171 E0.12944
G1 X119.459 Y127.171 E0.00026
G1 X119.549 Y127.171 E0.00056
G1 X149.31 Y127.171 E0.19616
G1 X149.31 Y127.216 E0.00026
G1 X149.31 Y127.306 E0.00056
G1 X149.31 Y146.789 E0.12842
G1 X149.265 Y146.789 E0.00027
G1 X149.175 Y146.789 E0.00056
G1 X119.437 Y146.809 E0.19602
;WIPE_START
G1 X119.489 Y146.679 F9000
;WIPE_END
G1 X148.807 Y127.353
; External perimeter
;SolidInfill
SET_VELOCITY_LIMIT ACCEL=2000 ACCEL_TO_DECEL=2000 SQUARE_CORNER_VELOCITY=5

; Bridge infill

;TYPE:Solid infill
;WIDTH:0.181257
G1 F2400
G1 X149.06 Y127.606 E0.00237
G1 X149.06 Y127.83 E0.00149
G1 X148.651 Y127.421 E0.00383
G1 X148.427 Y127.421 E0.00149
G1 X149.06 Y128.054 E0.00594
G1 X149.06 Y128.278 E0.00149
G1 X148.203 Y127.421 E0.00804
G1 X147.979 Y127.421 E0.00149
G1 X149.06 Y128.502 E0.01015
G1 X149.06 Y128.727 E0.00149
G1 X147.754 Y127.421 E0.01225
G1 X147.53 Y127.421 E0.00149
G1 X149.06 Y128.951 E0.01436
G1 X149.06 Y129.175 E0.00149
G1 X147.306 Y127.421 E0.01646
G1 X147.082 Y127.421 E0.00149
G1 X149.06 Y129.399 E0.01857
G1 X149.06 Y129.623 E0.00149
G1 X146.857 Y127.421 E0.02067
G1 X146.633 Y127.421 E0.00149
G1 X149.06 Y129.848 E0.02277
G1 X149.06 Y130.072 E0.00149
G1 X146.409 Y127.421 E0.02488
G1 X146.185 Y127.421 E0.00149
G1 X149.06 Y130.296 E0.02698
G1 X149.06 Y130.52 E0.00149
G1 X145.961 Y127.421 E0.02909
G1 X145.736 Y127.421 E0.00149
G1 X149.06 Y130.744 E0.03119
G1 X149.06 Y130.969 E0.00149
G1 X145.512 Y127.421 E0.0333
G1 X145.288 Y127.421 E0.00149
G1 X149.06 Y131.193 E0.0354
G1 X149.06 Y131.417 E0.00149
G1 X145.064 Y127.421 E0.03751
G1 X144.84 Y127.421 E0.00149
G1 X149.06 Y131.641 E0.03961
G1 X149.06 Y131.865 E0.00149
G1 X144.615 Y127.421 E0.04172
G1 X144.391 Y127.421 E0.00149
G1 X149.06 Y132.09 E0.04382
G1 X149.06 Y132.314 E0.00149
G1 X144.167 Y127.421 E0.04592
G1 X143.943 Y127.421 E0.00149
G1 X149.06 Y132.538 E0.04803
G1 X149.06 Y132.762 E0.00149
G1 X143.719 Y127.421 E0.05013
G1 X143.494 Y127.421 E0.00149
G1 X149.06 Y132.987 E0.05224
G1 X149.06 Y133.211 E0.00149
G1 X143.27 Y127.421 E0.05434
G1 X143.046 Y127.421 E0.00149
G1 X149.06 Y133.435 E0.05645
G1 X149.06 Y133.659 E0.00149
G1 X142.822 Y127.421 E0.05855
G1 X142.598 Y127.421 E0.00149
G1 X149.06 Y133.883 E0.06066
G1 X149.06 Y134.108 E0.00149
G1 X142.373 Y127.421 E0.06276
G1 X142.149 Y127.421 E0.00149
G1 X149.06 Y134.332 E0.06487
G1 X149.06 Y134.556 E0.00149
G1 X141.925 Y127.421 E0.06697
G1 X141.701 Y127.421 E0.00149
G1 X149.06 Y134.78 E0.06907
G1 X149.06 Y135.004 E0.00149
G1 X141.476 Y127.421 E0.07118
G1 X141.252 Y127.421 E0.00149
G1 X149.06 Y135.229 E0.07328
G1 X149.06 Y135.453 E0.00149
G1 X141.028 Y127.421 E0.07539
G1 X140.804 Y127.421 E0.00149
G1 X149.06 Y135.677 E0.07749
G1 X149.06 Y135.901 E0.00149
G1 X140.58 Y127.421 E0.0796
G1 X140.355 Y127.421 E0.00149
G1 X149.06 Y136.125 E0.0817
G1 X149.06 Y136.35 E0.00149
G1 X140.131 Y127.421 E0.08381
G1 X139.907 Y127.421 E0.00149
G1 X149.06 Y136.574 E0.08591
G1 X149.06 Y136.798 E0.00149
G1 X139.683 Y127.421 E0.08802
G1 X139.459 Y127.421 E0.00149
G1 X149.06 Y137.022 E0.09012
G1 X149.06 Y137.246 E0.00149
G1 X139.234 Y127.421 E0.09223
G1 X139.01 Y127.421 E0.00149
G1 X149.06 Y137.471 E0.09433
G1 X149.06 Y137.695 E0.00149
G1 X138.786 Y127.421 E0.09643
G1 X138.562 Y127.421 E0.00149
G1 X149.06 Y137.919 E0.09854
G1 X149.06 Y138.143 E0.00149
G1 X138.338 Y127.421 E0.10064
G1 X138.113 Y127.421 E0.00149
G1 X149.06 Y138.368 E0.10275
G1 X149.06 Y138.592 E0.00149
G1 X137.889 Y127.421 E0.10485
G1 X137.665 Y127.421 E0.00149
G1 X149.06 Y138.816 E0.10696
G1 X149.06 Y139.04 E0.00149
G1 X137.441 Y127.421 E0.10906
G1 X137.217 Y127.421 E0.00149
G1 X149.06 Y139.264 E0.11117
G1 X149.06 Y139.489 E0.00149
G1 X136.992 Y127.421 E0.11327
G1 X136.768 Y127.421 E0.00149
G1 X149.06 Y139.713 E0.11538
G1 X149.06 Y139.937 E0.00149
G1 X136.544 Y127.421 E0.11748
G1 X136.32 Y127.421 E0.00149
G1 X149.06 Y140.161 E0.11958
G1 X149.06 Y140.385 E0.00149
G1 X136.095 Y127.421 E0.12169
G1 X135.871 Y127.421 E0.00149
G1 X149.06 Y140.61 E0.12379
G1 X149.06 Y140.834 E0.00149
G1 X135.647 Y127.421 E0.1259
G1 X135.423 Y127.421 E0.00149
G1 X149.06 Y141.058 E0.128
G1 X149.06 Y141.282 E0.00149
G1 X135.199 Y127.421 E0.13011
G1 X134.974 Y127.421 E0.00149
G1 X149.06 Y141.506 E0.13221
G1 X149.06 Y141.731 E0.00149
G1 X134.75 Y127.421 E0.13432
G1 X134.526 Y127.421 E0.00149
G1 X149.06 Y141.955 E0.13642
G1 X149.06 Y142.179 E0.00149
G1 X134.302 Y127.421 E0.13853
G1 X134.078 Y127.421 E0.00149
G1 X149.06 Y142.403 E0.14063
G1 X149.06 Y142.627 E0.00149
G1 X133.853 Y127.421 E0.14273
G1 X133.629 Y127.421 E0.00149
G1 X149.06 Y142.852 E0.14484
G1 X149.06 Y143.076 E0.00149
G1 X133.405 Y127.421 E0.14694
G1 X133.181 Y127.421 E0.00149
G1 X149.06 Y143.3 E0.14905
G1 X149.06 Y143.524 E0.00149
G1 X132.957 Y127.421 E0.15115
G1 X132.732 Y127.421 E0.00149
G1 X149.06 Y143.749 E0.15326
G1 X149.06 Y143.973 E0.00149
G1 X132.508 Y127.421 E0.15536
G1 X132.284 Y127.421 E0.00149
G1 X149.06 Y144.197 E0.15747
G1 X149.06 Y144.421 E0.00149
G1 X132.06 Y127.421 E0.15957
G1 X131.836 Y127.421 E0.00149
G1 X149.06 Y144.645 E0.16168
G1 X149.06 Y144.87 E0.00149
G1 X131.611 Y127.421 E0.16378
G1 X131.387 Y127.421 E0.00149
G1 X149.06 Y145.094 E0.16588
G1 X149.06 Y145.318 E0.00149
G1 X131.163 Y127.421 E0.16799
G1 X130.939 Y127.421 E0.00149
G1 X149.06 Y145.542 E0.17009
G1 X149.06 Y145.766 E0.00149
G1 X130.714 Y127.421 E0.1722
G1 X130.49 Y127.421 E0.00149
G1 X149.06 Y145.991 E0.1743
G1 X149.06 Y146.215 E0.00149
G1 X130.266 Y127.421 E0.17641
G1 X130.042 Y127.421 E0.00149
G1 X149.06 Y146.439 E0.17851
G1 X149.06 Y146.538 E0.00066
G1 X148.935 Y146.538 E0.00083
G1 X129.818 Y127.421 E0.17944
G1 X129.593 Y127.421 E0.00149
G1 X148.711 Y146.538 E0.17945
G1 X148.487 Y146.539 E0.00149
G1 X129.369 Y127.421 E0.17945
G1 X129.145 Y127.421 E0.00149
G1 X148.263 Y146.539 E0.17945
G1 X148.038 Y146.539 E0.00149
G1 X128.921 Y127.421 E0.17945
G1 X128.697 Y127.421 E0.00149
G1 X147.814 Y146.539 E0.17945
G1 X147.59 Y146.539 E0.00149
G1 X128.472 Y127.421 E0.17945
G1 X128.248 Y127.421 E0.00149
G1 X147.366 Y146.539 E0.17945
G1 X147.142 Y146.54 E0.00149
G1 X128.024 Y127.421 E0.17946
G1 X127.8 Y127.421 E0.00149
G1 X146.918 Y146.54 E0.17946
G1 X146.694 Y146.54 E0.00149
G1 X127.576 Y127.421 E0.17946
G1 X127.351 Y127.421 E0.00149
G1 X146.47 Y146.54 E0.17946
G1 X146.246 Y146.54 E0.00149
G1 X127.127 Y127.421 E0.17946
G1 X126.903 Y127.421 E0.00149
G1 X146.022 Y146.54 E0.17946
G1 X145.798 Y146.54 E0.00149
G1 X126.679 Y127.421 E0.17946
G1 X126.455 Y127.421 E0.00149
G1 X145.574 Y146.541 E0.17947
G1 X145.35 Y146.541 E0.00149
G1 X126.23 Y127.421 E0.17947
G1 X126.006 Y127.421 E0.00149
G1 X145.126 Y146.541 E0.17947
G1 X144.902 Y146.541 E0.00149
G1 X125.782 Y127.421 E0.17947
G1 X125.558 Y127.421 E0.00149
G1 X144.678 Y146.541 E0.17947
G1 X144.454 Y146.541 E0.00149
G1 X125.334 Y127.421 E0.17947
G1 X125.109 Y127.421 E0.00149
G1 X144.23 Y146.542 E0.17947
G1 X144.005 Y146.542 E0.00149
G1 X124.885 Y127.421 E0.17948
G1 X124.661 Y127.421 E0.00149
G1 X143.781 Y146.542 E0.17948
G1 X143.557 Y146.542 E0.00149
G1 X124.437 Y127.421 E0.17948
G1 X124.212 Y127.421 E0.00149
G1 X143.333 Y146.542 E0.17948
G1 X143.109 Y146.542 E0.00149
G1 X123.988 Y127.421 E0.17948
G1 X123.764 Y127.421 E0.00149
G1 X142.885 Y146.542 E0.17948
G1 X142.661 Y146.543 E0.00149
G1 X123.54 Y127.421 E0.17948
G1 X123.316 Y127.421 E0.00149
G1 X142.437 Y146.543 E0.17949
G1 X142.213 Y146.543 E0.00149
G1 X123.091 Y127.421 E0.17949
G1 X122.867 Y127.421 E0.00149
G1 X141.989 Y146.543 E0.17949
G1 X141.765 Y146.543 E0.00149
G1 X122.643 Y127.421 E0.17949
G1 X122.419 Y127.421 E0.00149
G1 X141.541 Y146.543 E0.17949
G1 X141.317 Y146.544 E0.00149
G1 X122.195 Y127.421 E0.17949
G1 X121.97 Y127.421 E0.00149
G1 X141.093 Y146.544 E0.17949
G1 X140.869 Y146.544 E0.00149
G1 X121.746 Y127.421 E0.1795
G1 X121.522 Y127.421 E0.00149
G1 X140.645 Y146.544 E0.1795
G1 X140.421 Y146.544 E0.00149
G1 X121.298 Y127.421 E0.1795
G1 X121.074 Y127.421 E0.00149
G1 X140.197 Y146.544 E0.1795
G1 X139.972 Y146.544 E0.00149
G1 X120.849 Y127.421 E0.1795
G1 X120.625 Y127.421 E0.00149
G1 X139.748 Y146.545 E0.1795
G1 X139.524 Y146.545 E0.00149
G1 X120.401 Y127.421 E0.1795
G1 X120.177 Y127.421 E0.00149
G1 X139.3 Y146.545 E0.17951
G1 X139.076 Y146.545 E0.00149
G1 X119.953 Y127.421 E0.17951
G1 X119.728 Y127.421 E0.00149
G1 X138.852 Y146.545 E0.17951
G1 X138.628 Y146.545 E0.00149
G1 X119.665 Y127.582 E0.178
G1 X119.665 Y127.806 E0.00149
G1 X138.404 Y146.546 E0.1759
G1 X138.18 Y146.546 E0.00149
G1 X119.665 Y128.03 E0.1738
G1 X119.665 Y128.254 E0.00149
G1 X137.956 Y146.546 E0.1717
G1 X137.732 Y146.546 E0.00149
G1 X119.665 Y128.479 E0.16959
G1 X119.665 Y128.703 E0.00149
G1 X137.508 Y146.546 E0.16749
G1 X137.284 Y146.546 E0.00149
G1 X119.665 Y128.927 E0.16539
G1 X119.665 Y129.151 E0.00149
G1 X137.06 Y146.546 E0.16328
G1 X136.836 Y146.547 E0.00149
G1 X119.665 Y129.375 E0.16118
G1 X119.665 Y129.6 E0.00149
G1 X136.612 Y146.547 E0.15908
G1 X136.388 Y146.547 E0.00149
G1 X119.665 Y129.824 E0.15697
G1 X119.665 Y130.048 E0.00149
G1 X136.164 Y146.547 E0.15487
G1 X135.939 Y146.547 E0.00149
G1 X119.665 Y130.272 E0.15277
G1 X119.665 Y130.497 E0.00149
G1 X135.715 Y146.547 E0.15066
G1 X135.491 Y146.548 E0.00149
G1 X119.665 Y130.721 E0.14856
G1 X119.665 Y130.945 E0.00149
G1 X135.267 Y146.548 E0.14646
G1 X135.043 Y146.548 E0.00149
G1 X119.665 Y131.169 E0.14435
G1 X119.665 Y131.393 E0.00149
G1 X134.819 Y146.548 E0.14225
G1 X134.595 Y146.548 E0.00149
G1 X119.665 Y131.618 E0.14015
G1 X119.665 Y131.842 E0.00149
G1 X134.371 Y146.548 E0.13805
G1 X134.147 Y146.548 E0.00149
G1 X119.665 Y132.066 E0.13594
G1 X119.665 Y132.29 E0.00149
G1 X133.923 Y146.549 E0.13384
G1 X133.699 Y146.549 E0.00149
G1 X119.665 Y132.514 E0.13174
G1 X119.665 Y132.739 E0.00149
G1 X133.475 Y146.549 E0.12963
G1 X133.251 Y146.549 E0.00149
G1 X119.665 Y132.963 E0.12753
G1 X119.665 Y133.187 E0.00149
G1 X133.027 Y146.549 E0.12543
G1 X132.803 Y146.549 E0.00149
G1 X119.665 Y133.411 E0.12332
G1 X119.665 Y133.635 E0.00149
G1 X132.579 Y146.55 E0.12122
G1 X132.355 Y146.55 E0.00149
G1 X119.665 Y133.86 E0.11912
G1 X119.665 Y134.084 E0.00149
G1 X132.131 Y146.55 E0.11701
G1 X131.907 Y146.55 E0.00149
G1 X119.665 Y134.308 E0.11491
G1 X119.665 Y134.532 E0.00149
G1 X131.682 Y146.55 E0.11281
