; generated by SuperSlicer 2.3.57 on 2022-02-21 at 08:02:29 UTC


;
;

;
;
; 

; external perimeters extrusion width = 0.20mm
; perimeters extrusion width = 0.23mm
; infill extrusion width = 0.36mm
; solid infill extrusion width = 0.28mm
; top infill extrusion width = 0.20mm
; support material extrusion width = 0.21mm
; first layer extrusion width = 0.24mm

; external perimeters extrusion width = 0.12mm
; perimeters extrusion width = 0.23mm
; infill extrusion width = 0.36mm
; solid infill extrusion width = 0.28mm
; top infill extrusion width = 0.10mm
; support material extrusion width = 0.21mm
; first layer extrusion width = 0.24mm

; external perimeters extrusion width = 0.20mm
; perimeters extrusion width = 0.23mm
; infill extrusion width = 0.36mm
; solid infill extrusion width = 0.28mm
; top infill extrusion width = 0.20mm
; support material extrusion width = 0.21mm
; first layer extrusion width = 0.24mm

; external perimeters extrusion width = 0.20mm
; perimeters extrusion width = 0.23mm
; infill extrusion width = 0.36mm
; solid infill extrusion width = 0.28mm
; top infill extrusion width = 0.20mm
; support material extrusion width = 0.21mm
; first layer extrusion width = 0.24mm

; external perimeters extrusion width = 0.20mm
; perimeters extrusion width = 0.23mm
; infill extrusion width = 0.36mm
; solid infill extrusion width = 0.28mm
; top infill extrusion width = 0.20mm
; support material extrusion width = 0.21mm
; first layer extrusion width = 0.24mm

; object:{"name":"Merged","id":"Merged id:0 copy 0","object_center":[152.500000,149.999929,0.000000],"boundingbox_center":[152.500000,149.999929,1.407800],"boundingbox_size":[92.827707,84.050046,2.815599]}
; plater:{"center":[152.500000,149.999929,0.000000],"boundingbox_center":[152.500000,149.999929,1.407800],"boundingbox_size":[92.827707,84.050046,2.815599]}

;TYPE:Custom
START_PRINT T_BED=60 T_EXTRUDER=210
M107
G21 ; set units to millimeters
G90 ; use absolute coordinates
M83 ; use relative distances for extrusion
; Filament gcode
M109 S210 ; set temperature and wait for it to be reached
M190 S60 ; set bed temperature and wait for it to be reached
M107
;LAYER_CHANGE
;Z:0.12
;HEIGHT:0.12
G1 Z0.12 F9000
G1 E-0.6 F3000
G1 X103.911 Y105.655 F9000
G1 E0.6 F1800
; External perimeter
;Skirt
SET_VELOCITY_LIMIT ACCEL=300 ACCEL_TO_DECEL=3000 SQUARE_CORNER_VELOCITY=5

; Support material

;TYPE:Skirt
;WIDTH:0.24
G1 X103.466 Y106.168 E0.00725
G1 X103.137 Y106.757 E0.00721
G1 X102.934 Y107.4 E0.00721
G1 X102.865 Y108.07 E0.00721
G1 X102.865 Y191.96 E0.89668
G1 X102.929 Y192.572 E0.00658
G1 X103.106 Y193.167 E0.00663
G1 X103.388 Y193.714 E0.00658
G1 X103.767 Y194.2 E0.00658
G1 X104.28 Y194.645 E0.00725
G1 X104.868 Y194.974 E0.00721
G1 X105.511 Y195.177 E0.00721
G1 X106.182 Y195.246 E0.00721
G1 X198.844 Y195.225 E0.99046
G1 X199.457 Y195.163 E0.00658
G1 X200.052 Y194.986 E0.00663
G1 X200.6 Y194.705 E0.00658
G1 X201.089 Y194.324 E0.00663
G1 X201.526 Y193.822 E0.00711
G1 X201.854 Y193.243 E0.00711
G1 X202.06 Y192.606 E0.00716
G1 X202.135 Y191.945 E0.00711
G1 X202.134 Y107.99 E0.89737
G1 X202.056 Y107.352 E0.00687
G1 X201.858 Y106.746 E0.00682
G1 X201.547 Y106.188 E0.00682
G1 X201.136 Y105.7 E0.00682
G1 X200.635 Y105.297 E0.00687
G1 X200.07 Y105 E0.00682
G1 X199.454 Y104.816 E0.00687
G1 X198.818 Y104.754 E0.00682
G1 X106.156 Y104.754 E0.99046
G1 X105.543 Y104.816 E0.00658
G1 X104.948 Y104.993 E0.00663
G1 X104.4 Y105.274 E0.00658
G1 X103.934 Y105.637 E0.00631
G1 X104.065 Y105.805 F9000
G1 F1800
G1 X103.646 Y106.285 E0.00681
G1 X103.336 Y106.838 E0.00678
G1 X103.145 Y107.439 E0.00674
G1 X103.079 Y108.071 E0.00678
G1 X103.079 Y191.954 E0.89662
G1 X103.138 Y192.53 E0.00618
G1 X103.302 Y193.08 E0.00614
G1 X103.566 Y193.594 E0.00618
G1 X103.921 Y194.051 E0.00618
G1 X104.396 Y194.465 E0.00674
G1 X104.95 Y194.775 E0.00678
G1 X105.551 Y194.966 E0.00674
G1 X106.182 Y195.032 E0.00678
G1 X198.843 Y195.011 E0.99045
G1 X199.419 Y194.952 E0.00618
G1 X199.969 Y194.789 E0.00614
G1 X200.483 Y194.524 E0.00618
G1 X200.94 Y194.17 E0.00618
G1 X201.351 Y193.697 E0.00669
G1 X201.659 Y193.152 E0.00669
G1 X201.852 Y192.557 E0.00669
G1 X201.921 Y191.939 E0.00665
G1 X201.92 Y108.002 E0.89719
G1 X201.848 Y107.406 E0.00641
G1 X201.663 Y106.835 E0.00641
G1 X201.374 Y106.315 E0.00637
G1 X200.988 Y105.855 E0.00641
G1 X200.521 Y105.479 E0.00641
G1 X199.99 Y105.199 E0.00641
G1 X199.415 Y105.027 E0.00641
G1 X198.818 Y104.968 E0.00641
G1 X106.157 Y104.968 E0.99045
G1 X105.581 Y105.027 E0.00618
G1 X105.031 Y105.19 E0.00614
G1 X104.517 Y105.454 E0.00618
G1 X104.089 Y105.787 E0.00579
; INIT printing object Merged id:0 copy 0
G1 E-0.6 F3000
; printing object Merged id:0 copy 0
G1 X169.072 Y172.197 F9000
G1 E0.6 F1800
; External perimeter
;Perimeter
SET_VELOCITY_LIMIT ACCEL=2000 ACCEL_TO_DECEL=2000 SQUARE_CORNER_VELOCITY=5

; Overhang perimeter

;TYPE:Internal perimeter
G1 X198.48 Y172.197 E0.31433
G1 X198.48 Y191.57 E0.20708
G1 X169.072 Y191.59 E0.31433
G1 X169.072 Y172.227 E0.20698
G1 X168.858 Y191.805 F9000
; External perimeter
;ExternalPerimeter
SET_VELOCITY_LIMIT ACCEL=1000 ACCEL_TO_DECEL=1000 SQUARE_CORNER_VELOCITY=5

; Perimeter

;TYPE:External perimeter
G1 F1800
G1 X168.858 Y171.983 E0.21188
G1 X168.918 Y171.983 E0.00057
G1 X169.038 Y171.983 E0.00121
G1 X198.694 Y171.983 E0.31699
G1 X198.694 Y172.043 E0.00057
G1 X198.694 Y172.163 E0.00121
G1 X198.694 Y191.784 E0.20973
G1 X198.634 Y191.784 E0.00058
G1 X198.514 Y191.784 E0.00122
G1 X168.888 Y191.805 E0.31667
;WIPE_START
G1 X168.958 Y191.632 F9000
;WIPE_END
G1 X198.447 Y172.662
; External perimeter
;SolidInfill
SET_VELOCITY_LIMIT ACCEL=2000 ACCEL_TO_DECEL=2000 SQUARE_CORNER_VELOCITY=5

; Bridge infill

;TYPE:Solid infill
;WIDTH:0.240728
G1 F2400
G1 X198.106 Y172.321 E0.00517
G1 X197.803 Y172.321 E0.00325
G1 X198.355 Y172.873 E0.00837
G1 X198.355 Y173.176 E0.00325
G1 X197.501 Y172.321 E0.01296
G1 X197.198 Y172.321 E0.00325
G1 X198.355 Y173.479 E0.01756
G1 X198.355 Y173.782 E0.00325
G1 X196.895 Y172.321 E0.02215
G1 X196.592 Y172.321 E0.00325
G1 X198.355 Y174.085 E0.02674
G1 X198.355 Y174.388 E0.00325
G1 X196.289 Y172.321 E0.03134
G1 X195.986 Y172.321 E0.00325
G1 X198.355 Y174.691 E0.03593
G1 X198.355 Y174.994 E0.00325
G1 X195.683 Y172.321 E0.04053
G1 X195.38 Y172.321 E0.00325
G1 X198.355 Y175.297 E0.04512
G1 X198.355 Y175.6 E0.00325
G1 X195.077 Y172.321 E0.04971
G1 X194.774 Y172.321 E0.00325
G1 X198.355 Y175.903 E0.05431
G1 X198.355 Y176.206 E0.00325
G1 X194.471 Y172.321 E0.0589
G1 X194.168 Y172.321 E0.00325
G1 X198.355 Y176.509 E0.0635
G1 X198.355 Y176.812 E0.00325
G1 X193.865 Y172.321 E0.06809
G1 X193.562 Y172.321 E0.00325
G1 X198.355 Y177.115 E0.07268
G1 X198.355 Y177.418 E0.00325
G1 X193.259 Y172.321 E0.07728
G1 X192.956 Y172.321 E0.00325
G1 X198.355 Y177.721 E0.08187
G1 X198.355 Y178.024 E0.00325
G1 X192.653 Y172.321 E0.08647
G1 X192.35 Y172.321 E0.00325
G1 X198.355 Y178.327 E0.09106
G1 X198.355 Y178.63 E0.00325
G1 X192.047 Y172.321 E0.09565
G1 X191.744 Y172.321 E0.00325
G1 X198.355 Y178.933 E0.10025
G1 X198.355 Y179.236 E0.00325
G1 X191.441 Y172.321 E0.10484
G1 X191.138 Y172.321 E0.00325
G1 X198.355 Y179.539 E0.10944
G1 X198.355 Y179.842 E0.00325
G1 X190.835 Y172.321 E0.11403
G1 X190.532 Y172.321 E0.00325
G1 X198.355 Y180.145 E0.11862
G1 X198.355 Y180.448 E0.00325
G1 X190.229 Y172.321 E0.12322
G1 X189.926 Y172.321 E0.00325
G1 X198.355 Y180.751 E0.12781
G1 X198.355 Y181.054 E0.00325
G1 X189.623 Y172.321 E0.13241
G1 X189.32 Y172.321 E0.00325
G1 X198.355 Y181.357 E0.137
G1 X198.355 Y181.66 E0.00325
G1 X189.017 Y172.321 E0.14159
G1 X188.714 Y172.321 E0.00325
G1 X198.355 Y181.963 E0.14619
G1 X198.355 Y182.266 E0.00325
G1 X188.411 Y172.321 E0.15078
G1 X188.108 Y172.321 E0.00325
G1 X198.355 Y182.569 E0.15538
G1 X198.355 Y182.872 E0.00325
G1 X187.805 Y172.321 E0.15997
G1 X187.502 Y172.321 E0.00325
G1 X198.355 Y183.175 E0.16456
G1 X198.355 Y183.478 E0.00325
G1 X187.199 Y172.321 E0.16916
G1 X186.896 Y172.321 E0.00325
G1 X198.355 Y183.781 E0.17375
G1 X198.355 Y184.084 E0.00325
G1 X186.593 Y172.321 E0.17835
G1 X186.29 Y172.321 E0.00325
G1 X198.355 Y184.387 E0.18294
G1 X198.355 Y184.69 E0.00325
G1 X185.987 Y172.321 E0.18753
G1 X185.684 Y172.321 E0.00325
G1 X198.355 Y184.993 E0.19213
G1 X198.355 Y185.296 E0.00325
G1 X185.381 Y172.321 E0.19672
G1 X185.078 Y172.321 E0.00325
G1 X198.355 Y185.599 E0.20132
G1 X198.355 Y185.901 E0.00325
G1 X184.775 Y172.321 E0.20591
G1 X184.472 Y172.321 E0.00325
G1 X198.355 Y186.204 E0.2105
G1 X198.355 Y186.507 E0.00325
G1 X184.169 Y172.321 E0.2151
G1 X183.866 Y172.321 E0.00325
G1 X198.355 Y186.81 E0.21969
G1 X198.355 Y187.113 E0.00325
G1 X183.563 Y172.321 E0.22429
G1 X183.26 Y172.321 E0.00325
G1 X198.355 Y187.416 E0.22888
G1 X198.355 Y187.719 E0.00325
G1 X182.957 Y172.321 E0.23347
G1 X182.654 Y172.321 E0.00325
G1 X198.355 Y188.022 E0.23807
G1 X198.355 Y188.325 E0.00325
G1 X182.351 Y172.321 E0.24266
G1 X182.048 Y172.321 E0.00325
G1 X198.355 Y188.628 E0.24726
G1 X198.355 Y188.931 E0.00325
G1 X181.745 Y172.321 E0.25185
G1 X181.442 Y172.321 E0.00325
G1 X198.355 Y189.234 E0.25644
G1 X198.355 Y189.537 E0.00325
G1 X181.139 Y172.321 E0.26104
G1 X180.836 Y172.321 E0.00325
G1 X198.355 Y189.84 E0.26563
G1 X198.355 Y190.143 E0.00325
G1 X180.533 Y172.321 E0.27023
G1 X180.23 Y172.321 E0.00325
G1 X198.355 Y190.446 E0.27482
G1 X198.355 Y190.749 E0.00325
G1 X179.927 Y172.321 E0.27941
G1 X179.624 Y172.321 E0.00325
G1 X198.355 Y191.052 E0.28401
G1 X198.355 Y191.355 E0.00325
G1 X179.321 Y172.321 E0.2886
G1 X179.018 Y172.321 E0.00325
G1 X198.143 Y191.446 E0.28998
G1 X197.84 Y191.446 E0.00325
G1 X178.715 Y172.321 E0.28998
G1 X178.412 Y172.321 E0.00325
G1 X197.538 Y191.446 E0.28998
G1 X197.235 Y191.447 E0.00325
G1 X178.109 Y172.321 E0.28999
G1 X177.806 Y172.321 E0.00325
G1 X196.932 Y191.447 E0.28999
G1 X196.629 Y191.447 E0.00325
G1 X177.503 Y172.321 E0.28999
G1 X177.2 Y172.321 E0.00325
G1 X196.326 Y191.447 E0.29
G1 X196.024 Y191.447 E0.00325
G1 X176.897 Y172.321 E0.29
G1 X176.594 Y172.321 E0.00325
G1 X195.721 Y191.448 E0.29
G1 X195.418 Y191.448 E0.00325
G1 X176.291 Y172.321 E0.29001
G1 X175.988 Y172.321 E0.00325
G1 X195.115 Y191.448 E0.29001
G1 X194.812 Y191.448 E0.00325
G1 X175.685 Y172.321 E0.29001
G1 X175.382 Y172.321 E0.00325
G1 X194.51 Y191.449 E0.29001
G1 X194.207 Y191.449 E0.00325
G1 X175.079 Y172.321 E0.29002
G1 X174.776 Y172.321 E0.00325
G1 X193.904 Y191.449 E0.29002
G1 X193.601 Y191.449 E0.00325
G1 X174.473 Y172.321 E0.29002
G1 X174.17 Y172.321 E0.00325
G1 X193.299 Y191.449 E0.29003
G1 X192.996 Y191.45 E0.00325
G1 X173.867 Y172.321 E0.29003
G1 X173.564 Y172.321 E0.00325
G1 X192.693 Y191.45 E0.29003
G1 X192.39 Y191.45 E0.00325
G1 X173.261 Y172.321 E0.29004
G1 X172.958 Y172.321 E0.00325
G1 X192.087 Y191.45 E0.29004
G1 X191.785 Y191.45 E0.00325
G1 X172.655 Y172.321 E0.29004
G1 X172.352 Y172.321 E0.00325
G1 X191.482 Y191.451 E0.29005
G1 X191.179 Y191.451 E0.00325
G1 X172.049 Y172.321 E0.29005
G1 X171.746 Y172.321 E0.00325
G1 X190.876 Y191.451 E0.29005
G1 X190.574 Y191.451 E0.00325
G1 X171.443 Y172.321 E0.29006
G1 X171.14 Y172.321 E0.00325
G1 X190.271 Y191.451 E0.29006
G1 X189.968 Y191.452 E0.00325
G1 X170.837 Y172.321 E0.29006
G1 X170.534 Y172.321 E0.00325
G1 X189.665 Y191.452 E0.29007
G1 X189.362 Y191.452 E0.00325
G1 X170.231 Y172.321 E0.29007
G1 X169.928 Y172.321 E0.00325
G1 X189.06 Y191.452 E0.29007
G1 X188.757 Y191.453 E0.00325
G1 X169.625 Y172.321 E0.29008
G1 X169.322 Y172.321 E0.00325
G1 X188.454 Y191.453 E0.29008
G1 X188.151 Y191.453 E0.00325
G1 X169.196 Y172.498 E0.2874
G1 X169.196 Y172.801 E0.00325
G1 X187.849 Y191.453 E0.28281
G1 X187.546 Y191.453 E0.00325
G1 X169.196 Y173.104 E0.27822
G1 X169.196 Y173.407 E0.00325
G1 X187.243 Y191.454 E0.27362
G1 X186.94 Y191.454 E0.00325
G1 X169.196 Y173.71 E0.26903
G1 X169.196 Y174.013 E0.00325
G1 X186.637 Y191.454 E0.26444
G1 X186.335 Y191.454 E0.00325
G1 X169.196 Y174.316 E0.25985
G1 X169.196 Y174.619 E0.00325
G1 X186.032 Y191.454 E0.25526
G1 X185.729 Y191.455 E0.00325
G1 X169.196 Y174.922 E0.25067
G1 X169.196 Y175.225 E0.00325
G1 X185.426 Y191.455 E0.24608
G1 X185.123 Y191.455 E0.00325
G1 X169.196 Y175.528 E0.24149
G1 X169.196 Y175.831 E0.00325
G1 X184.821 Y191.455 E0.2369
G1 X184.518 Y191.455 E0.00325
G1 X169.196 Y176.134 E0.23231
G1 X169.196 Y176.437 E0.00325
G1 X184.215 Y191.456 E0.22772
G1 X183.912 Y191.456 E0.00325
G1 X169.196 Y176.74 E0.22313
G1 X169.196 Y177.043 E0.00325
G1 X183.61 Y191.456 E0.21853
G1 X183.307 Y191.456 E0.00325
G1 X169.196 Y177.346 E0.21394
G1 X169.196 Y177.649 E0.00325
G1 X183.004 Y191.457 E0.20935
G1 X182.701 Y191.457 E0.00325
G1 X169.196 Y177.952 E0.20476
G1 X169.196 Y178.255 E0.00325
G1 X182.398 Y191.457 E0.20017
G1 X182.096 Y191.457 E0.00325
G1 X169.196 Y178.558 E0.19558
G1 X169.196 Y178.861 E0.00325
G1 X181.793 Y191.457 E0.19099
G1 X181.49 Y191.458 E0.00325
G1 X169.196 Y179.164 E0.1864
G1 X169.196 Y179.467 E0.00325
G1 X181.187 Y191.458 E0.18181
G1 X180.885 Y191.458 E0.00325
G1 X169.196 Y179.77 E0.17722
G1 X169.196 Y180.073 E0.00325
G1 X180.582 Y191.458 E0.17263
G1 X180.279 Y191.458 E0.00325
G1 X169.196 Y180.376 E0.16804
G1 X169.196 Y180.679 E0.00325
G1 X179.976 Y191.459 E0.16344
G1 X179.673 Y191.459 E0.00325
G1 X169.196 Y180.982 E0.15885
G1 X169.196 Y181.285 E0.00325
G1 X179.371 Y191.459 E0.15426
G1 X179.068 Y191.459 E0.00325
G1 X169.196 Y181.588 E0.14967
G1 X169.196 Y181.891 E0.00325
G1 X178.765 Y191.459 E0.14508
G1 X178.462 Y191.46 E0.00325
G1 X169.196 Y182.194 E0.14049
G1 X169.196 Y182.497 E0.00325
G1 X178.159 Y191.46 E0.1359
G1 X177.857 Y191.46 E0.00325
G1 X169.196 Y182.8 E0.13131
G1 X169.196 Y183.103 E0.00325
G1 X177.554 Y191.46 E0.12672
G1 X177.251 Y191.46 E0.00325
G1 X169.196 Y183.406 E0.12213
G1 X169.196 Y183.709 E0.00325
G1 X176.948 Y191.461 E0.11754
G1 X176.646 Y191.461 E0.00325
G1 X169.196 Y184.012 E0.11295
G1 X169.196 Y184.315 E0.00325
G1 X176.343 Y191.461 E0.10835
G1 X176.04 Y191.461 E0.00325
G1 X169.196 Y184.618 E0.10376
G1 X169.196 Y184.921 E0.00325
G1 X175.737 Y191.462 E0.09917
G1 X175.434 Y191.462 E0.00325
G1 X169.196 Y185.224 E0.09458
G1 X169.196 Y185.527 E0.00325
G1 X175.132 Y191.462 E0.08999
G1 X174.829 Y191.462 E0.00325
G1 X169.196 Y185.83 E0.0854
G1 X169.196 Y186.133 E0.00325
G1 X174.526 Y191.462 E0.08081
G1 X174.223 Y191.463 E0.00325
G1 X169.196 Y186.436 E0.07622
G1 X169.196 Y186.739 E0.00325
G1 X173.921 Y191.463 E0.07163
G1 X173.618 Y191.463 E0.00325
G1 X169.196 Y187.042 E0.06704
G1 X169.196 Y187.345 E0.00325
G1 X173.315 Y191.463 E0.06245
G1 X173.012 Y191.463 E0.00325
G1 X169.196 Y187.648 E0.05786
G1 X169.196 Y187.951 E0.00325
G1 X172.709 Y191.464 E0.05326
G1 X172.407 Y191.464 E0.00325
G1 X169.196 Y188.254 E0.04867
G1 X169.196 Y188.557 E0.00325
G1 X172.104 Y191.464 E0.04408
G1 X171.801 Y191.464 E0.00325
G1 X169.196 Y188.86 E0.03949
G1 X169.196 Y189.163 E0.00325
G1 X171.498 Y191.464 E0.0349
G1 X171.196 Y191.465 E0.00325
G1 X169.196 Y189.466 E0.03031
G1 X169.196 Y189.769 E0.00325
G1 X170.893 Y191.465 E0.02572
G1 X170.59 Y191.465 E0.00325
G1 X169.196 Y190.072 E0.02113
G1 X169.196 Y190.375 E0.00325
G1 X170.287 Y191.465 E0.01654
G1 X169.984 Y191.466 E0.00325
G1 X169.196 Y190.678 E0.01195
G1 X169.196 Y190.981 E0.00325
G1 X169.682 Y191.466 E0.00736
G1 X169.379 Y191.466 E0.00325
G1 X169.104 Y191.191 E0.00416
G1 E-0.6 F3000
G1 X169.09 Y170.328 F9000
G1 E0.6 F1800
; External perimeter
;Perimeter
SET_VELOCITY_LIMIT ACCEL=2000 ACCEL_TO_DECEL=2000 SQUARE_CORNER_VELOCITY=5

; Overhang perimeter

;TYPE:Internal perimeter
;WIDTH:0.24
G1 X169.072 Y170.328 E0.00019
G1 X169.072 Y150.934 E0.2073
G1 X198.48 Y150.934 E0.31433
G1 X198.48 Y170.307 E0.20708
G1 X169.12 Y170.328 E0.31382
G1 X168.858 Y170.542 F9000
; External perimeter
;ExternalPerimeter
SET_VELOCITY_LIMIT ACCEL=1000 ACCEL_TO_DECEL=1000 SQUARE_CORNER_VELOCITY=5

; Perimeter

;TYPE:External perimeter
G1 F1800
G1 X168.858 Y150.72 E0.21188
G1 X168.918 Y150.72 E0.00057
G1 X169.038 Y150.72 E0.00121
G1 X198.694 Y150.72 E0.31699
G1 X198.694 Y150.78 E0.00057
G1 X198.694 Y150.9 E0.00121
G1 X198.694 Y170.522 E0.20973
G1 X198.634 Y170.522 E0.00058
G1 X198.514 Y170.522 E0.00122
