; generated by SuperSlicer 2.5.59 on 2022-12-04 at 02:01:49 UTC


;
;

;
;
; 

; external perimeters extrusion width = 0.40mm
; perimeters extrusion width = 0.46mm
; infill extrusion width = 0.64mm
; solid infill extrusion width = 0.56mm
; top infill extrusion width = 0.40mm
; first layer extrusion width = 0.50mm

; external perimeters extrusion width = 0.40mm
; perimeters extrusion width = 0.46mm
; infill extrusion width = 0.64mm
; solid infill extrusion width = 0.56mm
; top infill extrusion width = 0.40mm
; first layer extrusion width = 0.50mm

; external perimeters extrusion width = 0.40mm
; perimeters extrusion width = 0.46mm
; infill extrusion width = 0.64mm
; solid infill extrusion width = 0.56mm
; top infill extrusion width = 0.40mm
; first layer extrusion width = 0.50mm

; external perimeters extrusion width = 0.40mm
; perimeters extrusion width = 0.46mm
; infill extrusion width = 0.64mm
; solid infill extrusion width = 0.56mm
; top infill extrusion width = 0.40mm
; first layer extrusion width = 0.50mm

; object:{"name":"M2_Nut_Adapter_Rotated_x5","id":"M2_Nut_Adapter_Rotated_x5.stl id:0 copy 0","object_center":[146.750000,150.000000,0.000000],"boundingbox_center":[146.750000,150.000000,1.200000],"boundingbox_size":[5.500000,145.000000,2.400000]}
; object:{"name":"M2_Nut_Adapter_Rotated_x5","id":"M2_Nut_Adapter_Rotated_x5.stl id:1 copy 0","object_center":[158.250000,150.000000,0.000000],"boundingbox_center":[158.250000,150.000000,1.200000],"boundingbox_size":[5.500000,145.000000,2.400000]}
; object:{"name":"M2_Nut_Adapter_Rotated_x5","id":"M2_Nut_Adapter_Rotated_x5.stl id:2 copy 0","object_center":[135.250000,150.000000,0.000000],"boundingbox_center":[135.250000,150.000000,1.200000],"boundingbox_size":[5.500000,145.000000,2.400000]}
; object:{"name":"M2_Nut_Adapter_Rotated_x5","id":"M2_Nut_Adapter_Rotated_x5.stl id:3 copy 0","object_center":[169.750000,150.000001,0.000000],"boundingbox_center":[169.750000,150.000001,1.200000],"boundingbox_size":[5.500000,145.000000,2.400000]}
; plater:{"center":[152.500000,150.000000,0.000000],"boundingbox_center":[152.500000,150.000000,1.200000],"boundingbox_size":[40.000000,145.000001,2.400000]}

M73 P0 R47


; Pre-Processed for Cancel-Object support by preprocess_cancellation v0.2.0
; 4 known objects
EXCLUDE_OBJECT_DEFINE NAME=M2_Nut_Adapter_Rotated_x5_stl_id_0_copy_0 CENTER=146.742,150.093 POLYGON=[[144.2,77.702],[144.2,222.3],[149.3,222.3],[149.3,77.702]]
EXCLUDE_OBJECT_DEFINE NAME=M2_Nut_Adapter_Rotated_x5_stl_id_2_copy_0 CENTER=135.242,150.094 POLYGON=[[132.7,77.702],[132.7,222.3],[137.8,222.3],[137.8,77.702]]
EXCLUDE_OBJECT_DEFINE NAME=M2_Nut_Adapter_Rotated_x5_stl_id_1_copy_0 CENTER=158.242,150.094 POLYGON=[[155.7,77.702],[155.7,222.3],[160.8,222.3],[160.8,77.702]]
EXCLUDE_OBJECT_DEFINE NAME=M2_Nut_Adapter_Rotated_x5_stl_id_3_copy_0 CENTER=169.742,150.094 POLYGON=[[167.2,77.702],[167.2,222.3],[172.3,222.3],[172.3,77.702]]


; Pre-Processed for Cancel-Object support by preprocess_cancellation v0.2.0
; 4 known objects
EXCLUDE_OBJECT_DEFINE NAME=M2_Nut_Adapter_Rotated_x5_stl_id_0_copy_0 CENTER=146.742,150.093 POLYGON=[[144.2,77.702],[144.2,222.3],[149.3,222.3],[149.3,77.702]]
EXCLUDE_OBJECT_DEFINE NAME=M2_Nut_Adapter_Rotated_x5_stl_id_2_copy_0 CENTER=135.242,150.094 POLYGON=[[132.7,77.702],[132.7,222.3],[137.8,222.3],[137.8,77.702]]
EXCLUDE_OBJECT_DEFINE NAME=M2_Nut_Adapter_Rotated_x5_stl_id_1_copy_0 CENTER=158.242,150.094 POLYGON=[[155.7,77.702],[155.7,222.3],[160.8,222.3],[160.8,77.702]]
EXCLUDE_OBJECT_DEFINE NAME=M2_Nut_Adapter_Rotated_x5_stl_id_3_copy_0 CENTER=169.742,150.094 POLYGON=[[167.2,77.702],[167.2,222.3],[172.3,222.3],[172.3,77.702]]
;TYPE:Custom
START_PRINT T_BED=90 T_EXTRUDER=240
M107
G21 ; set units to millimeters
G90 ; use absolute coordinates
M83 ; use relative distances for extrusion
; Filament gcode
;_TOOLCHANGE 0
M104 S240 ; set temperature
M109 S240 ; set temperature and wait for it to be reached
M190 S90 ; set bed temperature and wait for it to be reached
M107
;LAYER_CHANGE
;Z:0.2
;HEIGHT:0.2
G1 Z0.2 F9000
G92 E0
G1 E-0.5 F3000
M204 S1000
G1 X129.747 Y76.193 F9000
G1 E0.5 F1800
;TYPE:Skirt
;WIDTH:0.52
G1 X129.184 Y77.616 E0.05766
G1 X129.084 Y78.509 E0.03386
G1 X129.084 Y221.491 E5.38842
G1 X129.184 Y222.384 E0.03386
G1 X129.747 Y223.807 E0.05765
G1 X130.766 Y224.954 E0.05782
G1 X131.686 Y225.523 E0.04078
G1 X132.612 Y225.815 E0.03656
G1 X133.509 Y225.916 E0.03402
G1 X171.634 Y225.903 E1.43677
M73 P0 R47
G1 X173.12 Y225.596 E0.0572
G1 X174.423 Y224.795 E0.05766
G1 X175.253 Y223.807 E0.04863
G1 X175.816 Y222.384 E0.05765
G1 X175.916 Y221.491 E0.03386
G1 X175.916 Y78.509 E5.38842
G1 X175.816 Y77.616 E0.03386
G1 X175.374 Y76.403 E0.04863
G1 X174.423 Y75.205 E0.05766
G1 X173.12 Y74.404 E0.05765
G1 X171.621 Y74.097 E0.05766
G1 X133.379 Y74.097 E1.4412
G1 X131.88 Y74.404 E0.05766
G1 X130.577 Y75.205 E0.05765
G1 X129.747 Y76.193 E0.04863
G1 X130.16 Y76.432 F9000
G1 F1800
G1 X129.654 Y77.699 E0.05141
G1 X129.561 Y78.509 E0.03072
G1 X129.561 Y221.491 E5.38842
G1 X129.654 Y222.301 E0.03073
G1 X130.16 Y223.568 E0.05141
G1 X131.073 Y224.589 E0.05158
G1 X131.888 Y225.091 E0.03609
G1 X132.694 Y225.345 E0.03187
G1 X133.509 Y225.439 E0.03088
G1 X171.632 Y225.426 E1.43671
G1 X172.957 Y225.148 E0.05102
G1 X174.117 Y224.43 E0.05142
G1 X174.84 Y223.568 E0.04239
G1 X175.346 Y222.301 E0.05141
G1 X175.439 Y221.491 E0.03073
G1 X175.439 Y78.509 E5.38842
G1 X175.346 Y77.699 E0.03072
G1 X174.961 Y76.642 E0.04239
G1 X174.117 Y75.57 E0.05141
G1 X172.957 Y74.852 E0.05141
G1 X171.621 Y74.574 E0.05142
G1 X133.379 Y74.574 E1.4412
G1 X132.043 Y74.852 E0.05142
G1 X130.883 Y75.57 E0.05141
G1 X130.16 Y76.432 E0.04239
G1 E-0.5 F3000
; printing object M2_Nut_Adapter_Rotated_x5.stl id:0 copy 0
EXCLUDE_OBJECT_START NAME=M2_Nut_Adapter_Rotated_x5_stl_id_0_copy_0
EXCLUDE_OBJECT_START NAME=M2_Nut_Adapter_Rotated_x5_stl_id_0_copy_0
G1 X145.921 Y145.297 F9000
G1 E0.5 F1800
;TYPE:Internal perimeter
;WIDTH:0.5
G1 X146.242 Y145.383 E0.01198
G1 X146.75 Y145.428 E0.01843
G1 X147.258 Y145.383 E0.01843
G1 X147.579 Y145.297 E0.01198
G1 X147.579 Y154.703 E0.33958
G1 X147.258 Y154.617 E0.01198
G1 X146.75 Y154.572 E0.01843
G1 X146.242 Y154.617 E0.01843
G1 X145.921 Y154.703 E0.01198
G1 X145.921 Y145.297 E0.33958
G1 X146.67 Y144.962 F9000
G1 F1800
G1 X146.75 Y144.969 E0.00289
G1 X147.179 Y144.931 E0.01554
G1 X147.594 Y144.82 E0.01554
G1 X148.036 Y144.614 E0.01758
G1 X148.036 Y155.386 E0.38892
G1 X147.594 Y155.18 E0.01758
G1 X147.179 Y155.069 E0.01554
G1 X146.75 Y155.031 E0.01554
G1 X146.321 Y155.069 E0.01554
G1 X145.906 Y155.18 E0.01554
G1 X145.464 Y155.386 E0.01758
G1 X145.464 Y144.614 E0.38892
G1 X145.906 Y144.82 E0.01758
G1 X146.321 Y144.931 E0.01554
G1 X146.67 Y144.962 E0.01265
G1 X146.71 Y144.507 F9000
G1 F1800
G1 X146.75 Y144.51 E0.00144
G1 X147.099 Y144.48 E0.01265
G1 X147.438 Y144.389 E0.01265
G1 X147.755 Y144.241 E0.01265
G1 X148.042 Y144.04 E0.01265
G1 X148.493 Y143.589 E0.02302
G1 X148.493 Y156.411 E0.46295
M73 P1 R47
G1 X148.042 Y155.96 E0.02302
G1 X147.755 Y155.759 E0.01265
G1 X147.438 Y155.611 E0.01265
G1 X147.099 Y155.52 E0.01265
G1 X146.75 Y155.49 E0.01265
G1 X146.401 Y155.52 E0.01265
G1 X146.062 Y155.611 E0.01265
G1 X145.745 Y155.759 E0.01265
G1 X145.458 Y155.96 E0.01265
G1 X145.007 Y156.411 E0.02302
G1 X145.007 Y143.589 E0.46295
G1 X145.458 Y144.04 E0.02302
G1 X145.745 Y144.241 E0.01265
G1 X146.062 Y144.389 E0.01265
G1 X146.401 Y144.48 E0.01265
G1 X146.71 Y144.507 E0.01121
G1 E-0.5 F3000
G1 X147.579 Y169.703 F9000
G1 E0.5 F1800
G1 X147.258 Y169.617 E0.01198
G1 X146.75 Y169.572 E0.01843
G1 X146.242 Y169.617 E0.01843
G1 X145.921 Y169.703 E0.01198
G1 X145.921 Y160.297 E0.33958
G1 X146.242 Y160.383 E0.01198
G1 X146.75 Y160.428 E0.01843
G1 X147.258 Y160.383 E0.01843
G1 X147.579 Y160.297 E0.01198
G1 X147.579 Y169.703 E0.33958
G1 X146.83 Y170.038 F9000
G1 F1800
G1 X146.75 Y170.031 E0.00289
G1 X146.321 Y170.069 E0.01554
G1 X145.906 Y170.18 E0.01554
G1 X145.464 Y170.386 E0.01758
G1 X145.464 Y159.614 E0.38892
G1 X145.906 Y159.82 E0.01758
G1 X146.321 Y159.931 E0.01554
G1 X146.75 Y159.969 E0.01554
G1 X147.179 Y159.931 E0.01554
G1 X147.594 Y159.82 E0.01554
G1 X148.036 Y159.614 E0.01758
G1 X148.036 Y170.386 E0.38892
G1 X147.594 Y170.18 E0.01758
G1 X147.179 Y170.069 E0.01554
G1 X146.83 Y170.038 E0.01265
G1 X146.79 Y170.493 F9000
G1 F1800
G1 X146.75 Y170.49 E0.00144
G1 X146.401 Y170.52 E0.01265
G1 X146.062 Y170.611 E0.01265
G1 X145.745 Y170.759 E0.01265
G1 X145.458 Y170.96 E0.01265
G1 X145.007 Y171.411 E0.02302
G1 X145.007 Y158.589 E0.46295
G1 X145.458 Y159.04 E0.02302
G1 X145.745 Y159.241 E0.01265
G1 X146.062 Y159.389 E0.01265
G1 X146.401 Y159.48 E0.01265
G1 X146.75 Y159.51 E0.01265
G1 X147.099 Y159.48 E0.01265
G1 X147.438 Y159.389 E0.01265
G1 X147.755 Y159.241 E0.01265
G1 X148.042 Y159.04 E0.01265
G1 X148.493 Y158.589 E0.02302
M73 P1 R46
G1 X148.493 Y171.411 E0.46295
G1 X148.042 Y170.96 E0.02302
G1 X147.755 Y170.759 E0.01265
G1 X147.438 Y170.611 E0.01265
G1 X147.099 Y170.52 E0.01265
G1 X146.79 Y170.493 E0.01121
G1 E-0.5 F3000
G1 X147.579 Y184.703 F9000
G1 E0.5 F1800
G1 X147.258 Y184.617 E0.01198
G1 X146.75 Y184.572 E0.01843
G1 X146.242 Y184.617 E0.01843
G1 X145.921 Y184.703 E0.01198
G1 X145.921 Y175.297 E0.33958
G1 X146.242 Y175.383 E0.01198
G1 X146.75 Y175.428 E0.01843
G1 X147.258 Y175.383 E0.01843
G1 X147.579 Y175.297 E0.01198
G1 X147.579 Y184.703 E0.33958
G1 X146.83 Y185.038 F9000
G1 F1800
G1 X146.75 Y185.031 E0.00289
G1 X146.321 Y185.069 E0.01554
G1 X145.906 Y185.18 E0.01554
G1 X145.464 Y185.386 E0.01758
G1 X145.464 Y174.614 E0.38892
G1 X145.906 Y174.82 E0.01758
G1 X146.321 Y174.931 E0.01554
G1 X146.75 Y174.969 E0.01554
G1 X147.179 Y174.931 E0.01554
G1 X147.594 Y174.82 E0.01554
G1 X148.036 Y174.614 E0.01758
G1 X148.036 Y185.386 E0.38892
G1 X147.594 Y185.18 E0.01758
G1 X147.179 Y185.069 E0.01554
G1 X146.83 Y185.038 E0.01265
G1 X146.79 Y185.493 F9000
G1 F1800
G1 X146.75 Y185.49 E0.00144
G1 X146.401 Y185.52 E0.01265
G1 X146.062 Y185.611 E0.01265
G1 X145.745 Y185.759 E0.01265
G1 X145.458 Y185.96 E0.01265
G1 X145.007 Y186.411 E0.02302
G1 X145.007 Y173.589 E0.46295
G1 X145.458 Y174.04 E0.02302
G1 X145.745 Y174.241 E0.01265
G1 X146.062 Y174.389 E0.01265
G1 X146.401 Y174.48 E0.01265
G1 X146.75 Y174.51 E0.01265
G1 X147.099 Y174.48 E0.01265
G1 X147.438 Y174.389 E0.01265
G1 X147.755 Y174.241 E0.01265
G1 X148.042 Y174.04 E0.01265
G1 X148.493 Y173.589 E0.02302
G1 X148.493 Y186.411 E0.46295
G1 X148.042 Y185.96 E0.02302
G1 X147.755 Y185.759 E0.01265
G1 X147.438 Y185.611 E0.01265
G1 X147.099 Y185.52 E0.01265
G1 X146.79 Y185.493 E0.01121
G1 E-0.5 F3000
G1 X147.579 Y199.703 F9000
G1 E0.5 F1800
G1 X147.258 Y199.617 E0.01198
G1 X146.75 Y199.572 E0.01843
G1 X146.242 Y199.617 E0.01843
G1 X145.921 Y199.703 E0.01198
G1 X145.921 Y190.297 E0.33958
G1 X146.242 Y190.383 E0.01198
G1 X146.75 Y190.428 E0.01843
G1 X147.258 Y190.383 E0.01843
G1 X147.579 Y190.297 E0.01198
G1 X147.579 Y199.703 E0.33958
G1 X146.83 Y200.038 F9000
G1 F1800
G1 X146.75 Y200.031 E0.00289
G1 X146.321 Y200.069 E0.01554
G1 X145.906 Y200.18 E0.01554
G1 X145.464 Y200.386 E0.01758
G1 X145.464 Y189.614 E0.38892
G1 X145.906 Y189.82 E0.01758
G1 X146.321 Y189.931 E0.01554
G1 X146.75 Y189.969 E0.01554
G1 X147.179 Y189.931 E0.01554
G1 X147.594 Y189.82 E0.01554
G1 X148.036 Y189.614 E0.01758
G1 X148.036 Y200.386 E0.38892
G1 X147.594 Y200.18 E0.01758
G1 X147.179 Y200.069 E0.01554
G1 X146.83 Y200.038 E0.01265
G1 X146.79 Y200.493 F9000
G1 F1800
G1 X146.75 Y200.49 E0.00144
G1 X146.401 Y200.52 E0.01265
G1 X146.062 Y200.611 E0.01265
G1 X145.745 Y200.759 E0.01265
G1 X145.458 Y200.96 E0.01265
G1 X145.007 Y201.411 E0.02302
G1 X145.007 Y188.589 E0.46295
G1 X145.458 Y189.04 E0.02302
G1 X145.745 Y189.241 E0.01265
G1 X146.062 Y189.389 E0.01265
G1 X146.401 Y189.48 E0.01265
G1 X146.75 Y189.51 E0.01265
G1 X147.099 Y189.48 E0.01265
G1 X147.438 Y189.389 E0.01265
G1 X147.755 Y189.241 E0.01265
G1 X148.042 Y189.04 E0.01265
G1 X148.493 Y188.589 E0.02302
G1 X148.493 Y201.411 E0.46295
G1 X148.042 Y200.96 E0.02302
G1 X147.755 Y200.759 E0.01265
G1 X147.438 Y200.611 E0.01265
G1 X147.099 Y200.52 E0.01265
G1 X146.79 Y200.493 E0.01121
G1 E-0.5 F3000
G1 X147.579 Y214.703 F9000
G1 E0.5 F1800
G1 X147.258 Y214.617 E0.01197
G1 X146.75 Y214.572 E0.01843
G1 X146.242 Y214.617 E0.01843
G1 X145.921 Y214.703 E0.01197
G1 X145.921 Y205.297 E0.33958
G1 X146.242 Y205.383 E0.01198
G1 X146.75 Y205.428 E0.01843
G1 X147.258 Y205.383 E0.01843
G1 X147.579 Y205.297 E0.01198
G1 X147.579 Y214.703 E0.33958
G1 X146.83 Y215.038 F9000
G1 F1800
G1 X146.75 Y215.031 E0.00289
G1 X146.321 Y215.069 E0.01554
G1 X145.906 Y215.18 E0.01554
G1 X145.464 Y215.386 E0.01759
G1 X145.464 Y204.614 E0.38891
G1 X145.906 Y204.82 E0.01758
G1 X146.321 Y204.931 E0.01554
G1 X146.75 Y204.969 E0.01554
G1 X147.179 Y204.931 E0.01554
G1 X147.594 Y204.82 E0.01554
G1 X148.036 Y204.614 E0.01758
G1 X148.036 Y215.386 E0.38891
G1 X147.594 Y215.18 E0.01759
G1 X147.179 Y215.069 E0.01554
G1 X146.83 Y215.038 E0.01265
G1 X146.79 Y215.493 F9000
G1 F1800
G1 X146.75 Y215.49 E0.00144
G1 X146.401 Y215.52 E0.01265
G1 X146.063 Y215.611 E0.01265
G1 X145.745 Y215.759 E0.01265
G1 X145.458 Y215.96 E0.01265
G1 X145.007 Y216.411 E0.02302
G1 X145.007 Y203.589 E0.46295
G1 X145.458 Y204.04 E0.02302
G1 X145.745 Y204.241 E0.01265
G1 X146.062 Y204.389 E0.01265
G1 X146.401 Y204.48 E0.01265
G1 X146.75 Y204.51 E0.01265
G1 X147.099 Y204.48 E0.01265
G1 X147.438 Y204.389 E0.01265
G1 X147.755 Y204.241 E0.01265
G1 X148.042 Y204.04 E0.01265
G1 X148.493 Y203.589 E0.02302
G1 X148.493 Y216.411 E0.46295
G1 X148.042 Y215.96 E0.02302
G1 X147.755 Y215.759 E0.01265
G1 X147.437 Y215.611 E0.01265
G1 X147.099 Y215.52 E0.01265
G1 X146.79 Y215.493 E0.01121
G1 E-0.5 F3000
G1 X145.464 Y219.614 F9000
G1 E0.5 F1800
G1 X145.906 Y219.82 E0.01759
G1 X146.321 Y219.931 E0.01554
G1 X146.75 Y219.969 E0.01554
G1 X147.179 Y219.931 E0.01554
G1 X147.594 Y219.82 E0.01554
G1 X148.036 Y219.614 E0.01759
G1 X148.036 Y221.026 E0.05096
G1 X145.464 Y221.034 E0.09285
G1 X145.464 Y219.614 E0.05127
G1 X145.007 Y218.589 F9000
G1 F1800
G1 X145.458 Y219.04 E0.02302
G1 X145.745 Y219.241 E0.01265
G1 X146.063 Y219.389 E0.01265
G1 X146.401 Y219.48 E0.01265
G1 X146.75 Y219.51 E0.01265
G1 X147.099 Y219.48 E0.01265
G1 X147.437 Y219.389 E0.01265
G1 X147.755 Y219.241 E0.01265
G1 X148.042 Y219.04 E0.01265
G1 X148.493 Y218.589 E0.02302
G1 X148.493 Y221.481 E0.10443
G1 X145.007 Y221.493 E0.12586
G1 X145.007 Y218.589 E0.10485
G1 E-0.5 F3000
G1 X145.921 Y130.297 F9000
G1 E0.5 F1800
G1 X146.242 Y130.383 E0.01197
G1 X146.75 Y130.428 E0.01843
G1 X147.258 Y130.383 E0.01843
G1 X147.579 Y130.297 E0.01197
G1 X147.579 Y139.703 E0.33958
G1 X147.258 Y139.617 E0.01197
G1 X146.75 Y139.572 E0.01843
G1 X146.242 Y139.617 E0.01843
G1 X145.921 Y139.703 E0.01197
G1 X145.921 Y130.297 E0.33958
G1 X146.67 Y129.962 F9000
G1 F1800
G1 X146.75 Y129.969 E0.00289
G1 X147.179 Y129.931 E0.01554
G1 X147.594 Y129.82 E0.01554
G1 X148.036 Y129.614 E0.01758
G1 X148.036 Y140.386 E0.38892
G1 X147.594 Y140.18 E0.01758
G1 X147.179 Y140.069 E0.01554
G1 X146.75 Y140.031 E0.01554
G1 X146.321 Y140.069 E0.01554
G1 X145.906 Y140.18 E0.01554
G1 X145.464 Y140.386 E0.01758
G1 X145.464 Y129.614 E0.38892
G1 X145.906 Y129.82 E0.01758
G1 X146.321 Y129.931 E0.01554
G1 X146.67 Y129.962 E0.01265
G1 X146.71 Y129.507 F9000
G1 F1800
G1 X146.75 Y129.51 E0.00144
G1 X147.099 Y129.48 E0.01265
G1 X147.438 Y129.389 E0.01265
G1 X147.755 Y129.241 E0.01265
G1 X148.042 Y129.04 E0.01265
G1 X148.493 Y128.589 E0.02302
G1 X148.493 Y141.411 E0.46295
G1 X148.042 Y140.96 E0.02302
G1 X147.755 Y140.759 E0.01265
G1 X147.438 Y140.611 E0.01265
G1 X147.099 Y140.52 E0.01265
G1 X146.75 Y140.49 E0.01265
G1 X146.401 Y140.52 E0.01265
G1 X146.062 Y140.611 E0.01265
G1 X145.745 Y140.759 E0.01265
G1 X145.458 Y140.96 E0.01265
G1 X145.007 Y141.411 E0.02302
G1 X145.007 Y128.589 E0.46295
G1 X145.458 Y129.04 E0.02302
G1 X145.745 Y129.241 E0.01265
G1 X146.062 Y129.389 E0.01265
G1 X146.401 Y129.48 E0.01265
G1 X146.71 Y129.507 E0.01121
G1 E-0.5 F3000
G1 X145.921 Y115.297 F9000
G1 E0.5 F1800
