; generated by SuperSlicer 2.3.56 on 2021-08-03 at 20:11:07 UTC


;
;

;
;
; 

; external perimeters extrusion width = 0.40mm
; perimeters extrusion width = 0.40mm
; infill extrusion width = 0.40mm
; solid infill extrusion width = 0.40mm
; top infill extrusion width = 0.40mm
; support material extrusion width = 0.40mm
; first layer extrusion width = 0.48mm


;TYPE:Custom
START_PRINT T_BED=60 T_EXTRUDER=235
M107
G21 ; set units to millimeters
G90 ; use absolute coordinates
M83 ; use relative distances for extrusion
; Filament gcode
M104 S235 ; set temperature
M109 S235 ; set temperature and wait for it to be reached
M190 S60 ; set bed temperature and wait for it to be reached
M107
;LAYER_CHANGE
;Z:0.24
;HEIGHT:0.24
G1 Z0.240000 F6000.000
G1 X97.657 Y119.389
;TYPE:Skirt
;WIDTH:0.48
G1 F1200.000
G1 X98.670 Y118.624 E0.05425
G1 X99.590 Y118.146 E0.04435
G1 X100.635 Y117.834 E0.04660
G1 X101.725 Y117.728 E0.04685
G1 X120.679 Y119.856 E0.81549
G1 X151.624 Y127.599 E1.36382
G1 X152.430 Y127.919 E0.03710
G1 X159.223 Y131.316 E0.32474
G1 X178.927 Y141.403 E0.94645
G1 X179.759 Y141.930 E0.04210
G1 X180.608 Y142.730 E0.04984
G1 X181.274 Y143.686 E0.04984
G1 X181.729 Y144.760 E0.04984
G1 X181.955 Y145.903 E0.04984
G1 X181.970 Y166.270 E0.87079
G1 X181.835 Y167.228 E0.04135
G1 X181.541 Y168.143 E0.04110
G1 X178.567 Y174.861 E0.31412
G1 X177.935 Y175.909 E0.05234
G1 X177.149 Y176.747 E0.04909
G1 X176.215 Y177.405 E0.04884
G1 X175.162 Y177.863 E0.04909
G1 X174.038 Y178.098 E0.04909
G1 X164.103 Y178.124 E0.42481
G1 X163.000 Y177.968 E0.04760
G1 X161.945 Y177.597 E0.04785
G1 X137.728 Y163.877 E1.19003
G1 X96.981 Y137.997 E2.06385
G1 X96.109 Y137.171 E0.05134
G1 X95.432 Y136.180 E0.05134
G1 X94.703 Y134.579 E0.07520
G1 X94.419 Y133.227 E0.05907
G1 X94.437 Y132.096 E0.04835
G1 X95.668 Y122.526 E0.41255
G1 X95.959 Y121.628 E0.04035
G1 X96.395 Y120.792 E0.04035
G1 X96.965 Y120.039 E0.04035
G1 X97.614 Y119.430 E0.03803
G1 X97.906 Y119.740 F6000.000
G1 F1200.000
G1 X97.918 Y119.729 E0.00073
G1 X98.881 Y118.998 E0.05164
G1 X99.733 Y118.551 E0.04119
G1 X100.709 Y118.256 E0.04359
G1 X101.724 Y118.157 E0.04359
G1 X120.597 Y120.276 E0.81199
G1 X151.492 Y128.006 E1.36163
G1 X152.241 Y128.303 E0.03446
G1 X159.030 Y131.698 E0.32456
G1 X178.726 Y141.782 E0.94606
G1 X179.484 Y142.260 E0.03830
G1 X180.281 Y143.007 E0.04671
G1 X180.902 Y143.899 E0.04647
G1 X181.324 Y144.900 E0.04647
G1 X181.531 Y145.973 E0.04671
G1 X181.541 Y166.258 E0.86730
G1 X181.417 Y167.134 E0.03782
G1 X181.144 Y167.982 E0.03806
G1 X178.182 Y174.674 E0.31291
G1 X177.605 Y175.635 E0.04791
G1 X176.875 Y176.417 E0.04575
G1 X176.001 Y177.033 E0.04575
G1 X175.024 Y177.457 E0.04551
G1 X173.976 Y177.674 E0.04575
G1 X164.129 Y177.696 E0.42104
G1 X163.091 Y177.550 E0.04479
G1 X162.110 Y177.201 E0.04455
G1 X137.950 Y163.511 E1.18727
G1 X97.253 Y137.666 E2.06122
G1 X96.438 Y136.897 E0.04791
G1 X95.804 Y135.966 E0.04815
G1 X95.108 Y134.439 E0.07178
G1 X94.843 Y133.155 E0.05605
G1 X94.863 Y132.141 E0.04335
G1 X96.080 Y122.646 E0.40928
G1 X96.346 Y121.814 E0.03734
G1 X96.750 Y121.033 E0.03758
G1 X97.279 Y120.332 E0.03758
G1 X97.862 Y119.782 E0.03429
G1 X176.335 Y165.965 F6000.000
;TYPE:Support material
G1 F1200.000
G1 X176.335 Y146.416 E0.83585
G1 X175.478 Y146.416 E0.03664
G1 X175.478 Y165.772 E0.82761
G1 X174.621 Y165.772 E0.03664
G1 X174.621 Y146.416 E0.82761
G1 X173.764 Y146.416 E0.03664
G1 X173.764 Y165.772 E0.82761
G1 X173.449 Y165.772 E0.01349
G1 X173.449 Y172.486 E0.28707
G1 X172.907 Y172.486 E0.02315
G1 X172.907 Y146.416 E1.11467
G1 X172.050 Y146.416 E0.03664
G1 X172.050 Y172.486 E1.11467
G1 X171.193 Y172.486 E0.03664
G1 X171.193 Y146.416 E1.11467
G1 X170.336 Y146.416 E0.03664
G1 X170.336 Y172.486 E1.11467
G1 X169.479 Y172.486 E0.03664
G1 X169.479 Y143.058 E1.25821
G1 X168.622 Y143.058 E0.03664
G1 X168.622 Y172.486 E1.25821
G1 X167.765 Y172.486 E0.03664
G1 X167.765 Y143.058 E1.25821
G1 X166.908 Y143.058 E0.03664
G1 X166.908 Y172.486 E1.25821
G1 X166.051 Y172.486 E0.03664
G1 X166.051 Y143.058 E1.25821
G1 X165.194 Y143.058 E0.03664
G1 X165.194 Y172.486 E1.25821
G1 X164.337 Y172.486 E0.03664
G1 X164.337 Y143.058 E1.25821
G1 X163.480 Y143.058 E0.03664
G1 X163.480 Y169.129 E1.11467
G1 X162.623 Y169.129 E0.03664
G1 X162.623 Y139.701 E1.25821
G1 X161.766 Y139.701 E0.03664
G1 X161.766 Y169.129 E1.25821
G1 X160.909 Y169.129 E0.03664
G1 X160.909 Y139.701 E1.25821
G1 X160.052 Y139.701 E0.03664
G1 X160.052 Y165.772 E1.11467
G1 X159.195 Y165.772 E0.03664
G1 X159.195 Y139.701 E1.11467
G1 X158.338 Y139.701 E0.03664
G1 X158.338 Y165.772 E1.11467
G1 X157.481 Y165.772 E0.03664
G1 X157.481 Y139.701 E1.11467
G1 X156.663 Y139.701 E0.03498
G1 X156.663 Y136.344 E0.14353
G1 X156.624 Y136.344 E0.00166
G1 X156.624 Y165.772 E1.25821
G1 X155.767 Y165.772 E0.03664
G1 X155.767 Y136.344 E1.25821
G1 X154.910 Y136.344 E0.03664
G1 X154.910 Y165.772 E1.25821
G1 X154.092 Y165.772 E0.03500
G1 X154.092 Y162.415 E0.14353
G1 X154.053 Y162.415 E0.00164
G1 X154.053 Y136.344 E1.11467
G1 X153.196 Y136.344 E0.03664
G1 X153.196 Y162.415 E1.11467
G1 X152.339 Y162.415 E0.03664
G1 X152.339 Y136.344 E1.11467
G1 X151.482 Y136.344 E0.03664
G1 X151.482 Y162.415 E1.11467
G1 X150.625 Y162.415 E0.03664
G1 X150.625 Y136.344 E1.11467
G1 X149.949 Y136.344 E0.02892
G1 X149.949 Y132.987 E0.14353
G1 X149.768 Y132.987 E0.00772
G1 X149.768 Y162.415 E1.25821
G1 X148.911 Y162.415 E0.03664
G1 X148.911 Y132.987 E1.25821
G1 X148.055 Y132.987 E0.03664
G1 X148.054 Y162.415 E1.25821
G1 X147.378 Y162.415 E0.02894
G1 X147.378 Y159.058 E0.14353
G1 X147.198 Y159.058 E0.00770
G1 X147.198 Y132.987 E1.11467
G1 X146.341 Y132.987 E0.03664
G1 X146.341 Y159.058 E1.11467
G1 X145.484 Y159.058 E0.03664
G1 X145.484 Y132.987 E1.11467
G1 X144.627 Y132.987 E0.03664
G1 X144.627 Y159.058 E1.11467
G1 X143.770 Y159.058 E0.03664
G1 X143.770 Y132.987 E1.11467
G1 X142.913 Y132.987 E0.03664
G1 X142.913 Y159.058 E1.11467
G1 X142.056 Y159.058 E0.03664
G1 X142.056 Y132.987 E1.11467
G1 X141.199 Y132.987 E0.03664
G1 X141.199 Y159.058 E1.11467
G1 X140.664 Y159.058 E0.02288
G1 X140.664 Y155.701 E0.14353
G1 X140.342 Y155.701 E0.01377
G1 X140.342 Y136.344 E0.82761
G1 X139.485 Y136.344 E0.03664
G1 X139.485 Y155.701 E0.82761
G1 X138.628 Y155.701 E0.03664
G1 X138.628 Y136.344 E0.82761
G1 X137.771 Y136.344 E0.03664
G1 X137.771 Y155.701 E0.82761
G1 X137.306 Y155.701 E0.01984
G1 X137.306 Y152.344 E0.14353
G1 X136.914 Y152.344 E0.01680
G1 X136.914 Y139.701 E0.54054
G1 X136.057 Y139.701 E0.03664
G1 X136.057 Y152.344 E0.54054
G1 X135.200 Y152.344 E0.03664
G1 X135.200 Y139.701 E0.54054
G1 X134.343 Y139.701 E0.03664
G1 X134.343 Y152.537 E0.54878
G1 X119.184 Y127.249 F6000.000
;TYPE:Internal perimeter
G1 F1200.000
G1 X118.122 Y125.899 E0.07346
G1 X119.336 Y126.036 E0.05224
G1 X119.192 Y127.190 E0.04970
G1 X101.397 Y133.010 F6000.000
G1 F1200.000
G1 X101.171 Y133.201 E0.01265
G1 X100.923 Y133.047 E0.01247
G1 X100.729 Y132.640 E0.01928
G1 X100.774 Y132.285 E0.01527
G1 X101.086 Y132.244 E0.01344
G1 X101.375 Y132.955 E0.03280
G1 X102.319 Y124.707 F6000.000
;TYPE:External perimeter
G1 F1200.000
G1 X101.415 Y131.917 E0.31072
G1 X101.818 Y132.907 E0.04568
G1 X108.980 Y137.368 E0.36078
G1 X109.818 Y137.423 E0.03588
G1 X110.605 Y137.418 E0.03368
G1 X111.390 Y137.358 E0.03367
G1 X112.168 Y137.242 E0.03363
G1 X112.935 Y137.070 E0.03358
G1 X113.686 Y136.845 E0.03352
G1 X114.417 Y136.567 E0.03344
G1 X115.124 Y136.238 E0.03334
G1 X115.803 Y135.859 E0.03323
G1 X116.449 Y135.433 E0.03312
G1 X117.061 Y134.962 E0.03299
G1 X117.693 Y134.395 E0.03632
G1 X118.596 Y127.194 E0.31029
G1 X118.038 Y126.485 E0.03861
G1 X111.233 Y125.715 E0.29281
G1 X111.359 Y124.703 E0.04361
G1 X119.461 Y125.619 E0.34858
G1 X119.771 Y126.014 E0.02147
G1 X118.657 Y134.900 E0.38291
G1 X117.712 Y135.747 E0.05426
G1 X117.041 Y136.264 E0.03624
G1 X116.331 Y136.732 E0.03633
G1 X115.587 Y137.147 E0.03643
G1 X114.813 Y137.507 E0.03651
G1 X114.013 Y137.811 E0.03659
G1 X113.192 Y138.058 E0.03665
G1 X112.354 Y138.245 E0.03670
G1 X111.504 Y138.372 E0.03674
G1 X110.647 Y138.438 E0.03677
G1 X109.787 Y138.443 E0.03678
G1 X108.658 Y138.369 E0.04836
G1 X100.590 Y133.344 E0.40638
G1 X100.289 Y132.711 E0.03000
G1 X101.388 Y123.939 E0.37800
G1 X101.792 Y123.621 E0.02198
G1 X109.889 Y124.537 E0.34841
G1 X109.762 Y125.549 E0.04361
G1 X102.379 Y124.713 E0.31771
G1 X101.922 Y124.658 F6000.000
G1 X102.069 Y124.185
;TYPE:Gap fill
;WIDTH:0.758323
G1 F1200.000
G1 X101.955 Y124.193 E0.00806
G1 X101.906 Y124.231 E0.00437
G1 X101.872 Y124.341 E0.00809
;WIDTH:0.676702
G1 X101.838 Y124.450 E0.00716
G1 X100.922 Y131.752 E0.45906
G1 X100.909 Y131.851 E0.00623
;WIDTH:0.594692
G1 X100.895 Y131.950 E0.00541
G1 X100.888 Y132.034 E0.00460
;WIDTH:0.626639
G1 X100.886 Y132.072 E0.00217
G1 X101.402 Y133.264 F6000.000
;WIDTH:0.590909
G1 F1200.000
G1 X101.547 Y133.346 E0.00897
;WIDTH:0.676707
G1 X101.692 Y133.429 E0.01039
G1 X105.222 Y135.628 E0.25947
G1 X108.752 Y137.827 E0.25947
G1 X108.786 Y137.846 E0.00241
G1 X108.820 Y137.864 E0.00241
G1 X108.859 Y137.869 E0.00243
G1 X108.898 Y137.874 E0.00243
G1 X109.791 Y137.932 E0.05588
G1 X109.814 Y137.933 E0.00139
G1 X110.615 Y137.928 E0.05001
G1 X110.626 Y137.928 E0.00064
G1 X110.638 Y137.927 E0.00075
G1 X111.447 Y137.865 E0.05063
G1 X112.251 Y137.745 E0.05070
G1 X112.273 Y137.741 E0.00139
G1 X113.053 Y137.566 E0.04988
G1 X113.063 Y137.564 E0.00064
G1 X113.075 Y137.561 E0.00076
G1 X113.849 Y137.328 E0.05043
G1 X113.860 Y137.324 E0.00076
G1 X114.233 Y137.182 E0.02484
G1 X114.605 Y137.041 E0.02484
G1 X114.626 Y137.032 E0.00141
G1 X115.345 Y136.697 E0.04954
G1 X115.355 Y136.692 E0.00065
G1 X115.366 Y136.686 E0.00077
G1 X116.066 Y136.296 E0.05005
G1 X116.077 Y136.289 E0.00077
G1 X116.745 Y135.849 E0.04990
G1 X116.755 Y135.841 E0.00077
G1 X117.066 Y135.602 E0.02453
G1 X117.378 Y135.362 E0.02453
G1 X117.386 Y135.355 E0.00068
G1 X117.396 Y135.347 E0.00077
G1 X118.088 Y134.726 E0.05804
G1 X118.127 Y134.684 E0.00354
G1 X118.166 Y134.643 E0.00354
G1 X118.178 Y134.587 E0.00354
G1 X118.190 Y134.532 E0.00354
G1 X118.607 Y131.201 E0.20940
G1 X119.025 Y127.871 E0.20940
G1 X119.025 Y127.769 E0.00632
;WIDTH:0.633425
G1 X119.024 Y127.668 E0.00588
;WIDTH:0.590144
G1 X119.024 Y127.567 E0.00545
;WIDTH:0.546862
G1 X119.024 Y127.465 E0.00501
;WIDTH:0.503581
G1 X119.024 Y127.364 E0.00457
G1 X117.973 Y126.028 F6000.000
;WIDTH:0.504183
G1 F1200.000
G1 X117.875 Y126.004 E0.00458
;WIDTH:0.547498
G1 X117.776 Y125.980 E0.00502
;WIDTH:0.590812
G1 X117.678 Y125.956 E0.00546
;WIDTH:0.634126
G1 X117.579 Y125.932 E0.00589
;WIDTH:0.673676
G1 X117.481 Y125.908 E0.00629
G1 X111.803 Y125.266 E0.35475
G1 X111.492 Y125.231 E0.01943
G1 X109.630 Y125.020 F6000.000
;WIDTH:0.67368
G1 F1200.000
G1 X109.319 Y124.985 E0.01943
G1 X102.183 Y124.178 E0.44584
G1 X102.069 Y124.185 E0.00710
;LAYER_CHANGE
;Z:0.44
;HEIGHT:0.2
G1 Z0.440000 F6000.000
G1 X102.043 Y124.356
;TYPE:Internal perimeter
;WIDTH:0.4
G1 F4200.000
G1 X101.090 Y131.960 E0.22754
G1 X101.563 Y133.122 E0.03723
G1 X108.880 Y137.680 E0.25596
G1 X109.808 Y137.740 E0.02762
G1 X110.619 Y137.735 E0.02406
G1 X111.426 Y137.673 E0.02405
G1 X112.226 Y137.553 E0.02403
G1 X113.015 Y137.377 E0.02400
G1 X113.788 Y137.146 E0.02395
G1 X114.540 Y136.859 E0.02390
G1 X115.268 Y136.520 E0.02384
G1 X115.967 Y136.130 E0.02377
G1 X116.634 Y135.692 E0.02369
G1 X117.264 Y135.206 E0.02361
G1 X117.993 Y134.552 E0.02909
G1 X118.927 Y127.102 E0.22293
G1 X118.205 Y126.184 E0.03468
G1 X111.587 Y125.436 E0.19774
G1 X111.635 Y125.053 E0.01145
G1 X119.293 Y125.919 E0.22883
G1 X119.440 Y126.106 E0.00704
G1 X118.357 Y134.743 E0.25846
G1 X117.509 Y135.503 E0.03381
G1 X116.857 Y136.006 E0.02447
G1 X116.166 Y136.460 E0.02454
G1 X115.443 Y136.864 E0.02461
G1 X114.689 Y137.215 E0.02467
G1 X113.911 Y137.511 E0.02473
G1 X113.112 Y137.751 E0.02478
G1 X112.296 Y137.933 E0.02481
G1 X111.469 Y138.056 E0.02484
G1 X110.634 Y138.121 E0.02486
G1 X109.796 Y138.126 E0.02487
G1 X108.758 Y138.058 E0.03089
G1 X100.837 Y133.124 E0.27709
G1 X100.615 Y132.658 E0.01532
G1 X101.687 Y124.107 E0.25588
G1 X101.886 Y123.950 E0.00753
G1 X109.535 Y124.816 E0.22855
G1 X109.487 Y125.198 E0.01145
G1 X102.103 Y124.363 E0.22063
G1 X102.354 Y124.751 F6000.000
;TYPE:External perimeter
G1 F3600.000
G1 X101.456 Y131.912 E0.21429
G1 X101.850 Y132.880 E0.03103
G1 X108.993 Y137.329 E0.24986
G1 X109.819 Y137.383 E0.02458
G1 X110.604 Y137.378 E0.02330
G1 X111.386 Y137.318 E0.02329
G1 X112.161 Y137.202 E0.02327
G1 X112.925 Y137.032 E0.02324
G1 X113.673 Y136.807 E0.02319
G1 X114.401 Y136.530 E0.02313
G1 X115.105 Y136.202 E0.02307
G1 X115.782 Y135.825 E0.02299
G1 X116.426 Y135.401 E0.02291
G1 X117.035 Y134.932 E0.02282
G1 X117.655 Y134.376 E0.02473
G1 X118.554 Y127.206 E0.21454
G1 X118.016 Y126.522 E0.02582
G1 X111.188 Y125.750 E0.20405
G1 X111.325 Y124.659 E0.03266
G1 X119.482 Y125.581 E0.24374
G1 X119.813 Y126.002 E0.01590
G1 X118.695 Y134.920 E0.26685
G1 X117.738 Y135.778 E0.03817
G1 X117.064 Y136.297 E0.02525
G1 X116.352 Y136.766 E0.02532
G1 X115.605 Y137.182 E0.02538
G1 X114.828 Y137.544 E0.02544
G1 X114.026 Y137.849 E0.02549
G1 X113.202 Y138.096 E0.02554
G1 X112.361 Y138.284 E0.02557
G1 X111.509 Y138.412 E0.02560
G1 X110.649 Y138.478 E0.02562
G1 X109.785 Y138.483 E0.02562
G1 X108.645 Y138.409 E0.03393
G1 X100.559 Y133.372 E0.28285
G1 X100.248 Y132.717 E0.02153
G1 X101.351 Y123.917 E0.26333
G1 X101.780 Y123.579 E0.01624
G1 X109.934 Y124.501 E0.24364
G1 X109.797 Y125.593 E0.03266
G1 X102.413 Y124.758 E0.22063
G1 X101.957 Y124.703 F6000.000
G1 X100.893 Y131.987
;TYPE:Gap fill
;WIDTH:0.119922
G1 F1200.000
G1 X100.898 Y132.026 E0.00025
G1 X100.909 Y132.108 E0.00053
;WIDTH:0.168755
G1 X100.920 Y132.190 E0.00087
;WIDTH:0.217587
G1 X100.931 Y132.272 E0.00120
;WIDTH:0.266419
G1 X100.942 Y132.354 E0.00154
;WIDTH:0.315251
G1 X100.952 Y132.436 E0.00188
;WIDTH:0.364083
G1 X100.963 Y132.518 E0.00221
;WIDTH:0.394634
G1 X100.974 Y132.600 E0.00242
G1 X101.037 Y132.744 E0.00460
G1 X101.101 Y132.888 E0.00460
G1 X101.142 Y132.937 E0.00186
;WIDTH:0.348849
G1 X101.183 Y132.986 E0.00162
;WIDTH:0.303063
G1 X101.224 Y133.034 E0.00138
;WIDTH:0.257277
G1 X101.265 Y133.083 E0.00113
;WIDTH:0.211492
G1 X101.306 Y133.131 E0.00089
;WIDTH:0.165706
G1 X101.347 Y133.180 E0.00065
;WIDTH:0.11992
G1 X101.388 Y133.229 E0.00041
G1 X101.412 Y133.258 E0.00025
;LAYER_CHANGE
;Z:0.539306
;HEIGHT:0.0993056
G1 Z0.539306 F6000.000
G1 X147.146 Y135.951
;TYPE:Support material
;WIDTH:0.4
;HEIGHT:0.299306
G1 F1800.000
G1 X143.628 Y135.951 E0.14698
G1 X143.628 Y139.308 E0.14026
G1 X140.271 Y139.308 E0.14027
G1 X140.271 Y139.309 E0.00000
G1 X153.699 Y139.309 E0.56106
G1 X153.699 Y142.666 E0.14026
G1 X160.413 Y142.666 E0.28053
G1 X160.413 Y142.666 E0.00000
G1 X136.914 Y142.666 E0.98186
G1 X136.914 Y146.023 E0.14027
G1 X167.127 Y146.023 E1.26239
G1 X167.127 Y149.380 E0.14026
G1 X173.842 Y149.380 E0.28053
G1 X173.842 Y149.380 E0.00000
G1 X136.914 Y149.380 E1.54292
G1 X136.914 Y149.380 E0.00000
G1 X140.271 Y149.380 E0.14027
G1 X140.271 Y152.737 E0.14026
G1 X173.842 Y152.737 E1.40266
G1 X173.842 Y156.094 E0.14027
G1 X143.628 Y156.094 E1.26239
G1 X143.628 Y156.094 E0.00000
G1 X150.342 Y156.094 E0.28053
G1 X150.342 Y159.451 E0.14026
G1 X173.842 Y159.451 E0.98186
G1 X173.842 Y162.808 E0.14027
G1 X157.056 Y162.808 E0.70133
G1 X157.056 Y162.808 E0.00000
G1 X163.770 Y162.808 E0.28053
G1 X163.770 Y166.165 E0.14026
G1 X170.484 Y166.165 E0.28053
G1 X170.484 Y169.522 E0.14027
G1 X166.967 Y169.522 E0.14698
;LAYER_CHANGE
;Z:0.64
;HEIGHT:0.100694
G1 Z0.640000 F6000.000
G1 X102.043 Y124.356
;TYPE:Internal perimeter
;HEIGHT:0.2
G1 F4200.000
G1 X101.090 Y131.960 E0.22754
G1 X101.563 Y133.122 E0.03723
G1 X108.880 Y137.680 E0.25596
G1 X109.808 Y137.740 E0.02762
G1 X110.619 Y137.735 E0.02406
G1 X111.426 Y137.673 E0.02405
G1 X112.226 Y137.553 E0.02403
G1 X113.015 Y137.377 E0.02400
G1 X113.788 Y137.146 E0.02395
G1 X114.540 Y136.859 E0.02390
G1 X115.268 Y136.520 E0.02384
G1 X115.967 Y136.130 E0.02377
G1 X116.634 Y135.692 E0.02369
G1 X117.264 Y135.206 E0.02361
G1 X117.993 Y134.552 E0.02909
G1 X118.927 Y127.102 E0.22293
G1 X118.205 Y126.184 E0.03468
