; generated by SuperSlicer 2.3.57 on 2022-03-04 at 02:44:30 UTC


;
;

;
;
; 

; external perimeters extrusion width = 0.40mm
; perimeters extrusion width = 0.45mm
; infill extrusion width = 0.72mm
; solid infill extrusion width = 0.56mm
; top infill extrusion width = 0.40mm
; support material extrusion width = 0.42mm
; first layer extrusion width = 0.48mm

; external perimeters extrusion width = 0.40mm
; perimeters extrusion width = 0.45mm
; infill extrusion width = 0.72mm
; solid infill extrusion width = 0.56mm
; top infill extrusion width = 0.40mm
; support material extrusion width = 0.42mm
; first layer extrusion width = 0.48mm

; external perimeters extrusion width = 0.40mm
; perimeters extrusion width = 0.45mm
; infill extrusion width = 0.72mm
; solid infill extrusion width = 0.56mm
; top infill extrusion width = 0.40mm
; support material extrusion width = 0.42mm
; first layer extrusion width = 0.48mm

; object:{"name":"Memorial South Park","id":"Memorial South Park.STL id:0 copy 0","object_center":[152.500000,150.000000,0.000000],"boundingbox_center":[152.500000,150.000000,8.819999],"boundingbox_size":[109.952072,60.043610,17.639997]}
; plater:{"center":[152.500000,150.000000,0.000000],"boundingbox_center":[152.500000,150.000000,8.819999],"boundingbox_size":[109.952072,60.043610,17.639997]}

;TYPE:Custom
START_PRINT T_BED=60 T_EXTRUDER=200
M107
G21 ; set units to millimeters
G90 ; use absolute coordinates
M83 ; use relative distances for extrusion
; Filament gcode
M104 S200 ; set temperature
M109 S200 ; set temperature and wait for it to be reached
M190 S60 ; set bed temperature and wait for it to be reached
M107
;LAYER_CHANGE
;Z:0.24
;HEIGHT:0.24
G1 Z0.24 F9000
G1 E-0.8 F3000
G1 X90.216 Y117.172 F9000
G1 E0.8 F1800
; External perimeter
;Skirt
SET_VELOCITY_LIMIT ACCEL=300 ACCEL_TO_DECEL=3000 SQUARE_CORNER_VELOCITY=5

; Support material

;TYPE:Skirt
;WIDTH:0.48
G1 X89.516 Y117.926 E0.044
G1 X89.054 Y118.851 E0.0442
G1 X88.87 Y119.864 E0.044
G1 X88.868 Y166.698 E2.00243
G1 X88.942 Y167.405 E0.03039
G1 X89.152 Y168.085 E0.03039
G1 X89.532 Y168.772 E0.0336
G1 X90.048 Y169.359 E0.0334
G1 X90.681 Y169.825 E0.0336
G1 X91.399 Y170.144 E0.0336
G1 X136.155 Y183.35 E1.99514
G1 X137.328 Y183.528 E0.05073
G1 X167.731 Y183.52 E1.29988
G1 X168.355 Y183.465 E0.02678
G1 X213.897 Y170.035 E2.03006
G1 X214.777 Y169.51 E0.0438
G1 X215.476 Y168.761 E0.0438
G1 X215.94 Y167.843 E0.044
G1 X216.129 Y166.836 E0.0438
G1 X216.131 Y119.904 E2.00659
G1 X216.045 Y119.208 E0.02999
G1 X215.827 Y118.541 E0.02999
G1 X215.485 Y117.928 E0.02999
G1 X215.032 Y117.392 E0.02999
G1 X214.485 Y116.953 E0.02999
G1 X213.864 Y116.627 E0.02999
G1 X213.192 Y116.426 E0.02999
G1 X212.494 Y116.358 E0.02999
G1 X92.504 Y116.358 E5.13025
G1 X91.792 Y116.43 E0.03059
G1 X91.103 Y116.641 E0.03079
G1 X90.267 Y117.141 E0.04164
G1 X90.491 Y117.5 F9000
G1 F1800
G1 X89.869 Y118.169 E0.03907
G1 X89.459 Y118.99 E0.03926
G1 X89.298 Y119.89 E0.03907
G1 X89.296 Y166.692 E2.00104
G1 X89.36 Y167.312 E0.02666
G1 X89.542 Y167.908 E0.02666
G1 X89.879 Y168.52 E0.02986
G1 X90.339 Y169.045 E0.02986
G1 X90.899 Y169.456 E0.02967
G1 X91.538 Y169.739 E0.02986
G1 X136.275 Y182.938 E1.9943
G1 X137.341 Y183.099 E0.04606
G1 X168.28 Y183.043 E1.32281
G1 X213.723 Y169.643 E2.02567
G1 X214.505 Y169.179 E0.03888
G1 X215.126 Y168.514 E0.03888
G1 X215.535 Y167.702 E0.03888
G1 X215.701 Y166.804 E0.03907
G1 X215.703 Y119.926 E2.00429
G1 X215.628 Y119.307 E0.02666
G1 X215.437 Y118.718 E0.02647
G1 X215.136 Y118.177 E0.02647
G1 X214.737 Y117.703 E0.02647
G1 X214.251 Y117.312 E0.02666
G1 X213.703 Y117.024 E0.02647
G1 X213.11 Y116.847 E0.02647
G1 X212.494 Y116.786 E0.02647
G1 X92.502 Y116.786 E5.1303
G1 X91.877 Y116.849 E0.02685
G1 X91.277 Y117.033 E0.02685
G1 X90.543 Y117.469 E0.0365
; INIT printing object Memorial South Park.STL id:0 copy 0
G1 E-0.8 F3000
; printing object Memorial South Park.STL id:0 copy 0
G1 X96.796 Y166.675 F9000
G1 E0.8 F1800
; External perimeter
;SupportMaterial
SET_VELOCITY_LIMIT ACCEL=3000 ACCEL_TO_DECEL=3000 SQUARE_CORNER_VELOCITY=5

; Support material interface

;TYPE:Support material
G1 X96.796 Y120.001 E1.9956
G1 X95.939 Y120.001 E0.03664
G1 X95.939 Y166.491 E1.98772
G1 X95.082 Y166.491 E0.03664
G1 X95.082 Y120.001 E1.98772
G1 X94.225 Y120.001 E0.03664
G1 X94.225 Y166.491 E1.98772
G1 X93.368 Y166.491 E0.03664
G1 X93.368 Y120.001 E1.98772
G1 X92.511 Y120.001 E0.03664
G1 X92.511 Y166.675 E1.9956
G1 E-0.8 F3000
G1 X212.489 Y166.675 F9000
G1 E0.8 F1800
G1 X212.489 Y120.001 E1.9956
G1 X211.632 Y120.001 E0.03664
G1 X211.632 Y166.491 E1.98772
G1 X210.775 Y166.491 E0.03664
G1 X210.775 Y120.001 E1.98772
G1 X209.918 Y120.001 E0.03664
G1 X209.918 Y166.491 E1.98772
G1 X209.061 Y166.491 E0.03664
G1 X209.061 Y120.001 E1.98772
G1 X208.204 Y120.001 E0.03664
G1 X208.204 Y166.675 E1.9956
G1 E-0.8 F3000
G1 X137.821 Y178.788 F9000
G1 E0.8 F1800
; External perimeter
;Perimeter
SET_VELOCITY_LIMIT ACCEL=2000 ACCEL_TO_DECEL=2000 SQUARE_CORNER_VELOCITY=5

; Overhang perimeter

;TYPE:Internal perimeter
G1 X137.813 Y171.658 E0.30485
G1 X137.71 Y171.157 E0.02187
G1 X137.388 Y170.726 E0.02299
G1 X136.98 Y170.464 E0.02074
G1 X136.617 Y170.382 E0.01591
G1 X129.441 Y169.824 E0.30776
G1 X121.794 Y169.003 E0.32883
G1 X114.176 Y167.95 E0.3288
G1 X106.594 Y166.664 E0.3288
G1 X99.096 Y165.156 E0.32702
G1 X99.003 Y165.127 E0.00412
G1 X98.955 Y165.103 E0.00234
G1 X98.911 Y165.07 E0.00234
G1 X98.873 Y165.031 E0.00234
G1 X98.842 Y164.986 E0.00234
G1 X98.82 Y164.936 E0.00234
G1 X98.806 Y164.883 E0.00234
G1 X98.797 Y164.778 E0.00452
G1 X98.797 Y121.625 E1.845
G1 X98.805 Y121.528 E0.00419
G1 X98.817 Y121.478 E0.00217
G1 X98.836 Y121.431 E0.00217
G1 X98.863 Y121.388 E0.00217
G1 X98.895 Y121.35 E0.00217
G1 X98.934 Y121.317 E0.00217
G1 X98.977 Y121.29 E0.00217
G1 X99.024 Y121.271 E0.00217
G1 X99.073 Y121.259 E0.00217
G1 X99.171 Y121.251 E0.00419
G1 X205.829 Y121.251 E4.56021
G1 X205.927 Y121.259 E0.00419
G1 X205.976 Y121.271 E0.00217
G1 X206.023 Y121.29 E0.00217
G1 X206.066 Y121.317 E0.00217
G1 X206.105 Y121.35 E0.00217
G1 X206.137 Y121.388 E0.00217
G1 X206.164 Y121.431 E0.00217
G1 X206.183 Y121.478 E0.00217
G1 X206.195 Y121.528 E0.00217
G1 X206.203 Y121.625 E0.00419
G1 X206.203 Y164.778 E1.845
G1 X206.194 Y164.883 E0.00452
G1 X206.18 Y164.936 E0.00234
G1 X206.158 Y164.985 E0.00234
G1 X206.127 Y165.031 E0.00234
G1 X206.089 Y165.07 E0.00234
G1 X206.045 Y165.103 E0.00234
G1 X205.997 Y165.127 E0.00234
G1 X205.904 Y165.156 E0.00413
G1 X198.406 Y166.664 E0.32702
G1 X190.824 Y167.95 E0.3288
G1 X183.206 Y169.003 E0.3288
G1 X175.559 Y169.824 E0.32883
G1 X168.386 Y170.382 E0.30761
G1 X168.022 Y170.462 E0.01593
G1 X167.621 Y170.721 E0.0204
G1 X167.313 Y171.115 E0.02141
G1 X167.187 Y171.64 E0.02307
G1 X167.179 Y178.78 E0.30527
G1 X137.881 Y178.788 E1.25263
G1 X137.393 Y179.217 F9000
G1 F1800
G1 X137.384 Y171.702 E0.3213
G1 X137.309 Y171.337 E0.01594
G1 X137.091 Y171.045 E0.01558
G1 X136.812 Y170.865 E0.01419
G1 X136.553 Y170.807 E0.01135
G1 X129.401 Y170.251 E0.30669
G1 X121.742 Y169.429 E0.32938
G1 X114.111 Y168.373 E0.32936
G1 X106.516 Y167.085 E0.32936
G1 X98.99 Y165.572 E0.32822
G1 X98.842 Y165.526 E0.0066
G1 X98.729 Y165.469 E0.00545
G1 X98.626 Y165.393 E0.00545
G1 X98.538 Y165.301 E0.00545
G1 X98.467 Y165.195 E0.00545
G1 X98.414 Y165.079 E0.00545
G1 X98.382 Y164.955 E0.00545
G1 X98.369 Y164.796 E0.00685
G1 X98.369 Y121.608 E1.84649
G1 X98.38 Y121.46 E0.00635
G1 X98.408 Y121.346 E0.00505
G1 X98.453 Y121.236 E0.00505
G1 X98.515 Y121.136 E0.00505
G1 X98.592 Y121.046 E0.00505
G1 X98.681 Y120.969 E0.00505
G1 X98.782 Y120.907 E0.00505
G1 X98.891 Y120.862 E0.00505
G1 X99.006 Y120.835 E0.00505
G1 X99.154 Y120.823 E0.00635
G1 X205.846 Y120.823 E4.56165
G1 X205.994 Y120.835 E0.00635
G1 X206.109 Y120.862 E0.00505
G1 X206.218 Y120.907 E0.00505
G1 X206.319 Y120.969 E0.00505
G1 X206.408 Y121.046 E0.00505
G1 X206.485 Y121.136 E0.00505
G1 X206.547 Y121.236 E0.00505
G1 X206.592 Y121.346 E0.00505
G1 X206.62 Y121.46 E0.00505
G1 X206.631 Y121.608 E0.00635
G1 X206.631 Y164.796 E1.84649
G1 X206.618 Y164.955 E0.00685
G1 X206.586 Y165.079 E0.00545
G1 X206.533 Y165.195 E0.00545
G1 X206.462 Y165.301 E0.00545
G1 X206.374 Y165.393 E0.00545
G1 X206.271 Y165.469 E0.00545
G1 X206.158 Y165.526 E0.00545
G1 X206.01 Y165.572 E0.0066
G1 X198.484 Y167.085 E0.32822
G1 X190.889 Y168.373 E0.32936
G1 X183.258 Y169.429 E0.32936
G1 X175.599 Y170.251 E0.32938
G1 X168.449 Y170.806 E0.3066
G1 X168.19 Y170.864 E0.01135
G1 X167.915 Y171.041 E0.014
G1 X167.708 Y171.306 E0.01434
G1 X167.616 Y171.691 E0.01694
G1 X167.607 Y179.208 E0.32141
G1 X137.453 Y179.217 E1.28923
G1 X137.04 Y179.469 F9000
; External perimeter
;ExternalPerimeter
SET_VELOCITY_LIMIT ACCEL=1000 ACCEL_TO_DECEL=1000 SQUARE_CORNER_VELOCITY=5

; Perimeter

;TYPE:External perimeter
G1 F1800
G1 X136.976 Y179.343 E0.00603
G1 X136.965 Y179.297 E0.00203
G1 X136.956 Y171.746 E0.32285
G1 X136.908 Y171.517 E0.01001
G1 X136.794 Y171.363 E0.00818
G1 X136.644 Y171.267 E0.00764
G1 X136.489 Y171.231 E0.0068
G1 X129.362 Y170.678 E0.30563
G1 X121.689 Y169.854 E0.32993
G1 X114.046 Y168.797 E0.32992
G1 X106.438 Y167.507 E0.32992
G1 X98.884 Y165.988 E0.32941
G1 X98.682 Y165.925 E0.00907
G1 X98.503 Y165.835 E0.00857
G1 X98.342 Y165.715 E0.00857
G1 X98.203 Y165.571 E0.00857
G1 X98.091 Y165.405 E0.00857
G1 X98.009 Y165.222 E0.00857
G1 X97.958 Y165.028 E0.00857
G1 X97.94 Y164.814 E0.00919
G1 X97.94 Y121.592 E1.84799
G1 X97.956 Y121.393 E0.00851
G1 X97.999 Y121.213 E0.00794
G1 X98.07 Y121.041 E0.00794
G1 X98.167 Y120.883 E0.00794
G1 X98.288 Y120.742 E0.00793
G1 X98.429 Y120.621 E0.00794
G1 X98.587 Y120.524 E0.00794
G1 X98.758 Y120.453 E0.00794
G1 X98.939 Y120.41 E0.00794
G1 X99.137 Y120.394 E0.00851
G1 X205.863 Y120.394 E4.56309
G1 X206.061 Y120.41 E0.00851
G1 X206.242 Y120.453 E0.00794
G1 X206.413 Y120.524 E0.00793
G1 X206.571 Y120.621 E0.00794
G1 X206.712 Y120.742 E0.00794
G1 X206.833 Y120.883 E0.00794
G1 X206.93 Y121.041 E0.00794
G1 X207.001 Y121.213 E0.00794
G1 X207.044 Y121.393 E0.00794
G1 X207.06 Y121.592 E0.00851
G1 X207.06 Y164.814 E1.84799
G1 X207.042 Y165.028 E0.00919
G1 X206.991 Y165.222 E0.00857
G1 X206.909 Y165.405 E0.00857
G1 X206.797 Y165.571 E0.00857
G1 X206.658 Y165.715 E0.00857
G1 X206.497 Y165.835 E0.00857
G1 X206.318 Y165.925 E0.00857
G1 X206.116 Y165.988 E0.00907
G1 X198.562 Y167.507 E0.32941
G1 X190.954 Y168.797 E0.32992
G1 X183.311 Y169.854 E0.32992
G1 X175.638 Y170.678 E0.32993
G1 X168.512 Y171.231 E0.30559
G1 X168.357 Y171.265 E0.00678
G1 X168.208 Y171.362 E0.0076
G1 X168.103 Y171.496 E0.00727
G1 X168.044 Y171.742 E0.01081
G1 X168.035 Y179.287 E0.32261
G1 X167.994 Y179.413 E0.00563
G1 X167.917 Y179.519 E0.00562
G1 X167.811 Y179.596 E0.00562
G1 X167.686 Y179.637 E0.00562
G1 X137.403 Y179.645 E1.29477
G1 X137.25 Y179.621 E0.00661
G1 X137.133 Y179.562 E0.00561
G1 X137.082 Y179.511 E0.00306
;WIPE_START
G1 X137.104 Y179.343 F9000
;WIPE_END
G1 X206.139 Y122.19
; External perimeter
;SolidInfill
SET_VELOCITY_LIMIT ACCEL=2000 ACCEL_TO_DECEL=2000 SQUARE_CORNER_VELOCITY=5

; Bridge infill

;TYPE:Solid infill
;WIDTH:0.477951
G1 F2400
G1 X205.457 Y121.508 E0.04106
G1 X204.851 Y121.507 E0.0258
G1 X205.954 Y122.611 E0.06645
G1 X205.954 Y123.217 E0.0258
G1 X204.245 Y121.507 E0.10294
G1 X203.639 Y121.507 E0.0258
G1 X205.954 Y123.823 E0.13943
G1 X205.954 Y124.429 E0.0258
G1 X203.033 Y121.507 E0.17592
G1 X202.427 Y121.507 E0.0258
G1 X205.954 Y125.035 E0.2124
G1 X205.954 Y125.641 E0.0258
G1 X201.82 Y121.507 E0.24889
G1 X201.214 Y121.507 E0.0258
G1 X205.954 Y126.247 E0.28538
G1 X205.954 Y126.853 E0.0258
G1 X200.608 Y121.507 E0.32187
G1 X200.002 Y121.507 E0.0258
G1 X205.954 Y127.459 E0.35835
G1 X205.954 Y128.065 E0.0258
G1 X199.396 Y121.507 E0.39484
G1 X198.79 Y121.507 E0.0258
G1 X205.954 Y128.671 E0.43133
G1 X205.954 Y129.277 E0.0258
G1 X198.184 Y121.507 E0.46781
G1 X197.578 Y121.507 E0.0258
G1 X205.954 Y129.883 E0.5043
G1 X205.954 Y130.489 E0.0258
G1 X196.972 Y121.507 E0.54079
G1 X196.366 Y121.507 E0.0258
G1 X205.954 Y131.095 E0.57728
G1 X205.954 Y131.701 E0.0258
G1 X195.76 Y121.507 E0.61376
G1 X195.154 Y121.507 E0.0258
G1 X205.954 Y132.307 E0.65025
G1 X205.954 Y132.913 E0.0258
G1 X194.548 Y121.507 E0.68674
G1 X193.942 Y121.507 E0.0258
G1 X205.954 Y133.519 E0.72323
G1 X205.954 Y134.125 E0.0258
G1 X193.336 Y121.507 E0.75971
G1 X192.73 Y121.507 E0.0258
G1 X205.954 Y134.731 E0.7962
G1 X205.954 Y135.337 E0.0258
G1 X192.124 Y121.507 E0.83269
G1 X191.518 Y121.507 E0.0258
G1 X205.954 Y135.943 E0.86917
G1 X205.954 Y136.549 E0.0258
G1 X190.912 Y121.506 E0.90566
G1 X190.306 Y121.506 E0.0258
G1 X205.954 Y137.155 E0.94215
G1 X205.954 Y137.761 E0.0258
G1 X189.7 Y121.506 E0.97864
G1 X189.094 Y121.506 E0.0258
G1 X205.954 Y138.367 E1.01512
G1 X205.954 Y138.973 E0.0258
G1 X188.488 Y121.506 E1.05161
G1 X187.882 Y121.506 E0.0258
G1 X205.954 Y139.579 E1.0881
G1 X205.954 Y140.185 E0.0258
G1 X187.276 Y121.506 E1.12459
G1 X186.67 Y121.506 E0.0258
G1 X205.954 Y140.791 E1.16107
G1 X205.954 Y141.397 E0.0258
G1 X186.064 Y121.506 E1.19756
G1 X185.458 Y121.506 E0.0258
G1 X205.954 Y142.003 E1.23405
G1 X205.954 Y142.609 E0.0258
G1 X184.852 Y121.506 E1.27053
G1 X184.246 Y121.506 E0.0258
G1 X205.954 Y143.215 E1.30702
G1 X205.954 Y143.821 E0.0258
G1 X183.64 Y121.506 E1.34351
G1 X183.034 Y121.506 E0.0258
G1 X205.954 Y144.427 E1.38
G1 X205.954 Y145.033 E0.0258
G1 X182.428 Y121.506 E1.41648
G1 X181.822 Y121.506 E0.0258
G1 X205.954 Y145.639 E1.45297
G1 X205.954 Y146.245 E0.0258
G1 X181.216 Y121.506 E1.48946
G1 X180.61 Y121.506 E0.0258
G1 X205.954 Y146.851 E1.52595
G1 X205.954 Y147.457 E0.0258
G1 X180.003 Y121.506 E1.56243
G1 X179.397 Y121.506 E0.0258
G1 X205.954 Y148.063 E1.59892
G1 X205.954 Y148.669 E0.0258
G1 X178.791 Y121.506 E1.63541
G1 X178.185 Y121.506 E0.0258
G1 X205.954 Y149.275 E1.67189
G1 X205.954 Y149.88 E0.0258
G1 X177.579 Y121.505 E1.70838
G1 X176.973 Y121.505 E0.0258
G1 X205.954 Y150.486 E1.74487
G1 X205.954 Y151.092 E0.0258
G1 X176.367 Y121.505 E1.78136
G1 X175.761 Y121.505 E0.0258
G1 X205.954 Y151.698 E1.81784
G1 X205.954 Y152.304 E0.0258
G1 X175.155 Y121.505 E1.85433
G1 X174.549 Y121.505 E0.0258
G1 X205.954 Y152.91 E1.89082
G1 X205.954 Y153.516 E0.0258
G1 X173.943 Y121.505 E1.9273
G1 X173.337 Y121.505 E0.0258
G1 X205.954 Y154.122 E1.96379
G1 X205.954 Y154.728 E0.0258
G1 X172.731 Y121.505 E2.00028
G1 X172.125 Y121.505 E0.0258
G1 X205.954 Y155.334 E2.03677
G1 X205.954 Y155.94 E0.0258
G1 X171.519 Y121.505 E2.07325
G1 X170.913 Y121.505 E0.0258
G1 X205.954 Y156.546 E2.10974
G1 X205.954 Y157.152 E0.0258
G1 X170.307 Y121.505 E2.14623
G1 X169.701 Y121.505 E0.0258
G1 X205.954 Y157.758 E2.18272
G1 X205.954 Y158.364 E0.0258
G1 X169.095 Y121.505 E2.2192
G1 X168.489 Y121.505 E0.0258
G1 X205.954 Y158.97 E2.25569
G1 X205.954 Y159.576 E0.0258
G1 X167.883 Y121.505 E2.29218
G1 X167.277 Y121.505 E0.0258
G1 X205.954 Y160.182 E2.32866
G1 X205.954 Y160.788 E0.0258
G1 X166.671 Y121.505 E2.36515
G1 X166.065 Y121.505 E0.0258
G1 X205.954 Y161.394 E2.40164
G1 X205.954 Y162 E0.0258
G1 X165.459 Y121.505 E2.43813
G1 X164.853 Y121.505 E0.0258
G1 X205.954 Y162.606 E2.47461
G1 X205.954 Y163.212 E0.0258
G1 X164.247 Y121.505 E2.5111
G1 X163.641 Y121.504 E0.0258
G1 X205.954 Y163.818 E2.54759
G1 X205.954 Y164.424 E0.0258
G1 X163.035 Y121.504 E2.58408
G1 X162.429 Y121.504 E0.0258
G1 X205.832 Y164.907 E2.61317
G1 X205.328 Y165.009 E0.02189
G1 X161.823 Y121.504 E2.61932
G1 X161.217 Y121.504 E0.0258
G1 X204.824 Y165.111 E2.62546
G1 X204.32 Y165.213 E0.02189
G1 X160.611 Y121.504 E2.63161
G1 X160.005 Y121.504 E0.0258
G1 X203.816 Y165.315 E2.63775
G1 X203.312 Y165.417 E0.02189
G1 X159.399 Y121.504 E2.6439
G1 X158.793 Y121.504 E0.0258
G1 X202.808 Y165.519 E2.65004
G1 X202.304 Y165.621 E0.02189
G1 X158.187 Y121.504 E2.65619
G1 X157.58 Y121.504 E0.0258
G1 X201.8 Y165.723 E2.66233
G1 X201.296 Y165.826 E0.02189
G1 X156.974 Y121.504 E2.66848
G1 X156.368 Y121.504 E0.0258
G1 X200.792 Y165.928 E2.67462
G1 X200.288 Y166.03 E0.02189
G1 X155.762 Y121.504 E2.68077
G1 X155.156 Y121.504 E0.0258
G1 X199.784 Y166.132 E2.68691
G1 X199.28 Y166.234 E0.02189
G1 X154.55 Y121.504 E2.69306
