; generated by SuperSlicer 2.3.57 on 2022-03-25 at 18:08:02 UTC


;
;

;
;
; 

; external perimeters extrusion width = 0.40mm
; perimeters extrusion width = 0.45mm
; infill extrusion width = 0.72mm
; solid infill extrusion width = 0.56mm
; top infill extrusion width = 0.40mm
; support material extrusion width = 0.42mm
; first layer extrusion width = 0.48mm

; external perimeters extrusion width = 0.42mm
; perimeters extrusion width = 0.45mm
; infill extrusion width = 0.72mm
; solid infill extrusion width = 0.56mm
; top infill extrusion width = 0.40mm
; support material extrusion width = 0.42mm
; first layer extrusion width = 0.48mm

; external perimeters extrusion width = 0.16mm
; perimeters extrusion width = 0.16mm
; infill extrusion width = 0.72mm
; solid infill extrusion width = 0.56mm
; top infill extrusion width = 0.40mm
; support material extrusion width = 0.42mm
; first layer extrusion width = 0.48mm

; object:{"name":"mossnapware_X-Large_holder","id":"mossnapware_X-Large_holder.stl id:0 copy 0","object_center":[152.500000,150.000000,0.000000],"boundingbox_center":[152.500000,150.000000,13.000000],"boundingbox_size":[70.500000,129.000000,26.000000]}
; plater:{"center":[152.500000,150.000000,0.000000],"boundingbox_center":[152.500000,150.000000,13.000000],"boundingbox_size":[70.500000,129.000000,26.000000]}

;TYPE:Custom
START_PRINT T_BED=60 T_EXTRUDER=200
M107
G21 ; set units to millimeters
G90 ; use absolute coordinates
M83 ; use relative distances for extrusion
; Filament gcode
M104 S200 ; set temperature
M109 S200 ; set temperature and wait for it to be reached
M190 S60 ; set bed temperature and wait for it to be reached
M107
;LAYER_CHANGE
;Z:0.24
;HEIGHT:0.24
G1 Z0.24 F9000
G1 E-0.8 F3000
G1 X114.69 Y83.111 F9000
G1 E0.8 F1800
; External perimeter
;Skirt
SET_VELOCITY_LIMIT ACCEL=300 ACCEL_TO_DECEL=3000 SQUARE_CORNER_VELOCITY=5

; Support material

;TYPE:Skirt
;WIDTH:0.48
G1 X114.132 Y83.892 E0.04101
G1 X113.816 Y84.718 E0.03781
G1 X113.707 Y85.591 E0.03761
G1 X113.707 Y214.44 E5.50902
G1 X113.848 Y215.403 E0.04161
G1 X114.239 Y216.294 E0.04161
G1 X114.851 Y217.051 E0.04161
G1 X115.642 Y217.618 E0.04161
G1 X116.459 Y217.932 E0.03741
G1 X117.331 Y218.043 E0.03761
G1 X187.723 Y218.042 E3.00964
G1 X188.676 Y217.895 E0.04121
G1 X189.56 Y217.502 E0.04141
G1 X190.307 Y216.892 E0.04121
G1 X190.868 Y216.108 E0.04121
G1 X191.184 Y215.282 E0.03781
G1 X191.293 Y214.409 E0.03761
G1 X191.292 Y85.513 E5.51104
G1 X191.207 Y84.816 E0.02999
G1 X190.989 Y84.145 E0.03019
G1 X190.649 Y83.532 E0.02999
G1 X190.196 Y82.995 E0.02999
G1 X189.65 Y82.555 E0.02999
G1 X189.029 Y82.228 E0.02999
G1 X188.353 Y82.026 E0.03019
G1 X187.655 Y81.957 E0.02999
G1 X117.253 Y81.959 E3.01005
G1 X116.306 Y82.11 E0.04101
G1 X115.431 Y82.503 E0.04101
G1 X114.736 Y83.073 E0.03844
G1 X115.006 Y83.4 F9000
G1 F1800
G1 X114.513 Y84.09 E0.03625
G1 X114.232 Y84.819 E0.03344
G1 X114.136 Y85.591 E0.03325
G1 X114.136 Y214.431 E5.50859
G1 X114.259 Y215.283 E0.03682
G1 X114.602 Y216.068 E0.03663
G1 X115.144 Y216.737 E0.03682
G1 X115.84 Y217.237 E0.03663
G1 X116.561 Y217.516 E0.03306
G1 X117.332 Y217.614 E0.03325
G1 X187.707 Y217.614 E3.00891
G1 X188.55 Y217.486 E0.03644
G1 X189.329 Y217.141 E0.03644
G1 X189.991 Y216.603 E0.03644
G1 X190.487 Y215.91 E0.03644
G1 X190.768 Y215.181 E0.03344
G1 X190.864 Y214.409 E0.03325
G1 X190.864 Y85.534 E5.5101
G1 X190.79 Y84.915 E0.02666
G1 X190.601 Y84.325 E0.02647
G1 X190.302 Y83.783 E0.02647
G1 X189.901 Y83.306 E0.02666
G1 X189.416 Y82.914 E0.02666
G1 X188.868 Y82.625 E0.02647
G1 X188.275 Y82.447 E0.02647
G1 X187.654 Y82.386 E0.02666
G1 X117.275 Y82.387 E3.0091
G1 X116.437 Y82.518 E0.03625
G1 X115.663 Y82.864 E0.03625
G1 X115.053 Y83.362 E0.03369
; INIT printing object mossnapware_X-Large_holder.stl id:0 copy 0
G1 E-0.8 F3000
; printing object mossnapware_X-Large_holder.stl id:0 copy 0
G1 X118.018 Y86.268 F9000
G1 E0.8 F1800
; External perimeter
;Perimeter
SET_VELOCITY_LIMIT ACCEL=2000 ACCEL_TO_DECEL=2000 SQUARE_CORNER_VELOCITY=5

; Overhang perimeter

;TYPE:Internal perimeter
G1 X186.982 Y86.268 E2.94855
G1 X186.982 Y87.732 E0.06255
G1 X118.018 Y87.732 E2.94855
G1 X118.018 Y86.328 E0.05999
G1 X118.018 Y212.268 F9000
G1 F1800
G1 X186.982 Y212.268 E2.94855
G1 X186.982 Y213.732 E0.06255
G1 X118.018 Y213.732 E2.94855
G1 X118.018 Y212.328 E0.05999
G1 X118.41 Y211.84 F9000
; External perimeter
;ExternalPerimeter
SET_VELOCITY_LIMIT ACCEL=1000 ACCEL_TO_DECEL=1000 SQUARE_CORNER_VELOCITY=5

; Perimeter

;TYPE:External perimeter
G1 F1800
G1 X186.59 Y211.84 E2.91507
G1 X186.59 Y211.72 E0.00458
G1 X186.59 Y211.48 E0.00971
G1 X186.59 Y88.16 E5.2726
G1 X186.47 Y88.16 E0.00458
G1 X186.23 Y88.16 E0.00971
G1 X118.41 Y88.16 E2.89968
G1 X118.41 Y88.28 E0.00458
G1 X118.41 Y88.52 E0.00971
G1 X118.41 Y211.78 E5.27004
;WIPE_START
G1 X118.41 Y212.24 F9000
;WIPE_END
G1 X187.41 Y214.16
G1 F1800
G1 X117.59 Y214.16 E2.98519
G1 X117.59 Y214.04 E0.00458
G1 X117.59 Y213.8 E0.00971
G1 X117.59 Y85.84 E5.47099
G1 X117.71 Y85.84 E0.00458
G1 X117.95 Y85.84 E0.00971
G1 X187.41 Y85.84 E2.96979
G1 X187.41 Y85.96 E0.00458
G1 X187.41 Y86.2 E0.00971
G1 X187.41 Y214.1 E5.46842
;WIPE_START
G1 X187.064 Y213.96 F9000
;WIPE_END
G1 X187 Y212.072
; External perimeter
;GapFill
SET_VELOCITY_LIMIT ACCEL=2000 ACCEL_TO_DECEL=2000 SQUARE_CORNER_VELOCITY=5

; Skirt

;TYPE:Gap fill
;WIDTH:0.477567
G1 F1800
G1 X187 Y211.965 E0.00453
G1 X187 Y211.858 E0.00453
G1 X187 Y87.928 E5.2686
G1 X186.051 Y86.333 F9000
; External perimeter
;SolidInfill
SET_VELOCITY_LIMIT ACCEL=2000 ACCEL_TO_DECEL=2000 SQUARE_CORNER_VELOCITY=5

; Bridge infill

;TYPE:Solid infill
;WIDTH:0.430457
G1 F2400
G1 X186.733 Y87.015 E0.03698
G1 X186.733 Y87.483 E0.01796
G1 X186.595 Y87.483 E0.00528
G1 X185.629 Y86.517 E0.05238
G1 X185.023 Y86.517 E0.02323
G1 X185.989 Y87.483 E0.05238
G1 X185.383 Y87.483 E0.02323
G1 X184.417 Y86.517 E0.05238
G1 X183.811 Y86.517 E0.02323
G1 X184.777 Y87.483 E0.05238
G1 X184.171 Y87.483 E0.02323
G1 X183.205 Y86.517 E0.05238
G1 X182.599 Y86.517 E0.02323
G1 X183.565 Y87.483 E0.05238
G1 X182.959 Y87.483 E0.02323
G1 X181.993 Y86.517 E0.05238
G1 X181.387 Y86.517 E0.02323
G1 X182.353 Y87.483 E0.05238
G1 X181.747 Y87.483 E0.02323
G1 X180.781 Y86.517 E0.05238
G1 X180.175 Y86.517 E0.02323
G1 X181.141 Y87.483 E0.05238
G1 X180.536 Y87.483 E0.02323
G1 X179.569 Y86.517 E0.05238
G1 X178.964 Y86.517 E0.02323
G1 X179.93 Y87.483 E0.05238
G1 X179.324 Y87.483 E0.02323
G1 X178.358 Y86.517 E0.05238
G1 X177.752 Y86.517 E0.02323
G1 X178.718 Y87.483 E0.05238
G1 X178.112 Y87.483 E0.02323
G1 X177.146 Y86.517 E0.05238
G1 X176.54 Y86.517 E0.02323
G1 X177.506 Y87.483 E0.05238
G1 X176.9 Y87.483 E0.02323
G1 X175.934 Y86.517 E0.05238
G1 X175.328 Y86.517 E0.02323
G1 X176.294 Y87.483 E0.05238
G1 X175.688 Y87.483 E0.02323
G1 X174.722 Y86.517 E0.05238
G1 X174.116 Y86.517 E0.02323
G1 X175.082 Y87.483 E0.05238
G1 X174.476 Y87.483 E0.02323
G1 X173.51 Y86.517 E0.05238
G1 X172.904 Y86.517 E0.02323
G1 X173.87 Y87.483 E0.05238
G1 X173.264 Y87.483 E0.02323
G1 X172.298 Y86.517 E0.05238
G1 X171.692 Y86.517 E0.02323
G1 X172.658 Y87.483 E0.05238
G1 X172.052 Y87.483 E0.02323
G1 X171.086 Y86.517 E0.05238
G1 X170.48 Y86.517 E0.02323
G1 X171.446 Y87.483 E0.05238
G1 X170.84 Y87.483 E0.02323
G1 X169.874 Y86.517 E0.05238
G1 X169.268 Y86.517 E0.02323
G1 X170.234 Y87.483 E0.05238
G1 X169.628 Y87.483 E0.02323
G1 X168.662 Y86.517 E0.05238
G1 X168.056 Y86.517 E0.02323
G1 X169.022 Y87.483 E0.05238
G1 X168.416 Y87.483 E0.02323
G1 X167.45 Y86.517 E0.05238
G1 X166.844 Y86.517 E0.02323
G1 X167.81 Y87.483 E0.05238
G1 X167.204 Y87.483 E0.02323
G1 X166.238 Y86.517 E0.05238
G1 X165.632 Y86.517 E0.02323
G1 X166.598 Y87.483 E0.05238
G1 X165.992 Y87.483 E0.02323
G1 X165.026 Y86.517 E0.05238
G1 X164.42 Y86.517 E0.02323
G1 X165.386 Y87.483 E0.05238
G1 X164.78 Y87.483 E0.02323
G1 X163.814 Y86.517 E0.05238
G1 X163.208 Y86.517 E0.02323
G1 X164.174 Y87.483 E0.05238
G1 X163.568 Y87.483 E0.02323
G1 X162.602 Y86.517 E0.05238
G1 X161.996 Y86.517 E0.02323
G1 X162.962 Y87.483 E0.05238
G1 X162.356 Y87.483 E0.02323
G1 X161.39 Y86.517 E0.05238
G1 X160.784 Y86.517 E0.02323
G1 X161.75 Y87.483 E0.05238
G1 X161.144 Y87.483 E0.02323
G1 X160.178 Y86.517 E0.05238
G1 X159.572 Y86.517 E0.02323
G1 X160.538 Y87.483 E0.05238
G1 X159.932 Y87.483 E0.02323
G1 X158.966 Y86.517 E0.05238
G1 X158.36 Y86.517 E0.02323
G1 X159.326 Y87.483 E0.05238
G1 X158.72 Y87.483 E0.02323
G1 X157.754 Y86.517 E0.05238
G1 X157.148 Y86.517 E0.02323
G1 X158.114 Y87.483 E0.05238
G1 X157.508 Y87.483 E0.02323
G1 X156.542 Y86.517 E0.05238
G1 X155.936 Y86.517 E0.02323
G1 X156.902 Y87.483 E0.05238
G1 X156.296 Y87.483 E0.02323
G1 X155.33 Y86.517 E0.05238
G1 X154.724 Y86.517 E0.02323
G1 X155.69 Y87.483 E0.05238
G1 X155.084 Y87.483 E0.02323
G1 X154.118 Y86.517 E0.05238
G1 X153.512 Y86.517 E0.02323
G1 X154.478 Y87.483 E0.05238
G1 X153.872 Y87.483 E0.02323
G1 X152.906 Y86.517 E0.05238
G1 X152.3 Y86.517 E0.02323
G1 X153.266 Y87.483 E0.05238
G1 X152.66 Y87.483 E0.02323
G1 X151.694 Y86.517 E0.05238
G1 X151.088 Y86.517 E0.02323
G1 X152.054 Y87.483 E0.05238
G1 X151.448 Y87.483 E0.02323
G1 X150.482 Y86.517 E0.05238
G1 X149.876 Y86.517 E0.02323
G1 X150.842 Y87.483 E0.05238
G1 X150.236 Y87.483 E0.02323
G1 X149.27 Y86.517 E0.05238
G1 X148.664 Y86.517 E0.02323
G1 X149.63 Y87.483 E0.05238
G1 X149.024 Y87.483 E0.02323
G1 X148.058 Y86.517 E0.05238
G1 X147.452 Y86.517 E0.02323
G1 X148.418 Y87.483 E0.05238
G1 X147.812 Y87.483 E0.02323
G1 X146.846 Y86.517 E0.05238
G1 X146.24 Y86.517 E0.02323
G1 X147.206 Y87.483 E0.05238
G1 X146.6 Y87.483 E0.02323
G1 X145.634 Y86.517 E0.05238
G1 X145.028 Y86.517 E0.02323
G1 X145.994 Y87.483 E0.05238
G1 X145.388 Y87.483 E0.02323
G1 X144.422 Y86.517 E0.05238
G1 X143.816 Y86.517 E0.02323
G1 X144.782 Y87.483 E0.05238
G1 X144.177 Y87.483 E0.02323
G1 X143.21 Y86.517 E0.05238
G1 X142.605 Y86.517 E0.02323
G1 X143.571 Y87.483 E0.05238
G1 X142.965 Y87.483 E0.02323
G1 X141.999 Y86.517 E0.05238
G1 X141.393 Y86.517 E0.02323
G1 X142.359 Y87.483 E0.05238
G1 X141.753 Y87.483 E0.02323
G1 X140.787 Y86.517 E0.05238
G1 X140.181 Y86.517 E0.02323
G1 X141.147 Y87.483 E0.05238
G1 X140.541 Y87.483 E0.02323
G1 X139.575 Y86.517 E0.05238
G1 X138.969 Y86.517 E0.02323
G1 X139.935 Y87.483 E0.05238
G1 X139.329 Y87.483 E0.02323
G1 X138.363 Y86.517 E0.05238
G1 X137.757 Y86.517 E0.02323
G1 X138.723 Y87.483 E0.05238
G1 X138.117 Y87.483 E0.02323
G1 X137.151 Y86.517 E0.05238
G1 X136.545 Y86.517 E0.02323
G1 X137.511 Y87.483 E0.05238
G1 X136.905 Y87.483 E0.02323
G1 X135.939 Y86.517 E0.05238
G1 X135.333 Y86.517 E0.02323
G1 X136.299 Y87.483 E0.05238
G1 X135.693 Y87.483 E0.02323
G1 X134.727 Y86.517 E0.05238
G1 X134.121 Y86.517 E0.02323
G1 X135.087 Y87.483 E0.05238
G1 X134.481 Y87.483 E0.02323
G1 X133.515 Y86.517 E0.05238
G1 X132.909 Y86.517 E0.02323
G1 X133.875 Y87.483 E0.05238
G1 X133.269 Y87.483 E0.02323
G1 X132.303 Y86.517 E0.05238
G1 X131.697 Y86.517 E0.02323
G1 X132.663 Y87.483 E0.05238
G1 X132.057 Y87.483 E0.02323
G1 X131.091 Y86.517 E0.05238
G1 X130.485 Y86.517 E0.02323
G1 X131.451 Y87.483 E0.05238
G1 X130.845 Y87.483 E0.02323
G1 X129.879 Y86.517 E0.05238
G1 X129.273 Y86.517 E0.02323
G1 X130.239 Y87.483 E0.05238
G1 X129.633 Y87.483 E0.02323
G1 X128.667 Y86.517 E0.05238
G1 X128.061 Y86.517 E0.02323
G1 X129.027 Y87.483 E0.05238
G1 X128.421 Y87.483 E0.02323
G1 X127.455 Y86.517 E0.05238
G1 X126.849 Y86.517 E0.02323
G1 X127.815 Y87.483 E0.05238
G1 X127.209 Y87.483 E0.02323
G1 X126.243 Y86.517 E0.05238
G1 X125.637 Y86.517 E0.02323
G1 X126.603 Y87.483 E0.05238
G1 X125.997 Y87.483 E0.02323
G1 X125.031 Y86.517 E0.05238
G1 X124.425 Y86.517 E0.02323
G1 X125.391 Y87.483 E0.05238
G1 X124.785 Y87.483 E0.02323
G1 X123.819 Y86.517 E0.05238
G1 X123.213 Y86.517 E0.02323
G1 X124.179 Y87.483 E0.05238
G1 X123.573 Y87.483 E0.02323
G1 X122.607 Y86.517 E0.05238
G1 X122.001 Y86.517 E0.02323
G1 X122.967 Y87.483 E0.05238
G1 X122.361 Y87.483 E0.02323
G1 X121.395 Y86.517 E0.05238
G1 X120.789 Y86.517 E0.02323
G1 X121.755 Y87.483 E0.05238
G1 X121.149 Y87.483 E0.02323
G1 X120.183 Y86.517 E0.05238
G1 X119.577 Y86.517 E0.02323
G1 X120.543 Y87.483 E0.05238
G1 X119.937 Y87.483 E0.02323
G1 X118.971 Y86.517 E0.05238
G1 X118.365 Y86.517 E0.02323
G1 X119.331 Y87.483 E0.05238
G1 X118.725 Y87.483 E0.02323
G1 X118.083 Y86.841 E0.03484
G1 X118 Y87.928 F9000
; External perimeter
;GapFill
SET_VELOCITY_LIMIT ACCEL=2000 ACCEL_TO_DECEL=2000 SQUARE_CORNER_VELOCITY=5

; Skirt

;TYPE:Gap fill
;WIDTH:0.477569
G1 F1800
G1 X118 Y88.035 E0.00453
G1 X118 Y88.142 E0.00453
G1 X118 Y211.965 E5.2641
G1 X118 Y212.072 E0.00453
G1 X186.051 Y212.333 F9000
; External perimeter
;SolidInfill
SET_VELOCITY_LIMIT ACCEL=2000 ACCEL_TO_DECEL=2000 SQUARE_CORNER_VELOCITY=5

; Bridge infill

;TYPE:Solid infill
;WIDTH:0.430457
G1 F2400
G1 X186.733 Y213.015 E0.03698
G1 X186.733 Y213.483 E0.01796
G1 X186.595 Y213.483 E0.00528
G1 X185.629 Y212.517 E0.05238
G1 X185.023 Y212.517 E0.02323
G1 X185.989 Y213.483 E0.05238
G1 X185.383 Y213.483 E0.02323
G1 X184.417 Y212.517 E0.05238
G1 X183.811 Y212.517 E0.02323
G1 X184.777 Y213.483 E0.05238
G1 X184.171 Y213.483 E0.02323
G1 X183.205 Y212.517 E0.05238
G1 X182.599 Y212.517 E0.02323
G1 X183.565 Y213.483 E0.05238
G1 X182.959 Y213.483 E0.02323
G1 X181.993 Y212.517 E0.05238
G1 X181.387 Y212.517 E0.02323
G1 X182.353 Y213.483 E0.05238
G1 X181.747 Y213.483 E0.02323
G1 X180.781 Y212.517 E0.05238
G1 X180.175 Y212.517 E0.02323
G1 X181.141 Y213.483 E0.05238
G1 X180.536 Y213.483 E0.02323
G1 X179.569 Y212.517 E0.05238
G1 X178.964 Y212.517 E0.02323
G1 X179.93 Y213.483 E0.05238
G1 X179.324 Y213.483 E0.02323
G1 X178.358 Y212.517 E0.05238
G1 X177.752 Y212.517 E0.02323
G1 X178.718 Y213.483 E0.05238
G1 X178.112 Y213.483 E0.02323
G1 X177.146 Y212.517 E0.05238
G1 X176.54 Y212.517 E0.02323
G1 X177.506 Y213.483 E0.05238
G1 X176.9 Y213.483 E0.02323
G1 X175.934 Y212.517 E0.05238
G1 X175.328 Y212.517 E0.02323
G1 X176.294 Y213.483 E0.05238
G1 X175.688 Y213.483 E0.02323
G1 X174.722 Y212.517 E0.05238
G1 X174.116 Y212.517 E0.02323
G1 X175.082 Y213.483 E0.05238
G1 X174.476 Y213.483 E0.02323
G1 X173.51 Y212.517 E0.05238
G1 X172.904 Y212.517 E0.02323
G1 X173.87 Y213.483 E0.05238
G1 X173.264 Y213.483 E0.02323
G1 X172.298 Y212.517 E0.05238
G1 X171.692 Y212.517 E0.02323
G1 X172.658 Y213.483 E0.05238
G1 X172.052 Y213.483 E0.02323
G1 X171.086 Y212.517 E0.05238
G1 X170.48 Y212.517 E0.02323
G1 X171.446 Y213.483 E0.05238
G1 X170.84 Y213.483 E0.02323
G1 X169.874 Y212.517 E0.05238
G1 X169.268 Y212.517 E0.02323
G1 X170.234 Y213.483 E0.05238
G1 X169.628 Y213.483 E0.02323
G1 X168.662 Y212.517 E0.05238
G1 X168.056 Y212.517 E0.02323
G1 X169.022 Y213.483 E0.05238
G1 X168.416 Y213.483 E0.02323
G1 X167.45 Y212.517 E0.05238
G1 X166.844 Y212.517 E0.02323
G1 X167.81 Y213.483 E0.05238
G1 X167.204 Y213.483 E0.02323
G1 X166.238 Y212.517 E0.05238
G1 X165.632 Y212.517 E0.02323
G1 X166.598 Y213.483 E0.05238
G1 X165.992 Y213.483 E0.02323
G1 X165.026 Y212.517 E0.05238
G1 X164.42 Y212.517 E0.02323
G1 X165.386 Y213.483 E0.05238
G1 X164.78 Y213.483 E0.02323
G1 X163.814 Y212.517 E0.05238
G1 X163.208 Y212.517 E0.02323
G1 X164.174 Y213.483 E0.05238
G1 X163.568 Y213.483 E0.02323
G1 X162.602 Y212.517 E0.05238
G1 X161.996 Y212.517 E0.02323
G1 X162.962 Y213.483 E0.05238
G1 X162.356 Y213.483 E0.02323
G1 X161.39 Y212.517 E0.05238
G1 X160.784 Y212.517 E0.02323
G1 X161.75 Y213.483 E0.05238
G1 X161.144 Y213.483 E0.02323
G1 X160.178 Y212.517 E0.05238
G1 X159.572 Y212.517 E0.02323
G1 X160.538 Y213.483 E0.05238
G1 X159.932 Y213.483 E0.02323
G1 X158.966 Y212.517 E0.05238
G1 X158.36 Y212.517 E0.02323
G1 X159.326 Y213.483 E0.05238
G1 X158.72 Y213.483 E0.02323
G1 X157.754 Y212.517 E0.05238
G1 X157.148 Y212.517 E0.02323
G1 X158.114 Y213.483 E0.05238
G1 X157.508 Y213.483 E0.02323
G1 X156.542 Y212.517 E0.05238
G1 X155.936 Y212.517 E0.02323
G1 X156.902 Y213.483 E0.05238
G1 X156.296 Y213.483 E0.02323
G1 X155.33 Y212.517 E0.05238
G1 X154.724 Y212.517 E0.02323
G1 X155.69 Y213.483 E0.05238
G1 X155.084 Y213.483 E0.02323
G1 X154.118 Y212.517 E0.05238
G1 X153.512 Y212.517 E0.02323
G1 X154.478 Y213.483 E0.05238
G1 X153.872 Y213.483 E0.02323
