; generated by SuperSlicer 2.4 on 2022-05-03 at 22:06:00 UTC


;
;

;
;
; 

; external perimeters extrusion width = 0.40mm
; perimeters extrusion width = 0.45mm
; infill extrusion width = 0.72mm
; solid infill extrusion width = 0.56mm
; top infill extrusion width = 0.40mm
; first layer extrusion width = 0.48mm

; object:{"name":"CineLog_GoPro_Mount","id":"CineLog_GoPro_Mount.stl id:0 copy 0","object_center":[152.499492,150.000000,0.000000],"boundingbox_center":[152.499492,150.000000,8.700000],"boundingbox_size":[31.095982,14.700000,17.400000]}
; plater:{"center":[152.499492,150.000000,0.000000],"boundingbox_center":[152.499492,150.000000,8.700000],"boundingbox_size":[31.095982,14.700000,17.400000]}

M73 P0 R19
;TYPE:Custom
START_PRINT T_BED=60 T_EXTRUDER=220
M107
G21 ; set units to millimeters
G90 ; use absolute coordinates
M83 ; use relative distances for extrusion
; Filament gcode
M109 S220 ; set temperature and wait for it to be reached
M190 S60 ; set bed temperature and wait for it to be reached
M107
;LAYER_CHANGE
;Z:0.24
;HEIGHT:0.24
G1 Z0.24 F9000
G92 E0
M204 S1000
G1 X138.96 Y142.866
;TYPE:Skirt
;WIDTH:0.45
G1 F1800
G1 X137.784 Y144.077 E0.06713
G1 X134.82 Y147.988 E0.19513
G1 X134.277 Y148.839 E0.04014
G1 X133.937 Y149.565 E0.03186
G1 X133.526 Y151.066 E0.06188
G1 X133.474 Y152.28 E0.04833
G1 X133.681 Y153.677 E0.05614
G1 X134.13 Y154.873 E0.0508
G1 X134.955 Y156.152 E0.06054
G1 X135.432 Y156.673 E0.02808
G1 X136.426 Y157.47 E0.05068
G1 X137.37 Y157.983 E0.04269
G1 X137.919 Y158.201 E0.02353
G1 X138.899 Y158.44 E0.0401
G1 X139.587 Y158.52 E0.02753
G1 X145.148 Y158.687 E0.22119
G1 X159.743 Y158.686 E0.58036
G1 X165.411 Y158.52 E0.22546
G1 X166.873 Y158.261 E0.05902
G1 X168.008 Y157.792 E0.04886
G1 X169.165 Y157.033 E0.05499
G1 X170.045 Y156.153 E0.04948
G1 X170.664 Y155.253 E0.04344
G1 X171.23 Y153.988 E0.05514
G1 X171.471 Y152.897 E0.0444
G1 X171.511 Y151.528 E0.05445
G1 X171.319 Y150.325 E0.04843
G1 X170.9 Y149.188 E0.04819
G1 X170.175 Y147.989 E0.05569
G1 X167.208 Y144.074 E0.19532
G1 X166.492 Y143.279 E0.04259
G1 X165.966 Y142.824 E0.02765
G1 X165.253 Y142.344 E0.03416
G1 X164.637 Y142.028 E0.02755
G1 X163.395 Y141.616 E0.052
G1 X162.333 Y141.47 E0.04266
G1 X159.834 Y141.336 E0.09948
G1 X144.944 Y141.337 E0.59208
G1 X142.627 Y141.472 E0.09227
G1 X141.562 Y141.624 E0.04277
G1 X140.392 Y142.013 E0.04904
G1 X139.782 Y142.32 E0.02714
G1 X138.96 Y142.866 E0.03923
G1 X139.198 Y143.183 F9000
G1 F1800
G1 X138.1 Y144.317 E0.06274
G1 X135.136 Y148.228 E0.19513
G1 X134.615 Y149.047 E0.0386
G1 X134.312 Y149.692 E0.02835
G1 X133.92 Y151.105 E0.05828
G1 X133.869 Y152.242 E0.04526
G1 X134.06 Y153.561 E0.05301
G1 X134.476 Y154.68 E0.04746
G1 X135.247 Y155.884 E0.05686
G1 X135.724 Y156.405 E0.02808
G1 X136.653 Y157.145 E0.04722
G1 X138.035 Y157.822 E0.06121
G1 X138.945 Y158.046 E0.03728
G1 X139.633 Y158.127 E0.02753
G1 X145.148 Y158.291 E0.21936
G1 X159.733 Y158.29 E0.57994
G1 X165.365 Y158.126 E0.22403
G1 X166.742 Y157.887 E0.05558
G1 X167.807 Y157.45 E0.04579
G1 X168.901 Y156.737 E0.05193
G1 X169.727 Y155.916 E0.0463
G1 X170.314 Y155.067 E0.04102
G1 X170.856 Y153.856 E0.05276
G1 X171.08 Y152.828 E0.04183
G1 X171.115 Y151.536 E0.05141
G1 X170.931 Y150.41 E0.04537
G1 X170.536 Y149.345 E0.04516
G1 X169.859 Y148.229 E0.0519
G1 X166.893 Y144.314 E0.19532
G1 X166.232 Y143.579 E0.0393
G1 X165.706 Y143.124 E0.02765
G1 X164.456 Y142.38 E0.05783
G1 X163.296 Y142 E0.04855
G1 X162.295 Y141.864 E0.04016
G1 X159.814 Y141.732 E0.0988
G1 X144.966 Y141.733 E0.59037
G1 X142.668 Y141.867 E0.09156
G1 X141.663 Y142.008 E0.04035
G1 X140.57 Y142.367 E0.04573
G1 X139.96 Y142.674 E0.02714
G1 X139.198 Y143.183 E0.03645
; INIT printing object CineLog_GoPro_Mount.stl id:0 copy 0
; printing object CineLog_GoPro_Mount.stl id:0 copy 0
G1 X142.064 Y150.387 F9000
;TYPE:Internal perimeter
;WIDTH:0.48
G1 F1800
G1 X141.567 Y149.869 E0.03068
G1 X141 Y149.555 E0.02774
G1 X140.208 Y149.357 E0.03491
G1 X141.821 Y147.228 E0.11418
G1 X142.143 Y146.879 E0.0203
G1 X142.206 Y146.832 E0.00338
G1 X142.551 Y146.658 E0.01652
G1 X142.745 Y146.607 E0.00856
G1 X143.071 Y146.574 E0.01403
G1 X146.673 Y146.573 E0.154
G1 X146.673 Y146.451 E0.00521
G1 X158.122 Y146.451 E0.48951
G1 X158.122 Y146.573 E0.00522
G1 X161.919 Y146.573 E0.16235
G1 X162.228 Y146.603 E0.01324
G1 X162.452 Y146.661 E0.0099
G1 X162.755 Y146.816 E0.01458
G1 X163.03 Y147.054 E0.01554
G1 X164.753 Y149.325 E0.12189
G1 X163.877 Y149.618 E0.0395
G1 X163.236 Y150.025 E0.03245
G1 X162.831 Y150.498 E0.02665
G1 X162.555 Y150.995 E0.02429
G1 X162.375 Y151.713 E0.03163
G1 X162.399 Y152.472 E0.03248
G1 X162.593 Y153.086 E0.02754
G1 X162.81 Y153.425 E0.0172
G1 X158.122 Y153.425 E0.20044
G1 X158.122 Y153.567 E0.0061
G1 X146.673 Y153.567 E0.48951
G1 X146.673 Y153.425 E0.0061
G1 X142.196 Y153.425 E0.1914
G1 X142.472 Y152.905 E0.02516
G1 X142.629 Y152.203 E0.03074
G1 X142.598 Y151.508 E0.02974
G1 X142.247 Y150.577 E0.04257
G1 X142.064 Y150.387 E0.01127
G1 X141.755 Y150.683 F9000
G1 F1800
G1 X141.303 Y150.212 E0.02791
G1 X140.841 Y149.957 E0.02257
G1 X140.236 Y149.805 E0.02669
G1 X139.31 Y149.832 E0.03962
G1 X141.492 Y146.953 E0.15447
G1 X141.854 Y146.56 E0.02286
G1 X141.979 Y146.466 E0.00668
G1 X142.399 Y146.255 E0.02008
G1 X142.668 Y146.184 E0.01191
G1 X143.049 Y146.145 E0.01637
G1 X146.244 Y146.145 E0.13662
G1 X146.244 Y146.023 E0.00521
G1 X158.551 Y146.023 E0.52615
G1 X158.551 Y146.145 E0.00522
G1 X161.94 Y146.145 E0.1449
G1 X162.302 Y146.18 E0.01557
G1 X162.605 Y146.258 E0.01338
G1 X162.996 Y146.459 E0.0188
G1 X163.344 Y146.759 E0.01966
G1 X164.381 Y148.145 E0.07399
G1 X165.674 Y149.829 E0.09076
G1 X164.67 Y149.805 E0.04294
G1 X164.063 Y150.008 E0.02736
G1 X163.52 Y150.352 E0.02748
G1 X163.184 Y150.744 E0.02204
G1 X162.957 Y151.154 E0.02003
G1 X162.806 Y151.759 E0.02669
G1 X162.825 Y152.399 E0.02739
G1 X162.984 Y152.903 E0.02256
G1 X163.318 Y153.422 E0.02641
G1 X163.798 Y153.853 E0.02758
G1 X158.551 Y153.853 E0.22436
G1 X158.551 Y153.996 E0.0061
G1 X146.244 Y153.996 E0.52615
M73 P1 R19
G1 X146.244 Y153.853 E0.0061
G1 X141.255 Y153.853 E0.21333
G1 X141.769 Y153.316 E0.03181
G1 X142.067 Y152.755 E0.02714
G1 X142.198 Y152.165 E0.02584
G1 X142.173 Y151.595 E0.02438
G1 X141.877 Y150.81 E0.03589
G1 X141.755 Y150.683 E0.00751
G1 X166.154 Y153.333 F9000
G1 F1800
G1 X166.56 Y152.853 E0.02689
G1 X166.766 Y152.19 E0.02968
G1 X166.732 Y151.649 E0.02316
G1 X166.557 Y151.143 E0.02291
G1 X166.224 Y150.72 E0.02298
G1 X165.789 Y150.403 E0.02303
G1 X165.275 Y150.248 E0.02295
G1 X164.734 Y150.235 E0.02312
G1 X164.248 Y150.398 E0.02192
G1 X163.804 Y150.68 E0.02251
G1 X163.538 Y150.99 E0.01744
G1 X163.359 Y151.312 E0.01577
G1 X163.236 Y151.806 E0.02175
G1 X163.252 Y152.327 E0.0223
G1 X163.376 Y152.719 E0.01758
G1 X163.647 Y153.142 E0.02149
G1 X164.05 Y153.503 E0.02314
G1 X164.565 Y153.712 E0.02377
G1 X165.054 Y153.77 E0.02103
G1 X165.487 Y153.703 E0.01876
G1 X166.097 Y153.4 E0.0291
G1 X166.154 Y153.333 E0.00379
G1 X165.827 Y153.056 F9000
;TYPE:External perimeter
G1 F1800
G1 X166.177 Y152.642 E0.02317
G1 X166.334 Y152.138 E0.02258
G1 X166.308 Y151.734 E0.01729
G1 X166.175 Y151.351 E0.01733
G1 X165.924 Y151.032 E0.01737
G1 X165.89 Y151.007 E0.00178
G1 X165.595 Y150.792 E0.01561
G1 X165.207 Y150.675 E0.01735
G1 X164.799 Y150.665 E0.01743
G1 X164.434 Y150.788 E0.01648
G1 X164.087 Y151.007 E0.01754
G1 X163.892 Y151.235 E0.01283
G1 X163.761 Y151.471 E0.01151
G1 X163.666 Y151.852 E0.01681
G1 X163.678 Y152.255 E0.01721
G1 X163.767 Y152.536 E0.0126
G1 X163.976 Y152.862 E0.01657
G1 X164.28 Y153.134 E0.01745
G1 X164.673 Y153.293 E0.01812
G1 X165.046 Y153.338 E0.01608
G1 X165.356 Y153.29 E0.01341
G1 X165.827 Y153.056 E0.02247
;WIPE_START
M204 S3000
G1 X166.207 Y153.18 F9000
;WIPE_END
M204 S1000
G1 X141.446 Y150.98
;TYPE:Internal perimeter
G1 F1800
G1 X141.039 Y150.556 E0.02514
G1 X140.683 Y150.359 E0.0174
G1 X140.189 Y150.235 E0.02176
G1 X139.651 Y150.251 E0.02302
G1 X139.124 Y150.453 E0.02413
G1 X138.611 Y150.89 E0.0288
G1 X138.322 Y151.399 E0.02504
G1 X138.219 Y152.073 E0.02917
G1 X138.336 Y152.604 E0.02322
G1 X138.586 Y153.075 E0.02282
G1 X138.978 Y153.444 E0.02301
G1 X139.436 Y153.679 E0.02199
G1 X139.825 Y153.759 E0.017
G1 X140.201 Y153.759 E0.01607
G1 X140.709 Y153.616 E0.02258
G1 X141.129 Y153.365 E0.02093
G1 X141.418 Y153.062 E0.0179
G1 X141.661 Y152.605 E0.02213
G1 X141.768 Y152.127 E0.02094
G1 X141.748 Y151.683 E0.01902
G1 X141.507 Y151.044 E0.0292
G1 X141.446 Y150.98 E0.00376
G1 X141.137 Y151.277 F9000
;TYPE:External perimeter
G1 F1800
G1 X141.097 Y151.235 E0.00247
G1 X140.775 Y150.899 E0.01991
G1 X140.524 Y150.761 E0.01223
G1 X140.181 Y150.675 E0.01512
G1 X140.143 Y150.665 E0.00171
G1 X139.736 Y150.677 E0.01739
G1 X139.346 Y150.826 E0.01787
G1 X139.18 Y150.967 E0.00929
G1 X138.946 Y151.167 E0.01314
G1 X138.908 Y151.235 E0.00336
G1 X138.733 Y151.542 E0.01507
G1 X138.655 Y152.059 E0.02236
G1 X138.742 Y152.455 E0.01734
G1 X138.931 Y152.812 E0.01728
G1 X139.228 Y153.09 E0.01738
G1 X139.58 Y153.271 E0.01692
G1 X139.869 Y153.331 E0.01262
G1 X140.141 Y153.331 E0.01166
G1 X140.354 Y153.271 E0.00942
G1 X140.538 Y153.219 E0.00819
G1 X140.859 Y153.027 E0.01602
G1 X141.068 Y152.809 E0.01288
G1 X141.255 Y152.455 E0.01712
G1 X141.285 Y152.325 E0.00571
G1 X141.337 Y152.089 E0.01033
G1 X141.323 Y151.77 E0.01366
G1 X141.137 Y151.277 E0.02252
;WIPE_START
M204 S3000
G1 X141.161 Y151.224 F9000
;WIPE_END
M204 S1000
G1 X139.337 Y154.177
;TYPE:Internal perimeter
G1 F1800
G1 X139.217 Y154.14 E0.00538
G1 X138.823 Y153.945 E0.0188
G1 X138.523 Y153.736 E0.0156
G1 X138.149 Y153.328 E0.02368
G1 X137.889 Y152.861 E0.02287
G1 X137.778 Y152.497 E0.01623
G1 X137.724 Y151.935 E0.02417
G1 X137.761 Y151.562 E0.01604
G1 X137.949 Y151.007 E0.02504
G1 X138.238 Y150.537 E0.02358
G1 X141.163 Y146.678 E0.20705
G1 X141.566 Y146.24 E0.02543
G1 X141.753 Y146.1 E0.00998
G1 X142.246 Y145.852 E0.02364
G1 X142.592 Y145.761 E0.01526
G1 X143.027 Y145.717 E0.01872
G1 X145.816 Y145.716 E0.11923
G1 X145.816 Y145.594 E0.00521
G1 X158.979 Y145.594 E0.56279
G1 X158.979 Y145.716 E0.00522
G1 X161.96 Y145.716 E0.12745
G1 X162.377 Y145.756 E0.0179
G1 X162.758 Y145.855 E0.01686
G1 X163.238 Y146.101 E0.02303
G1 X163.66 Y146.466 E0.02384
G1 X163.816 Y146.656 E0.01054
G1 X164.723 Y147.886 E0.06533
G1 X166.763 Y150.545 E0.14329
G1 X167.008 Y150.927 E0.01942
G1 X167.167 Y151.297 E0.01721
G1 X167.25 Y151.677 E0.01663
G1 X167.261 Y152.223 E0.02334
G1 X167.19 Y152.628 E0.01759
G1 X167.107 Y152.863 E0.01067
G1 X166.924 Y153.207 E0.01665
G1 X166.671 Y153.546 E0.0181
G1 X166.382 Y153.803 E0.0165
G1 X165.904 Y154.084 E0.02374
G1 X165.536 Y154.213 E0.01667
G1 X164.951 Y154.282 E0.02516
G1 X158.979 Y154.282 E0.25535
G1 X158.979 Y154.424 E0.0061
G1 X145.816 Y154.424 E0.56279
G1 X145.816 Y154.282 E0.0061
G1 X140.043 Y154.282 E0.24682
G1 X139.454 Y154.213 E0.02536
G1 X139.337 Y154.177 E0.00524
G1 X139.212 Y154.587 F9000
;TYPE:External perimeter
G1 F1800
G1 X139.058 Y154.54 E0.00689
G1 X138.604 Y154.314 E0.02167
G1 X138.24 Y154.06 E0.01897
G1 X137.799 Y153.581 E0.02785
G1 X137.492 Y153.029 E0.02698
G1 X137.356 Y152.581 E0.02001
G1 X137.293 Y151.934 E0.02779
G1 X137.339 Y151.47 E0.01994
G1 X137.533 Y150.899 E0.02578
G1 X137.559 Y150.824 E0.00342
G1 X137.578 Y150.792 E0.00157
G1 X137.884 Y150.295 E0.02496
G1 X140.834 Y146.402 E0.20883
G1 X140.842 Y146.393 E0.00055
G1 X141.277 Y145.921 E0.02744
G1 X141.464 Y145.782 E0.00995
G1 X141.526 Y145.735 E0.00333
G1 X142.094 Y145.449 E0.0272
G1 X142.515 Y145.338 E0.01861
G1 X142.838 Y145.305 E0.01386
G1 X143.005 Y145.288 E0.00721
G1 X145.388 Y145.288 E0.10185
G1 X145.388 Y145.168 E0.0046
G1 X145.388 Y145.166 E-0.00045
G1 X145.508 Y145.166 E0.00458
G1 X145.748 Y145.166 E0.00971
G1 X159.408 Y145.166 E0.58404
G1 X159.408 Y145.286 E0.00458
G1 X159.408 Y145.288 E-0.00047
G1 X159.528 Y145.288 E0.00458
G1 X159.768 Y145.288 E0.00971
G1 X161.98 Y145.288 E0.09461
G1 X162.294 Y145.318 E0.01348
G1 X162.451 Y145.333 E0.00674
G1 X162.912 Y145.452 E0.02034
G1 X163.454 Y145.73 E0.02605
G1 X163.479 Y145.743 E0.00121
G1 X163.968 Y146.166 E0.02762
G1 X164.154 Y146.393 E0.01258
G1 X165.065 Y147.628 E0.06563
G1 X167.114 Y150.299 E0.1439
G1 X167.387 Y150.726 E0.02168
G1 X167.462 Y150.899 E0.0081
G1 X167.577 Y151.165 E0.01237
G1 X167.618 Y151.351 E0.00815
G1 X167.678 Y151.627 E0.01205
G1 X167.686 Y152.059 E0.01847
G1 X167.69 Y152.256 E0.00844
G1 X167.605 Y152.737 E0.02087
G1 X167.528 Y152.958 E0.01004
G1 X167.5 Y153.036 E0.00352
G1 X167.287 Y153.438 E0.01945
G1 X166.988 Y153.838 E0.02137
G1 X166.636 Y154.151 E0.02015
G1 X166.457 Y154.256 E0.00888
G1 X166.085 Y154.475 E0.01844
G1 X165.633 Y154.633 E0.02048
G1 X164.977 Y154.71 E0.02824
G1 X159.408 Y154.71 E0.23811
G1 X159.408 Y154.83 E0.00458
G1 X159.408 Y154.853 E0.00042
G1 X159.287 Y154.853 E0.00458
G1 X159.048 Y154.853 E0.00971
G1 X145.388 Y154.853 E0.58404
G1 X145.388 Y154.733 E0.00458
G1 X145.388 Y154.71 E0.00042
G1 X145.268 Y154.71 E0.00458
G1 X145.028 Y154.71 E0.00971
G1 X140.018 Y154.71 E0.21417
G1 X139.366 Y154.634 E0.02808
G1 X139.212 Y154.587 E0.00689
;WIPE_START
M204 S3000
G1 X139.176 Y154.43 F9000
;WIPE_END
M204 S1000
G1 X138.425 Y150.713
G1 E0.00091 F2100
;TYPE:Gap fill
;WIDTH:0.142481
G1 F1800
G1 X138.551 Y150.58 E0.00167
;WIDTH:0.180814
G1 X138.646 Y150.479 E0.00178
;WIDTH:0.217964
G1 X138.74 Y150.379 E0.00229
;WIDTH:0.255115
G1 X138.835 Y150.279 E0.0028
;WIDTH:0.292265
G1 X138.93 Y150.178 E0.00331
;WIDTH:0.218249
G1 X139.082 Y150.126 E0.00269
;WIDTH:0.26881
G1 X139.205 Y150.086 E0.0028
G1 X139.329 Y150.046 E0.00283
G1 X164.148 Y148.723 F9000
;TYPE:Solid infill
;WIDTH:0.466128
G1 F1800
G1 X162.332 Y146.907 E0.1066
G1 X161.714 Y146.895 E0.02568
G1 X164.149 Y149.33 E0.14301
G1 X163.735 Y149.521 E0.01896
G1 X161.095 Y146.882 E0.15497
G1 X160.477 Y146.87 E0.02568
G1 X163.32 Y149.713 E0.16694
G1 X163.071 Y149.827 E0.01137
G1 X162.971 Y149.97 E0.00724
G1 X159.858 Y146.857 E0.18278
G1 X159.24 Y146.845 E0.02568
G1 X162.721 Y150.326 E0.20442
G1 X162.472 Y150.682 E0.01806
G1 X158.622 Y146.832 E0.22607
G1 X158.12 Y146.822 E0.02083
G1 X158.006 Y146.822 E0.00474
G1 X162.293 Y151.11 E0.25177
G1 X162.235 Y151.658 E0.02287
G1 X157.401 Y146.824 E0.28386
G1 X156.796 Y146.825 E0.02511
G1 X162.177 Y152.206 E0.31594
G1 X162.145 Y152.511 E0.01273
G1 X162.349 Y152.983 E0.02138
G1 X156.192 Y146.826 E0.36154
G1 X155.587 Y146.828 E0.02511
G1 X161.935 Y153.176 E0.37277
G1 X161.329 Y153.176 E0.02516
G1 X154.982 Y146.829 E0.37269
G1 X154.378 Y146.83 E0.02511
G1 X160.723 Y153.176 E0.37261
G1 X160.118 Y153.176 E0.02516
G1 X153.773 Y146.832 E0.37254
M73 P2 R19
G1 X153.168 Y146.833 E0.02511
G1 X159.512 Y153.176 E0.37246
G1 X158.906 Y153.176 E0.02516
G1 X152.564 Y146.834 E0.37238
G1 X151.959 Y146.835 E0.02511
G1 X158.3 Y153.176 E0.3723
G1 X157.694 Y153.176 E0.02516
G1 X151.354 Y146.837 E0.37222
G1 X150.75 Y146.838 E0.02511
G1 X157.088 Y153.176 E0.37215
G1 X156.482 Y153.176 E0.02516
G1 X150.145 Y146.839 E0.37207
G1 X149.54 Y146.841 E0.02511
G1 X155.876 Y153.176 E0.37199
G1 X155.27 Y153.176 E0.02516
G1 X148.936 Y146.842 E0.37191
G1 X148.331 Y146.843 E0.02511
G1 X154.664 Y153.176 E0.37184
G1 X154.058 Y153.176 E0.02516
G1 X147.726 Y146.845 E0.37176
G1 X147.122 Y146.846 E0.02511
G1 X153.452 Y153.176 E0.37168
G1 X152.846 Y153.176 E0.02516
G1 X146.517 Y146.847 E0.3716
G1 X145.912 Y146.849 E0.02511
G1 X152.24 Y153.176 E0.37152
G1 X151.634 Y153.176 E0.02516
G1 X145.308 Y146.85 E0.37145
G1 X144.703 Y146.851 E0.02511
G1 X151.028 Y153.176 E0.37137
G1 X150.422 Y153.176 E0.02516
G1 X144.098 Y146.853 E0.37129
G1 X143.494 Y146.854 E0.02511
G1 X149.816 Y153.176 E0.37121
G1 X149.21 Y153.176 E0.02516
G1 X142.889 Y146.855 E0.37114
G1 X142.798 Y146.856 E0.00377
G1 X142.444 Y147.016 E0.01617
G1 X148.604 Y153.176 E0.36171
G1 X147.998 Y153.176 E0.02516
G1 X142.126 Y147.304 E0.34478
G1 X141.86 Y147.644 E0.01793
G1 X147.392 Y153.176 E0.32481
G1 X146.786 Y153.176 E0.02516
G1 X141.594 Y147.985 E0.30483
G1 X141.329 Y148.325 E0.01793
G1 X146.18 Y153.176 E0.28485
G1 X145.574 Y153.176 E0.02516
G1 X141.063 Y148.665 E0.26487
G1 X140.797 Y149.005 E0.01793
