; generated by SuperSlicer 2.4 on 2022-05-16 at 17:21:08 UTC


;
;

;
;
; 

; external perimeters extrusion width = 0.40mm
; perimeters extrusion width = 0.40mm
; infill extrusion width = 0.72mm
; solid infill extrusion width = 0.56mm
; top infill extrusion width = 0.40mm
; first layer extrusion width = 0.48mm

; object:{"name":"OutfeedV2-8deg","id":"OutfeedV2-8deg.stl id:0 copy 0","object_center":[152.500000,150.000000,0.000000],"boundingbox_center":[152.500000,150.000000,35.297714],"boundingbox_size":[38.000000,246.212921,70.595428]}
; plater:{"center":[152.500000,150.000000,0.000000],"boundingbox_center":[152.500000,150.000000,35.297714],"boundingbox_size":[38.000000,246.212921,70.595428]}

M73 P0 R376
;TYPE:Custom
START_PRINT T_BED=60 T_EXTRUDER=200
M107
G21 ; set units to millimeters
G90 ; use absolute coordinates
M83 ; use relative distances for extrusion
; Filament gcode
M104 S200 ; set temperature
M109 S200 ; set temperature and wait for it to be reached
M190 S60 ; set bed temperature and wait for it to be reached
M107
;LAYER_CHANGE
;Z:0.24
;HEIGHT:0.24
G1 Z0.24 F9000
G92 E0
M73 P0 R375
G1 E-0.8 F3000
M204 S1000
G1 X130.46 Y28.475 F9000
G1 E0.8 F1800
;TYPE:Skirt
;WIDTH:0.4
G1 X130.46 Y270.102 E8.40211
G1 X130.619 Y271.455 E0.04736
G1 X130.943 Y272.456 E0.03657
G1 X131.435 Y273.385 E0.03657
G1 X132.081 Y274.215 E0.03657
G1 X132.862 Y274.92 E0.03657
G1 X133.753 Y275.478 E0.03657
G1 X134.727 Y275.874 E0.03657
G1 X135.756 Y276.094 E0.03657
G1 X136.504 Y276.146 E0.0261
G1 X168.496 Y276.146 E1.11243
G1 X169.244 Y276.094 E0.0261
G1 X170.273 Y275.874 E0.03657
G1 X171.247 Y275.478 E0.03657
G1 X172.138 Y274.92 E0.03657
G1 X172.608 Y274.525 E0.02133
G1 X173.313 Y273.745 E0.03657
G1 X173.872 Y272.854 E0.03657
G1 X174.267 Y271.879 E0.03657
G1 X174.487 Y270.851 E0.03657
G1 X174.54 Y270.108 E0.02589
G1 X174.92 Y29.898 E8.35284
G1 X174.755 Y28.479 E0.04967
G1 X174.415 Y27.414 E0.03887
G1 X173.894 Y26.425 E0.03887
G1 X173.21 Y25.541 E0.03887
G1 X172.383 Y24.789 E0.03887
G1 X171.969 Y24.499 E0.01758
G1 X170.979 Y23.979 E0.03887
G1 X169.914 Y23.638 E0.03887
G1 X168.802 Y23.487 E0.03902
G1 X136.504 Y23.474 E1.12311
G1 X135.737 Y23.525 E0.02674
G1 X134.705 Y23.736 E0.03661
G1 X133.722 Y24.112 E0.0366
G1 X132.814 Y24.645 E0.03661
G1 X132.011 Y25.313 E0.03632
G1 X131.325 Y26.105 E0.03643
G1 X130.916 Y26.743 E0.02636
G1 X130.46 Y28.475 E0.06228
G1 X130.807 Y28.475 F9000
G1 F1800
G1 X130.807 Y270.102 E8.40211
G1 X130.954 Y271.365 E0.04422
G1 X131.256 Y272.309 E0.03447
G1 X131.719 Y273.186 E0.03447
G1 X132.326 Y273.97 E0.03447
G1 X133.06 Y274.636 E0.03448
G1 X133.899 Y275.164 E0.03448
G1 X134.817 Y275.539 E0.03447
G1 X135.786 Y275.749 E0.03447
G1 X136.504 Y275.8 E0.02505
G1 X168.496 Y275.8 E1.11243
G1 X169.214 Y275.749 E0.02505
G1 X170.183 Y275.539 E0.03447
G1 X171.101 Y275.164 E0.03447
G1 X171.94 Y274.636 E0.03448
G1 X172.363 Y274.28 E0.01924
G1 X173.029 Y273.546 E0.03447
G1 X173.558 Y272.707 E0.03447
G1 X173.933 Y271.79 E0.03447
G1 X174.142 Y270.821 E0.03447
G1 X174.193 Y270.107 E0.02486
G1 X174.573 Y29.898 E8.35282
G1 X174.421 Y28.569 E0.04652
G1 X174.101 Y27.561 E0.03677
G1 X173.61 Y26.624 E0.03677
G1 X172.965 Y25.786 E0.03677
G1 X172.184 Y25.073 E0.03678
G1 X171.77 Y24.783 E0.01758
G1 X170.833 Y24.293 E0.03678
G1 X169.825 Y23.973 E0.03677
G1 X168.772 Y23.832 E0.03692
G1 X136.504 Y23.82 E1.12206
G1 X135.765 Y23.87 E0.02575
G1 X134.79 Y24.072 E0.03463
G1 X133.861 Y24.43 E0.03463
G1 X133.003 Y24.935 E0.03463
G1 X132.244 Y25.569 E0.03435
G1 X131.597 Y26.319 E0.03447
G1 X131.218 Y26.913 E0.0245
G1 X130.807 Y28.475 E0.05615
G1 E-0.8 F3000
; printing object OutfeedV2-8deg.stl id:0 copy 0
G1 X144.082 Y192.904 F9000
G1 E0.8 F1800
;TYPE:Internal perimeter
;WIDTH:0.48
G1 X161.134 Y192.904 E0.7291
G1 X161.854 Y192.654 E0.03254
G1 X162.338 Y192.374 E0.02394
G1 X162.754 Y192.027 E0.02315
G1 X163.106 Y191.616 E0.02315
G1 X163.385 Y191.152 E0.02315
G1 X163.581 Y190.647 E0.02315
G1 X163.689 Y190.116 E0.02315
G1 X163.707 Y189.575 E0.02315
G1 X163.634 Y189.039 E0.02315
G1 X163.471 Y188.522 E0.02315
G1 X163.224 Y188.04 E0.02315
G1 X162.9 Y187.607 E0.02315
G1 X162.507 Y187.234 E0.02315
G1 X162.058 Y186.932 E0.02315
G1 X161.564 Y186.71 E0.02315
G1 X161.04 Y186.575 E0.02315
G1 X160.569 Y186.535 E0.02021
G1 X144.431 Y186.535 E0.68996
G1 X143.96 Y186.575 E0.02021
G1 X143.436 Y186.71 E0.02315
G1 X142.942 Y186.932 E0.02315
G1 X142.493 Y187.234 E0.02315
G1 X142.1 Y187.607 E0.02315
G1 X141.776 Y188.04 E0.02315
G1 X141.529 Y188.522 E0.02315
G1 X141.366 Y189.039 E0.02315
G1 X141.293 Y189.575 E0.02315
G1 X141.311 Y190.116 E0.02315
G1 X141.419 Y190.647 E0.02315
G1 X141.615 Y191.152 E0.02315
G1 X141.894 Y191.616 E0.02315
G1 X142.246 Y192.027 E0.02315
G1 X142.662 Y192.374 E0.02315
G1 X143.146 Y192.654 E0.02393
G1 X143.865 Y192.904 E0.03253
G1 X144.082 Y192.904 E0.00927
G1 X144.082 Y192.475 F9000
G1 F1800
G1 X161.062 Y192.475 E0.72602
G1 X161.674 Y192.263 E0.02769
G1 X162.092 Y192.021 E0.02063
G1 X162.452 Y191.721 E0.02005
G1 X162.757 Y191.365 E0.02005
G1 X162.998 Y190.963 E0.02005
G1 X163.168 Y190.525 E0.02005
G1 X163.262 Y190.066 E0.02005
G1 X163.278 Y189.597 E0.02005
G1 X163.214 Y189.133 E0.02005
G1 X163.073 Y188.685 E0.02005
G1 X162.86 Y188.268 E0.02005
G1 X162.579 Y187.892 E0.02005
G1 X162.239 Y187.569 E0.02005
G1 X161.849 Y187.308 E0.02005
G1 X161.421 Y187.116 E0.02005
G1 X160.967 Y186.999 E0.02005
G1 X160.551 Y186.963 E0.01788
G1 X144.449 Y186.963 E0.68841
G1 X144.033 Y186.999 E0.01788
G1 X143.579 Y187.116 E0.02005
G1 X143.151 Y187.308 E0.02005
G1 X142.761 Y187.569 E0.02005
G1 X142.421 Y187.892 E0.02005
G1 X142.14 Y188.268 E0.02005
G1 X141.927 Y188.685 E0.02005
G1 X141.786 Y189.133 E0.02005
G1 X141.722 Y189.597 E0.02005
G1 X141.738 Y190.066 E0.02005
G1 X141.832 Y190.525 E0.02005
G1 X142.002 Y190.963 E0.02005
G1 X142.243 Y191.365 E0.02005
G1 X142.548 Y191.721 E0.02005
G1 X142.908 Y192.021 E0.02005
G1 X143.326 Y192.263 E0.02062
G1 X143.937 Y192.475 E0.02768
G1 X144.082 Y192.475 E0.00618
G1 X143.941 Y192.023 F9000
G1 F1800
G1 X144.009 Y192.047 E0.00309
G1 X160.99 Y192.047 E0.72602
G1 X161.495 Y191.871 E0.02285
G1 X161.846 Y191.668 E0.01732
G1 X162.151 Y191.415 E0.01695
G1 X162.408 Y191.114 E0.01695
G1 X162.612 Y190.774 E0.01695
G1 X162.756 Y190.404 E0.01695
G1 X162.835 Y190.016 E0.01695
G1 X162.848 Y189.619 E0.01695
G1 X162.794 Y189.227 E0.01695
G1 X162.675 Y188.848 E0.01695
G1 X162.495 Y188.496 E0.01695
G1 X162.257 Y188.178 E0.01695
G1 X161.97 Y187.905 E0.01695
G1 X161.641 Y187.684 E0.01695
G1 X161.279 Y187.522 E0.01695
G1 X160.895 Y187.423 E0.01695
G1 X160.532 Y187.392 E0.01556
G1 X144.468 Y187.392 E0.68686
G1 X144.105 Y187.423 E0.01556
G1 X143.721 Y187.522 E0.01695
G1 X143.359 Y187.684 E0.01695
G1 X143.03 Y187.905 E0.01695
G1 X142.743 Y188.178 E0.01695
G1 X142.505 Y188.496 E0.01695
G1 X142.325 Y188.848 E0.01695
G1 X142.206 Y189.227 E0.01695
G1 X142.152 Y189.619 E0.01695
G1 X142.165 Y190.016 E0.01695
G1 X142.244 Y190.404 E0.01695
G1 X142.388 Y190.774 E0.01695
G1 X142.592 Y191.114 E0.01695
G1 X142.849 Y191.415 E0.01695
G1 X143.154 Y191.668 E0.01695
G1 X143.505 Y191.871 E0.01732
G1 X143.941 Y192.023 E0.01975
G1 X144.082 Y191.618 F9000
;TYPE:External perimeter
G1 F1800
G1 X160.918 Y191.618 E0.71984
G1 X161.316 Y191.48 E0.01801
G1 X161.6 Y191.316 E0.01401
G1 X161.849 Y191.109 E0.01385
G1 X162.059 Y190.863 E0.01385
G1 X162.226 Y190.585 E0.01385
G1 X162.343 Y190.283 E0.01385
G1 X162.408 Y189.965 E0.01385
G1 X162.419 Y189.642 E0.01385
G1 X162.375 Y189.321 E0.01385
G1 X162.278 Y189.012 E0.01385
G1 X162.13 Y188.723 E0.01385
G1 X161.936 Y188.464 E0.01385
G1 X161.701 Y188.241 E0.01385
G1 X161.432 Y188.06 E0.01385
G1 X161.136 Y187.928 E0.01385
G1 X160.823 Y187.846 E0.01385
G1 X160.514 Y187.82 E0.01323
G1 X144.486 Y187.82 E0.68531
G1 X144.177 Y187.846 E0.01323
G1 X143.864 Y187.928 E0.01385
G1 X143.568 Y188.06 E0.01385
G1 X143.299 Y188.241 E0.01385
G1 X143.064 Y188.464 E0.01385
G1 X142.87 Y188.723 E0.01385
G1 X142.722 Y189.012 E0.01385
G1 X142.625 Y189.321 E0.01385
G1 X142.581 Y189.642 E0.01385
G1 X142.592 Y189.965 E0.01385
G1 X142.657 Y190.283 E0.01385
G1 X142.774 Y190.585 E0.01385
G1 X142.941 Y190.863 E0.01385
G1 X143.151 Y191.109 E0.01385
G1 X143.4 Y191.316 E0.01385
G1 X143.684 Y191.48 E0.01401
G1 X144.082 Y191.618 E0.018
;WIPE_START
M204 S3000
G1 X144.242 Y191.985 F9000
;WIPE_END
G1 E-0.8 F3000
M204 S1000
G1 X169.16 Y40.388 F9000
G1 E0.8 F1800
;TYPE:Internal perimeter
G1 X167.875 Y40.388 E0.05496
G1 X167.875 Y93.399 E2.26651
G1 X169.495 Y93.399 E0.06926
G1 X169.495 Y270.036 E7.55217
M73 P0 R374
G1 X169.473 Y270.278 E0.01041
G1 X169.429 Y270.444 E0.00737
G1 X169.356 Y270.601 E0.00736
G1 X169.257 Y270.742 E0.00737
G1 X169.135 Y270.864 E0.00737
G1 X168.994 Y270.962 E0.00736
G1 X168.838 Y271.035 E0.00737
G1 X168.672 Y271.08 E0.00737
G1 X168.429 Y271.101 E0.01041
G1 X136.571 Y271.101 E1.3621
G1 X136.328 Y271.08 E0.01041
G1 X136.162 Y271.035 E0.00737
G1 X136.006 Y270.962 E0.00737
G1 X135.865 Y270.864 E0.00737
G1 X135.743 Y270.742 E0.00737
G1 X135.644 Y270.601 E0.00737
G1 X135.571 Y270.444 E0.00736
G1 X135.527 Y270.278 E0.00737
G1 X135.505 Y270.036 E0.01041
G1 X135.505 Y93.399 E7.55217
G1 X137.125 Y93.399 E0.06926
G1 X137.125 Y40.388 E2.26651
G1 X135.505 Y40.388 E0.06926
G1 X135.505 Y28.954 E0.48888
G1 X135.663 Y28.81 E0.00913
G1 X135.852 Y28.687 E0.00963
G1 X136.058 Y28.598 E0.00961
G1 X136.276 Y28.543 E0.00961
G1 X136.567 Y28.519 E0.01247
G1 X168.429 Y28.519 E1.36228
G1 X168.619 Y28.536 E0.00814
G1 X168.738 Y28.546 E0.0051
G1 X168.968 Y28.608 E0.0102
G1 X169.184 Y28.709 E0.0102
G1 X169.38 Y28.845 E0.0102
G1 X169.548 Y29.014 E0.0102
G1 X169.685 Y29.209 E0.0102
G1 X169.786 Y29.426 E0.0102
G1 X169.848 Y29.656 E0.0102
G1 X169.875 Y29.965 E0.01324
G1 X169.875 Y40.388 E0.44566
G1 X169.16 Y40.388 E0.03055
G1 X169.16 Y40.817 F9000
G1 F1800
G1 X168.303 Y40.817 E0.03664
G1 X168.303 Y92.971 E2.22987
G1 X169.923 Y92.971 E0.06926
G1 X169.923 Y270.054 E7.57129
G1 X169.897 Y270.353 E0.01281
G1 X169.833 Y270.592 E0.01057
G1 X169.728 Y270.816 E0.01057
G1 X169.587 Y271.018 E0.01057
G1 X169.412 Y271.193 E0.01057
G1 X169.209 Y271.335 E0.01057
G1 X168.985 Y271.439 E0.01057
G1 X168.746 Y271.503 E0.01057
G1 X168.448 Y271.529 E0.01281
G1 X136.552 Y271.529 E1.3637
G1 X136.254 Y271.503 E0.01281
G1 X136.015 Y271.439 E0.01057
G1 X135.791 Y271.335 E0.01057
G1 X135.588 Y271.193 E0.01057
G1 X135.413 Y271.018 E0.01057
G1 X135.272 Y270.816 E0.01057
G1 X135.167 Y270.592 E0.01057
G1 X135.103 Y270.353 E0.01057
G1 X135.077 Y270.054 E0.01281
G1 X135.077 Y92.971 E7.57129
G1 X136.697 Y92.971 E0.06926
G1 X136.697 Y40.817 E2.22987
G1 X135.077 Y40.817 E0.06926
G1 X135.077 Y28.803 E0.51365
G1 X135.186 Y28.665 E0.00752
G1 X135.401 Y28.47 E0.01242
G1 X135.649 Y28.309 E0.01264
G1 X135.919 Y28.191 E0.01262
G1 X136.206 Y28.119 E0.01262
G1 X136.549 Y28.091 E0.01473
G1 X168.448 Y28.091 E1.36384
G1 X168.656 Y28.109 E0.00894
G1 X168.812 Y28.122 E0.0067
G1 X169.115 Y28.204 E0.0134
G1 X169.399 Y28.336 E0.0134
G1 X169.656 Y28.516 E0.0134
G1 X169.878 Y28.738 E0.0134
G1 X170.057 Y28.994 E0.0134
G1 X170.19 Y29.278 E0.0134
G1 X170.271 Y29.581 E0.0134
G1 X170.303 Y29.946 E0.01565
G1 X170.303 Y40.817 E0.46478
G1 X169.16 Y40.817 E0.04887
G1 X169.16 Y41.245 F9000
G1 F1800
G1 X168.732 Y41.245 E0.01832
G1 X168.732 Y92.542 E2.19323
G1 X170.352 Y92.542 E0.06926
G1 X170.352 Y270.073 E7.59041
G1 X170.32 Y270.427 E0.01522
G1 X170.237 Y270.739 E0.01378
G1 X170.101 Y271.031 E0.01378
G1 X169.916 Y271.295 E0.01378
G1 X169.688 Y271.523 E0.01378
G1 X169.424 Y271.707 E0.01378
G1 X169.132 Y271.844 E0.01378
G1 X168.821 Y271.927 E0.01378
G1 X168.466 Y271.958 E0.01522
G1 X136.534 Y271.958 E1.3653
G1 X136.179 Y271.927 E0.01522
G1 X135.868 Y271.844 E0.01378
G1 X135.576 Y271.707 E0.01378
G1 X135.312 Y271.523 E0.01378
G1 X135.084 Y271.295 E0.01378
G1 X134.899 Y271.031 E0.01378
G1 X134.763 Y270.739 E0.01378
G1 X134.68 Y270.427 E0.01378
G1 X134.648 Y270.073 E0.01522
G1 X134.648 Y92.542 E7.59041
G1 X136.268 Y92.542 E0.06926
G1 X136.268 Y41.245 E2.19323
G1 X134.648 Y41.245 E0.06926
G1 X134.648 Y28.654 E0.53834
G1 X134.872 Y28.372 E0.01538
G1 X135.138 Y28.129 E0.01541
G1 X135.445 Y27.93 E0.01565
G1 X135.781 Y27.784 E0.01564
G1 X136.135 Y27.695 E0.01564
G1 X136.532 Y27.662 E0.017
G1 X168.466 Y27.662 E1.36539
G1 X168.693 Y27.682 E0.00974
G1 X168.887 Y27.699 E0.0083
G1 X169.262 Y27.799 E0.01661
G1 X169.614 Y27.964 E0.01661
G1 X169.932 Y28.186 E0.01661
G1 X170.207 Y28.461 E0.01661
G1 X170.43 Y28.779 E0.01661
G1 X170.594 Y29.131 E0.01661
G1 X170.695 Y29.507 E0.01661
G1 X170.732 Y29.927 E0.01805
G1 X170.732 Y41.245 E0.4839
G1 X169.16 Y41.245 E0.06719
G1 X169.16 Y41.674 F9000
;TYPE:External perimeter
G1 F1800
G1 X169.16 Y92.114 E2.15659
G1 X169.28 Y92.114 E0.00458
G1 X169.52 Y92.114 E0.00971
G1 X170.78 Y92.114 E0.05387
G1 X170.78 Y92.234 E0.00458
G1 X170.78 Y92.474 E0.00971
G1 X170.78 Y270.092 E7.59414
G1 X170.744 Y270.502 E0.01762
G1 X170.641 Y270.886 E0.01698
G1 X170.473 Y271.246 E0.01698
G1 X170.246 Y271.571 E0.01698
G1 X169.965 Y271.852 E0.01698
G1 X169.639 Y272.08 E0.01698
G1 X169.279 Y272.248 E0.01698
G1 X168.896 Y272.351 E0.01698
G1 X168.485 Y272.386 E0.01762
G1 X136.515 Y272.386 E1.3669
M73 P0 R373
G1 X136.104 Y272.351 E0.01762
G1 X135.721 Y272.248 E0.01698
G1 X135.361 Y272.08 E0.01698
G1 X135.035 Y271.852 E0.01698
G1 X134.754 Y271.571 E0.01698
G1 X134.527 Y271.246 E0.01698
G1 X134.359 Y270.886 E0.01698
G1 X134.256 Y270.502 E0.01698
G1 X134.22 Y270.092 E0.01762
G1 X134.22 Y92.114 E7.60953
G1 X134.34 Y92.114 E0.00458
G1 X134.58 Y92.114 E0.00971
G1 X135.84 Y92.114 E0.05387
G1 X135.84 Y91.994 E0.00458
G1 X135.84 Y91.754 E0.00971
G1 X135.84 Y41.674 E2.14119
G1 X135.72 Y41.674 E0.00458
G1 X135.48 Y41.674 E0.00971
G1 X134.22 Y41.674 E0.05387
G1 X134.22 Y41.554 E0.00458
G1 X134.22 Y41.314 E0.00971
G1 X134.22 Y28.538 E0.54623
G1 X134.285 Y28.422 E0.00568
G1 X134.557 Y28.079 E0.01874
G1 X134.876 Y27.789 E0.01841
G1 X135.242 Y27.551 E0.01866
G1 X135.642 Y27.377 E0.01866
G1 X136.065 Y27.27 E0.01866
G1 X136.514 Y27.234 E0.01926
G1 X168.485 Y27.234 E1.36694
G1 X168.731 Y27.255 E0.01054
G1 X168.962 Y27.275 E0.00991
G1 X169.409 Y27.395 E0.01982
G1 X169.829 Y27.591 E0.01981
G1 X170.209 Y27.857 E0.01981
G1 X170.537 Y28.185 E0.01981
G1 X170.803 Y28.564 E0.01982
G1 X170.998 Y28.984 E0.01981
G1 X171.118 Y29.432 E0.01981
G1 X171.16 Y29.908 E0.02045
G1 X171.16 Y41.674 E0.50302
G1 X171.04 Y41.674 E0.00458
G1 X170.8 Y41.674 E0.00971
G1 X169.16 Y41.674 E0.07012
;WIPE_START
M204 S3000
G1 X168.76 Y41.674 F9000
;WIPE_END
M204 S1000
G1 X169.81 Y30.25
;TYPE:Solid infill
;WIDTH:0.477319
G1 F2400
G1 X168.344 Y28.784 E0.08816
G1 X167.738 Y28.784 E0.02578
G1 X169.626 Y30.672 E0.11354
G1 X169.626 Y31.278 E0.02576
G1 X167.131 Y28.783 E0.14999
G1 X166.525 Y28.783 E0.02578
G1 X169.626 Y31.884 E0.18645
G1 X169.626 Y32.49 E0.02576
G1 X165.919 Y28.783 E0.2229
G1 X165.313 Y28.782 E0.02578
G1 X169.626 Y33.096 E0.25936
G1 X169.626 Y33.702 E0.02576
G1 X164.706 Y28.782 E0.29582
G1 X164.1 Y28.782 E0.02578
G1 X169.626 Y34.308 E0.33227
G1 X169.626 Y34.914 E0.02576
G1 X163.494 Y28.781 E0.36873
G1 X162.887 Y28.781 E0.02578
G1 X169.626 Y35.52 E0.40518
G1 X169.626 Y36.126 E0.02576
G1 X162.281 Y28.781 E0.44164
G1 X161.675 Y28.781 E0.02578
G1 X169.626 Y36.732 E0.47809
G1 X169.626 Y37.338 E0.02576
G1 X161.068 Y28.78 E0.51455
G1 X160.462 Y28.78 E0.02578
G1 X169.626 Y37.944 E0.551
G1 X169.626 Y38.55 E0.02576
G1 X159.856 Y28.78 E0.58746
G1 X159.25 Y28.779 E0.02578
G1 X169.626 Y39.156 E0.62391
G1 X169.626 Y39.762 E0.02576
G1 X158.643 Y28.779 E0.66037
G1 X158.037 Y28.779 E0.02578
G1 X169.398 Y40.14 E0.6831
G1 X168.792 Y40.14 E0.02576
G1 X157.431 Y28.778 E0.68312
G1 X156.824 Y28.778 E0.02578
G1 X168.186 Y40.14 E0.68314
G1 X167.626 Y40.14 E0.0238
G1 X167.626 Y40.186 E0.00196
G1 X156.218 Y28.778 E0.68593
G1 X155.612 Y28.777 E0.02578
G1 X167.626 Y40.792 E0.72239
G1 X167.626 Y41.398 E0.02576
G1 X155.005 Y28.777 E0.75884
G1 X154.399 Y28.777 E0.02578
G1 X167.626 Y42.004 E0.7953
G1 X167.626 Y42.61 E0.02576
G1 X153.793 Y28.776 E0.83175
G1 X153.187 Y28.776 E0.02578
G1 X167.626 Y43.216 E0.86821
