; generated by SuperSlicer 2.3.56 on 2021-06-08 at 21:27:13 UTC

; 

; external perimeters extrusion width = 0.40mm
; perimeters extrusion width = 0.40mm
; infill extrusion width = 0.40mm
; solid infill extrusion width = 0.40mm
; top infill extrusion width = 0.40mm
; support material extrusion width = 0.40mm
; first layer extrusion width = 0.40mm


M140 S60 ; set bed temperature
M104 S235 ; set temperature
;TYPE:Custom
START_PRINT T_BED=60 T_EXTRUDER=235
M107
G21 ; set units to millimeters
G90 ; use absolute coordinates
M82 ; use absolute distances for extrusion
G92 E0
; Filament gcode
M109 S235 ; set temperature and wait for it to be reached
M190 S60 ; set bed temperature and wait for it to be reached
M107
;LAYER_CHANGE
;Z:0.24
;HEIGHT:0.24
G1 Z0.240000 F9000.000
G1 X115.121 Y92.359
;TYPE:Skirt
;WIDTH:0.4
G1 F900.000
M204 P500
G1 X115.627 Y91.823 E0.02562
G1 X116.413 Y91.163 E0.06131
G1 X117.135 Y90.684 E0.09143
G1 X117.744 Y90.371 E0.11524
G1 X118.822 Y89.934 E0.15570
G1 X119.902 Y89.626 E0.19473
G1 X120.796 Y89.519 E0.22605
G1 X122.547 Y89.476 E0.28696
G1 X161.908 Y89.474 E1.65565
G1 X164.281 Y89.524 E1.73818
G1 X165.554 Y89.731 E1.78304
G1 X166.857 Y90.220 E1.83145
G1 X168.112 Y90.894 E1.88097
G1 X168.859 Y91.395 E1.91224
G1 X169.368 Y91.830 E1.93554
G1 X169.988 Y92.483 E1.96683
G1 X171.085 Y94.127 E2.03557
G1 X171.599 Y95.386 E2.08284
G1 X171.956 Y97.056 E2.14222
G1 X172.023 Y98.989 E2.20949
G1 X172.022 Y171.862 E4.74350
G1 X171.838 Y173.763 E4.80993
G1 X171.468 Y175.001 E4.85485
G1 X171.193 Y175.665 E4.87986
G1 X170.849 Y176.264 E4.90387
G1 X169.906 Y177.616 E4.96118
G1 X169.382 Y178.151 E4.98720
G1 X168.326 Y179.027 E5.03494
G1 X167.539 Y179.485 E5.06660
G1 X166.003 Y180.132 E5.12455
G1 X165.226 Y180.348 E5.15259
G1 X164.287 Y180.476 E5.18556
G1 X162.310 Y180.525 E5.25429
G1 X122.547 Y180.524 E6.63699
G1 X120.780 Y180.480 E6.69845
G1 X119.841 Y180.362 E6.73135
G1 X118.750 Y180.041 E6.77090
G1 X117.522 Y179.526 E6.81722
G1 X116.845 Y179.131 E6.84446
G1 X115.925 Y178.433 E6.88462
G1 X115.010 Y177.514 E6.92972
G1 X94.404 Y151.475 E8.08439
G1 X93.961 Y150.815 E8.11202
G1 X93.618 Y150.099 E8.13966
G1 X93.338 Y149.141 E8.17433
G1 X93.234 Y148.150 E8.20901
G1 X93.234 Y121.733 E9.12760
G1 X93.382 Y120.496 E9.17091
G1 X93.804 Y119.324 E9.21423
G1 X94.423 Y118.344 E9.25453
G1 X115.084 Y92.406 E10.40766
G1 X115.356 Y92.623 F9000.000
G1 F900.000
G1 X115.388 Y92.583 E10.40944
G1 X115.867 Y92.076 E10.43365
G1 X116.625 Y91.440 E10.46807
G1 X117.887 Y90.688 E10.51917
G1 X118.935 Y90.263 E10.55848
G1 X119.973 Y89.967 E10.59603
G1 X120.825 Y89.867 E10.62587
G1 X122.555 Y89.824 E10.68601
G1 X161.908 Y89.823 E12.05444
G1 X164.242 Y89.871 E12.13562
G1 X165.455 Y90.065 E12.17834
G1 X166.697 Y90.530 E12.22444
G1 X167.927 Y91.190 E12.27299
G1 X168.643 Y91.668 E12.30293
G1 X169.720 Y92.706 E12.35493
G1 X170.781 Y94.297 E12.42145
G1 X171.266 Y95.489 E12.46620
G1 X171.611 Y97.108 E12.52376
G1 X171.674 Y98.993 E12.58935
G1 X171.674 Y171.860 E15.12315
G1 X171.497 Y173.692 E15.18715
G1 X171.139 Y174.886 E15.23050
G1 X170.876 Y175.519 E15.25433
G1 X169.638 Y177.393 E15.33241
G1 X169.147 Y177.894 E15.35682
G1 X168.120 Y178.746 E15.40321
G1 X167.382 Y179.173 E15.43288
G1 X165.876 Y179.807 E15.48968
G1 X165.140 Y180.009 E15.51623
G1 X164.245 Y180.129 E15.54763
G1 X162.310 Y180.177 E15.61493
G1 X122.556 Y180.176 E16.99730
G1 X120.806 Y180.132 E17.05818
G1 X119.912 Y180.021 E17.08951
G1 X118.866 Y179.712 E17.12743
G1 X117.666 Y179.208 E17.17269
G1 X117.031 Y178.836 E17.19827
G1 X116.140 Y178.159 E17.23719
G1 X115.279 Y177.292 E17.27968
G1 X94.678 Y151.260 E18.43406
G1 X94.265 Y150.644 E18.45983
G1 X93.942 Y149.971 E18.48580
G1 X93.679 Y149.072 E18.51839
G1 X93.583 Y148.139 E18.55098
G1 X93.582 Y121.740 E19.46898
G1 X93.721 Y120.576 E19.50973
G1 X94.119 Y119.473 E19.55048
G1 X94.698 Y118.558 E19.58813
G1 X115.319 Y92.669 E20.73905
G92 E0
G1 X122.454 Y154.946 F9000.000
;TYPE:Support material
G1 F900.000
G1 X122.454 Y150.875 E0.14157
G1 X121.757 Y150.875 E0.16580
G1 X121.757 Y154.790 E0.30192
G1 X121.060 Y154.790 E0.32615
G1 X121.060 Y150.875 E0.46227
G1 X120.363 Y150.875 E0.48650
G1 X120.363 Y154.790 E0.62262
G1 X119.666 Y154.790 E0.64685
G1 X119.666 Y150.875 E0.78297
G1 X118.969 Y150.875 E0.80720
G1 X118.969 Y154.790 E0.94332
G1 X118.272 Y154.790 E0.96755
G1 X118.272 Y150.875 E1.10367
G1 X118.138 Y150.875 E1.10834
G1 X117.626 Y150.363 E1.13352
G1 X117.626 Y119.637 E2.20197
G1 X118.138 Y119.125 E2.22715
G1 X118.272 Y119.125 E2.23183
G1 X118.272 Y115.210 E2.36794
G1 X117.575 Y115.210 E2.39218
G1 X117.575 Y154.790 E3.76847
G1 X116.878 Y154.790 E3.79270
G1 X116.878 Y115.210 E5.16899
G1 X116.181 Y115.210 E5.19323
G1 X116.181 Y154.790 E6.56952
G1 X115.484 Y154.790 E6.59376
G1 X115.484 Y115.210 E7.97005
G1 X115.210 Y115.210 E7.97957
G1 X115.210 Y118.567 E8.09631
G1 X114.787 Y118.567 E8.11102
G1 X114.787 Y151.433 E9.25384
G1 X114.090 Y151.433 E9.27807
G1 X114.090 Y118.567 E10.42089
G1 X113.393 Y118.567 E10.44513
G1 X113.393 Y151.433 E11.58794
G1 X112.696 Y151.433 E11.61218
G1 X112.696 Y118.567 E12.75500
G1 X111.999 Y118.567 E12.77923
G1 X111.999 Y151.433 E13.92205
G1 X111.302 Y151.433 E13.94629
G1 X111.302 Y118.567 E15.08911
G1 X110.605 Y118.567 E15.11334
G1 X110.605 Y151.433 E16.25616
G1 X109.908 Y151.433 E16.28040
G1 X109.908 Y118.567 E17.42322
G1 X109.211 Y118.567 E17.44745
G1 X109.211 Y151.433 E18.59027
G1 X108.514 Y151.433 E18.61451
G1 X108.514 Y118.567 E19.75732
G1 X108.496 Y118.567 E19.75796
G1 X108.496 Y121.925 E19.87469
G1 X107.817 Y121.925 E19.89830
G1 X107.817 Y148.075 E20.80764
G1 X107.120 Y148.075 E20.83188
G1 X107.120 Y121.925 E21.74123
G1 X106.423 Y121.925 E21.76546
G1 X106.423 Y148.075 E22.67481
G1 X105.726 Y148.075 E22.69904
G1 X105.726 Y121.925 E23.60839
G1 X105.029 Y121.925 E23.63263
G1 X105.029 Y148.075 E24.54197
G1 X104.332 Y148.075 E24.56621
G1 X104.332 Y121.925 E25.47556
G1 X103.635 Y121.925 E25.49979
G1 X103.635 Y148.075 E26.40914
G1 X102.938 Y148.075 E26.43338
G1 X102.938 Y121.925 E27.34272
G1 X102.241 Y121.925 E27.36696
G1 X102.241 Y148.075 E28.27630
G1 X101.544 Y148.075 E28.30054
G1 X101.544 Y121.925 E29.20989
G1 X100.847 Y121.925 E29.23412
G1 X100.847 Y148.075 E30.14347
G1 X100.150 Y148.075 E30.16771
G1 X100.151 Y121.925 E31.07705
G1 X99.454 Y121.925 E31.10129
G1 X99.454 Y148.075 E32.01064
G1 X98.757 Y148.075 E32.03487
G1 X98.757 Y121.768 E32.94967
G92 E0
G1 X122.454 Y119.282 F9000.000
G1 F900.000
G1 X122.454 Y115.210 E0.14157
G1 X121.757 Y115.210 E0.16580
G1 X121.757 Y119.125 E0.30192
G1 X121.060 Y119.125 E0.32616
G1 X121.060 Y115.210 E0.46227
G1 X120.363 Y115.210 E0.48651
G1 X120.363 Y119.125 E0.62262
G1 X119.666 Y119.125 E0.64686
G1 X119.666 Y115.210 E0.78297
G1 X118.969 Y115.210 E0.80721
G1 X118.969 Y119.282 E0.94878
G92 E0
G1 X125.752 Y152.753 F9000.000
;TYPE:Internal perimeter
G1 F900.000
G1 X125.752 Y171.248 E0.64316
G1 X134.248 Y171.248 E0.93863
G1 X134.248 Y152.753 E1.58179
G1 X125.812 Y152.753 E1.87517
G1 X126.100 Y153.101 F9000.000
G1 F900.000
G1 X126.100 Y170.900 E2.49409
G1 X133.900 Y170.900 E2.76532
G1 X133.900 Y153.101 E3.38424
G1 X126.160 Y153.101 E3.65339
G1 X126.449 Y153.450 F9000.000
G1 F900.000
G1 X126.449 Y170.551 E4.24807
G1 X133.551 Y170.551 E4.49507
G1 X133.551 Y153.450 E5.08976
G1 X126.509 Y153.450 E5.33466
G1 X126.797 Y153.798 F9000.000
;TYPE:External perimeter
G1 F900.000
G1 X126.797 Y170.203 E5.90511
G1 X133.203 Y170.203 E6.12787
G1 X133.203 Y153.798 E6.69832
G1 X126.857 Y153.798 E6.91899
G1 X126.397 Y153.798 F9000.000
G92 E0
G1 X149.752 Y152.753
;TYPE:Internal perimeter
G1 F900.000
G1 X149.752 Y171.248 E0.64316
G1 X158.248 Y171.248 E0.93863
G1 X158.248 Y152.753 E1.58179
G1 X149.812 Y152.753 E1.87517
G1 X150.100 Y153.101 F9000.000
G1 F900.000
G1 X150.100 Y170.900 E2.49409
G1 X157.900 Y170.900 E2.76532
G1 X157.900 Y153.101 E3.38424
G1 X150.160 Y153.101 E3.65339
G1 X150.449 Y153.450 F9000.000
G1 F900.000
G1 X150.449 Y170.551 E4.24807
G1 X157.551 Y170.551 E4.49507
G1 X157.551 Y153.450 E5.08976
G1 X150.509 Y153.450 E5.33466
G1 X150.797 Y153.798 F9000.000
;TYPE:External perimeter
G1 F900.000
G1 X150.797 Y170.203 E5.90511
G1 X157.203 Y170.203 E6.12787
G1 X157.203 Y153.798 E6.69832
G1 X150.857 Y153.798 E6.91899
G1 X150.397 Y153.798 F9000.000
G92 E0
G1 X150.857 Y117.247
;TYPE:Internal perimeter
G1 F900.000
G1 X159.248 Y117.247 E0.29180
G1 X159.248 Y98.752 E0.93496
G1 X150.753 Y98.752 E1.23039
G1 X150.753 Y117.247 E1.87355
G1 X150.797 Y117.247 E1.87510
G1 X151.101 Y116.899 F9000.000
G1 F900.000
G1 X158.900 Y116.899 E2.14629
G1 X158.900 Y99.100 E2.76522
G1 X151.101 Y99.100 E3.03641
G1 X151.101 Y116.839 E3.65325
G1 X151.450 Y116.550 F9000.000
G1 F900.000
G1 X158.551 Y116.550 E3.90021
G1 X158.551 Y99.449 E4.49489
G1 X151.450 Y99.449 E4.74185
G1 X151.450 Y116.490 E5.33445
G1 X151.798 Y116.202 F9000.000
;TYPE:External perimeter
G1 F900.000
G1 X158.203 Y116.202 E5.55717
G1 X158.203 Y99.797 E6.12763
G1 X151.798 Y99.797 E6.35035
G1 X151.798 Y116.142 E6.91871
G1 X151.798 Y116.602 F9000.000
G92 E0
G1 X134.248 Y117.247
;TYPE:Internal perimeter
G1 F900.000
G1 X134.248 Y98.752 E0.64316
G1 X125.752 Y98.752 E0.93863
G1 X125.752 Y117.247 E1.58179
G1 X134.188 Y117.247 E1.87517
G1 X133.900 Y116.899 F9000.000
G1 F900.000
G1 X133.900 Y99.100 E2.49409
G1 X126.100 Y99.100 E2.76532
G1 X126.100 Y116.899 E3.38424
G1 X133.840 Y116.899 E3.65339
G1 X133.551 Y116.550 F9000.000
G1 F900.000
G1 X133.551 Y99.449 E4.24807
G1 X126.449 Y99.449 E4.49507
G1 X126.449 Y116.550 E5.08976
G1 X133.491 Y116.550 E5.33466
G1 X133.203 Y116.202 F9000.000
;TYPE:External perimeter
G1 F900.000
G1 X133.203 Y99.797 E5.90511
G1 X126.797 Y99.797 E6.12787
G1 X126.797 Y116.202 E6.69832
G1 X133.143 Y116.202 E6.91899
G1 X133.603 Y116.202 F9000.000
G92 E0
G1 X124.745 Y121.244
;TYPE:Internal perimeter
G1 F900.000
G1 X124.745 Y98.752 E0.78215
G1 X119.745 Y98.752 E0.95601
G1 X119.745 Y98.213 E0.97473
G1 X119.754 Y97.993 E0.98241
G1 X119.771 Y97.864 E0.98692
G1 X119.791 Y97.664 E0.99390
G1 X120.005 Y97.147 E1.01335
G1 X120.028 Y97.086 E1.01562
G1 X120.147 Y96.941 E1.02214
G1 X120.295 Y96.736 E1.03094
G1 X120.309 Y96.717 E1.03177
G1 X120.483 Y96.573 E1.03964
G1 X120.540 Y96.537 E1.04196
G1 X121.043 Y96.329 E1.06089
G1 X121.154 Y96.296 E1.06491
G1 X121.205 Y96.277 E1.06682
G1 X122.672 Y96.243 E1.11783
G1 X123.064 Y96.242 E1.13146
G1 X162.291 Y96.243 E2.49551
G1 X163.809 Y96.277 E2.54833
G1 X163.877 Y96.300 E2.55080
G1 X164.672 Y96.725 E2.58215
G1 X164.739 Y96.770 E2.58496
G1 X164.798 Y96.863 E2.58881
G1 X165.114 Y97.335 E2.60853
G1 X165.223 Y97.805 E2.62532
G1 X165.244 Y98.752 E2.65824
G1 X160.255 Y98.752 E2.83176
G1 X160.255 Y121.244 E3.61390
G1 X165.255 Y121.244 E3.78777
G1 X165.255 Y148.756 E4.74441
G1 X160.255 Y148.756 E4.91828
G1 X160.255 Y171.248 E5.70043
G1 X165.255 Y171.248 E5.87429
G1 X165.255 Y171.787 E5.89301
G1 X165.246 Y172.032 E5.90154
G1 X165.219 Y172.303 E5.91100
G1 X165.200 Y172.351 E5.91280
G1 X165.150 Y172.521 E5.91896
G1 X165.101 Y172.685 E5.92490
G1 X164.798 Y173.137 E5.94381
G1 X164.762 Y173.193 E5.94613
G1 X164.598 Y173.328 E5.95355
G1 X164.495 Y173.427 E5.95851
G1 X163.779 Y173.724 E5.98546
G1 X162.291 Y173.757 E6.03722
G1 X161.886 Y173.758 E6.05128
G1 X122.672 Y173.757 E7.41490
G1 X121.191 Y173.723 E7.46641
G1 X121.065 Y173.680 E7.47102
G1 X120.610 Y173.492 E7.48816
G1 X120.444 Y173.355 E7.49564
G1 X120.254 Y173.219 E7.50374
G1 X120.202 Y173.137 E7.50715
G1 X119.886 Y172.665 E7.52687
G1 X119.777 Y172.195 E7.54366
G1 X119.756 Y171.248 E7.57658
G1 X124.745 Y171.248 E7.75009
G1 X124.745 Y148.756 E8.53224
G1 X119.745 Y148.756 E8.70611
G1 X119.745 Y121.244 E9.66275
G1 X124.685 Y121.244 E9.83453
G1 X124.397 Y120.896 F9000.000
G1 F900.000
G1 X124.397 Y99.100 E10.59244
G1 X119.456 Y99.100 E10.76424
G1 X119.397 Y98.879 E10.77220
G1 X119.397 Y98.207 E10.79557
G1 X119.406 Y97.962 E10.80409
G1 X119.425 Y97.823 E10.80898
G1 X119.450 Y97.579 E10.81751
G1 X119.681 Y97.021 E10.83850
G1 X119.721 Y96.911 E10.84258
G1 X119.871 Y96.729 E10.85078
G1 X120.012 Y96.533 E10.85918
G1 X120.052 Y96.476 E10.86159
G1 X120.278 Y96.291 E10.87177
G1 X120.378 Y96.227 E10.87589
G1 X120.926 Y96.000 E10.89650
G1 X121.042 Y95.965 E10.90072
G1 X121.126 Y95.934 E10.90384
G1 X121.171 Y95.929 E10.90540
G1 X122.667 Y95.894 E10.95745
G1 X123.063 Y95.894 E10.97122
G1 X162.295 Y95.894 E12.33542
G1 X163.829 Y95.929 E12.38879
G1 X163.888 Y95.935 E12.39083
G1 X164.016 Y95.979 E12.39555
G1 X164.852 Y96.426 E12.42851
G1 X164.966 Y96.503 E12.43330
G1 X165.007 Y96.542 E12.43525
G1 X165.090 Y96.672 E12.44063
G1 X165.439 Y97.194 E12.46244
G1 X165.571 Y97.761 E12.48270
G1 X165.592 Y98.717 E12.51594
G1 X165.601 Y98.953 E12.52417
G1 X165.516 Y99.064 E12.52902
G1 X165.382 Y99.100 E12.53385
G1 X160.603 Y99.100 E12.70002
G1 X160.603 Y120.896 E13.45794
G1 X165.391 Y120.896 E13.62443
G1 X165.603 Y120.962 E13.63215
G1 X165.603 Y148.908 E14.60390
G1 X165.550 Y149.059 E14.60948
G1 X165.382 Y149.104 E14.61552
G1 X160.603 Y149.104 E14.78170
G1 X160.603 Y170.900 E15.53961
G1 X165.382 Y170.900 E15.70579
G1 X165.554 Y170.946 E15.71198
G1 X165.603 Y171.052 E15.71602
G1 X165.603 Y171.793 E15.74181
G1 X165.593 Y172.055 E15.75094
G1 X165.561 Y172.382 E15.76237
G1 X165.531 Y172.462 E15.76532
G1 X165.484 Y172.621 E15.77108
G1 X165.420 Y172.835 E15.77886
G1 X165.090 Y173.328 E15.79947
G1 X165.026 Y173.427 E15.80358
G1 X164.830 Y173.589 E15.81243
G1 X164.689 Y173.724 E15.81920
G1 X163.928 Y174.039 E15.84784
G1 X163.878 Y174.063 E15.84980
G1 X163.819 Y174.071 E15.85186
G1 X162.295 Y174.106 E15.90487
G1 X161.887 Y174.106 E15.91907
G1 X122.667 Y174.106 E17.28284
G1 X121.171 Y174.071 E17.33489
G1 X121.112 Y174.065 E17.33693
G1 X120.942 Y174.007 E17.34319
G1 X120.429 Y173.794 E17.36252
G1 X120.231 Y173.632 E17.37141
G1 X120.035 Y173.491 E17.37980
G1 X119.997 Y173.463 E17.38143
G1 X119.910 Y173.328 E17.38704
G1 X119.561 Y172.806 E17.40885
G1 X119.429 Y172.239 E17.42911
G1 X119.408 Y171.283 E17.46235
G1 X119.399 Y171.047 E17.47057
G1 X119.484 Y170.936 E17.47543
G1 X119.618 Y170.900 E17.48025
G1 X124.397 Y170.900 E17.64643
G1 X124.397 Y149.104 E18.40434
G1 X119.397 Y149.104 E18.57821
G1 X119.397 Y120.896 E19.55909
G1 X124.337 Y120.896 E19.73086
G1 X124.048 Y120.547 F9000.000
G1 F900.000
G1 X124.048 Y99.449 E20.46454
G1 X119.536 Y99.449 E20.62146
G1 X119.431 Y99.435 E20.62513
G1 X119.212 Y99.321 E20.63373
G1 X119.132 Y99.237 E20.63776
G1 X119.106 Y99.187 E20.63971
G1 X119.094 Y99.094 E20.64299
G1 X119.048 Y98.925 E20.64907
G1 X119.048 Y98.201 E20.67425
G1 X119.058 Y97.932 E20.68360
G1 X119.079 Y97.782 E20.68887
G1 X119.108 Y97.493 E20.69896
G1 X119.356 Y96.894 E20.72149
G1 X119.414 Y96.735 E20.72738
G1 X119.594 Y96.516 E20.73726
G1 X119.729 Y96.329 E20.74526
G1 X119.790 Y96.244 E20.74891
G1 X119.830 Y96.208 E20.75078
G1 X120.073 Y96.008 E20.76173
G1 X120.217 Y95.917 E20.76764
G1 X120.809 Y95.671 E20.78994
G1 X120.931 Y95.635 E20.79436
G1 X121.044 Y95.592 E20.79857
G1 X121.147 Y95.581 E20.80217
G1 X122.663 Y95.546 E20.85490
G1 X123.063 Y95.545 E20.86881
G1 X162.299 Y95.546 E22.23315
G1 X163.853 Y95.581 E22.28720
G1 X163.964 Y95.593 E22.29110
G1 X164.155 Y95.658 E22.29812
G1 X165.032 Y96.127 E22.33270
G1 X165.186 Y96.232 E22.33917
G1 X165.278 Y96.320 E22.34359
G1 X165.382 Y96.481 E22.35027
G1 X165.747 Y97.027 E22.37309
G1 X165.778 Y97.114 E22.37631
G1 X165.918 Y97.717 E22.39785
G1 X165.941 Y98.706 E22.43225
G1 X165.950 Y98.971 E22.44146
G1 X165.935 Y99.091 E22.44565
G1 X165.721 Y99.370 E22.45789
G1 X165.428 Y99.449 E22.46843
G1 X160.952 Y99.449 E22.62408
G1 X160.952 Y120.547 E23.35776
G1 X165.444 Y120.547 E23.51399
G1 X165.706 Y120.629 E23.52352
G1 X165.823 Y120.719 E23.52864
G1 X165.936 Y120.914 E23.53649
G1 X165.952 Y121.035 E23.54072
G1 X165.952 Y148.967 E24.51201
G1 X165.855 Y149.241 E24.52209
G1 X165.798 Y149.293 E24.52479
G1 X165.722 Y149.374 E24.52864
G1 X165.428 Y149.453 E24.53923
G1 X160.952 Y149.453 E24.69488
G1 X160.952 Y170.551 E25.42856
G1 X165.428 Y170.551 E25.58421
G1 X165.515 Y170.575 E25.58735
G1 X165.617 Y170.579 E25.59090
G1 X165.714 Y170.619 E25.59456
G1 X165.839 Y170.733 E25.60043
