; generated by SuperSlicer 2.3.56 on 2021-08-23 at 17:27:34 UTC


;
;

;
;
; 

; external perimeters extrusion width = 0.40mm
; perimeters extrusion width = 0.40mm
; infill extrusion width = 0.40mm
; solid infill extrusion width = 0.40mm
; top infill extrusion width = 0.40mm
; support material extrusion width = 0.40mm
; first layer extrusion width = 0.48mm


;TYPE:Custom
START_PRINT T_BED=60 T_EXTRUDER=235
M107
G21 ; set units to millimeters
G90 ; use absolute coordinates
M83 ; use relative distances for extrusion
; Filament gcode
M109 S235 ; set temperature and wait for it to be reached
M190 S60 ; set bed temperature and wait for it to be reached
;LAYER_CHANGE
;Z:0.24
;HEIGHT:0.24
G1 Z0.240000 F6000.000
G1 X62.097 Y123.356
;TYPE:Skirt
;WIDTH:0.48
G1 F1200.000
G1 X62.896 Y123.066 E0.03635
G1 X63.642 Y122.911 E0.03259
G1 X64.409 Y122.857 E0.03284
G1 X209.589 Y122.857 E6.20727
G1 X210.391 Y122.915 E0.03435
G1 X211.175 Y123.086 E0.03435
G1 X211.928 Y123.367 E0.03435
G1 X212.633 Y123.752 E0.03435
G1 X213.276 Y124.234 E0.03435
G1 X213.845 Y124.801 E0.03435
G1 X214.327 Y125.444 E0.03435
G1 X214.713 Y126.148 E0.03435
G1 X214.996 Y126.906 E0.03460
G1 X215.169 Y127.697 E0.03460
G1 X215.226 Y128.469 E0.03309
G1 X215.179 Y129.385 E0.03925
G1 X215.020 Y130.167 E0.03410
G1 X214.752 Y130.918 E0.03410
G1 X214.381 Y131.624 E0.03410
G1 X213.911 Y132.275 E0.03435
G1 X210.458 Y136.390 E0.22966
G1 X209.847 Y136.998 E0.03685
G1 X173.067 Y167.860 E2.05283
G1 X172.094 Y168.503 E0.04984
G1 X171.005 Y168.934 E0.05009
G1 X170.258 Y169.089 E0.03259
G1 X169.498 Y169.143 E0.03259
G1 X64.217 Y169.139 E4.50133
G1 X63.332 Y169.037 E0.03810
G1 X62.479 Y168.800 E0.03785
G1 X61.669 Y168.429 E0.03810
G1 X60.927 Y167.935 E0.03810
G1 X60.277 Y167.334 E0.03785
G1 X59.725 Y166.635 E0.03810
G1 X59.290 Y165.857 E0.03810
G1 X58.982 Y165.021 E0.03810
G1 X58.828 Y164.280 E0.03234
G1 X58.774 Y163.525 E0.03234
G1 X58.798 Y127.973 E1.52008
G1 X58.941 Y127.135 E0.03635
G1 X59.206 Y126.333 E0.03610
G1 X59.591 Y125.575 E0.03635
G1 X60.085 Y124.883 E0.03635
G1 X60.678 Y124.273 E0.03635
G1 X61.350 Y123.763 E0.03610
G1 X62.044 Y123.385 E0.03378
G1 X62.249 Y123.760 F6000.000
G1 F1200.000
G1 X62.277 Y123.745 E0.00136
G1 X63.024 Y123.475 E0.03398
G1 X64.412 Y123.286 E0.05988
G1 X209.589 Y123.286 E6.20713
G1 X210.581 Y123.382 E0.04263
G1 X211.532 Y123.664 E0.04239
G1 X212.412 Y124.120 E0.04239
G1 X213.194 Y124.738 E0.04263
G1 X213.844 Y125.494 E0.04263
G1 X214.336 Y126.355 E0.04239
G1 X214.656 Y127.293 E0.04239
G1 X214.793 Y128.275 E0.04239
G1 X214.778 Y129.105 E0.03547
G1 X214.655 Y129.867 E0.03301
G1 X214.414 Y130.618 E0.03374
G1 X214.065 Y131.320 E0.03350
G1 X213.615 Y131.961 E0.03350
G1 X210.142 Y136.099 E0.23098
G1 X209.538 Y136.699 E0.03638
G1 X172.806 Y167.520 E2.05012
G1 X171.895 Y168.123 E0.04671
G1 X170.879 Y168.524 E0.04671
G1 X169.492 Y168.714 E0.05988
G1 X64.247 Y168.712 E4.49978
G1 X63.430 Y168.620 E0.03518
G1 X62.631 Y168.399 E0.03542
G1 X61.883 Y168.057 E0.03518
G1 X61.193 Y167.598 E0.03542
G1 X60.585 Y167.036 E0.03542
G1 X60.076 Y166.389 E0.03518
G1 X59.676 Y165.671 E0.03518
G1 X59.392 Y164.892 E0.03542
G1 X59.202 Y163.522 E0.05916
G1 X59.222 Y128.044 E1.51689
G1 X59.351 Y127.265 E0.03374
G1 X59.595 Y126.515 E0.03374
G1 X59.950 Y125.810 E0.03374
G1 X60.407 Y125.167 E0.03374
G1 X60.956 Y124.600 E0.03374
G1 X61.584 Y124.122 E0.03374
G1 X62.196 Y123.789 E0.02981
G1 X116.882 Y141.819 F6000.000
;TYPE:Internal perimeter
G1 F1200.000
G1 X116.464 Y145.000 E0.13716
G1 X116.882 Y148.181 E0.13716
G1 X117.262 Y149.098 E0.04247
G1 X118.110 Y151.143 E0.09466
G1 X120.063 Y153.689 E0.13716
G1 X120.851 Y154.293 E0.04246
G1 X122.607 Y155.641 E0.09467
G1 X123.525 Y156.021 E0.04248
G1 X125.571 Y156.868 E0.09468
G1 X128.752 Y157.287 E0.13715
G1 X131.931 Y156.868 E0.13711
G1 X132.849 Y156.488 E0.04247
G1 X134.895 Y155.641 E0.09468
G1 X135.683 Y155.037 E0.04246
G1 X137.439 Y153.689 E0.09467
G1 X139.392 Y151.143 E0.13716
G1 X139.772 Y150.226 E0.04245
G1 X140.620 Y148.181 E0.09467
G1 X141.038 Y145.000 E0.13716
G1 X140.620 Y141.819 E0.13716
G1 X140.240 Y140.902 E0.04247
G1 X139.392 Y138.857 E0.09466
G1 X137.439 Y136.311 E0.13716
G1 X136.651 Y135.707 E0.04246
G1 X134.895 Y134.359 E0.09467
G1 X133.977 Y133.979 E0.04248
G1 X131.931 Y133.132 E0.09467
G1 X130.947 Y133.002 E0.04245
G1 X128.751 Y132.713 E0.09467
G1 X127.767 Y132.843 E0.04247
G1 X125.571 Y133.132 E0.09468
G1 X124.653 Y133.512 E0.04247
G1 X122.607 Y134.359 E0.09468
G1 X121.819 Y134.963 E0.04246
G1 X120.063 Y136.311 E0.09467
G1 X118.110 Y138.857 E0.13716
G1 X117.730 Y139.774 E0.04245
G1 X116.905 Y141.764 E0.09210
G1 X117.301 Y141.928 F6000.000
G1 F1200.000
G1 X117.300 Y141.931 E0.00015
G1 X116.896 Y145.000 E0.13234
G1 X117.300 Y148.069 E0.13233
G1 X117.658 Y148.934 E0.04005
G1 X118.484 Y150.927 E0.09225
G1 X120.368 Y153.383 E0.13234
G1 X121.111 Y153.953 E0.04004
G1 X122.823 Y155.267 E0.09225
G1 X123.689 Y155.626 E0.04006
G1 X125.683 Y156.451 E0.09227
G1 X128.752 Y156.855 E0.13233
G1 X131.819 Y156.451 E0.13229
G1 X132.685 Y156.092 E0.04006
G1 X134.679 Y155.267 E0.09227
G1 X135.422 Y154.697 E0.04005
G1 X137.134 Y153.383 E0.09226
G1 X139.018 Y150.927 E0.13234
G1 X139.376 Y150.062 E0.04004
G1 X140.202 Y148.069 E0.09226
G1 X140.606 Y145.000 E0.13234
G1 X140.202 Y141.931 E0.13233
G1 X139.844 Y141.066 E0.04005
G1 X139.018 Y139.073 E0.09225
G1 X137.134 Y136.617 E0.13234
G1 X136.391 Y136.047 E0.04004
G1 X134.679 Y134.733 E0.09225
G1 X133.813 Y134.374 E0.04006
G1 X131.819 Y133.549 E0.09227
G1 X130.891 Y133.427 E0.04004
G1 X128.751 Y133.145 E0.09226
G1 X127.823 Y133.268 E0.04005
G1 X125.683 Y133.549 E0.09227
G1 X124.817 Y133.908 E0.04006
G1 X122.823 Y134.733 E0.09227
G1 X122.080 Y135.303 E0.04005
G1 X120.368 Y136.617 E0.09226
G1 X118.484 Y139.073 E0.13234
G1 X118.126 Y139.938 E0.04004
G1 X117.324 Y141.873 E0.08954
G1 X117.720 Y142.037 F6000.000
;TYPE:External perimeter
G1 F1200.000
G1 X117.717 Y142.043 E0.00030
G1 X117.328 Y145.000 E0.12751
G1 X117.717 Y147.957 E0.12751
G1 X118.054 Y148.770 E0.03764
G1 X118.859 Y150.711 E0.08984
G1 X120.674 Y153.078 E0.12752
G1 X121.372 Y153.613 E0.03763
G1 X123.039 Y154.893 E0.08984
G1 X123.853 Y155.230 E0.03765
G1 X125.795 Y156.033 E0.08986
G1 X128.752 Y156.423 E0.12751
G1 X131.707 Y156.033 E0.12747
G1 X132.521 Y155.697 E0.03765
G1 X134.463 Y154.893 E0.08986
G1 X135.161 Y154.357 E0.03763
G1 X136.828 Y153.078 E0.08985
G1 X138.643 Y150.711 E0.12752
G1 X138.980 Y149.898 E0.03764
G1 X139.785 Y147.957 E0.08984
G1 X140.174 Y145.000 E0.12751
G1 X139.785 Y142.043 E0.12751
G1 X139.448 Y141.230 E0.03764
G1 X138.643 Y139.289 E0.08984
G1 X136.828 Y136.922 E0.12752
G1 X136.130 Y136.387 E0.03763
G1 X134.463 Y135.107 E0.08984
G1 X133.649 Y134.770 E0.03765
G1 X131.707 Y133.967 E0.08986
G1 X130.835 Y133.851 E0.03763
G1 X128.751 Y133.577 E0.08984
G1 X127.879 Y133.692 E0.03764
G1 X125.795 Y133.967 E0.08987
G1 X124.981 Y134.303 E0.03765
G1 X123.039 Y135.107 E0.08986
G1 X122.341 Y135.643 E0.03763
G1 X120.674 Y136.922 E0.08985
G1 X118.859 Y139.289 E0.12752
G1 X118.522 Y140.102 E0.03764
G1 X117.743 Y141.981 E0.08698
G1 X117.713 Y142.038 F6000.000
G1 X65.513 Y129.597
;TYPE:Internal perimeter
G1 F1200.000
G1 X207.360 Y129.597 E6.06472
G1 X205.402 Y131.930 E0.13023
G1 X169.085 Y162.403 E2.02694
G1 X65.513 Y162.403 E4.42826
G1 X65.513 Y129.657 E1.40007
G1 X65.085 Y129.168 F6000.000
G1 F1200.000
G1 X208.279 Y129.168 E6.12233
G1 X205.706 Y132.234 E0.17113
G1 X169.241 Y162.832 E2.03521
G1 X65.085 Y162.832 E4.45325
G1 X65.085 Y129.228 E1.43671
G1 X64.657 Y128.740 F6000.000
;TYPE:External perimeter
G1 F1200.000
G1 X209.198 Y128.740 E6.17994
G1 X206.010 Y132.539 E0.21202
G1 X169.397 Y163.260 E2.04348
G1 X64.657 Y163.260 E4.47824
G1 X64.657 Y128.800 E1.47335
G1 X65.003 Y128.940 F6000.000
G1 X206.197 Y129.747
;TYPE:Solid infill
;WIDTH:0.481266
G1 F1800.000
G1 X206.518 Y130.068 E0.01945
G1 X206.241 Y130.397 E0.01844
G1 X205.784 Y129.940 E0.02773
G1 X205.178 Y129.940 E0.02598
G1 X205.965 Y130.727 E0.04771
G1 X205.688 Y131.056 E0.01844
G1 X204.572 Y129.940 E0.06768
G1 X203.966 Y129.940 E0.02598
G1 X205.412 Y131.386 E0.08766
G1 X205.159 Y131.687 E0.01686
G1 X205.131 Y131.711 E0.00158
G1 X203.360 Y129.940 E0.10736
G1 X202.754 Y129.940 E0.02598
G1 X204.801 Y131.987 E0.12412
G1 X204.472 Y132.264 E0.01844
G1 X202.148 Y129.940 E0.14088
G1 X201.542 Y129.940 E0.02598
G1 X204.142 Y132.540 E0.15764
G1 X203.813 Y132.817 E0.01844
G1 X200.936 Y129.940 E0.17441
G1 X200.330 Y129.940 E0.02598
G1 X203.483 Y133.093 E0.19117
G1 X203.154 Y133.370 E0.01844
G1 X199.724 Y129.940 E0.20793
G1 X199.118 Y129.940 E0.02598
G1 X202.824 Y133.646 E0.22469
G1 X202.495 Y133.923 E0.01844
G1 X198.512 Y129.940 E0.24145
G1 X197.906 Y129.940 E0.02598
G1 X202.165 Y134.199 E0.25821
G1 X201.836 Y134.475 E0.01844
G1 X197.300 Y129.940 E0.27498
G1 X196.694 Y129.940 E0.02598
G1 X201.506 Y134.752 E0.29174
G1 X201.177 Y135.028 E0.01844
G1 X196.088 Y129.940 E0.30850
G1 X195.482 Y129.940 E0.02598
G1 X200.847 Y135.305 E0.32526
G1 X200.518 Y135.581 E0.01844
G1 X194.876 Y129.940 E0.34202
G1 X194.270 Y129.940 E0.02598
G1 X200.188 Y135.858 E0.35878
G1 X199.859 Y136.134 E0.01844
G1 X193.664 Y129.940 E0.37554
G1 X193.058 Y129.940 E0.02598
G1 X199.529 Y136.411 E0.39231
G1 X199.200 Y136.687 E0.01844
G1 X192.452 Y129.940 E0.40907
G1 X191.846 Y129.940 E0.02598
G1 X198.870 Y136.964 E0.42583
G1 X198.541 Y137.240 E0.01844
G1 X191.240 Y129.940 E0.44259
G1 X190.634 Y129.940 E0.02598
G1 X198.211 Y137.517 E0.45935
G1 X197.882 Y137.793 E0.01844
G1 X190.028 Y129.940 E0.47611
G1 X189.422 Y129.940 E0.02598
G1 X197.552 Y138.070 E0.49288
G1 X197.223 Y138.346 E0.01844
G1 X188.816 Y129.940 E0.50964
G1 X188.210 Y129.940 E0.02598
G1 X196.893 Y138.623 E0.52640
G1 X196.564 Y138.899 E0.01844
G1 X187.604 Y129.940 E0.54316
G1 X186.998 Y129.940 E0.02598
G1 X196.234 Y139.176 E0.55992
G1 X195.905 Y139.452 E0.01844
G1 X186.392 Y129.940 E0.57668
G1 X185.786 Y129.940 E0.02598
G1 X195.575 Y139.729 E0.59345
G1 X195.246 Y140.005 E0.01844
G1 X185.180 Y129.940 E0.61021
G1 X184.574 Y129.940 E0.02598
G1 X194.916 Y140.282 E0.62697
G1 X194.587 Y140.558 E0.01844
G1 X183.968 Y129.940 E0.64373
G1 X183.362 Y129.940 E0.02598
G1 X194.257 Y140.835 E0.66049
G1 X193.928 Y141.111 E0.01844
G1 X182.756 Y129.940 E0.67725
G1 X182.150 Y129.940 E0.02598
G1 X193.598 Y141.387 E0.69401
G1 X193.268 Y141.664 E0.01844
G1 X181.544 Y129.940 E0.71078
G1 X180.938 Y129.940 E0.02598
G1 X192.939 Y141.940 E0.72754
G1 X192.609 Y142.217 E0.01844
G1 X180.332 Y129.940 E0.74430
G1 X179.726 Y129.940 E0.02598
G1 X192.280 Y142.493 E0.76106
G1 X191.950 Y142.770 E0.01844
G1 X179.120 Y129.940 E0.77782
G1 X178.514 Y129.940 E0.02598
G1 X191.621 Y143.046 E0.79458
G1 X191.291 Y143.323 E0.01844
G1 X177.908 Y129.940 E0.81135
G1 X177.302 Y129.940 E0.02598
G1 X190.962 Y143.599 E0.82811
G1 X190.632 Y143.876 E0.01844
G1 X176.696 Y129.940 E0.84487
G1 X176.090 Y129.940 E0.02598
G1 X190.303 Y144.152 E0.86163
G1 X189.973 Y144.429 E0.01844
G1 X175.484 Y129.940 E0.87839
G1 X174.879 Y129.940 E0.02598
G1 X189.644 Y144.705 E0.89515
G1 X189.314 Y144.982 E0.01844
G1 X174.273 Y129.940 E0.91191
G1 X173.667 Y129.940 E0.02598
G1 X188.985 Y145.258 E0.92868
G1 X188.655 Y145.535 E0.01844
G1 X173.061 Y129.940 E0.94544
G1 X172.455 Y129.940 E0.02598
G1 X188.326 Y145.811 E0.96220
G1 X187.996 Y146.088 E0.01844
G1 X171.849 Y129.940 E0.97896
G1 X171.243 Y129.940 E0.02598
G1 X187.667 Y146.364 E0.99572
G1 X187.337 Y146.641 E0.01844
G1 X170.637 Y129.940 E1.01248
G1 X170.031 Y129.940 E0.02598
G1 X187.008 Y146.917 E1.02925
G1 X186.678 Y147.194 E0.01844
G1 X169.425 Y129.940 E1.04601
G1 X168.819 Y129.940 E0.02598
G1 X186.349 Y147.470 E1.06277
G1 X186.019 Y147.747 E0.01844
G1 X168.213 Y129.940 E1.07953
G1 X167.607 Y129.940 E0.02598
G1 X185.690 Y148.023 E1.09629
G1 X185.360 Y148.299 E0.01844
G1 X167.001 Y129.940 E1.11305
G1 X166.395 Y129.940 E0.02598
G1 X185.031 Y148.576 E1.12981
G1 X184.701 Y148.852 E0.01844
G1 X165.789 Y129.940 E1.14658
G1 X165.183 Y129.940 E0.02598
G1 X184.372 Y149.129 E1.16334
G1 X184.042 Y149.405 E0.01844
G1 X164.577 Y129.940 E1.18010
G1 X163.971 Y129.940 E0.02598
G1 X183.713 Y149.682 E1.19686
G1 X183.383 Y149.958 E0.01844
G1 X163.365 Y129.940 E1.21362
G1 X162.759 Y129.940 E0.02598
G1 X183.054 Y150.235 E1.23038
G1 X182.724 Y150.511 E0.01844
G1 X162.153 Y129.940 E1.24715
G1 X161.547 Y129.940 E0.02598
G1 X182.395 Y150.788 E1.26391
G1 X182.065 Y151.064 E0.01844
G1 X160.941 Y129.940 E1.28067
G1 X160.335 Y129.940 E0.02598
G1 X181.736 Y151.341 E1.29743
G1 X181.406 Y151.617 E0.01844
G1 X159.729 Y129.940 E1.31419
G1 X159.123 Y129.940 E0.02598
G1 X181.077 Y151.894 E1.33095
G1 X180.747 Y152.170 E0.01844
G1 X158.517 Y129.940 E1.34772
G1 X157.911 Y129.940 E0.02598
G1 X180.418 Y152.447 E1.36448
G1 X180.088 Y152.723 E0.01844
G1 X157.305 Y129.940 E1.38124
G1 X156.699 Y129.940 E0.02598
G1 X179.759 Y153.000 E1.39800
G1 X179.429 Y153.276 E0.01844
G1 X156.093 Y129.940 E1.41476
G1 X155.487 Y129.940 E0.02598
G1 X179.100 Y153.553 E1.43152
G1 X178.770 Y153.829 E0.01844
G1 X154.881 Y129.940 E1.44828
G1 X154.275 Y129.940 E0.02598
G1 X178.441 Y154.106 E1.46505
G1 X178.111 Y154.382 E0.01844
G1 X153.669 Y129.940 E1.48181
G1 X153.063 Y129.940 E0.02598
G1 X177.782 Y154.659 E1.49857
G1 X177.452 Y154.935 E0.01844
G1 X152.457 Y129.940 E1.51533
G1 X151.851 Y129.940 E0.02598
G1 X177.123 Y155.211 E1.53209
G1 X176.793 Y155.488 E0.01844
G1 X151.245 Y129.940 E1.54885
G1 X150.639 Y129.940 E0.02598
G1 X176.464 Y155.764 E1.56562
G1 X176.134 Y156.041 E0.01844
G1 X150.033 Y129.940 E1.58238
G1 X149.427 Y129.940 E0.02598
G1 X175.805 Y156.317 E1.59914
G1 X175.475 Y156.594 E0.01844
G1 X148.821 Y129.940 E1.61590
G1 X148.215 Y129.940 E0.02598
G1 X175.146 Y156.870 E1.63266
G1 X174.816 Y157.147 E0.01844
G1 X147.609 Y129.940 E1.64942
G1 X147.003 Y129.940 E0.02598
G1 X174.487 Y157.423 E1.66618
G1 X174.157 Y157.700 E0.01844
G1 X146.397 Y129.940 E1.68295
G1 X145.791 Y129.940 E0.02598
G1 X173.828 Y157.976 E1.69971
G1 X173.498 Y158.253 E0.01844
G1 X145.185 Y129.940 E1.71647
G1 X144.579 Y129.940 E0.02598
G1 X173.169 Y158.529 E1.73323
G1 X172.839 Y158.806 E0.01844
G1 X143.973 Y129.940 E1.74999
G1 X143.367 Y129.940 E0.02598
G1 X172.510 Y159.082 E1.76675
G1 X172.180 Y159.359 E0.01844
G1 X142.761 Y129.940 E1.78352
G1 X142.155 Y129.940 E0.02598
G1 X171.851 Y159.635 E1.80028
G1 X171.521 Y159.912 E0.01844
G1 X141.549 Y129.940 E1.81704
G1 X140.943 Y129.940 E0.02598
G1 X171.192 Y160.188 E1.83380
G1 X170.862 Y160.465 E0.01844
G1 X140.337 Y129.940 E1.85056
G1 X139.731 Y129.940 E0.02598
G1 X170.533 Y160.741 E1.86732
G1 X170.203 Y161.018 E0.01844
G1 X139.125 Y129.940 E1.88408
G1 X138.520 Y129.940 E0.02598
G1 X169.874 Y161.294 E1.90085
G1 X169.544 Y161.571 E0.01844
G1 X137.914 Y129.940 E1.91761
G1 X137.308 Y129.940 E0.02598
G1 X169.215 Y161.847 E1.93437
G1 X168.961 Y162.060 E0.01422
G1 X168.822 Y162.060 E0.00594
G1 X136.702 Y129.940 E1.94730
G1 X136.096 Y129.940 E0.02598
G1 X168.216 Y162.060 E1.94730
G1 X167.610 Y162.060 E0.02598
G1 X135.490 Y129.940 E1.94730
G1 X134.884 Y129.940 E0.02598
G1 X167.004 Y162.060 E1.94730
G1 X166.398 Y162.060 E0.02598
G1 X134.278 Y129.940 E1.94730
G1 X133.672 Y129.940 E0.02598
G1 X165.792 Y162.060 E1.94730
G1 X165.186 Y162.060 E0.02598
G1 X133.066 Y129.940 E1.94730
G1 X132.460 Y129.940 E0.02598
G1 X164.580 Y162.060 E1.94730
G1 X163.974 Y162.060 E0.02598
G1 X131.854 Y129.940 E1.94730
G1 X131.248 Y129.940 E0.02598
G1 X137.399 Y136.091 E0.37294
G1 X134.901 Y134.199 F6000.000
G1 F1800.000
G1 X130.642 Y129.940 E0.25820
G1 X130.036 Y129.940 E0.02598
G1 X133.511 Y133.415 E0.21066
G1 X132.476 Y132.986 E0.04798
G1 X129.430 Y129.940 E0.18471
G1 X128.824 Y129.940 E0.02598
G1 X131.630 Y132.746 E0.17015
G1 X130.932 Y132.654 E0.03018
G1 X128.218 Y129.940 E0.16457
G1 X127.612 Y129.940 E0.02598
G1 X130.234 Y132.562 E0.15900
G1 X129.537 Y132.470 E0.03018
G1 X127.006 Y129.940 E0.15342
G1 X126.400 Y129.940 E0.02598
G1 X128.839 Y132.379 E0.14785
G1 X128.751 Y132.367 E0.00378
G1 X128.283 Y132.429 E0.02025
G1 X125.794 Y129.940 E0.15090
G1 X125.188 Y129.940 E0.02598
G1 X127.748 Y132.499 E0.15518
G1 X127.722 Y132.503 E0.00111
