; generated by SuperSlicer 2.4 on 2022-05-03 at 23:26:31 UTC


;
;

;
;
; 

; external perimeters extrusion width = 0.40mm
; perimeters extrusion width = 0.45mm
; infill extrusion width = 0.72mm
; solid infill extrusion width = 0.56mm
; top infill extrusion width = 0.40mm
; first layer extrusion width = 0.48mm

; object:{"name":"Overhang_Angle_Test_30-85","id":"Overhang_Angle_Test_30-85.stl id:0 copy 0","object_center":[152.500000,150.000000,0.000000],"boundingbox_center":[152.500000,150.000000,30.100985],"boundingbox_size":[90.270058,11.000000,60.201969]}
; plater:{"center":[152.500000,150.000000,0.000000],"boundingbox_center":[152.500000,150.000000,30.100985],"boundingbox_size":[90.270058,11.000000,60.201969]}

M73 P0 R56
;TYPE:Custom
START_PRINT T_BED=60 T_EXTRUDER=200
M107
G21 ; set units to millimeters
G90 ; use absolute coordinates
M83 ; use relative distances for extrusion
; Filament gcode
M104 S200 ; set temperature
M109 S200 ; set temperature and wait for it to be reached
M190 S60 ; set bed temperature and wait for it to be reached
M107
;LAYER_CHANGE
;Z:0.24
;HEIGHT:0.24
G1 Z0.24 F9000
G92 E0
G1 E-0.8 F3000
M204 S1000
G1 X135.034 Y141.685 F9000
G1 E0.8 F1800
;TYPE:Skirt
;WIDTH:0.45
G1 X133.937 Y142.963 E0.06696
G1 X133.542 Y144.6 E0.06696
G1 X133.542 Y155.4 E0.42943
G1 X134.222 Y157.503 E0.08789
G1 X135.5 Y158.6 E0.06696
G1 X137.137 Y158.995 E0.06696
G1 X194.664 Y158.995 E2.28738
G1 X196.767 Y158.315 E0.08789
G1 X197.864 Y157.037 E0.06696
G1 X198.258 Y155.4 E0.06696
G1 X198.258 Y144.6 E0.42943
G1 X197.578 Y142.497 E0.08789
G1 X196.301 Y141.4 E0.06696
G1 X194.664 Y141.005 E0.06696
G1 X137.137 Y141.005 E2.28738
G1 X135.034 Y141.685 E0.08789
G1 X135.347 Y141.978 F9000
G1 F1800
G1 X134.333 Y143.063 E0.05904
G1 X133.939 Y144.6 E0.0631
G1 X133.939 Y155.4 E0.42943
G1 X134.441 Y157.12 E0.07125
G1 X135.6 Y158.204 E0.0631
G1 X137.137 Y158.598 E0.0631
G1 X194.664 Y158.598 E2.28738
G1 X196.384 Y158.096 E0.07125
G1 X197.468 Y156.937 E0.0631
G1 X197.862 Y155.4 E0.0631
G1 X197.862 Y144.6 E0.42943
G1 X197.36 Y142.88 E0.07125
G1 X196.201 Y141.796 E0.0631
G1 X194.664 Y141.402 E0.0631
G1 X137.137 Y141.402 E2.28738
G1 X135.417 Y141.904 E0.07125
G1 X135.347 Y141.978 E0.00406
; INIT printing object Overhang_Angle_Test_30-85.stl id:0 copy 0
G1 E-0.8 F3000
; printing object Overhang_Angle_Test_30-85.stl id:0 copy 0
G1 X138.662 Y146.125 F9000
G1 E0.8 F1800
;TYPE:Internal perimeter
;WIDTH:0.48
G1 X193.138 Y146.125 E2.32913
G1 X193.138 Y153.875 E0.33131
G1 X138.662 Y153.875 E2.32913
G1 X138.662 Y146.125 E0.33131
G1 X138.234 Y145.697 F9000
G1 F1800
G1 X193.567 Y145.697 E2.36577
G1 X193.567 Y154.303 E0.36795
G1 X138.234 Y154.303 E2.36577
G1 X138.234 Y145.697 E0.36795
G1 X137.805 Y145.268 F9000
G1 F1800
G1 X193.995 Y145.268 E2.40241
G1 X193.995 Y154.732 E0.4046
G1 X137.805 Y154.732 E2.40241
G1 X137.805 Y145.268 E0.4046
G1 X137.377 Y144.84 F9000
;TYPE:External perimeter
G1 F1800
G1 X194.424 Y144.84 E2.43905
G1 X194.424 Y144.96 E0.00458
G1 X194.424 Y145.2 E0.00971
G1 X194.424 Y155.16 E0.42584
G1 X194.304 Y155.16 E0.00458
G1 X194.064 Y155.16 E0.00971
G1 X137.377 Y155.16 E2.42366
G1 X137.377 Y155.04 E0.00458
G1 X137.377 Y154.8 E0.00971
G1 X137.377 Y144.84 E0.42584
;WIPE_START
M204 S3000
G1 X137.723 Y145.04 F9000
;WIPE_END
M204 S1000
G1 X192.208 Y146.19
;TYPE:Solid infill
;WIDTH:0.469862
G1 F2400
G1 X192.89 Y146.872 E0.04036
G1 X192.89 Y147.478 E0.02536
G1 X191.786 Y146.374 E0.06532
G1 X191.18 Y146.374 E0.02536
G1 X192.89 Y148.084 E0.10119
G1 X192.89 Y148.69 E0.02536
G1 X190.574 Y146.374 E0.13706
G1 X189.968 Y146.374 E0.02536
G1 X192.89 Y149.296 E0.17293
G1 X192.89 Y149.902 E0.02536
G1 X189.362 Y146.374 E0.20879
G1 X188.756 Y146.374 E0.02536
G1 X192.89 Y150.508 E0.24466
G1 X192.89 Y151.114 E0.02536
G1 X188.15 Y146.374 E0.28053
G1 X187.544 Y146.374 E0.02536
G1 X192.89 Y151.72 E0.31639
G1 X192.89 Y152.326 E0.02536
G1 X186.938 Y146.374 E0.35226
G1 X186.332 Y146.374 E0.02536
G1 X192.89 Y152.932 E0.38813
G1 X192.89 Y153.537 E0.02536
G1 X185.726 Y146.374 E0.424
G1 X185.12 Y146.374 E0.02536
G1 X192.372 Y153.626 E0.42923
G1 X191.766 Y153.626 E0.02536
G1 X184.514 Y146.374 E0.42923
G1 X183.908 Y146.374 E0.02536
G1 X191.16 Y153.626 E0.42923
G1 X190.554 Y153.626 E0.02536
G1 X183.302 Y146.374 E0.42923
M73 P1 R56
G1 X182.696 Y146.374 E0.02536
G1 X189.948 Y153.626 E0.42923
G1 X189.342 Y153.626 E0.02536
G1 X182.09 Y146.374 E0.42923
G1 X181.484 Y146.374 E0.02536
G1 X188.736 Y153.626 E0.42923
G1 X188.13 Y153.626 E0.02536
G1 X180.878 Y146.374 E0.42923
G1 X180.272 Y146.374 E0.02536
G1 X187.524 Y153.626 E0.42923
G1 X186.918 Y153.626 E0.02536
G1 X179.666 Y146.374 E0.42923
G1 X179.06 Y146.374 E0.02536
G1 X186.312 Y153.626 E0.42923
G1 X185.706 Y153.626 E0.02536
G1 X178.454 Y146.374 E0.42923
G1 X177.848 Y146.374 E0.02536
G1 X185.1 Y153.626 E0.42923
G1 X184.494 Y153.626 E0.02536
G1 X177.242 Y146.374 E0.42923
G1 X176.636 Y146.374 E0.02536
G1 X183.888 Y153.626 E0.42923
G1 X183.282 Y153.626 E0.02536
G1 X176.03 Y146.374 E0.42923
G1 X175.424 Y146.374 E0.02536
G1 X182.676 Y153.626 E0.42923
G1 X182.07 Y153.626 E0.02536
G1 X174.818 Y146.374 E0.42923
G1 X174.212 Y146.374 E0.02536
G1 X181.464 Y153.626 E0.42923
M73 P1 R55
G1 X180.858 Y153.626 E0.02536
G1 X173.606 Y146.374 E0.42923
G1 X173 Y146.374 E0.02536
G1 X180.252 Y153.626 E0.42923
G1 X179.646 Y153.626 E0.02536
G1 X172.394 Y146.374 E0.42923
G1 X171.788 Y146.374 E0.02536
G1 X179.04 Y153.626 E0.42923
G1 X178.434 Y153.626 E0.02536
G1 X171.182 Y146.374 E0.42923
G1 X170.576 Y146.374 E0.02536
G1 X177.828 Y153.626 E0.42923
G1 X177.223 Y153.626 E0.02536
G1 X169.97 Y146.374 E0.42923
G1 X169.365 Y146.374 E0.02536
G1 X176.617 Y153.626 E0.42923
G1 X176.011 Y153.626 E0.02536
G1 X168.759 Y146.374 E0.42923
G1 X168.153 Y146.374 E0.02536
G1 X175.405 Y153.626 E0.42923
G1 X174.799 Y153.626 E0.02536
G1 X167.547 Y146.374 E0.42923
G1 X166.941 Y146.374 E0.02536
G1 X174.193 Y153.626 E0.42923
G1 X173.587 Y153.626 E0.02536
G1 X166.335 Y146.374 E0.42923
G1 X165.729 Y146.374 E0.02536
G1 X172.981 Y153.626 E0.42923
G1 X172.375 Y153.626 E0.02536
G1 X165.123 Y146.374 E0.42923
G1 X164.517 Y146.374 E0.02536
G1 X171.769 Y153.626 E0.42923
G1 X171.163 Y153.626 E0.02536
G1 X163.911 Y146.374 E0.42923
G1 X163.305 Y146.374 E0.02536
G1 X170.557 Y153.626 E0.42923
G1 X169.951 Y153.626 E0.02536
G1 X162.699 Y146.374 E0.42923
G1 X162.093 Y146.374 E0.02536
G1 X169.345 Y153.626 E0.42923
G1 X168.739 Y153.626 E0.02536
G1 X161.487 Y146.374 E0.42923
G1 X160.881 Y146.374 E0.02536
G1 X168.133 Y153.626 E0.42923
G1 X167.527 Y153.626 E0.02536
G1 X160.275 Y146.374 E0.42923
G1 X159.669 Y146.374 E0.02536
G1 X166.921 Y153.626 E0.42923
G1 X166.315 Y153.626 E0.02536
G1 X159.063 Y146.374 E0.42923
G1 X158.457 Y146.374 E0.02536
G1 X165.709 Y153.626 E0.42923
G1 X165.103 Y153.626 E0.02536
G1 X157.851 Y146.374 E0.42923
G1 X157.245 Y146.374 E0.02536
G1 X164.497 Y153.626 E0.42923
G1 X163.891 Y153.626 E0.02536
G1 X156.639 Y146.374 E0.42923
G1 X156.033 Y146.374 E0.02536
G1 X163.285 Y153.626 E0.42923
G1 X162.679 Y153.626 E0.02536
G1 X155.427 Y146.374 E0.42923
G1 X154.821 Y146.374 E0.02536
G1 X162.073 Y153.626 E0.42923
G1 X161.467 Y153.626 E0.02536
G1 X154.215 Y146.374 E0.42923
G1 X153.609 Y146.374 E0.02536
G1 X160.861 Y153.626 E0.42923
G1 X160.255 Y153.626 E0.02536
G1 X153.003 Y146.374 E0.42923
G1 X152.397 Y146.374 E0.02536
G1 X159.649 Y153.626 E0.42923
G1 X159.043 Y153.626 E0.02536
G1 X151.791 Y146.374 E0.42923
G1 X151.185 Y146.374 E0.02536
G1 X158.437 Y153.626 E0.42923
G1 X157.831 Y153.626 E0.02536
G1 X150.579 Y146.374 E0.42923
G1 X149.973 Y146.374 E0.02536
G1 X157.225 Y153.626 E0.42923
G1 X156.619 Y153.626 E0.02536
G1 X149.367 Y146.374 E0.42923
G1 X148.761 Y146.374 E0.02536
G1 X156.013 Y153.626 E0.42923
G1 X155.407 Y153.626 E0.02536
G1 X148.155 Y146.374 E0.42923
G1 X147.549 Y146.374 E0.02536
G1 X154.801 Y153.626 E0.42923
G1 X154.195 Y153.626 E0.02536
G1 X146.943 Y146.374 E0.42923
G1 X146.337 Y146.374 E0.02536
G1 X153.589 Y153.626 E0.42923
G1 X152.983 Y153.626 E0.02536
G1 X145.731 Y146.374 E0.42923
G1 X145.125 Y146.374 E0.02536
G1 X152.377 Y153.626 E0.42923
G1 X151.771 Y153.626 E0.02536
G1 X144.519 Y146.374 E0.42923
G1 X143.913 Y146.374 E0.02536
G1 X151.165 Y153.626 E0.42923
G1 X150.559 Y153.626 E0.02536
G1 X143.307 Y146.374 E0.42923
G1 X142.701 Y146.374 E0.02536
G1 X149.953 Y153.626 E0.42923
G1 X149.347 Y153.626 E0.02536
G1 X142.095 Y146.374 E0.42923
G1 X141.489 Y146.374 E0.02536
G1 X148.741 Y153.626 E0.42923
G1 X148.135 Y153.626 E0.02536
G1 X140.883 Y146.374 E0.42923
G1 X140.277 Y146.374 E0.02536
G1 X147.529 Y153.626 E0.42923
G1 X146.923 Y153.626 E0.02536
G1 X139.671 Y146.374 E0.42923
G1 X139.065 Y146.374 E0.02536
G1 X146.317 Y153.626 E0.42923
G1 X145.711 Y153.626 E0.02536
G1 X138.911 Y146.826 E0.40251
G1 X138.911 Y147.432 E0.02536
G1 X145.105 Y153.626 E0.36664
G1 X144.499 Y153.626 E0.02536
G1 X138.911 Y148.038 E0.33077
G1 X138.911 Y148.644 E0.02536
G1 X143.893 Y153.626 E0.2949
G1 X143.287 Y153.626 E0.02536
G1 X138.911 Y149.25 E0.25904
G1 X138.911 Y149.856 E0.02536
G1 X142.681 Y153.626 E0.22317
G1 X142.075 Y153.626 E0.02536
G1 X138.911 Y150.461 E0.1873
G1 X138.911 Y151.067 E0.02536
G1 X141.469 Y153.626 E0.15144
G1 X140.863 Y153.626 E0.02536
G1 X138.911 Y151.673 E0.11557
G1 X138.911 Y152.279 E0.02536
G1 X140.258 Y153.626 E0.0797
G1 X139.652 Y153.626 E0.02536
G1 X138.911 Y152.885 E0.04383
G1 X138.911 Y153.491 E0.02536
G1 X139.23 Y153.81 E0.01887
; INIT stop printing object Overhang_Angle_Test_30-85.stl id:0 copy 0
;LAYER_CHANGE
;Z:0.44
;HEIGHT:0.2
; stop printing object Overhang_Angle_Test_30-85.stl id:0 copy 0
M204 S3000
G1 Z0.44 F9000
G92 E0
; INIT printing object Overhang_Angle_Test_30-85.stl id:0 copy 0
; printing object Overhang_Angle_Test_30-85.stl id:0 copy 0
M204 S2000
G1 X138.483 Y154.054
;TYPE:Internal perimeter
;WIDTH:0.45
G1 F4200
G1 X138.483 Y145.946 E0.27443
G1 X193.553 Y145.946 E1.86405
G1 X193.553 Y154.054 E0.27443
G1 X138.483 Y154.054 E1.86405
G1 X138.076 Y154.461 F9000
G1 F4200
G1 X138.076 Y145.539 E0.30199
G1 X193.96 Y145.539 E1.8916
G1 X193.96 Y154.461 E0.30199
G1 X138.076 Y154.461 E1.8916
G1 X137.669 Y154.868 F9000
G1 F4200
G1 X137.669 Y145.132 E0.32955
G1 X194.367 Y145.132 E1.91916
G1 X194.367 Y154.868 E0.32955
G1 X137.669 Y154.868 E1.91916
M204 S1000
G1 X137.287 Y155.25 F9000
;TYPE:External perimeter
;WIDTH:0.4
G1 F3600
G1 X137.287 Y144.75 E0.31176
G1 X137.387 Y144.75 E0.00265
G1 X137.587 Y144.75 E0.00562
G1 X194.717 Y144.75 E1.69625
;TYPE:Overhang perimeter
G1 F1800
M204 S2000
G1 X194.749 Y144.75 E0.00097
G1 X194.749 Y155.25 E0.31176
G1 X194.717 Y155.25 E0.00097
;TYPE:External perimeter
G1 F3600
M204 S1000
G1 X137.287 Y155.25 E1.70516
;WIPE_START
M204 S3000
M73 P2 R55
G1 X137.487 Y154.904 F9000
;WIPE_END
M204 S2000
G1 X193.508 Y152.964
;TYPE:Solid infill
;WIDTH:0.546451
G1 F3600
G1 X192.686 Y153.787 E0.04883
G1 X191.954 Y153.787 E0.03068
G1 X193.286 Y152.455 E0.07902
G1 X193.286 Y151.724 E0.03068
G1 X191.223 Y153.787 E0.12241
G1 X190.492 Y153.787 E0.03068
G1 X193.286 Y150.993 E0.1658
G1 X193.286 Y150.261 E0.03068
G1 X189.76 Y153.787 E0.20919
G1 X189.029 Y153.787 E0.03068
G1 X193.286 Y149.53 E0.25257
G1 X193.286 Y148.799 E0.03068
G1 X188.298 Y153.787 E0.29596
G1 X187.567 Y153.787 E0.03068
G1 X193.286 Y148.067 E0.33935
G1 X193.286 Y147.336 E0.03068
G1 X186.835 Y153.787 E0.38274
G1 X186.104 Y153.787 E0.03068
G1 X193.286 Y146.605 E0.42613
G1 X193.286 Y146.213 E0.01644
G1 X192.947 Y146.213 E0.01424
G1 X185.373 Y153.787 E0.44938
G1 X184.642 Y153.787 E0.03068
G1 X192.215 Y146.213 E0.44938
G1 X191.484 Y146.213 E0.03068
G1 X183.91 Y153.787 E0.44938
G1 X183.179 Y153.787 E0.03068
G1 X190.753 Y146.213 E0.44938
G1 X190.022 Y146.213 E0.03068
G1 X182.448 Y153.787 E0.44938
G1 X181.717 Y153.787 E0.03068
G1 X189.29 Y146.213 E0.44938
G1 X188.559 Y146.213 E0.03068
G1 X180.985 Y153.787 E0.44938
G1 X180.254 Y153.787 E0.03068
G1 X187.828 Y146.213 E0.44938
G1 X187.097 Y146.213 E0.03068
G1 X179.523 Y153.787 E0.44938
G1 X178.792 Y153.787 E0.03068
G1 X186.365 Y146.213 E0.44938
G1 X185.634 Y146.213 E0.03068
G1 X178.06 Y153.787 E0.44938
G1 X177.329 Y153.787 E0.03068
G1 X184.903 Y146.213 E0.44938
G1 X184.172 Y146.213 E0.03068
G1 X176.598 Y153.787 E0.44938
G1 X175.867 Y153.787 E0.03068
G1 X183.44 Y146.213 E0.44938
G1 X182.709 Y146.213 E0.03068
G1 X175.135 Y153.787 E0.44938
G1 X174.404 Y153.787 E0.03068
G1 X181.978 Y146.213 E0.44938
G1 X181.246 Y146.213 E0.03068
G1 X173.673 Y153.787 E0.44938
G1 X172.941 Y153.787 E0.03068
G1 X180.515 Y146.213 E0.44938
G1 X179.784 Y146.213 E0.03068
G1 X172.21 Y153.787 E0.44938
G1 X171.479 Y153.787 E0.03068
G1 X179.053 Y146.213 E0.44938
G1 X178.321 Y146.213 E0.03068
G1 X170.748 Y153.787 E0.44938
G1 X170.016 Y153.787 E0.03068
G1 X177.59 Y146.213 E0.44938
G1 X176.859 Y146.213 E0.03068
G1 X169.285 Y153.787 E0.44938
G1 X168.554 Y153.787 E0.03068
G1 X176.128 Y146.213 E0.44938
G1 X175.396 Y146.213 E0.03068
G1 X167.823 Y153.787 E0.44938
G1 X167.091 Y153.787 E0.03068
G1 X174.665 Y146.213 E0.44938
G1 X173.934 Y146.213 E0.03068
G1 X166.36 Y153.787 E0.44938
G1 X165.629 Y153.787 E0.03068
G1 X173.203 Y146.213 E0.44938
G1 X172.471 Y146.213 E0.03068
G1 X164.898 Y153.787 E0.44938
G1 X164.166 Y153.787 E0.03068
G1 X171.74 Y146.213 E0.44938
G1 X171.009 Y146.213 E0.03068
G1 X163.435 Y153.787 E0.44938
G1 X162.704 Y153.787 E0.03068
G1 X170.278 Y146.213 E0.44938
G1 X169.546 Y146.213 E0.03068
G1 X161.973 Y153.787 E0.44938
G1 X161.241 Y153.787 E0.03068
G1 X168.815 Y146.213 E0.44938
G1 X168.084 Y146.213 E0.03068
G1 X160.51 Y153.787 E0.44938
G1 X159.779 Y153.787 E0.03068
G1 X167.353 Y146.213 E0.44938
G1 X166.621 Y146.213 E0.03068
G1 X159.048 Y153.787 E0.44938
G1 X158.316 Y153.787 E0.03068
G1 X165.89 Y146.213 E0.44938
G1 X165.159 Y146.213 E0.03068
G1 X157.585 Y153.787 E0.44938
G1 X156.854 Y153.787 E0.03068
G1 X164.427 Y146.213 E0.44938
G1 X163.696 Y146.213 E0.03068
G1 X156.122 Y153.787 E0.44938
G1 X155.391 Y153.787 E0.03068
G1 X162.965 Y146.213 E0.44938
G1 X162.234 Y146.213 E0.03068
G1 X154.66 Y153.787 E0.44938
G1 X153.929 Y153.787 E0.03068
G1 X161.502 Y146.213 E0.44938
G1 X160.771 Y146.213 E0.03068
G1 X153.197 Y153.787 E0.44938
G1 X152.466 Y153.787 E0.03068
G1 X160.04 Y146.213 E0.44938
G1 X159.309 Y146.213 E0.03068
G1 X151.735 Y153.787 E0.44938
G1 X151.004 Y153.787 E0.03068
G1 X158.577 Y146.213 E0.44938
G1 X157.846 Y146.213 E0.03068
G1 X150.272 Y153.787 E0.44938
G1 X149.541 Y153.787 E0.03068
G1 X157.115 Y146.213 E0.44938
G1 X156.384 Y146.213 E0.03068
G1 X148.81 Y153.787 E0.44938
G1 X148.079 Y153.787 E0.03068
G1 X155.652 Y146.213 E0.44938
G1 X154.921 Y146.213 E0.03068
G1 X147.347 Y153.787 E0.44938
G1 X146.616 Y153.787 E0.03068
G1 X154.19 Y146.213 E0.44938
G1 X153.459 Y146.213 E0.03068
G1 X145.885 Y153.787 E0.44938
G1 X145.154 Y153.787 E0.03068
G1 X152.727 Y146.213 E0.44938
G1 X151.996 Y146.213 E0.03068
G1 X144.422 Y153.787 E0.44938
G1 X143.691 Y153.787 E0.03068
G1 X151.265 Y146.213 E0.44938
G1 X150.534 Y146.213 E0.03068
G1 X142.96 Y153.787 E0.44938
G1 X142.229 Y153.787 E0.03068
G1 X149.802 Y146.213 E0.44938
G1 X149.071 Y146.213 E0.03068
G1 X141.497 Y153.787 E0.44938
G1 X140.766 Y153.787 E0.03068
G1 X148.34 Y146.213 E0.44938
G1 X147.608 Y146.213 E0.03068
G1 X140.035 Y153.787 E0.44938
G1 X139.304 Y153.787 E0.03068
G1 X146.877 Y146.213 E0.44938
G1 X146.146 Y146.213 E0.03068
G1 X138.75 Y153.609 E0.43882
G1 X138.75 Y152.878 E0.03068
G1 X145.415 Y146.213 E0.39544
G1 X144.683 Y146.213 E0.03068
G1 X138.75 Y152.147 E0.35205
G1 X138.75 Y151.415 E0.03068
G1 X143.952 Y146.213 E0.30866
G1 X143.221 Y146.213 E0.03068
G1 X138.75 Y150.684 E0.26527
G1 X138.75 Y149.953 E0.03068
G1 X142.49 Y146.213 E0.22188
G1 X141.758 Y146.213 E0.03068
G1 X138.75 Y149.221 E0.17849
G1 X138.75 Y148.49 E0.03068
G1 X141.027 Y146.213 E0.13511
G1 X140.296 Y146.213 E0.03068
G1 X138.75 Y147.759 E0.09172
G1 X138.75 Y147.028 E0.03068
G1 X139.565 Y146.213 E0.04833
G1 X138.833 Y146.213 E0.03068
G1 X138.528 Y146.519 E0.01813
; INIT stop printing object Overhang_Angle_Test_30-85.stl id:0 copy 0
;LAYER_CHANGE
;Z:0.64
;HEIGHT:0.2
; stop printing object Overhang_Angle_Test_30-85.stl id:0 copy 0
M204 S3000
G1 Z0.64 F9000
G92 E0
