; ### Klipper Pressure Advance Calibration Pattern ###
;
; Original Marlin linear advance calibration tool by Sineos [https://github.com/Sineos]
; Heavily modified/rewritten by Andrew Ellis [https://github.com/AndrewEllis93]
;
; -------------------------------------------
; Generated: Fri Dec 09 2022 10:10:47 GMT-0800 (Pacific Standard Time)
; -------------------------------------------
;
; Printer:
;  - Firmware: klipper
;  - Bed Shape: Rect
;  - Bed Size X: 310 mm
;  - Bed Size Y: 310 mm
;  - Origin Bed Center: false
;  - Extruder Name: 
;  - Travel Speed: 200 mm/s
;  - Nozzle Diameter: 0.4 mm
;
; Start / End G-code:
;  - Start G-code Type: custom
;  - Hotend Temp: 200C
;  - Bed Temp: 60C
;
; Filament / Flow:
;  - Filament Diameter: 1.75 mm
;  - Extrusion Multiplier: 1
;  - Line Width: 115 %
;
; Retraction / Z Hop:
;  - Retraction Distance: 0.5 mm
;  - Retract Speed: 50 mm/s
;  - Unretract Speed: 30 mm/s
;  - Z Hop Enable: true
;  - Z Hop Height: 0.1mm
;
; First Layer Settings:
;  - First Layer Height: 0.2 mm
;  - First Layer Printing Speed: 30 mm/s
;  - First Layer Fan: 0%
;  - Anchor Option: anchor_layer
;  - Anchor Line Width: 140 %
;
; Print Settings:
;  - Layer Height: 0.2 mm
;  - Print Speed: 70 mm/s
;  - Acceleration: 3000 mm/s^2
;  - Fan Speed: 100%
;
; Pattern Settings (Using defaults):
;  - Print Height: 1 mm
;  - Perimeter Count: 3
;  - Side Length: 30 mm
;  - Spacing: 3 mm
;  - Corner Angle: 90 degrees 
;  - Printing Direction: 0 degree
;
; Pressure Advance Stepping:
;  - PA Start Value: 0
;  - PA End Value: 0.08
;  - PA Increment: 0.005
;  - Numbering: true
;  - No Leading Zeroes: false
;  - Show on LCD: true
;
; Calculated Values:
;  - Number of Patterns to Print: 17
;  - PA Values: 0, 0.005, 0.01, 0.015, 0.02, 0.025, 0.03, 0.035, 0.04, 0.045, 0.05, 0.055, 0.06, 0.065, 0.07, 0.075, 0.08
;  - Print Size X: 99.32 mm
;  - Print Size Y: 53.99 mm
;  - Total Number of Layers: 5
;
; Prepare printing
; 
G28                 ; Home all axes !Don't modify/delete, only move!
G90                 ; Use absolute positioning
G1 Z5 F100          ; Z raise
M190 S60    ; Set & wait for bed temp. !Don't modify/delete, only move!
M109 S200 ; Set & wait for hotend temp. !Don't modify/delete, only move!
;G32                ; Tramming macro (uncomment if used)
;QUAD_GANTRY_LEVEL  ; Level flying gantry (uncomment if used)
;Z_TILT_ADJUST      ; Tilt level bed (uncomment if used)
Z_TILT_ADJUST
LEVEL_BED
;BED_MESH_CALIBRATE ; Generate bed mesh (uncomment if used)
G21 ; Millimeter units
G90 ; Absolute XYZ
M83 ; Relative E
G92 E0 ; Reset extruder distance
;
;  Begin printing
;
M106 S0 ; Set fan speed
SET_VELOCITY_LIMIT ACCEL=3000 ; Set printing acceleration
G1 E-0.5 F3000 ; Retract
G0 Z5 F12000 ; Z raise
G0 X105.341 Y128.0068 F12000 ; Move to start position
G0 Z0.2 F12000 ; Move to start layer height
G1 E0.5 F1800 ; Un-retract
SET_PRESSURE_ADVANCE ADVANCE=0 ; Set pressure advance to start value
M117 PA 0
G1 X105.341 Y170.4332 E1.97555 F1800 ; Draw perimeter (up)
G1 X204.659 Y170.4332 E4.62466 F1800 ; Draw perimeter (right)
G1 X204.659 Y128.0068 E1.97555 F1800 ; Draw perimeter (down)
G1 X105.341 Y128.0068 E4.62466 F1800 ; Draw perimeter (left)
G0 X105.8581 Y128.5239 F12000 ; Step inwards to print next perimeter
G1 X105.8581 Y169.9161 E1.9274 F1800 ; Draw perimeter (up)
G1 X204.1419 Y169.9161 E4.57651 F1800 ; Draw perimeter (right)
G1 X204.1419 Y128.5239 E1.9274 F1800 ; Draw perimeter (down)
G1 X105.8581 Y128.5239 E4.57651 F1800 ; Draw perimeter (left)
G0 X106.3752 Y129.041 F12000 ; Step inwards to print next perimeter
G1 X106.3752 Y169.399 E1.87924 F1800 ; Draw perimeter (up)
G1 X203.6248 Y169.399 E4.52835 F1800 ; Draw perimeter (right)
G1 X203.6248 Y129.041 E1.87924 F1800 ; Draw perimeter (down)
G1 X106.3752 Y129.041 E4.52835 F1800 ; Draw perimeter (left)
G0 X106.8923 Y129.558 F12000 ; Step inwards to print next perimeter
G1 X106.8923 Y168.882 E1.83109 F1800 ; Draw perimeter (up)
G1 X203.1077 Y168.882 E4.4802 F1800 ; Draw perimeter (right)
G1 X203.1077 Y129.558 E1.83109 F1800 ; Draw perimeter (down)
G1 X106.8923 Y129.558 E4.4802 F1800 ; Draw perimeter (left)
G0 X107.0215 Y129.6873 F12000 ; Move to fill start
G0 X107.7528 Y129.6873 F12000 ; Move
G1 X107.0215 Y130.4186 E0.04815 F1800 ; Fill
G0 X107.0215 Y131.1498 F12000 ; Move
G1 X108.4841 Y129.6873 E0.09631 F1800 ; Fill
G0 X109.2153 Y129.6873 F12000 ; Move
G1 X107.0215 Y131.8811 E0.14446 F1800 ; Fill
G0 X107.0215 Y132.6124 F12000 ; Move
G1 X109.9466 Y129.6873 E0.19262 F1800 ; Fill
G0 X110.6778 Y129.6873 F12000 ; Move
G1 X107.0215 Y133.3436 E0.24077 F1800 ; Fill
G0 X107.0215 Y134.0749 F12000 ; Move
G1 X111.4091 Y129.6873 E0.28893 F1800 ; Fill
G0 X112.1404 Y129.6873 F12000 ; Move
G1 X107.0215 Y134.8061 E0.33708 F1800 ; Fill
G0 X107.0215 Y135.5374 F12000 ; Move
G1 X112.8716 Y129.6873 E0.38524 F1800 ; Fill
G0 X113.6029 Y129.6873 F12000 ; Move
G1 X107.0215 Y136.2687 E0.43339 F1800 ; Fill
G0 X107.0215 Y136.9999 F12000 ; Move
G1 X114.3341 Y129.6873 E0.48155 F1800 ; Fill
G0 X115.0654 Y129.6873 F12000 ; Move
G1 X107.0215 Y137.7312 E0.5297 F1800 ; Fill
G0 X107.0215 Y138.4624 F12000 ; Move
G1 X115.7967 Y129.6873 E0.57786 F1800 ; Fill
G0 X116.5279 Y129.6873 F12000 ; Move
G1 X107.0215 Y139.1937 E0.62601 F1800 ; Fill
G0 X107.0215 Y139.925 F12000 ; Move
G1 X117.2592 Y129.6873 E0.67417 F1800 ; Fill
G0 X117.9904 Y129.6873 F12000 ; Move
G1 X107.0215 Y140.6562 E0.72232 F1800 ; Fill
G0 X107.0215 Y141.3875 F12000 ; Move
G1 X118.7217 Y129.6873 E0.77048 F1800 ; Fill
G0 X119.453 Y129.6873 F12000 ; Move
G1 X107.0215 Y142.1187 E0.81863 F1800 ; Fill
G0 X107.0215 Y142.85 F12000 ; Move
G1 X120.1842 Y129.6873 E0.86679 F1800 ; Fill
G0 X120.9155 Y129.6873 F12000 ; Move
G1 X107.0215 Y143.5813 E0.91494 F1800 ; Fill
G0 X107.0215 Y144.3125 F12000 ; Move
G1 X121.6467 Y129.6873 E0.9631 F1800 ; Fill
G0 X122.378 Y129.6873 F12000 ; Move
G1 X107.0215 Y145.0438 E1.01125 F1800 ; Fill
G0 X107.0215 Y145.7751 F12000 ; Move
G1 X123.1093 Y129.6873 E1.05941 F1800 ; Fill
G0 X123.8405 Y129.6873 F12000 ; Move
G1 X107.0215 Y146.5063 E1.10756 F1800 ; Fill
G0 X107.0215 Y147.2376 F12000 ; Move
G1 X124.5718 Y129.6873 E1.15571 F1800 ; Fill
G0 X125.3031 Y129.6873 F12000 ; Move
G1 X107.0215 Y147.9688 E1.20387 F1800 ; Fill
G0 X107.0215 Y148.7001 F12000 ; Move
G1 X126.0343 Y129.6873 E1.25202 F1800 ; Fill
G0 X126.7656 Y129.6873 F12000 ; Move
G1 X107.0215 Y149.4314 E1.30018 F1800 ; Fill
G0 X107.0215 Y150.1626 F12000 ; Move
G1 X127.4968 Y129.6873 E1.34833 F1800 ; Fill
G0 X128.2281 Y129.6873 F12000 ; Move
G1 X107.0215 Y150.8939 E1.39649 F1800 ; Fill
G0 X107.0215 Y151.6251 F12000 ; Move
G1 X128.9594 Y129.6873 E1.44464 F1800 ; Fill
G0 X129.6906 Y129.6873 F12000 ; Move
G1 X107.0215 Y152.3564 E1.4928 F1800 ; Fill
G0 X107.0215 Y153.0877 F12000 ; Move
G1 X130.4219 Y129.6873 E1.54095 F1800 ; Fill
G0 X131.1531 Y129.6873 F12000 ; Move
G1 X107.0215 Y153.8189 E1.58911 F1800 ; Fill
G0 X107.0215 Y154.5502 F12000 ; Move
G1 X131.8844 Y129.6873 E1.63726 F1800 ; Fill
G0 X132.6157 Y129.6873 F12000 ; Move
G1 X107.0215 Y155.2814 E1.68542 F1800 ; Fill
G0 X107.0215 Y156.0127 F12000 ; Move
G1 X133.3469 Y129.6873 E1.73357 F1800 ; Fill
G0 X134.0782 Y129.6873 F12000 ; Move
G1 X107.0215 Y156.744 E1.78173 F1800 ; Fill
G0 X107.0215 Y157.4752 F12000 ; Move
G1 X134.8094 Y129.6873 E1.82988 F1800 ; Fill
G0 X135.5407 Y129.6873 F12000 ; Move
G1 X107.0215 Y158.2065 E1.87804 F1800 ; Fill
G0 X107.0215 Y158.9377 F12000 ; Move
G1 X136.272 Y129.6873 E1.92619 F1800 ; Fill
G0 X137.0032 Y129.6873 F12000 ; Move
G1 X107.0215 Y159.669 E1.97435 F1800 ; Fill
G0 X107.0215 Y160.4003 F12000 ; Move
G1 X137.7345 Y129.6873 E2.0225 F1800 ; Fill
G0 X138.4658 Y129.6873 F12000 ; Move
G1 X107.0215 Y161.1315 E2.07066 F1800 ; Fill
G0 X107.0215 Y161.8628 F12000 ; Move
G1 X139.197 Y129.6873 E2.11881 F1800 ; Fill
G0 X139.9283 Y129.6873 F12000 ; Move
G1 X107.0215 Y162.5941 E2.16697 F1800 ; Fill
G0 X107.0215 Y163.3253 F12000 ; Move
G1 X140.6595 Y129.6873 E2.21512 F1800 ; Fill
G0 X141.3908 Y129.6873 F12000 ; Move
G1 X107.0215 Y164.0566 E2.26328 F1800 ; Fill
G0 X107.0215 Y164.7878 F12000 ; Move
G1 X142.1221 Y129.6873 E2.31143 F1800 ; Fill
G0 X142.8533 Y129.6873 F12000 ; Move
G1 X107.0215 Y165.5191 E2.35958 F1800 ; Fill
G0 X107.0215 Y166.2504 F12000 ; Move
G1 X143.5846 Y129.6873 E2.40774 F1800 ; Fill
G0 X144.3158 Y129.6873 F12000 ; Move
G1 X107.0215 Y166.9816 E2.45589 F1800 ; Fill
G0 X107.0215 Y167.7129 F12000 ; Move
G1 X145.0471 Y129.6873 E2.50405 F1800 ; Fill
G0 X145.7784 Y129.6873 F12000 ; Move
G1 X107.0215 Y168.4441 E2.5522 F1800 ; Fill
G0 X107.4442 Y168.7527 F12000 ; Move
G1 X146.5096 Y129.6873 E2.57252 F1800 ; Fill
G0 X147.2409 Y129.6873 F12000 ; Move
G1 X108.1755 Y168.7527 E2.57252 F1800 ; Fill
G0 X108.9068 Y168.7527 F12000 ; Move
G1 X147.9721 Y129.6873 E2.57252 F1800 ; Fill
G0 X148.7034 Y129.6873 F12000 ; Move
G1 X109.638 Y168.7527 E2.57252 F1800 ; Fill
G0 X110.3693 Y168.7527 F12000 ; Move
G1 X149.4347 Y129.6873 E2.57252 F1800 ; Fill
G0 X150.1659 Y129.6873 F12000 ; Move
G1 X111.1005 Y168.7527 E2.57252 F1800 ; Fill
G0 X111.8318 Y168.7527 F12000 ; Move
G1 X150.8972 Y129.6873 E2.57252 F1800 ; Fill
G0 X151.6285 Y129.6873 F12000 ; Move
G1 X112.5631 Y168.7527 E2.57252 F1800 ; Fill
G0 X113.2943 Y168.7527 F12000 ; Move
G1 X152.3597 Y129.6873 E2.57252 F1800 ; Fill
G0 X153.091 Y129.6873 F12000 ; Move
G1 X114.0256 Y168.7527 E2.57252 F1800 ; Fill
G0 X114.7568 Y168.7527 F12000 ; Move
G1 X153.8222 Y129.6873 E2.57252 F1800 ; Fill
G0 X154.5535 Y129.6873 F12000 ; Move
G1 X115.4881 Y168.7527 E2.57252 F1800 ; Fill
G0 X116.2194 Y168.7527 F12000 ; Move
G1 X155.2848 Y129.6873 E2.57252 F1800 ; Fill
G0 X156.016 Y129.6873 F12000 ; Move
G1 X116.9506 Y168.7527 E2.57252 F1800 ; Fill
G0 X117.6819 Y168.7527 F12000 ; Move
G1 X156.7473 Y129.6873 E2.57252 F1800 ; Fill
G0 X157.4785 Y129.6873 F12000 ; Move
G1 X118.4132 Y168.7527 E2.57252 F1800 ; Fill
G0 X119.1444 Y168.7527 F12000 ; Move
G1 X158.2098 Y129.6873 E2.57252 F1800 ; Fill
G0 X158.9411 Y129.6873 F12000 ; Move
G1 X119.8757 Y168.7527 E2.57252 F1800 ; Fill
G0 X120.6069 Y168.7527 F12000 ; Move
G1 X159.6723 Y129.6873 E2.57252 F1800 ; Fill
G0 X160.4036 Y129.6873 F12000 ; Move
G1 X121.3382 Y168.7527 E2.57252 F1800 ; Fill
G0 X122.0695 Y168.7527 F12000 ; Move
G1 X161.1348 Y129.6873 E2.57252 F1800 ; Fill
G0 X161.8661 Y129.6873 F12000 ; Move
G1 X122.8007 Y168.7527 E2.57252 F1800 ; Fill
G0 X123.532 Y168.7527 F12000 ; Move
G1 X162.5974 Y129.6873 E2.57252 F1800 ; Fill
G0 X163.3286 Y129.6873 F12000 ; Move
G1 X124.2632 Y168.7527 E2.57252 F1800 ; Fill
G0 X124.9945 Y168.7527 F12000 ; Move
G1 X164.0599 Y129.6873 E2.57252 F1800 ; Fill
G0 X164.7911 Y129.6873 F12000 ; Move
G1 X125.7258 Y168.7527 E2.57252 F1800 ; Fill
G0 X126.457 Y168.7527 F12000 ; Move
G1 X165.5224 Y129.6873 E2.57252 F1800 ; Fill
G0 X166.2537 Y129.6873 F12000 ; Move
G1 X127.1883 Y168.7527 E2.57252 F1800 ; Fill
G0 X127.9195 Y168.7527 F12000 ; Move
G1 X166.9849 Y129.6873 E2.57252 F1800 ; Fill
G0 X167.7162 Y129.6873 F12000 ; Move
G1 X128.6508 Y168.7527 E2.57252 F1800 ; Fill
G0 X129.3821 Y168.7527 F12000 ; Move
G1 X168.4475 Y129.6873 E2.57252 F1800 ; Fill
G0 X169.1787 Y129.6873 F12000 ; Move
G1 X130.1133 Y168.7527 E2.57252 F1800 ; Fill
G0 X130.8446 Y168.7527 F12000 ; Move
G1 X169.91 Y129.6873 E2.57252 F1800 ; Fill
G0 X170.6412 Y129.6873 F12000 ; Move
G1 X131.5758 Y168.7527 E2.57252 F1800 ; Fill
G0 X132.3071 Y168.7527 F12000 ; Move
G1 X171.3725 Y129.6873 E2.57252 F1800 ; Fill
G0 X172.1038 Y129.6873 F12000 ; Move
G1 X133.0384 Y168.7527 E2.57252 F1800 ; Fill
G0 X133.7696 Y168.7527 F12000 ; Move
G1 X172.835 Y129.6873 E2.57252 F1800 ; Fill
G0 X173.5663 Y129.6873 F12000 ; Move
G1 X134.5009 Y168.7527 E2.57252 F1800 ; Fill
G0 X135.2322 Y168.7527 F12000 ; Move
G1 X174.2975 Y129.6873 E2.57252 F1800 ; Fill
G0 X175.0288 Y129.6873 F12000 ; Move
G1 X135.9634 Y168.7527 E2.57252 F1800 ; Fill
G0 X136.6947 Y168.7527 F12000 ; Move
G1 X175.7601 Y129.6873 E2.57252 F1800 ; Fill
G0 X176.4913 Y129.6873 F12000 ; Move
G1 X137.4259 Y168.7527 E2.57252 F1800 ; Fill
G0 X138.1572 Y168.7527 F12000 ; Move
G1 X177.2226 Y129.6873 E2.57252 F1800 ; Fill
G0 X177.9538 Y129.6873 F12000 ; Move
G1 X138.8885 Y168.7527 E2.57252 F1800 ; Fill
G0 X139.6197 Y168.7527 F12000 ; Move
G1 X178.6851 Y129.6873 E2.57252 F1800 ; Fill
G0 X179.4164 Y129.6873 F12000 ; Move
G1 X140.351 Y168.7527 E2.57252 F1800 ; Fill
G0 X141.0822 Y168.7527 F12000 ; Move
G1 X180.1476 Y129.6873 E2.57252 F1800 ; Fill
G0 X180.8789 Y129.6873 F12000 ; Move
G1 X141.8135 Y168.7527 E2.57252 F1800 ; Fill
G0 X142.5448 Y168.7527 F12000 ; Move
G1 X181.6102 Y129.6873 E2.57252 F1800 ; Fill
G0 X182.3414 Y129.6873 F12000 ; Move
G1 X143.276 Y168.7527 E2.57252 F1800 ; Fill
G0 X144.0073 Y168.7527 F12000 ; Move
G1 X183.0727 Y129.6873 E2.57252 F1800 ; Fill
G0 X183.8039 Y129.6873 F12000 ; Move
G1 X144.7385 Y168.7527 E2.57252 F1800 ; Fill
G0 X145.4698 Y168.7527 F12000 ; Move
G1 X184.5352 Y129.6873 E2.57252 F1800 ; Fill
G0 X185.2665 Y129.6873 F12000 ; Move
G1 X146.2011 Y168.7527 E2.57252 F1800 ; Fill
G0 X146.9323 Y168.7527 F12000 ; Move
G1 X185.9977 Y129.6873 E2.57252 F1800 ; Fill
G0 X186.729 Y129.6873 F12000 ; Move
G1 X147.6636 Y168.7527 E2.57252 F1800 ; Fill
G0 X148.3949 Y168.7527 F12000 ; Move
G1 X187.4602 Y129.6873 E2.57252 F1800 ; Fill
G0 X188.1915 Y129.6873 F12000 ; Move
G1 X149.1261 Y168.7527 E2.57252 F1800 ; Fill
G0 X149.8574 Y168.7527 F12000 ; Move
G1 X188.9228 Y129.6873 E2.57252 F1800 ; Fill
G0 X189.654 Y129.6873 F12000 ; Move
G1 X150.5886 Y168.7527 E2.57252 F1800 ; Fill
G0 X151.3199 Y168.7527 F12000 ; Move
G1 X190.3853 Y129.6873 E2.57252 F1800 ; Fill
G0 X191.1165 Y129.6873 F12000 ; Move
G1 X152.0512 Y168.7527 E2.57252 F1800 ; Fill
G0 X152.7824 Y168.7527 F12000 ; Move
G1 X191.8478 Y129.6873 E2.57252 F1800 ; Fill
G0 X192.5791 Y129.6873 F12000 ; Move
G1 X153.5137 Y168.7527 E2.57252 F1800 ; Fill
G0 X154.2449 Y168.7527 F12000 ; Move
G1 X193.3103 Y129.6873 E2.57252 F1800 ; Fill
G0 X194.0416 Y129.6873 F12000 ; Move
G1 X154.9762 Y168.7527 E2.57252 F1800 ; Fill
G0 X155.7075 Y168.7527 F12000 ; Move
G1 X194.7729 Y129.6873 E2.57252 F1800 ; Fill
G0 X195.5041 Y129.6873 F12000 ; Move
G1 X156.4387 Y168.7527 E2.57252 F1800 ; Fill
G0 X157.17 Y168.7527 F12000 ; Move
G1 X196.2354 Y129.6873 E2.57252 F1800 ; Fill
G0 X196.9666 Y129.6873 F12000 ; Move
G1 X157.9012 Y168.7527 E2.57252 F1800 ; Fill
G0 X158.6325 Y168.7527 F12000 ; Move
G1 X197.6979 Y129.6873 E2.57252 F1800 ; Fill
G0 X198.4292 Y129.6873 F12000 ; Move
G1 X159.3638 Y168.7527 E2.57252 F1800 ; Fill
G0 X160.095 Y168.7527 F12000 ; Move
G1 X199.1604 Y129.6873 E2.57252 F1800 ; Fill
G0 X199.8917 Y129.6873 F12000 ; Move
G1 X160.8263 Y168.7527 E2.57252 F1800 ; Fill
G0 X161.5576 Y168.7527 F12000 ; Move
G1 X200.6229 Y129.6873 E2.57252 F1800 ; Fill
G0 X201.3542 Y129.6873 F12000 ; Move
G1 X162.2888 Y168.7527 E2.57252 F1800 ; Fill
G0 X163.0201 Y168.7527 F12000 ; Move
G1 X202.0855 Y129.6873 E2.57252 F1800 ; Fill
G0 X202.8167 Y129.6873 F12000 ; Move
G1 X163.7513 Y168.7527 E2.57252 F1800 ; Fill
G0 X164.4826 Y168.7527 F12000 ; Move
G1 X202.9785 Y130.2568 E2.53502 F1800 ; Fill
G0 X202.9785 Y130.9881 F12000 ; Move
G1 X165.2139 Y168.7527 E2.48686 F1800 ; Fill
G0 X165.9451 Y168.7527 F12000 ; Move
G1 X202.9785 Y131.7193 E2.43871 F1800 ; Fill
G0 X202.9785 Y132.4506 F12000 ; Move
G1 X166.6764 Y168.7527 E2.39055 F1800 ; Fill
G0 X167.4076 Y168.7527 F12000 ; Move
G1 X202.9785 Y133.1819 E2.3424 F1800 ; Fill
G0 X202.9785 Y133.9131 F12000 ; Move
G1 X168.1389 Y168.7527 E2.29425 F1800 ; Fill
G0 X168.8702 Y168.7527 F12000 ; Move
G1 X202.9785 Y134.6444 E2.24609 F1800 ; Fill
G0 X202.9785 Y135.3756 F12000 ; Move
G1 X169.6014 Y168.7527 E2.19794 F1800 ; Fill
G0 X170.3327 Y168.7527 F12000 ; Move
G1 X202.9785 Y136.1069 E2.14978 F1800 ; Fill
G0 X202.9785 Y136.8382 F12000 ; Move
G1 X171.0639 Y168.7527 E2.10163 F1800 ; Fill
G0 X171.7952 Y168.7527 F12000 ; Move
G1 X202.9785 Y137.5694 E2.05347 F1800 ; Fill
G0 X202.9785 Y138.3007 F12000 ; Move
G1 X172.5265 Y168.7527 E2.00532 F1800 ; Fill
G0 X173.2577 Y168.7527 F12000 ; Move
G1 X202.9785 Y139.032 E1.95716 F1800 ; Fill
G0 X202.9785 Y139.7632 F12000 ; Move
G1 X173.989 Y168.7527 E1.90901 F1800 ; Fill
G0 X174.7202 Y168.7527 F12000 ; Move
G1 X202.9785 Y140.4945 E1.86085 F1800 ; Fill
G0 X202.9785 Y141.2257 F12000 ; Move
G1 X175.4515 Y168.7527 E1.8127 F1800 ; Fill
G0 X176.1828 Y168.7527 F12000 ; Move
G1 X202.9785 Y141.957 E1.76454 F1800 ; Fill
G0 X202.9785 Y142.6883 F12000 ; Move
G1 X176.914 Y168.7527 E1.71639 F1800 ; Fill
G0 X177.6453 Y168.7527 F12000 ; Move
G1 X202.9785 Y143.4195 E1.66823 F1800 ; Fill
G0 X202.9785 Y144.1508 F12000 ; Move
G1 X178.3766 Y168.7527 E1.62008 F1800 ; Fill
G0 X179.1078 Y168.7527 F12000 ; Move
G1 X202.9785 Y144.882 E1.57192 F1800 ; Fill
G0 X202.9785 Y145.6133 F12000 ; Move
G1 X179.8391 Y168.7527 E1.52377 F1800 ; Fill
G0 X180.5703 Y168.7527 F12000 ; Move
G1 X202.9785 Y146.3446 E1.47561 F1800 ; Fill
G0 X202.9785 Y147.0758 F12000 ; Move
G1 X181.3016 Y168.7527 E1.42746 F1800 ; Fill
G0 X182.0329 Y168.7527 F12000 ; Move
G1 X202.9785 Y147.8071 E1.3793 F1800 ; Fill
G0 X202.9785 Y148.5383 F12000 ; Move
G1 X182.7641 Y168.7527 E1.33115 F1800 ; Fill
G0 X183.4954 Y168.7527 F12000 ; Move
G1 X202.9785 Y149.2696 E1.28299 F1800 ; Fill
G0 X202.9785 Y150.0009 F12000 ; Move
G1 X184.2266 Y168.7527 E1.23484 F1800 ; Fill
G0 X184.9579 Y168.7527 F12000 ; Move
G1 X202.9785 Y150.7321 E1.18669 F1800 ; Fill
G0 X202.9785 Y151.4634 F12000 ; Move
G1 X185.6892 Y168.7527 E1.13853 F1800 ; Fill
G0 X186.4204 Y168.7527 F12000 ; Move
G1 X202.9785 Y152.1947 E1.09038 F1800 ; Fill
G0 X202.9785 Y152.9259 F12000 ; Move
G1 X187.1517 Y168.7527 E1.04222 F1800 ; Fill
G0 X187.8829 Y168.7527 F12000 ; Move
G1 X202.9785 Y153.6572 E0.99407 F1800 ; Fill
G0 X202.9785 Y154.3884 F12000 ; Move
G1 X188.6142 Y168.7527 E0.94591 F1800 ; Fill
G0 X189.3455 Y168.7527 F12000 ; Move
G1 X202.9785 Y155.1197 E0.89776 F1800 ; Fill
G0 X202.9785 Y155.851 F12000 ; Move
G1 X190.0767 Y168.7527 E0.8496 F1800 ; Fill
G0 X190.808 Y168.7527 F12000 ; Move
G1 X202.9785 Y156.5822 E0.80145 F1800 ; Fill
G0 X202.9785 Y157.3135 F12000 ; Move
G1 X191.5393 Y168.7527 E0.75329 F1800 ; Fill
G0 X192.2705 Y168.7527 F12000 ; Move
G1 X202.9785 Y158.0447 E0.70514 F1800 ; Fill
G0 X202.9785 Y158.776 F12000 ; Move
G1 X193.0018 Y168.7527 E0.65698 F1800 ; Fill
G0 X193.733 Y168.7527 F12000 ; Move
G1 X202.9785 Y159.5073 E0.60883 F1800 ; Fill
G0 X202.9785 Y160.2385 F12000 ; Move
G1 X194.4643 Y168.7527 E0.56067 F1800 ; Fill
G0 X195.1956 Y168.7527 F12000 ; Move
G1 X202.9785 Y160.9698 E0.51252 F1800 ; Fill
G0 X202.9785 Y161.701 F12000 ; Move
G1 X195.9268 Y168.7527 E0.46436 F1800 ; Fill
G0 X196.6581 Y168.7527 F12000 ; Move
G1 X202.9785 Y162.4323 E0.41621 F1800 ; Fill
G0 X202.9785 Y163.1636 F12000 ; Move
G1 X197.3893 Y168.7527 E0.36805 F1800 ; Fill
G0 X198.1206 Y168.7527 F12000 ; Move
G1 X202.9785 Y163.8948 E0.3199 F1800 ; Fill
G0 X202.9785 Y164.6261 F12000 ; Move
G1 X198.8519 Y168.7527 E0.27174 F1800 ; Fill
G0 X199.5831 Y168.7527 F12000 ; Move
G1 X202.9785 Y165.3574 E0.22359 F1800 ; Fill
G0 X202.9785 Y166.0886 F12000 ; Move
G1 X200.3144 Y168.7527 E0.17543 F1800 ; Fill
G0 X201.0456 Y168.7527 F12000 ; Move
G1 X202.9785 Y166.8199 E0.12728 F1800 ; Fill
G0 X202.9785 Y167.5511 F12000 ; Move
G1 X201.7769 Y168.7527 E0.07913 F1800 ; Fill
G0 X202.5082 Y168.7527 F12000 ; Move
G1 X202.9785 Y168.2824 E0.03097 F1800 ; Fill
G1 E-0.5 F3000 ; Retract
G1 Z0.3 F12000 ; Z hop
G0 X105.341 Y170.7693 F12000 ; Move to box start
G1 Z0.2 F12000 ; Z hop return
G1 E0.5 F1800 ; Un-retract
G1 X105.341 Y182.2864 E0.53628 F1800 ; Draw perimeter (up)
G1 X186.201 Y182.2864 E3.76518 F1800 ; Draw perimeter (right)
G1 X186.201 Y170.7693 E0.53628 F1800 ; Draw perimeter (down)
G1 X105.341 Y170.7693 E3.76518 F1800 ; Draw perimeter (left)
G0 X105.8581 Y171.2864 F12000 ; Step inwards to print next perimeter
G1 X105.8581 Y181.7693 E0.48813 F1800 ; Draw perimeter (up)
G1 X185.6839 Y181.7693 E3.71702 F1800 ; Draw perimeter (right)
G1 X185.6839 Y171.2864 E0.48813 F1800 ; Draw perimeter (down)
G1 X105.8581 Y171.2864 E3.71702 F1800 ; Draw perimeter (left)
G0 X106.3752 Y171.8035 F12000 ; Step inwards to print next perimeter
G1 X106.3752 Y181.2522 E0.43997 F1800 ; Draw perimeter (up)
G1 X185.1668 Y181.2522 E3.66887 F1800 ; Draw perimeter (right)
G1 X185.1668 Y171.8035 E0.43997 F1800 ; Draw perimeter (down)
G1 X106.3752 Y171.8035 E3.66887 F1800 ; Draw perimeter (left)
G0 X106.8923 Y172.3205 F12000 ; Step inwards to print next perimeter
G1 X106.8923 Y180.7351 E0.39182 F1800 ; Draw perimeter (up)
G1 X184.6497 Y180.7351 E3.62071 F1800 ; Draw perimeter (right)
G1 X184.6497 Y172.3205 E0.39182 F1800 ; Draw perimeter (down)
G1 X106.8923 Y172.3205 E3.62071 F1800 ; Draw perimeter (left)
G0 X107.0215 Y172.4498 F12000 ; Move to fill start
G0 X107.7528 Y172.4498 F12000 ; Move
G1 X107.0215 Y173.1811 E0.04815 F1800 ; Fill
G0 X107.0215 Y173.9123 F12000 ; Move
G1 X108.4841 Y172.4498 E0.09631 F1800 ; Fill
G0 X109.2153 Y172.4498 F12000 ; Move
G1 X107.0215 Y174.6436 E0.14446 F1800 ; Fill
G0 X107.0215 Y175.3749 F12000 ; Move
G1 X109.9466 Y172.4498 E0.19262 F1800 ; Fill
G0 X110.6778 Y172.4498 F12000 ; Move
G1 X107.0215 Y176.1061 E0.24077 F1800 ; Fill
G0 X107.0215 Y176.8374 F12000 ; Move
G1 X111.4091 Y172.4498 E0.28893 F1800 ; Fill
G0 X112.1404 Y172.4498 F12000 ; Move
G1 X107.0215 Y177.5686 E0.33708 F1800 ; Fill
G0 X107.0215 Y178.2999 F12000 ; Move
G1 X112.8716 Y172.4498 E0.38524 F1800 ; Fill
G0 X113.6029 Y172.4498 F12000 ; Move
G1 X107.0215 Y179.0312 E0.43339 F1800 ; Fill
G0 X107.0215 Y179.7624 F12000 ; Move
G1 X114.3341 Y172.4498 E0.48155 F1800 ; Fill
G0 X115.0654 Y172.4498 F12000 ; Move
G1 X107.0215 Y180.4937 E0.5297 F1800 ; Fill
G0 X107.6406 Y180.6059 F12000 ; Move
G1 X115.7967 Y172.4498 E0.53709 F1800 ; Fill
G0 X116.5279 Y172.4498 F12000 ; Move
G1 X108.3719 Y180.6059 E0.53709 F1800 ; Fill
G0 X109.1031 Y180.6059 F12000 ; Move
G1 X117.2592 Y172.4498 E0.53709 F1800 ; Fill
G0 X117.9904 Y172.4498 F12000 ; Move
G1 X109.8344 Y180.6059 E0.53709 F1800 ; Fill
G0 X110.5656 Y180.6059 F12000 ; Move
G1 X118.7217 Y172.4498 E0.53709 F1800 ; Fill
G0 X119.453 Y172.4498 F12000 ; Move
G1 X111.2969 Y180.6059 E0.53709 F1800 ; Fill
G0 X112.0282 Y180.6059 F12000 ; Move
G1 X120.1842 Y172.4498 E0.53709 F1800 ; Fill
G0 X120.9155 Y172.4498 F12000 ; Move
G1 X112.7594 Y180.6059 E0.53709 F1800 ; Fill
G0 X113.4907 Y180.6059 F12000 ; Move
G1 X121.6467 Y172.4498 E0.53709 F1800 ; Fill
G0 X122.378 Y172.4498 F12000 ; Move
G1 X114.2219 Y180.6059 E0.53709 F1800 ; Fill
G0 X114.9532 Y180.6059 F12000 ; Move
G1 X123.1093 Y172.4498 E0.53709 F1800 ; Fill
G0 X123.8405 Y172.4498 F12000 ; Move
G1 X115.6845 Y180.6059 E0.53709 F1800 ; Fill
G0 X116.4157 Y180.6059 F12000 ; Move
G1 X124.5718 Y172.4498 E0.53709 F1800 ; Fill
G0 X125.3031 Y172.4498 F12000 ; Move
G1 X117.147 Y180.6059 E0.53709 F1800 ; Fill
G0 X117.8783 Y180.6059 F12000 ; Move
G1 X126.0343 Y172.4498 E0.53709 F1800 ; Fill
G0 X126.7656 Y172.4498 F12000 ; Move
G1 X118.6095 Y180.6059 E0.53709 F1800 ; Fill
G0 X119.3408 Y180.6059 F12000 ; Move
G1 X127.4968 Y172.4498 E0.53709 F1800 ; Fill
G0 X128.2281 Y172.4498 F12000 ; Move
G1 X120.072 Y180.6059 E0.53709 F1800 ; Fill
G0 X120.8033 Y180.6059 F12000 ; Move
G1 X128.9594 Y172.4498 E0.53709 F1800 ; Fill
G0 X129.6906 Y172.4498 F12000 ; Move
G1 X121.5346 Y180.6059 E0.53709 F1800 ; Fill
G0 X122.2658 Y180.6059 F12000 ; Move
G1 X130.4219 Y172.4498 E0.53709 F1800 ; Fill
G0 X131.1531 Y172.4498 F12000 ; Move
G1 X122.9971 Y180.6059 E0.53709 F1800 ; Fill
G0 X123.7283 Y180.6059 F12000 ; Move
G1 X131.8844 Y172.4498 E0.53709 F1800 ; Fill
G0 X132.6157 Y172.4498 F12000 ; Move
G1 X124.4596 Y180.6059 E0.53709 F1800 ; Fill
G0 X125.1909 Y180.6059 F12000 ; Move
G1 X133.3469 Y172.4498 E0.53709 F1800 ; Fill
G0 X134.0782 Y172.4498 F12000 ; Move
G1 X125.9221 Y180.6059 E0.53709 F1800 ; Fill
G0 X126.6534 Y180.6059 F12000 ; Move
G1 X134.8094 Y172.4498 E0.53709 F1800 ; Fill
G0 X135.5407 Y172.4498 F12000 ; Move
G1 X127.3846 Y180.6059 E0.53709 F1800 ; Fill
G0 X128.1159 Y180.6059 F12000 ; Move
G1 X136.272 Y172.4498 E0.53709 F1800 ; Fill
G0 X137.0032 Y172.4498 F12000 ; Move
G1 X128.8472 Y180.6059 E0.53709 F1800 ; Fill
G0 X129.5784 Y180.6059 F12000 ; Move
G1 X137.7345 Y172.4498 E0.53709 F1800 ; Fill
G0 X138.4658 Y172.4498 F12000 ; Move
G1 X130.3097 Y180.6059 E0.53709 F1800 ; Fill
G0 X131.041 Y180.6059 F12000 ; Move
G1 X139.197 Y172.4498 E0.53709 F1800 ; Fill
G0 X139.9283 Y172.4498 F12000 ; Move
G1 X131.7722 Y180.6059 E0.53709 F1800 ; Fill
G0 X132.5035 Y180.6059 F12000 ; Move
G1 X140.6595 Y172.4498 E0.53709 F1800 ; Fill
G0 X141.3908 Y172.4498 F12000 ; Move
G1 X133.2347 Y180.6059 E0.53709 F1800 ; Fill
G0 X133.966 Y180.6059 F12000 ; Move
G1 X142.1221 Y172.4498 E0.53709 F1800 ; Fill
G0 X142.8533 Y172.4498 F12000 ; Move
G1 X134.6973 Y180.6059 E0.53709 F1800 ; Fill
G0 X135.4285 Y180.6059 F12000 ; Move
G1 X143.5846 Y172.4498 E0.53709 F1800 ; Fill
G0 X144.3158 Y172.4498 F12000 ; Move
G1 X136.1598 Y180.6059 E0.53709 F1800 ; Fill
G0 X136.891 Y180.6059 F12000 ; Move
G1 X145.0471 Y172.4498 E0.53709 F1800 ; Fill
G0 X145.7784 Y172.4498 F12000 ; Move
G1 X137.6223 Y180.6059 E0.53709 F1800 ; Fill
G0 X138.3536 Y180.6059 F12000 ; Move
G1 X146.5096 Y172.4498 E0.53709 F1800 ; Fill
G0 X147.2409 Y172.4498 F12000 ; Move
G1 X139.0848 Y180.6059 E0.53709 F1800 ; Fill
G0 X139.8161 Y180.6059 F12000 ; Move
G1 X147.9721 Y172.4498 E0.53709 F1800 ; Fill
G0 X148.7034 Y172.4498 F12000 ; Move
G1 X140.5473 Y180.6059 E0.53709 F1800 ; Fill
G0 X141.2786 Y180.6059 F12000 ; Move
G1 X149.4347 Y172.4498 E0.53709 F1800 ; Fill
G0 X150.1659 Y172.4498 F12000 ; Move
G1 X142.0099 Y180.6059 E0.53709 F1800 ; Fill
G0 X142.7411 Y180.6059 F12000 ; Move
G1 X150.8972 Y172.4498 E0.53709 F1800 ; Fill
G0 X151.6285 Y172.4498 F12000 ; Move
G1 X143.4724 Y180.6059 E0.53709 F1800 ; Fill
G0 X144.2037 Y180.6059 F12000 ; Move
G1 X152.3597 Y172.4498 E0.53709 F1800 ; Fill
G0 X153.091 Y172.4498 F12000 ; Move
G1 X144.9349 Y180.6059 E0.53709 F1800 ; Fill
G0 X145.6662 Y180.6059 F12000 ; Move
G1 X153.8222 Y172.4498 E0.53709 F1800 ; Fill
G0 X154.5535 Y172.4498 F12000 ; Move
G1 X146.3974 Y180.6059 E0.53709 F1800 ; Fill
G0 X147.1287 Y180.6059 F12000 ; Move
G1 X155.2848 Y172.4498 E0.53709 F1800 ; Fill
G0 X156.016 Y172.4498 F12000 ; Move
G1 X147.86 Y180.6059 E0.53709 F1800 ; Fill
G0 X148.5912 Y180.6059 F12000 ; Move
G1 X156.7473 Y172.4498 E0.53709 F1800 ; Fill
G0 X157.4785 Y172.4498 F12000 ; Move
G1 X149.3225 Y180.6059 E0.53709 F1800 ; Fill
G0 X150.0537 Y180.6059 F12000 ; Move
G1 X158.2098 Y172.4498 E0.53709 F1800 ; Fill
G0 X158.9411 Y172.4498 F12000 ; Move
G1 X150.785 Y180.6059 E0.53709 F1800 ; Fill
G0 X151.5163 Y180.6059 F12000 ; Move
G1 X159.6723 Y172.4498 E0.53709 F1800 ; Fill
G0 X160.4036 Y172.4498 F12000 ; Move
G1 X152.2475 Y180.6059 E0.53709 F1800 ; Fill
G0 X152.9788 Y180.6059 F12000 ; Move
G1 X161.1348 Y172.4498 E0.53709 F1800 ; Fill
G0 X161.8661 Y172.4498 F12000 ; Move
G1 X153.71 Y180.6059 E0.53709 F1800 ; Fill
G0 X154.4413 Y180.6059 F12000 ; Move
G1 X162.5974 Y172.4498 E0.53709 F1800 ; Fill
G0 X163.3286 Y172.4498 F12000 ; Move
G1 X155.1726 Y180.6059 E0.53709 F1800 ; Fill
G0 X155.9038 Y180.6059 F12000 ; Move
G1 X164.0599 Y172.4498 E0.53709 F1800 ; Fill
G0 X164.7911 Y172.4498 F12000 ; Move
G1 X156.6351 Y180.6059 E0.53709 F1800 ; Fill
G0 X157.3663 Y180.6059 F12000 ; Move
G1 X165.5224 Y172.4498 E0.53709 F1800 ; Fill
G0 X166.2537 Y172.4498 F12000 ; Move
G1 X158.0976 Y180.6059 E0.53709 F1800 ; Fill
G0 X158.8289 Y180.6059 F12000 ; Move
G1 X166.9849 Y172.4498 E0.53709 F1800 ; Fill
G0 X167.7162 Y172.4498 F12000 ; Move
G1 X159.5601 Y180.6059 E0.53709 F1800 ; Fill
G0 X160.2914 Y180.6059 F12000 ; Move
G1 X168.4475 Y172.4498 E0.53709 F1800 ; Fill
G0 X169.1787 Y172.4498 F12000 ; Move
G1 X161.0227 Y180.6059 E0.53709 F1800 ; Fill
G0 X161.7539 Y180.6059 F12000 ; Move
G1 X169.91 Y172.4498 E0.53709 F1800 ; Fill
G0 X170.6412 Y172.4498 F12000 ; Move
G1 X162.4852 Y180.6059 E0.53709 F1800 ; Fill
G0 X163.2164 Y180.6059 F12000 ; Move
G1 X171.3725 Y172.4498 E0.53709 F1800 ; Fill
G0 X172.1038 Y172.4498 F12000 ; Move
G1 X163.9477 Y180.6059 E0.53709 F1800 ; Fill
G0 X164.679 Y180.6059 F12000 ; Move
G1 X172.835 Y172.4498 E0.53709 F1800 ; Fill
G0 X173.5663 Y172.4498 F12000 ; Move
G1 X165.4102 Y180.6059 E0.53709 F1800 ; Fill
G0 X166.1415 Y180.6059 F12000 ; Move
G1 X174.2975 Y172.4498 E0.53709 F1800 ; Fill
G0 X175.0288 Y172.4498 F12000 ; Move
G1 X166.8727 Y180.6059 E0.53709 F1800 ; Fill
G0 X167.604 Y180.6059 F12000 ; Move
G1 X175.7601 Y172.4498 E0.53709 F1800 ; Fill
G0 X176.4913 Y172.4498 F12000 ; Move
G1 X168.3353 Y180.6059 E0.53709 F1800 ; Fill
G0 X169.0665 Y180.6059 F12000 ; Move
G1 X177.2226 Y172.4498 E0.53709 F1800 ; Fill
G0 X177.9538 Y172.4498 F12000 ; Move
G1 X169.7978 Y180.6059 E0.53709 F1800 ; Fill
G0 X170.529 Y180.6059 F12000 ; Move
G1 X178.6851 Y172.4498 E0.53709 F1800 ; Fill
G0 X179.4164 Y172.4498 F12000 ; Move
G1 X171.2603 Y180.6059 E0.53709 F1800 ; Fill
G0 X171.9916 Y180.6059 F12000 ; Move
G1 X180.1476 Y172.4498 E0.53709 F1800 ; Fill
G0 X180.8789 Y172.4498 F12000 ; Move
G1 X172.7228 Y180.6059 E0.53709 F1800 ; Fill
G0 X173.4541 Y180.6059 F12000 ; Move
G1 X181.6102 Y172.4498 E0.53709 F1800 ; Fill
G0 X182.3414 Y172.4498 F12000 ; Move
G1 X174.1854 Y180.6059 E0.53709 F1800 ; Fill
G0 X174.9166 Y180.6059 F12000 ; Move
G1 X183.0727 Y172.4498 E0.53709 F1800 ; Fill
G0 X183.8039 Y172.4498 F12000 ; Move
G1 X175.6479 Y180.6059 E0.53709 F1800 ; Fill
G0 X176.3791 Y180.6059 F12000 ; Move
G1 X184.5205 Y172.4646 E0.53612 F1800 ; Fill
G0 X184.5205 Y173.1958 F12000 ; Move
G1 X177.1104 Y180.6059 E0.48797 F1800 ; Fill
G0 X177.8417 Y180.6059 F12000 ; Move
G1 X184.5205 Y173.9271 E0.43981 F1800 ; Fill
G0 X184.5205 Y174.6583 F12000 ; Move
G1 X178.5729 Y180.6059 E0.39166 F1800 ; Fill
G0 X179.3042 Y180.6059 F12000 ; Move
G1 X184.5205 Y175.3896 E0.3435 F1800 ; Fill
G0 X184.5205 Y176.1209 F12000 ; Move
G1 X180.0354 Y180.6059 E0.29535 F1800 ; Fill
G0 X180.7667 Y180.6059 F12000 ; Move
G1 X184.5205 Y176.8521 E0.24719 F1800 ; Fill
G0 X184.5205 Y177.5834 F12000 ; Move
G1 X181.498 Y180.6059 E0.19904 F1800 ; Fill
G0 X182.2292 Y180.6059 F12000 ; Move
G1 X184.5205 Y178.3146 E0.15088 F1800 ; Fill
G0 X184.5205 Y179.0459 F12000 ; Move
G1 X182.9605 Y180.6059 E0.10273 F1800 ; Fill
G0 X183.6917 Y180.6059 F12000 ; Move
G1 X184.5205 Y179.7772 E0.05457 F1800 ; Fill
M106 S255 ; Set fan speed
G0 Z0.4 F12000 ; Move to layer height
G1 E-0.5 F3000 ; Retract
G1 Z0.5 F12000 ; Z hop
G0 X106.621 Y171.8932 F12000 ; Move
G1 Z0.4 F12000 ; Z hop return
G1 E0.5 F1800 ; Un-retract
G1 X108.621 Y171.8932 E0.0765 F4200 ; Glyph: 0
G1 X110.621 Y171.8932 E0.0765 F4200 ; Glyph: 0
G1 X110.621 Y173.8932 E0.0765 F4200 ; Glyph: 0
G1 X108.621 Y173.8932 E0.0765 F4200 ; Glyph: 0
G1 X106.621 Y173.8932 E0.0765 F4200 ; Glyph: 0
G1 X106.621 Y171.8932 E0.0765 F4200 ; Glyph: 0
G1 E-0.5 F3000 ; Retract
G1 Z0.5 F12000 ; Z hop
G0 X115.9004 Y171.8932 F12000 ; Move
G1 Z0.4 F12000 ; Z hop return
G1 E0.5 F1800 ; Un-retract
G1 X117.9004 Y171.8932 E0.0765 F4200 ; Glyph: 0
G1 X119.9004 Y171.8932 E0.0765 F4200 ; Glyph: 0
G1 X119.9004 Y173.8932 E0.0765 F4200 ; Glyph: 0
G1 X117.9004 Y173.8932 E0.0765 F4200 ; Glyph: 0
G1 X115.9004 Y173.8932 E0.0765 F4200 ; Glyph: 0
G1 X115.9004 Y171.8932 E0.0765 F4200 ; Glyph: 0
G1 E-0.5 F3000 ; Retract
G1 Z0.5 F12000 ; Z hop
G0 X119.9004 Y174.8932 F12000 ; Move
G1 Z0.4 F12000 ; Z hop return
G1 E0.5 F1800 ; Un-retract
G1 X119.1504 Y174.8932 E0.02869 F4200 ; Glyph: .
G1 E-0.5 F3000 ; Retract
G1 Z0.5 F12000 ; Z hop
G0 X115.9004 Y175.8932 F12000 ; Move
G1 Z0.4 F12000 ; Z hop return
G1 E0.5 F1800 ; Un-retract
G1 X117.9004 Y175.8932 E0.0765 F4200 ; Glyph: 0
G1 X119.9004 Y175.8932 E0.0765 F4200 ; Glyph: 0
G1 X119.9004 Y177.8932 E0.0765 F4200 ; Glyph: 0
G1 X117.9004 Y177.8932 E0.0765 F4200 ; Glyph: 0
G1 X115.9004 Y177.8932 E0.0765 F4200 ; Glyph: 0
G1 X115.9004 Y175.8932 E0.0765 F4200 ; Glyph: 0
G1 E-0.5 F3000 ; Retract
G1 Z0.5 F12000 ; Z hop
G0 X115.9004 Y178.8932 F12000 ; Move
G1 Z0.4 F12000 ; Z hop return
G1 E0.5 F1800 ; Un-retract
G1 X117.9004 Y178.8932 E0.0765 F4200 ; Glyph: 1
G1 X119.9004 Y178.8932 E0.0765 F4200 ; Glyph: 1
G1 E-0.5 F3000 ; Retract
G1 Z0.5 F12000 ; Z hop
G0 X125.1797 Y171.8932 F12000 ; Move
G1 Z0.4 F12000 ; Z hop return
G1 E0.5 F1800 ; Un-retract
G1 X127.1797 Y171.8932 E0.0765 F4200 ; Glyph: 0
G1 X129.1797 Y171.8932 E0.0765 F4200 ; Glyph: 0
G1 X129.1797 Y173.8932 E0.0765 F4200 ; Glyph: 0
G1 X127.1797 Y173.8932 E0.0765 F4200 ; Glyph: 0
G1 X125.1797 Y173.8932 E0.0765 F4200 ; Glyph: 0
G1 X125.1797 Y171.8932 E0.0765 F4200 ; Glyph: 0
G1 E-0.5 F3000 ; Retract
G1 Z0.5 F12000 ; Z hop
G0 X129.1797 Y174.8932 F12000 ; Move
G1 Z0.4 F12000 ; Z hop return
G1 E0.5 F1800 ; Un-retract
G1 X128.4297 Y174.8932 E0.02869 F4200 ; Glyph: .
G1 E-0.5 F3000 ; Retract
G1 Z0.5 F12000 ; Z hop
G0 X125.1797 Y175.8932 F12000 ; Move
G1 Z0.4 F12000 ; Z hop return
G1 E0.5 F1800 ; Un-retract
G1 X127.1797 Y175.8932 E0.0765 F4200 ; Glyph: 0
G1 X129.1797 Y175.8932 E0.0765 F4200 ; Glyph: 0
G1 X129.1797 Y177.8932 E0.0765 F4200 ; Glyph: 0
G1 X127.1797 Y177.8932 E0.0765 F4200 ; Glyph: 0
G1 X125.1797 Y177.8932 E0.0765 F4200 ; Glyph: 0
G1 X125.1797 Y175.8932 E0.0765 F4200 ; Glyph: 0
G1 E-0.5 F3000 ; Retract
G1 Z0.5 F12000 ; Z hop
G0 X125.1797 Y178.8932 F12000 ; Move
G1 Z0.4 F12000 ; Z hop return
G1 E0.5 F1800 ; Un-retract
G1 X125.1797 Y180.8932 E0.0765 F4200 ; Glyph: 2
G1 X127.1797 Y180.8932 E0.0765 F4200 ; Glyph: 2
G1 X127.1797 Y178.8932 E0.0765 F4200 ; Glyph: 2
G1 X129.1797 Y178.8932 E0.0765 F4200 ; Glyph: 2
G1 X129.1797 Y180.8932 E0.0765 F4200 ; Glyph: 2
G1 E-0.5 F3000 ; Retract
G1 Z0.5 F12000 ; Z hop
G0 X134.4591 Y171.8932 F12000 ; Move
G1 Z0.4 F12000 ; Z hop return
G1 E0.5 F1800 ; Un-retract
G1 X136.4591 Y171.8932 E0.0765 F4200 ; Glyph: 0
G1 X138.4591 Y171.8932 E0.0765 F4200 ; Glyph: 0
G1 X138.4591 Y173.8932 E0.0765 F4200 ; Glyph: 0
G1 X136.4591 Y173.8932 E0.0765 F4200 ; Glyph: 0
G1 X134.4591 Y173.8932 E0.0765 F4200 ; Glyph: 0
G1 X134.4591 Y171.8932 E0.0765 F4200 ; Glyph: 0
G1 E-0.5 F3000 ; Retract
G1 Z0.5 F12000 ; Z hop
G0 X138.4591 Y174.8932 F12000 ; Move
G1 Z0.4 F12000 ; Z hop return
G1 E0.5 F1800 ; Un-retract
G1 X137.7091 Y174.8932 E0.02869 F4200 ; Glyph: .
G1 E-0.5 F3000 ; Retract
G1 Z0.5 F12000 ; Z hop
G0 X134.4591 Y175.8932 F12000 ; Move
G1 Z0.4 F12000 ; Z hop return
G1 E0.5 F1800 ; Un-retract
G1 X136.4591 Y175.8932 E0.0765 F4200 ; Glyph: 0
G1 X138.4591 Y175.8932 E0.0765 F4200 ; Glyph: 0
G1 X138.4591 Y177.8932 E0.0765 F4200 ; Glyph: 0
G1 X136.4591 Y177.8932 E0.0765 F4200 ; Glyph: 0
G1 X134.4591 Y177.8932 E0.0765 F4200 ; Glyph: 0
G1 X134.4591 Y175.8932 E0.0765 F4200 ; Glyph: 0
G1 E-0.5 F3000 ; Retract
G1 Z0.5 F12000 ; Z hop
G0 X134.4591 Y178.8932 F12000 ; Move
G1 Z0.4 F12000 ; Z hop return
G1 E0.5 F1800 ; Un-retract
G1 X134.4591 Y180.8932 E0.0765 F4200 ; Glyph: 3
G1 X136.4591 Y180.8932 E0.0765 F4200 ; Glyph: 3
G1 X136.4591 Y178.8932 E0.0765 F4200 ; Glyph: 3
G0 X136.4591 Y180.8932 F12000 ; Move
G1 X138.4591 Y180.8932 E0.0765 F4200 ; Glyph: 3
G1 X138.4591 Y178.8932 E0.0765 F4200 ; Glyph: 3
G1 E-0.5 F3000 ; Retract
G1 Z0.5 F12000 ; Z hop
G0 X143.7385 Y171.8932 F12000 ; Move
G1 Z0.4 F12000 ; Z hop return
G1 E0.5 F1800 ; Un-retract
G1 X145.7385 Y171.8932 E0.0765 F4200 ; Glyph: 0
G1 X147.7385 Y171.8932 E0.0765 F4200 ; Glyph: 0
G1 X147.7385 Y173.8932 E0.0765 F4200 ; Glyph: 0
G1 X145.7385 Y173.8932 E0.0765 F4200 ; Glyph: 0
G1 X143.7385 Y173.8932 E0.0765 F4200 ; Glyph: 0
G1 X143.7385 Y171.8932 E0.0765 F4200 ; Glyph: 0
G1 E-0.5 F3000 ; Retract
G1 Z0.5 F12000 ; Z hop
G0 X147.7385 Y174.8932 F12000 ; Move
G1 Z0.4 F12000 ; Z hop return
G1 E0.5 F1800 ; Un-retract
G1 X146.9885 Y174.8932 E0.02869 F4200 ; Glyph: .
G1 E-0.5 F3000 ; Retract
G1 Z0.5 F12000 ; Z hop
G0 X143.7385 Y175.8932 F12000 ; Move
G1 Z0.4 F12000 ; Z hop return
G1 E0.5 F1800 ; Un-retract
G1 X145.7385 Y175.8932 E0.0765 F4200 ; Glyph: 0
G1 X147.7385 Y175.8932 E0.0765 F4200 ; Glyph: 0
G1 X147.7385 Y177.8932 E0.0765 F4200 ; Glyph: 0
G1 X145.7385 Y177.8932 E0.0765 F4200 ; Glyph: 0
G1 X143.7385 Y177.8932 E0.0765 F4200 ; Glyph: 0
G1 X143.7385 Y175.8932 E0.0765 F4200 ; Glyph: 0
G1 E-0.5 F3000 ; Retract
G1 Z0.5 F12000 ; Z hop
G0 X143.7385 Y180.8932 F12000 ; Move
G1 Z0.4 F12000 ; Z hop return
G1 E0.5 F1800 ; Un-retract
G1 X145.7385 Y180.8932 E0.0765 F4200 ; Glyph: 4
G1 X147.7385 Y180.8932 E0.0765 F4200 ; Glyph: 4
G0 X145.7385 Y180.8932 F12000 ; Move
G1 X145.7385 Y178.8932 E0.0765 F4200 ; Glyph: 4
G1 X143.7385 Y178.8932 E0.0765 F4200 ; Glyph: 4
G1 E-0.5 F3000 ; Retract
G1 Z0.5 F12000 ; Z hop
G0 X153.0178 Y171.8932 F12000 ; Move
G1 Z0.4 F12000 ; Z hop return
G1 E0.5 F1800 ; Un-retract
G1 X155.0178 Y171.8932 E0.0765 F4200 ; Glyph: 0
G1 X157.0178 Y171.8932 E0.0765 F4200 ; Glyph: 0
G1 X157.0178 Y173.8932 E0.0765 F4200 ; Glyph: 0
G1 X155.0178 Y173.8932 E0.0765 F4200 ; Glyph: 0
G1 X153.0178 Y173.8932 E0.0765 F4200 ; Glyph: 0
G1 X153.0178 Y171.8932 E0.0765 F4200 ; Glyph: 0
G1 E-0.5 F3000 ; Retract
G1 Z0.5 F12000 ; Z hop
G0 X157.0178 Y174.8932 F12000 ; Move
G1 Z0.4 F12000 ; Z hop return
G1 E0.5 F1800 ; Un-retract
G1 X156.2678 Y174.8932 E0.02869 F4200 ; Glyph: .
G1 E-0.5 F3000 ; Retract
G1 Z0.5 F12000 ; Z hop
G0 X153.0178 Y175.8932 F12000 ; Move
G1 Z0.4 F12000 ; Z hop return
G1 E0.5 F1800 ; Un-retract
G1 X155.0178 Y175.8932 E0.0765 F4200 ; Glyph: 0
G1 X157.0178 Y175.8932 E0.0765 F4200 ; Glyph: 0
G1 X157.0178 Y177.8932 E0.0765 F4200 ; Glyph: 0
G1 X155.0178 Y177.8932 E0.0765 F4200 ; Glyph: 0
G1 X153.0178 Y177.8932 E0.0765 F4200 ; Glyph: 0
G1 X153.0178 Y175.8932 E0.0765 F4200 ; Glyph: 0
G1 E-0.5 F3000 ; Retract
G1 Z0.5 F12000 ; Z hop
G0 X153.0178 Y180.8932 F12000 ; Move
G1 Z0.4 F12000 ; Z hop return
G1 E0.5 F1800 ; Un-retract
G1 X153.0178 Y178.8932 E0.0765 F4200 ; Glyph: 5
G1 X155.0178 Y178.8932 E0.0765 F4200 ; Glyph: 5
G1 X155.0178 Y180.8932 E0.0765 F4200 ; Glyph: 5
G1 X157.0178 Y180.8932 E0.0765 F4200 ; Glyph: 5
G1 X157.0178 Y178.8932 E0.0765 F4200 ; Glyph: 5
G1 E-0.5 F3000 ; Retract
G1 Z0.5 F12000 ; Z hop
G0 X162.2972 Y171.8932 F12000 ; Move
G1 Z0.4 F12000 ; Z hop return
G1 E0.5 F1800 ; Un-retract
G1 X164.2972 Y171.8932 E0.0765 F4200 ; Glyph: 0
G1 X166.2972 Y171.8932 E0.0765 F4200 ; Glyph: 0
G1 X166.2972 Y173.8932 E0.0765 F4200 ; Glyph: 0
G1 X164.2972 Y173.8932 E0.0765 F4200 ; Glyph: 0
G1 X162.2972 Y173.8932 E0.0765 F4200 ; Glyph: 0
G1 X162.2972 Y171.8932 E0.0765 F4200 ; Glyph: 0
G1 E-0.5 F3000 ; Retract
G1 Z0.5 F12000 ; Z hop
G0 X166.2972 Y174.8932 F12000 ; Move
G1 Z0.4 F12000 ; Z hop return
G1 E0.5 F1800 ; Un-retract
G1 X165.5472 Y174.8932 E0.02869 F4200 ; Glyph: .
G1 E-0.5 F3000 ; Retract
G1 Z0.5 F12000 ; Z hop
G0 X162.2972 Y175.8932 F12000 ; Move
G1 Z0.4 F12000 ; Z hop return
G1 E0.5 F1800 ; Un-retract
G1 X164.2972 Y175.8932 E0.0765 F4200 ; Glyph: 0
G1 X166.2972 Y175.8932 E0.0765 F4200 ; Glyph: 0
G1 X166.2972 Y177.8932 E0.0765 F4200 ; Glyph: 0
G1 X164.2972 Y177.8932 E0.0765 F4200 ; Glyph: 0
G1 X162.2972 Y177.8932 E0.0765 F4200 ; Glyph: 0
G1 X162.2972 Y175.8932 E0.0765 F4200 ; Glyph: 0
G1 E-0.5 F3000 ; Retract
G1 Z0.5 F12000 ; Z hop
G0 X162.2972 Y180.8932 F12000 ; Move
G1 Z0.4 F12000 ; Z hop return
G1 E0.5 F1800 ; Un-retract
G1 X162.2972 Y178.8932 E0.0765 F4200 ; Glyph: 6
G1 X164.2972 Y178.8932 E0.0765 F4200 ; Glyph: 6
G1 X166.2972 Y178.8932 E0.0765 F4200 ; Glyph: 6
G1 X166.2972 Y180.8932 E0.0765 F4200 ; Glyph: 6
G1 X164.2972 Y180.8932 E0.0765 F4200 ; Glyph: 6
G1 X164.2972 Y178.8932 E0.0765 F4200 ; Glyph: 6
G1 E-0.5 F3000 ; Retract
G1 Z0.5 F12000 ; Z hop
G0 X171.5765 Y171.8932 F12000 ; Move
G1 Z0.4 F12000 ; Z hop return
G1 E0.5 F1800 ; Un-retract
G1 X173.5765 Y171.8932 E0.0765 F4200 ; Glyph: 0
G1 X175.5765 Y171.8932 E0.0765 F4200 ; Glyph: 0
G1 X175.5765 Y173.8932 E0.0765 F4200 ; Glyph: 0
G1 X173.5765 Y173.8932 E0.0765 F4200 ; Glyph: 0
G1 X171.5765 Y173.8932 E0.0765 F4200 ; Glyph: 0
G1 X171.5765 Y171.8932 E0.0765 F4200 ; Glyph: 0
G1 E-0.5 F3000 ; Retract
G1 Z0.5 F12000 ; Z hop
G0 X175.5765 Y174.8932 F12000 ; Move
G1 Z0.4 F12000 ; Z hop return
G1 E0.5 F1800 ; Un-retract
G1 X174.8265 Y174.8932 E0.02869 F4200 ; Glyph: .
G1 E-0.5 F3000 ; Retract
G1 Z0.5 F12000 ; Z hop
G0 X171.5765 Y175.8932 F12000 ; Move
G1 Z0.4 F12000 ; Z hop return
G1 E0.5 F1800 ; Un-retract
G1 X173.5765 Y175.8932 E0.0765 F4200 ; Glyph: 0
G1 X175.5765 Y175.8932 E0.0765 F4200 ; Glyph: 0
G1 X175.5765 Y177.8932 E0.0765 F4200 ; Glyph: 0
G1 X173.5765 Y177.8932 E0.0765 F4200 ; Glyph: 0
G1 X171.5765 Y177.8932 E0.0765 F4200 ; Glyph: 0
G1 X171.5765 Y175.8932 E0.0765 F4200 ; Glyph: 0
G1 E-0.5 F3000 ; Retract
G1 Z0.5 F12000 ; Z hop
G0 X171.5765 Y178.8932 F12000 ; Move
G1 Z0.4 F12000 ; Z hop return
G1 E0.5 F1800 ; Un-retract
G1 X171.5765 Y180.8932 E0.0765 F4200 ; Glyph: 7
G1 X173.5765 Y180.8932 E0.0765 F4200 ; Glyph: 7
G1 X175.5765 Y180.8932 E0.0765 F4200 ; Glyph: 7
G1 E-0.5 F3000 ; Retract
G1 Z0.5 F12000 ; Z hop
G0 X180.8559 Y171.8932 F12000 ; Move
G1 Z0.4 F12000 ; Z hop return
G1 E0.5 F1800 ; Un-retract
G1 X182.8559 Y171.8932 E0.0765 F4200 ; Glyph: 0
G1 X184.8559 Y171.8932 E0.0765 F4200 ; Glyph: 0
G1 X184.8559 Y173.8932 E0.0765 F4200 ; Glyph: 0
G1 X182.8559 Y173.8932 E0.0765 F4200 ; Glyph: 0
G1 X180.8559 Y173.8932 E0.0765 F4200 ; Glyph: 0
G1 X180.8559 Y171.8932 E0.0765 F4200 ; Glyph: 0
G1 E-0.5 F3000 ; Retract
G1 Z0.5 F12000 ; Z hop
G0 X184.8559 Y174.8932 F12000 ; Move
G1 Z0.4 F12000 ; Z hop return
G1 E0.5 F1800 ; Un-retract
G1 X184.1059 Y174.8932 E0.02869 F4200 ; Glyph: .
G1 E-0.5 F3000 ; Retract
G1 Z0.5 F12000 ; Z hop
G0 X180.8559 Y175.8932 F12000 ; Move
G1 Z0.4 F12000 ; Z hop return
G1 E0.5 F1800 ; Un-retract
G1 X182.8559 Y175.8932 E0.0765 F4200 ; Glyph: 0
G1 X184.8559 Y175.8932 E0.0765 F4200 ; Glyph: 0
G1 X184.8559 Y177.8932 E0.0765 F4200 ; Glyph: 0
G1 X182.8559 Y177.8932 E0.0765 F4200 ; Glyph: 0
G1 X180.8559 Y177.8932 E0.0765 F4200 ; Glyph: 0
G1 X180.8559 Y175.8932 E0.0765 F4200 ; Glyph: 0
G1 E-0.5 F3000 ; Retract
G1 Z0.5 F12000 ; Z hop
G0 X180.8559 Y178.8932 F12000 ; Move
G1 Z0.4 F12000 ; Z hop return
G1 E0.5 F1800 ; Un-retract
G1 X182.8559 Y178.8932 E0.0765 F4200 ; Glyph: 8
G1 X184.8559 Y178.8932 E0.0765 F4200 ; Glyph: 8
G1 X184.8559 Y180.8932 E0.0765 F4200 ; Glyph: 8
G1 X182.8559 Y180.8932 E0.0765 F4200 ; Glyph: 8
G1 X180.8559 Y180.8932 E0.0765 F4200 ; Glyph: 8
G1 X180.8559 Y178.8932 E0.0765 F4200 ; Glyph: 8
G0 X182.8559 Y178.8932 F12000 ; Move
G1 X182.8559 Y180.8932 E0.0765 F4200 ; Glyph: 8
G1 E-0.5 F3000 ; Retract
G1 Z0.5 F12000 ; Z hop
G0 X108.0312 Y128.0068 F12000 ; Move to pattern start

G1 Z0.4 F12000 ; Z hop return
G1 E0.5 F1800 ; Un-retract
SET_PRESSURE_ADVANCE ADVANCE=0 ; Set pressure advance
M117 PA 0
G1 X129.2444 Y149.22 E1.14747 F4200 ; Print pattern perimeter
G1 X108.0312 Y170.4332 E1.14747 F4200 ; Print pattern perimeter
G1 E-0.5 F3000 ; Retract
G1 Z0.5 F12000 ; Z hop
G0 X108.621 Y128.0068 F12000 ; Move to start next pattern perimeter
G1 Z0.4 F12000 ; Z hop return
G1 E0.5 F1800 ; Un-retract
G1 X129.8342 Y149.22 E1.14747 F4200 ; Print pattern perimeter
G1 X108.621 Y170.4332 E1.14747 F4200 ; Print pattern perimeter
G1 E-0.5 F3000 ; Retract
G1 Z0.5 F12000 ; Z hop
G0 X109.2109 Y128.0068 F12000 ; Move to start next pattern perimeter
G1 Z0.4 F12000 ; Z hop return
G1 E0.5 F1800 ; Un-retract
G1 X130.4241 Y149.22 E1.14747 F4200 ; Print pattern perimeter
G1 X109.2109 Y170.4332 E1.14747 F4200 ; Print pattern perimeter
G1 E-0.5 F3000 ; Retract
G1 Z0.5 F12000 ; Z hop
G0 X112.6709 Y128.0068 F12000 ; Move to next pattern
G1 Z0.4 F12000 ; Z hop return
G1 E0.5 F1800 ; Un-retract
SET_PRESSURE_ADVANCE ADVANCE=0.005 ; Set pressure advance
M117 PA 0.005
G1 X133.8841 Y149.22 E1.14747 F4200 ; Print pattern perimeter
G1 X112.6709 Y170.4332 E1.14747 F4200 ; Print pattern perimeter
G1 E-0.5 F3000 ; Retract
G1 Z0.5 F12000 ; Z hop
G0 X113.2607 Y128.0068 F12000 ; Move to start next pattern perimeter
G1 Z0.4 F12000 ; Z hop return
G1 E0.5 F1800 ; Un-retract
G1 X134.4739 Y149.22 E1.14747 F4200 ; Print pattern perimeter
G1 X113.2607 Y170.4332 E1.14747 F4200 ; Print pattern perimeter
G1 E-0.5 F3000 ; Retract
G1 Z0.5 F12000 ; Z hop
G0 X113.8505 Y128.0068 F12000 ; Move to start next pattern perimeter
G1 Z0.4 F12000 ; Z hop return
G1 E0.5 F1800 ; Un-retract
G1 X135.0637 Y149.22 E1.14747 F4200 ; Print pattern perimeter
G1 X113.8505 Y170.4332 E1.14747 F4200 ; Print pattern perimeter
G1 E-0.5 F3000 ; Retract
G1 Z0.5 F12000 ; Z hop
G0 X117.3105 Y128.0068 F12000 ; Move to next pattern
G1 Z0.4 F12000 ; Z hop return
G1 E0.5 F1800 ; Un-retract
SET_PRESSURE_ADVANCE ADVANCE=0.01 ; Set pressure advance
M117 PA 0.01
G1 X138.5237 Y149.22 E1.14747 F4200 ; Print pattern perimeter
G1 X117.3105 Y170.4332 E1.14747 F4200 ; Print pattern perimeter
G1 E-0.5 F3000 ; Retract
G1 Z0.5 F12000 ; Z hop
G0 X117.9004 Y128.0068 F12000 ; Move to start next pattern perimeter
G1 Z0.4 F12000 ; Z hop return
G1 E0.5 F1800 ; Un-retract
G1 X139.1136 Y149.22 E1.14747 F4200 ; Print pattern perimeter
G1 X117.9004 Y170.4332 E1.14747 F4200 ; Print pattern perimeter
G1 E-0.5 F3000 ; Retract
G1 Z0.5 F12000 ; Z hop
G0 X118.4902 Y128.0068 F12000 ; Move to start next pattern perimeter
G1 Z0.4 F12000 ; Z hop return
G1 E0.5 F1800 ; Un-retract
G1 X139.7034 Y149.22 E1.14747 F4200 ; Print pattern perimeter
G1 X118.4902 Y170.4332 E1.14747 F4200 ; Print pattern perimeter
G1 E-0.5 F3000 ; Retract
G1 Z0.5 F12000 ; Z hop
G0 X121.9502 Y128.0068 F12000 ; Move to next pattern
G1 Z0.4 F12000 ; Z hop return
G1 E0.5 F1800 ; Un-retract
SET_PRESSURE_ADVANCE ADVANCE=0.015 ; Set pressure advance
M117 PA 0.015
G1 X143.1634 Y149.22 E1.14747 F4200 ; Print pattern perimeter
G1 X121.9502 Y170.4332 E1.14747 F4200 ; Print pattern perimeter
G1 E-0.5 F3000 ; Retract
G1 Z0.5 F12000 ; Z hop
G0 X122.5401 Y128.0068 F12000 ; Move to start next pattern perimeter
G1 Z0.4 F12000 ; Z hop return
G1 E0.5 F1800 ; Un-retract
G1 X143.7533 Y149.22 E1.14747 F4200 ; Print pattern perimeter
G1 X122.5401 Y170.4332 E1.14747 F4200 ; Print pattern perimeter
G1 E-0.5 F3000 ; Retract
G1 Z0.5 F12000 ; Z hop
G0 X123.1299 Y128.0068 F12000 ; Move to start next pattern perimeter
G1 Z0.4 F12000 ; Z hop return
G1 E0.5 F1800 ; Un-retract
G1 X144.3431 Y149.22 E1.14747 F4200 ; Print pattern perimeter
G1 X123.1299 Y170.4332 E1.14747 F4200 ; Print pattern perimeter
G1 E-0.5 F3000 ; Retract
G1 Z0.5 F12000 ; Z hop
G0 X126.5899 Y128.0068 F12000 ; Move to next pattern
G1 Z0.4 F12000 ; Z hop return
G1 E0.5 F1800 ; Un-retract
SET_PRESSURE_ADVANCE ADVANCE=0.02 ; Set pressure advance
M117 PA 0.02
G1 X147.8031 Y149.22 E1.14747 F4200 ; Print pattern perimeter
G1 X126.5899 Y170.4332 E1.14747 F4200 ; Print pattern perimeter
G1 E-0.5 F3000 ; Retract
G1 Z0.5 F12000 ; Z hop
G0 X127.1797 Y128.0068 F12000 ; Move to start next pattern perimeter
G1 Z0.4 F12000 ; Z hop return
G1 E0.5 F1800 ; Un-retract
G1 X148.3929 Y149.22 E1.14747 F4200 ; Print pattern perimeter
G1 X127.1797 Y170.4332 E1.14747 F4200 ; Print pattern perimeter
G1 E-0.5 F3000 ; Retract
G1 Z0.5 F12000 ; Z hop
G0 X127.7696 Y128.0068 F12000 ; Move to start next pattern perimeter
G1 Z0.4 F12000 ; Z hop return
G1 E0.5 F1800 ; Un-retract
G1 X148.9828 Y149.22 E1.14747 F4200 ; Print pattern perimeter
G1 X127.7696 Y170.4332 E1.14747 F4200 ; Print pattern perimeter
G1 E-0.5 F3000 ; Retract
G1 Z0.5 F12000 ; Z hop
G0 X131.2296 Y128.0068 F12000 ; Move to next pattern
G1 Z0.4 F12000 ; Z hop return
G1 E0.5 F1800 ; Un-retract
SET_PRESSURE_ADVANCE ADVANCE=0.025 ; Set pressure advance
M117 PA 0.025
G1 X152.4428 Y149.22 E1.14747 F4200 ; Print pattern perimeter
G1 X131.2296 Y170.4332 E1.14747 F4200 ; Print pattern perimeter
G1 E-0.5 F3000 ; Retract
G1 Z0.5 F12000 ; Z hop
G0 X131.8194 Y128.0068 F12000 ; Move to start next pattern perimeter
G1 Z0.4 F12000 ; Z hop return
G1 E0.5 F1800 ; Un-retract
G1 X153.0326 Y149.22 E1.14747 F4200 ; Print pattern perimeter
G1 X131.8194 Y170.4332 E1.14747 F4200 ; Print pattern perimeter
G1 E-0.5 F3000 ; Retract
G1 Z0.5 F12000 ; Z hop
G0 X132.4093 Y128.0068 F12000 ; Move to start next pattern perimeter
G1 Z0.4 F12000 ; Z hop return
G1 E0.5 F1800 ; Un-retract
G1 X153.6225 Y149.22 E1.14747 F4200 ; Print pattern perimeter
G1 X132.4093 Y170.4332 E1.14747 F4200 ; Print pattern perimeter
G1 E-0.5 F3000 ; Retract
G1 Z0.5 F12000 ; Z hop
G0 X135.8693 Y128.0068 F12000 ; Move to next pattern
G1 Z0.4 F12000 ; Z hop return
G1 E0.5 F1800 ; Un-retract
SET_PRESSURE_ADVANCE ADVANCE=0.03 ; Set pressure advance
M117 PA 0.03
G1 X157.0825 Y149.22 E1.14747 F4200 ; Print pattern perimeter
G1 X135.8693 Y170.4332 E1.14747 F4200 ; Print pattern perimeter
G1 E-0.5 F3000 ; Retract
G1 Z0.5 F12000 ; Z hop
G0 X136.4591 Y128.0068 F12000 ; Move to start next pattern perimeter
G1 Z0.4 F12000 ; Z hop return
G1 E0.5 F1800 ; Un-retract
G1 X157.6723 Y149.22 E1.14747 F4200 ; Print pattern perimeter
G1 X136.4591 Y170.4332 E1.14747 F4200 ; Print pattern perimeter
G1 E-0.5 F3000 ; Retract
G1 Z0.5 F12000 ; Z hop
G0 X137.0489 Y128.0068 F12000 ; Move to start next pattern perimeter
G1 Z0.4 F12000 ; Z hop return
G1 E0.5 F1800 ; Un-retract
G1 X158.2621 Y149.22 E1.14747 F4200 ; Print pattern perimeter
G1 X137.0489 Y170.4332 E1.14747 F4200 ; Print pattern perimeter
G1 E-0.5 F3000 ; Retract
G1 Z0.5 F12000 ; Z hop
G0 X140.5089 Y128.0068 F12000 ; Move to next pattern
G1 Z0.4 F12000 ; Z hop return
G1 E0.5 F1800 ; Un-retract
SET_PRESSURE_ADVANCE ADVANCE=0.035 ; Set pressure advance
M117 PA 0.035
G1 X161.7221 Y149.22 E1.14747 F4200 ; Print pattern perimeter
G1 X140.5089 Y170.4332 E1.14747 F4200 ; Print pattern perimeter
G1 E-0.5 F3000 ; Retract
G1 Z0.5 F12000 ; Z hop
G0 X141.0988 Y128.0068 F12000 ; Move to start next pattern perimeter
G1 Z0.4 F12000 ; Z hop return
G1 E0.5 F1800 ; Un-retract
G1 X162.312 Y149.22 E1.14747 F4200 ; Print pattern perimeter
G1 X141.0988 Y170.4332 E1.14747 F4200 ; Print pattern perimeter
G1 E-0.5 F3000 ; Retract
G1 Z0.5 F12000 ; Z hop
G0 X141.6886 Y128.0068 F12000 ; Move to start next pattern perimeter
G1 Z0.4 F12000 ; Z hop return
G1 E0.5 F1800 ; Un-retract
G1 X162.9018 Y149.22 E1.14747 F4200 ; Print pattern perimeter
G1 X141.6886 Y170.4332 E1.14747 F4200 ; Print pattern perimeter
G1 E-0.5 F3000 ; Retract
G1 Z0.5 F12000 ; Z hop
G0 X145.1486 Y128.0068 F12000 ; Move to next pattern
G1 Z0.4 F12000 ; Z hop return
G1 E0.5 F1800 ; Un-retract
SET_PRESSURE_ADVANCE ADVANCE=0.04 ; Set pressure advance
M117 PA 0.04
G1 X166.3618 Y149.22 E1.14747 F4200 ; Print pattern perimeter
G1 X145.1486 Y170.4332 E1.14747 F4200 ; Print pattern perimeter
G1 E-0.5 F3000 ; Retract
G1 Z0.5 F12000 ; Z hop
G0 X145.7385 Y128.0068 F12000 ; Move to start next pattern perimeter
G1 Z0.4 F12000 ; Z hop return
G1 E0.5 F1800 ; Un-retract
G1 X166.9517 Y149.22 E1.14747 F4200 ; Print pattern perimeter
G1 X145.7385 Y170.4332 E1.14747 F4200 ; Print pattern perimeter
G1 E-0.5 F3000 ; Retract
G1 Z0.5 F12000 ; Z hop
G0 X146.3283 Y128.0068 F12000 ; Move to start next pattern perimeter
G1 Z0.4 F12000 ; Z hop return
G1 E0.5 F1800 ; Un-retract
G1 X167.5415 Y149.22 E1.14747 F4200 ; Print pattern perimeter
G1 X146.3283 Y170.4332 E1.14747 F4200 ; Print pattern perimeter
G1 E-0.5 F3000 ; Retract
G1 Z0.5 F12000 ; Z hop
G0 X149.7883 Y128.0068 F12000 ; Move to next pattern
G1 Z0.4 F12000 ; Z hop return
G1 E0.5 F1800 ; Un-retract
SET_PRESSURE_ADVANCE ADVANCE=0.045 ; Set pressure advance
M117 PA 0.045
G1 X171.0015 Y149.22 E1.14747 F4200 ; Print pattern perimeter
G1 X149.7883 Y170.4332 E1.14747 F4200 ; Print pattern perimeter
G1 E-0.5 F3000 ; Retract
G1 Z0.5 F12000 ; Z hop
G0 X150.3781 Y128.0068 F12000 ; Move to start next pattern perimeter
G1 Z0.4 F12000 ; Z hop return
G1 E0.5 F1800 ; Un-retract
G1 X171.5913 Y149.22 E1.14747 F4200 ; Print pattern perimeter
G1 X150.3781 Y170.4332 E1.14747 F4200 ; Print pattern perimeter
G1 E-0.5 F3000 ; Retract
G1 Z0.5 F12000 ; Z hop
G0 X150.968 Y128.0068 F12000 ; Move to start next pattern perimeter
G1 Z0.4 F12000 ; Z hop return
G1 E0.5 F1800 ; Un-retract
G1 X172.1812 Y149.22 E1.14747 F4200 ; Print pattern perimeter
G1 X150.968 Y170.4332 E1.14747 F4200 ; Print pattern perimeter
G1 E-0.5 F3000 ; Retract
G1 Z0.5 F12000 ; Z hop
G0 X154.428 Y128.0068 F12000 ; Move to next pattern
G1 Z0.4 F12000 ; Z hop return
G1 E0.5 F1800 ; Un-retract
SET_PRESSURE_ADVANCE ADVANCE=0.05 ; Set pressure advance
M117 PA 0.05
G1 X175.6412 Y149.22 E1.14747 F4200 ; Print pattern perimeter
G1 X154.428 Y170.4332 E1.14747 F4200 ; Print pattern perimeter
G1 E-0.5 F3000 ; Retract
G1 Z0.5 F12000 ; Z hop
G0 X155.0178 Y128.0068 F12000 ; Move to start next pattern perimeter
G1 Z0.4 F12000 ; Z hop return
G1 E0.5 F1800 ; Un-retract
G1 X176.231 Y149.22 E1.14747 F4200 ; Print pattern perimeter
G1 X155.0178 Y170.4332 E1.14747 F4200 ; Print pattern perimeter
G1 E-0.5 F3000 ; Retract
G1 Z0.5 F12000 ; Z hop
G0 X155.6077 Y128.0068 F12000 ; Move to start next pattern perimeter
G1 Z0.4 F12000 ; Z hop return
G1 E0.5 F1800 ; Un-retract
G1 X176.8209 Y149.22 E1.14747 F4200 ; Print pattern perimeter
G1 X155.6077 Y170.4332 E1.14747 F4200 ; Print pattern perimeter
G1 E-0.5 F3000 ; Retract
G1 Z0.5 F12000 ; Z hop
G0 X159.0677 Y128.0068 F12000 ; Move to next pattern
G1 Z0.4 F12000 ; Z hop return
G1 E0.5 F1800 ; Un-retract
SET_PRESSURE_ADVANCE ADVANCE=0.055 ; Set pressure advance
M117 PA 0.055
G1 X180.2809 Y149.22 E1.14747 F4200 ; Print pattern perimeter
G1 X159.0677 Y170.4332 E1.14747 F4200 ; Print pattern perimeter
G1 E-0.5 F3000 ; Retract
G1 Z0.5 F12000 ; Z hop
G0 X159.6575 Y128.0068 F12000 ; Move to start next pattern perimeter
G1 Z0.4 F12000 ; Z hop return
G1 E0.5 F1800 ; Un-retract
G1 X180.8707 Y149.22 E1.14747 F4200 ; Print pattern perimeter
G1 X159.6575 Y170.4332 E1.14747 F4200 ; Print pattern perimeter
G1 E-0.5 F3000 ; Retract
G1 Z0.5 F12000 ; Z hop
G0 X160.2473 Y128.0068 F12000 ; Move to start next pattern perimeter
G1 Z0.4 F12000 ; Z hop return
G1 E0.5 F1800 ; Un-retract
G1 X181.4605 Y149.22 E1.14747 F4200 ; Print pattern perimeter
G1 X160.2473 Y170.4332 E1.14747 F4200 ; Print pattern perimeter
G1 E-0.5 F3000 ; Retract
G1 Z0.5 F12000 ; Z hop
G0 X163.7073 Y128.0068 F12000 ; Move to next pattern
G1 Z0.4 F12000 ; Z hop return
G1 E0.5 F1800 ; Un-retract
SET_PRESSURE_ADVANCE ADVANCE=0.06 ; Set pressure advance
M117 PA 0.06
G1 X184.9205 Y149.22 E1.14747 F4200 ; Print pattern perimeter
G1 X163.7073 Y170.4332 E1.14747 F4200 ; Print pattern perimeter
G1 E-0.5 F3000 ; Retract
G1 Z0.5 F12000 ; Z hop
G0 X164.2972 Y128.0068 F12000 ; Move to start next pattern perimeter
G1 Z0.4 F12000 ; Z hop return
G1 E0.5 F1800 ; Un-retract
G1 X185.5104 Y149.22 E1.14747 F4200 ; Print pattern perimeter
G1 X164.2972 Y170.4332 E1.14747 F4200 ; Print pattern perimeter
G1 E-0.5 F3000 ; Retract
G1 Z0.5 F12000 ; Z hop
G0 X164.887 Y128.0068 F12000 ; Move to start next pattern perimeter
G1 Z0.4 F12000 ; Z hop return
G1 E0.5 F1800 ; Un-retract
G1 X186.1002 Y149.22 E1.14747 F4200 ; Print pattern perimeter
G1 X164.887 Y170.4332 E1.14747 F4200 ; Print pattern perimeter
G1 E-0.5 F3000 ; Retract
G1 Z0.5 F12000 ; Z hop
G0 X168.347 Y128.0068 F12000 ; Move to next pattern
G1 Z0.4 F12000 ; Z hop return
G1 E0.5 F1800 ; Un-retract
SET_PRESSURE_ADVANCE ADVANCE=0.065 ; Set pressure advance
M117 PA 0.065
G1 X189.5602 Y149.22 E1.14747 F4200 ; Print pattern perimeter
G1 X168.347 Y170.4332 E1.14747 F4200 ; Print pattern perimeter
G1 E-0.5 F3000 ; Retract
G1 Z0.5 F12000 ; Z hop
G0 X168.9369 Y128.0068 F12000 ; Move to start next pattern perimeter
G1 Z0.4 F12000 ; Z hop return
G1 E0.5 F1800 ; Un-retract
G1 X190.1501 Y149.22 E1.14747 F4200 ; Print pattern perimeter
G1 X168.9369 Y170.4332 E1.14747 F4200 ; Print pattern perimeter
G1 E-0.5 F3000 ; Retract
G1 Z0.5 F12000 ; Z hop
G0 X169.5267 Y128.0068 F12000 ; Move to start next pattern perimeter
G1 Z0.4 F12000 ; Z hop return
G1 E0.5 F1800 ; Un-retract
G1 X190.7399 Y149.22 E1.14747 F4200 ; Print pattern perimeter
G1 X169.5267 Y170.4332 E1.14747 F4200 ; Print pattern perimeter
G1 E-0.5 F3000 ; Retract
G1 Z0.5 F12000 ; Z hop
G0 X172.9867 Y128.0068 F12000 ; Move to next pattern
G1 Z0.4 F12000 ; Z hop return
G1 E0.5 F1800 ; Un-retract
SET_PRESSURE_ADVANCE ADVANCE=0.07 ; Set pressure advance
M117 PA 0.07
G1 X194.1999 Y149.22 E1.14747 F4200 ; Print pattern perimeter
G1 X172.9867 Y170.4332 E1.14747 F4200 ; Print pattern perimeter
G1 E-0.5 F3000 ; Retract
G1 Z0.5 F12000 ; Z hop
G0 X173.5765 Y128.0068 F12000 ; Move to start next pattern perimeter
G1 Z0.4 F12000 ; Z hop return
G1 E0.5 F1800 ; Un-retract
G1 X194.7897 Y149.22 E1.14747 F4200 ; Print pattern perimeter
G1 X173.5765 Y170.4332 E1.14747 F4200 ; Print pattern perimeter
G1 E-0.5 F3000 ; Retract
G1 Z0.5 F12000 ; Z hop
G0 X174.1664 Y128.0068 F12000 ; Move to start next pattern perimeter
G1 Z0.4 F12000 ; Z hop return
G1 E0.5 F1800 ; Un-retract
G1 X195.3796 Y149.22 E1.14747 F4200 ; Print pattern perimeter
G1 X174.1664 Y170.4332 E1.14747 F4200 ; Print pattern perimeter
G1 E-0.5 F3000 ; Retract
G1 Z0.5 F12000 ; Z hop
G0 X177.6264 Y128.0068 F12000 ; Move to next pattern
G1 Z0.4 F12000 ; Z hop return
G1 E0.5 F1800 ; Un-retract
SET_PRESSURE_ADVANCE ADVANCE=0.075 ; Set pressure advance
M117 PA 0.075
G1 X198.8396 Y149.22 E1.14747 F4200 ; Print pattern perimeter
G1 X177.6264 Y170.4332 E1.14747 F4200 ; Print pattern perimeter
G1 E-0.5 F3000 ; Retract
G1 Z0.5 F12000 ; Z hop
G0 X178.2162 Y128.0068 F12000 ; Move to start next pattern perimeter
G1 Z0.4 F12000 ; Z hop return
G1 E0.5 F1800 ; Un-retract
G1 X199.4294 Y149.22 E1.14747 F4200 ; Print pattern perimeter
G1 X178.2162 Y170.4332 E1.14747 F4200 ; Print pattern perimeter
G1 E-0.5 F3000 ; Retract
G1 Z0.5 F12000 ; Z hop
G0 X178.806 Y128.0068 F12000 ; Move to start next pattern perimeter
G1 Z0.4 F12000 ; Z hop return
G1 E0.5 F1800 ; Un-retract
G1 X200.0193 Y149.22 E1.14747 F4200 ; Print pattern perimeter
G1 X178.806 Y170.4332 E1.14747 F4200 ; Print pattern perimeter
G1 E-0.5 F3000 ; Retract
G1 Z0.5 F12000 ; Z hop
G0 X182.266 Y128.0068 F12000 ; Move to next pattern
G1 Z0.4 F12000 ; Z hop return
G1 E0.5 F1800 ; Un-retract
SET_PRESSURE_ADVANCE ADVANCE=0.08 ; Set pressure advance
M117 PA 0.08
G1 X203.4793 Y149.22 E1.14747 F4200 ; Print pattern perimeter
G1 X182.266 Y170.4332 E1.14747 F4200 ; Print pattern perimeter
G1 E-0.5 F3000 ; Retract
G1 Z0.5 F12000 ; Z hop
G0 X182.8559 Y128.0068 F12000 ; Move to start next pattern perimeter
G1 Z0.4 F12000 ; Z hop return
G1 E0.5 F1800 ; Un-retract
G1 X204.0691 Y149.22 E1.14747 F4200 ; Print pattern perimeter
G1 X182.8559 Y170.4332 E1.14747 F4200 ; Print pattern perimeter
G1 E-0.5 F3000 ; Retract
G1 Z0.5 F12000 ; Z hop
G0 X183.4457 Y128.0068 F12000 ; Move to start next pattern perimeter
G1 Z0.4 F12000 ; Z hop return
G1 E0.5 F1800 ; Un-retract
G1 X204.6589 Y149.22 E1.14747 F4200 ; Print pattern perimeter
G1 X183.4457 Y170.4332 E1.14747 F4200 ; Print pattern perimeter
G1 E-0.5 F3000 ; Retract
G1 Z0.5 F12000 ; Z hop
G0 X108.0312 Y128.0068 F12000 ; Move back to start position
G1 Z0.4 F12000 ; Z hop return
G1 E0.5 F1800 ; Un-retract
G0 Z0.6 F12000 ; Move to layer height
SET_PRESSURE_ADVANCE ADVANCE=0 ; Set pressure advance
M117 PA 0
G1 X129.2444 Y149.22 E1.14747 F4200 ; Print pattern perimeter
G1 X108.0312 Y170.4332 E1.14747 F4200 ; Print pattern perimeter
G1 E-0.5 F3000 ; Retract
G1 Z0.7 F12000 ; Z hop
G0 X108.621 Y128.0068 F12000 ; Move to start next pattern perimeter
G1 Z0.6 F12000 ; Z hop return
G1 E0.5 F1800 ; Un-retract
G1 X129.8342 Y149.22 E1.14747 F4200 ; Print pattern perimeter
G1 X108.621 Y170.4332 E1.14747 F4200 ; Print pattern perimeter
G1 E-0.5 F3000 ; Retract
G1 Z0.7 F12000 ; Z hop
G0 X109.2109 Y128.0068 F12000 ; Move to start next pattern perimeter
G1 Z0.6 F12000 ; Z hop return
G1 E0.5 F1800 ; Un-retract
G1 X130.4241 Y149.22 E1.14747 F4200 ; Print pattern perimeter
G1 X109.2109 Y170.4332 E1.14747 F4200 ; Print pattern perimeter
G1 E-0.5 F3000 ; Retract
G1 Z0.7 F12000 ; Z hop
G0 X112.6709 Y128.0068 F12000 ; Move to next pattern
G1 Z0.6 F12000 ; Z hop return
G1 E0.5 F1800 ; Un-retract
SET_PRESSURE_ADVANCE ADVANCE=0.005 ; Set pressure advance
M117 PA 0.005
G1 X133.8841 Y149.22 E1.14747 F4200 ; Print pattern perimeter
G1 X112.6709 Y170.4332 E1.14747 F4200 ; Print pattern perimeter
G1 E-0.5 F3000 ; Retract
G1 Z0.7 F12000 ; Z hop
G0 X113.2607 Y128.0068 F12000 ; Move to start next pattern perimeter
G1 Z0.6 F12000 ; Z hop return
G1 E0.5 F1800 ; Un-retract
G1 X134.4739 Y149.22 E1.14747 F4200 ; Print pattern perimeter
G1 X113.2607 Y170.4332 E1.14747 F4200 ; Print pattern perimeter
G1 E-0.5 F3000 ; Retract
G1 Z0.7 F12000 ; Z hop
G0 X113.8505 Y128.0068 F12000 ; Move to start next pattern perimeter
G1 Z0.6 F12000 ; Z hop return
G1 E0.5 F1800 ; Un-retract
G1 X135.0637 Y149.22 E1.14747 F4200 ; Print pattern perimeter
G1 X113.8505 Y170.4332 E1.14747 F4200 ; Print pattern perimeter
G1 E-0.5 F3000 ; Retract
G1 Z0.7 F12000 ; Z hop
G0 X117.3105 Y128.0068 F12000 ; Move to next pattern
G1 Z0.6 F12000 ; Z hop return
G1 E0.5 F1800 ; Un-retract
SET_PRESSURE_ADVANCE ADVANCE=0.01 ; Set pressure advance
M117 PA 0.01
G1 X138.5237 Y149.22 E1.14747 F4200 ; Print pattern perimeter
G1 X117.3105 Y170.4332 E1.14747 F4200 ; Print pattern perimeter
G1 E-0.5 F3000 ; Retract
G1 Z0.7 F12000 ; Z hop
G0 X117.9004 Y128.0068 F12000 ; Move to start next pattern perimeter
G1 Z0.6 F12000 ; Z hop return
G1 E0.5 F1800 ; Un-retract
G1 X139.1136 Y149.22 E1.14747 F4200 ; Print pattern perimeter
G1 X117.9004 Y170.4332 E1.14747 F4200 ; Print pattern perimeter
G1 E-0.5 F3000 ; Retract
G1 Z0.7 F12000 ; Z hop
G0 X118.4902 Y128.0068 F12000 ; Move to start next pattern perimeter
G1 Z0.6 F12000 ; Z hop return
G1 E0.5 F1800 ; Un-retract
G1 X139.7034 Y149.22 E1.14747 F4200 ; Print pattern perimeter
G1 X118.4902 Y170.4332 E1.14747 F4200 ; Print pattern perimeter
G1 E-0.5 F3000 ; Retract
G1 Z0.7 F12000 ; Z hop
G0 X121.9502 Y128.0068 F12000 ; Move to next pattern
G1 Z0.6 F12000 ; Z hop return
G1 E0.5 F1800 ; Un-retract
SET_PRESSURE_ADVANCE ADVANCE=0.015 ; Set pressure advance
M117 PA 0.015
G1 X143.1634 Y149.22 E1.14747 F4200 ; Print pattern perimeter
G1 X121.9502 Y170.4332 E1.14747 F4200 ; Print pattern perimeter
G1 E-0.5 F3000 ; Retract
G1 Z0.7 F12000 ; Z hop
G0 X122.5401 Y128.0068 F12000 ; Move to start next pattern perimeter
G1 Z0.6 F12000 ; Z hop return
G1 E0.5 F1800 ; Un-retract
G1 X143.7533 Y149.22 E1.14747 F4200 ; Print pattern perimeter
G1 X122.5401 Y170.4332 E1.14747 F4200 ; Print pattern perimeter
G1 E-0.5 F3000 ; Retract
G1 Z0.7 F12000 ; Z hop
G0 X123.1299 Y128.0068 F12000 ; Move to start next pattern perimeter
G1 Z0.6 F12000 ; Z hop return
G1 E0.5 F1800 ; Un-retract
G1 X144.3431 Y149.22 E1.14747 F4200 ; Print pattern perimeter
G1 X123.1299 Y170.4332 E1.14747 F4200 ; Print pattern perimeter
G1 E-0.5 F3000 ; Retract
G1 Z0.7 F12000 ; Z hop
G0 X126.5899 Y128.0068 F12000 ; Move to next pattern
G1 Z0.6 F12000 ; Z hop return
G1 E0.5 F1800 ; Un-retract
SET_PRESSURE_ADVANCE ADVANCE=0.02 ; Set pressure advance
M117 PA 0.02
G1 X147.8031 Y149.22 E1.14747 F4200 ; Print pattern perimeter
G1 X126.5899 Y170.4332 E1.14747 F4200 ; Print pattern perimeter
G1 E-0.5 F3000 ; Retract
G1 Z0.7 F12000 ; Z hop
G0 X127.1797 Y128.0068 F12000 ; Move to start next pattern perimeter
G1 Z0.6 F12000 ; Z hop return
G1 E0.5 F1800 ; Un-retract
G1 X148.3929 Y149.22 E1.14747 F4200 ; Print pattern perimeter
G1 X127.1797 Y170.4332 E1.14747 F4200 ; Print pattern perimeter
G1 E-0.5 F3000 ; Retract
G1 Z0.7 F12000 ; Z hop
G0 X127.7696 Y128.0068 F12000 ; Move to start next pattern perimeter
G1 Z0.6 F12000 ; Z hop return
G1 E0.5 F1800 ; Un-retract
G1 X148.9828 Y149.22 E1.14747 F4200 ; Print pattern perimeter
G1 X127.7696 Y170.4332 E1.14747 F4200 ; Print pattern perimeter
G1 E-0.5 F3000 ; Retract
G1 Z0.7 F12000 ; Z hop
G0 X131.2296 Y128.0068 F12000 ; Move to next pattern
G1 Z0.6 F12000 ; Z hop return
G1 E0.5 F1800 ; Un-retract
SET_PRESSURE_ADVANCE ADVANCE=0.025 ; Set pressure advance
M117 PA 0.025
G1 X152.4428 Y149.22 E1.14747 F4200 ; Print pattern perimeter
G1 X131.2296 Y170.4332 E1.14747 F4200 ; Print pattern perimeter
G1 E-0.5 F3000 ; Retract
G1 Z0.7 F12000 ; Z hop
G0 X131.8194 Y128.0068 F12000 ; Move to start next pattern perimeter
G1 Z0.6 F12000 ; Z hop return
G1 E0.5 F1800 ; Un-retract
G1 X153.0326 Y149.22 E1.14747 F4200 ; Print pattern perimeter
G1 X131.8194 Y170.4332 E1.14747 F4200 ; Print pattern perimeter
G1 E-0.5 F3000 ; Retract
G1 Z0.7 F12000 ; Z hop
G0 X132.4093 Y128.0068 F12000 ; Move to start next pattern perimeter
G1 Z0.6 F12000 ; Z hop return
G1 E0.5 F1800 ; Un-retract
G1 X153.6225 Y149.22 E1.14747 F4200 ; Print pattern perimeter
G1 X132.4093 Y170.4332 E1.14747 F4200 ; Print pattern perimeter
G1 E-0.5 F3000 ; Retract
G1 Z0.7 F12000 ; Z hop
G0 X135.8693 Y128.0068 F12000 ; Move to next pattern
G1 Z0.6 F12000 ; Z hop return
G1 E0.5 F1800 ; Un-retract
SET_PRESSURE_ADVANCE ADVANCE=0.03 ; Set pressure advance
M117 PA 0.03
G1 X157.0825 Y149.22 E1.14747 F4200 ; Print pattern perimeter
G1 X135.8693 Y170.4332 E1.14747 F4200 ; Print pattern perimeter
G1 E-0.5 F3000 ; Retract
G1 Z0.7 F12000 ; Z hop
G0 X136.4591 Y128.0068 F12000 ; Move to start next pattern perimeter
G1 Z0.6 F12000 ; Z hop return
G1 E0.5 F1800 ; Un-retract
G1 X157.6723 Y149.22 E1.14747 F4200 ; Print pattern perimeter
G1 X136.4591 Y170.4332 E1.14747 F4200 ; Print pattern perimeter
G1 E-0.5 F3000 ; Retract
G1 Z0.7 F12000 ; Z hop
G0 X137.0489 Y128.0068 F12000 ; Move to start next pattern perimeter
G1 Z0.6 F12000 ; Z hop return
G1 E0.5 F1800 ; Un-retract
G1 X158.2621 Y149.22 E1.14747 F4200 ; Print pattern perimeter
G1 X137.0489 Y170.4332 E1.14747 F4200 ; Print pattern perimeter
G1 E-0.5 F3000 ; Retract
G1 Z0.7 F12000 ; Z hop
G0 X140.5089 Y128.0068 F12000 ; Move to next pattern
G1 Z0.6 F12000 ; Z hop return
G1 E0.5 F1800 ; Un-retract
SET_PRESSURE_ADVANCE ADVANCE=0.035 ; Set pressure advance
M117 PA 0.035
G1 X161.7221 Y149.22 E1.14747 F4200 ; Print pattern perimeter
G1 X140.5089 Y170.4332 E1.14747 F4200 ; Print pattern perimeter
G1 E-0.5 F3000 ; Retract
G1 Z0.7 F12000 ; Z hop
G0 X141.0988 Y128.0068 F12000 ; Move to start next pattern perimeter
G1 Z0.6 F12000 ; Z hop return
G1 E0.5 F1800 ; Un-retract
G1 X162.312 Y149.22 E1.14747 F4200 ; Print pattern perimeter
G1 X141.0988 Y170.4332 E1.14747 F4200 ; Print pattern perimeter
G1 E-0.5 F3000 ; Retract
G1 Z0.7 F12000 ; Z hop
G0 X141.6886 Y128.0068 F12000 ; Move to start next pattern perimeter
G1 Z0.6 F12000 ; Z hop return
G1 E0.5 F1800 ; Un-retract
G1 X162.9018 Y149.22 E1.14747 F4200 ; Print pattern perimeter
G1 X141.6886 Y170.4332 E1.14747 F4200 ; Print pattern perimeter
G1 E-0.5 F3000 ; Retract
G1 Z0.7 F12000 ; Z hop
G0 X145.1486 Y128.0068 F12000 ; Move to next pattern
G1 Z0.6 F12000 ; Z hop return
G1 E0.5 F1800 ; Un-retract
SET_PRESSURE_ADVANCE ADVANCE=0.04 ; Set pressure advance
M117 PA 0.04
G1 X166.3618 Y149.22 E1.14747 F4200 ; Print pattern perimeter
G1 X145.1486 Y170.4332 E1.14747 F4200 ; Print pattern perimeter
G1 E-0.5 F3000 ; Retract
G1 Z0.7 F12000 ; Z hop
G0 X145.7385 Y128.0068 F12000 ; Move to start next pattern perimeter
G1 Z0.6 F12000 ; Z hop return
G1 E0.5 F1800 ; Un-retract
G1 X166.9517 Y149.22 E1.14747 F4200 ; Print pattern perimeter
G1 X145.7385 Y170.4332 E1.14747 F4200 ; Print pattern perimeter
G1 E-0.5 F3000 ; Retract
G1 Z0.7 F12000 ; Z hop
G0 X146.3283 Y128.0068 F12000 ; Move to start next pattern perimeter
G1 Z0.6 F12000 ; Z hop return
G1 E0.5 F1800 ; Un-retract
G1 X167.5415 Y149.22 E1.14747 F4200 ; Print pattern perimeter
G1 X146.3283 Y170.4332 E1.14747 F4200 ; Print pattern perimeter
G1 E-0.5 F3000 ; Retract
G1 Z0.7 F12000 ; Z hop
G0 X149.7883 Y128.0068 F12000 ; Move to next pattern
G1 Z0.6 F12000 ; Z hop return
G1 E0.5 F1800 ; Un-retract
SET_PRESSURE_ADVANCE ADVANCE=0.045 ; Set pressure advance
M117 PA 0.045
G1 X171.0015 Y149.22 E1.14747 F4200 ; Print pattern perimeter
G1 X149.7883 Y170.4332 E1.14747 F4200 ; Print pattern perimeter
G1 E-0.5 F3000 ; Retract
G1 Z0.7 F12000 ; Z hop
G0 X150.3781 Y128.0068 F12000 ; Move to start next pattern perimeter
G1 Z0.6 F12000 ; Z hop return
G1 E0.5 F1800 ; Un-retract
G1 X171.5913 Y149.22 E1.14747 F4200 ; Print pattern perimeter
G1 X150.3781 Y170.4332 E1.14747 F4200 ; Print pattern perimeter
G1 E-0.5 F3000 ; Retract
G1 Z0.7 F12000 ; Z hop
G0 X150.968 Y128.0068 F12000 ; Move to start next pattern perimeter
G1 Z0.6 F12000 ; Z hop return
G1 E0.5 F1800 ; Un-retract
G1 X172.1812 Y149.22 E1.14747 F4200 ; Print pattern perimeter
G1 X150.968 Y170.4332 E1.14747 F4200 ; Print pattern perimeter
G1 E-0.5 F3000 ; Retract
G1 Z0.7 F12000 ; Z hop
G0 X154.428 Y128.0068 F12000 ; Move to next pattern
G1 Z0.6 F12000 ; Z hop return
G1 E0.5 F1800 ; Un-retract
SET_PRESSURE_ADVANCE ADVANCE=0.05 ; Set pressure advance
M117 PA 0.05
G1 X175.6412 Y149.22 E1.14747 F4200 ; Print pattern perimeter
G1 X154.428 Y170.4332 E1.14747 F4200 ; Print pattern perimeter
G1 E-0.5 F3000 ; Retract
G1 Z0.7 F12000 ; Z hop
G0 X155.0178 Y128.0068 F12000 ; Move to start next pattern perimeter
G1 Z0.6 F12000 ; Z hop return
G1 E0.5 F1800 ; Un-retract
G1 X176.231 Y149.22 E1.14747 F4200 ; Print pattern perimeter
G1 X155.0178 Y170.4332 E1.14747 F4200 ; Print pattern perimeter
G1 E-0.5 F3000 ; Retract
G1 Z0.7 F12000 ; Z hop
G0 X155.6077 Y128.0068 F12000 ; Move to start next pattern perimeter
G1 Z0.6 F12000 ; Z hop return
G1 E0.5 F1800 ; Un-retract
G1 X176.8209 Y149.22 E1.14747 F4200 ; Print pattern perimeter
G1 X155.6077 Y170.4332 E1.14747 F4200 ; Print pattern perimeter
G1 E-0.5 F3000 ; Retract
G1 Z0.7 F12000 ; Z hop
G0 X159.0677 Y128.0068 F12000 ; Move to next pattern
G1 Z0.6 F12000 ; Z hop return
G1 E0.5 F1800 ; Un-retract
SET_PRESSURE_ADVANCE ADVANCE=0.055 ; Set pressure advance
M117 PA 0.055
G1 X180.2809 Y149.22 E1.14747 F4200 ; Print pattern perimeter
G1 X159.0677 Y170.4332 E1.14747 F4200 ; Print pattern perimeter
G1 E-0.5 F3000 ; Retract
G1 Z0.7 F12000 ; Z hop
G0 X159.6575 Y128.0068 F12000 ; Move to start next pattern perimeter
G1 Z0.6 F12000 ; Z hop return
G1 E0.5 F1800 ; Un-retract
G1 X180.8707 Y149.22 E1.14747 F4200 ; Print pattern perimeter
G1 X159.6575 Y170.4332 E1.14747 F4200 ; Print pattern perimeter
G1 E-0.5 F3000 ; Retract
G1 Z0.7 F12000 ; Z hop
G0 X160.2473 Y128.0068 F12000 ; Move to start next pattern perimeter
G1 Z0.6 F12000 ; Z hop return
G1 E0.5 F1800 ; Un-retract
G1 X181.4605 Y149.22 E1.14747 F4200 ; Print pattern perimeter
G1 X160.2473 Y170.4332 E1.14747 F4200 ; Print pattern perimeter
G1 E-0.5 F3000 ; Retract
G1 Z0.7 F12000 ; Z hop
G0 X163.7073 Y128.0068 F12000 ; Move to next pattern
G1 Z0.6 F12000 ; Z hop return
G1 E0.5 F1800 ; Un-retract
SET_PRESSURE_ADVANCE ADVANCE=0.06 ; Set pressure advance
M117 PA 0.06
G1 X184.9205 Y149.22 E1.14747 F4200 ; Print pattern perimeter
G1 X163.7073 Y170.4332 E1.14747 F4200 ; Print pattern perimeter
G1 E-0.5 F3000 ; Retract
G1 Z0.7 F12000 ; Z hop
G0 X164.2972 Y128.0068 F12000 ; Move to start next pattern perimeter
G1 Z0.6 F12000 ; Z hop return
G1 E0.5 F1800 ; Un-retract
G1 X185.5104 Y149.22 E1.14747 F4200 ; Print pattern perimeter
G1 X164.2972 Y170.4332 E1.14747 F4200 ; Print pattern perimeter
G1 E-0.5 F3000 ; Retract
G1 Z0.7 F12000 ; Z hop
G0 X164.887 Y128.0068 F12000 ; Move to start next pattern perimeter
G1 Z0.6 F12000 ; Z hop return
G1 E0.5 F1800 ; Un-retract
G1 X186.1002 Y149.22 E1.14747 F4200 ; Print pattern perimeter
G1 X164.887 Y170.4332 E1.14747 F4200 ; Print pattern perimeter
G1 E-0.5 F3000 ; Retract
G1 Z0.7 F12000 ; Z hop
G0 X168.347 Y128.0068 F12000 ; Move to next pattern
G1 Z0.6 F12000 ; Z hop return
G1 E0.5 F1800 ; Un-retract
SET_PRESSURE_ADVANCE ADVANCE=0.065 ; Set pressure advance
M117 PA 0.065
G1 X189.5602 Y149.22 E1.14747 F4200 ; Print pattern perimeter
G1 X168.347 Y170.4332 E1.14747 F4200 ; Print pattern perimeter
G1 E-0.5 F3000 ; Retract
G1 Z0.7 F12000 ; Z hop
G0 X168.9369 Y128.0068 F12000 ; Move to start next pattern perimeter
G1 Z0.6 F12000 ; Z hop return
G1 E0.5 F1800 ; Un-retract
G1 X190.1501 Y149.22 E1.14747 F4200 ; Print pattern perimeter
G1 X168.9369 Y170.4332 E1.14747 F4200 ; Print pattern perimeter
G1 E-0.5 F3000 ; Retract
G1 Z0.7 F12000 ; Z hop
G0 X169.5267 Y128.0068 F12000 ; Move to start next pattern perimeter
G1 Z0.6 F12000 ; Z hop return
G1 E0.5 F1800 ; Un-retract
G1 X190.7399 Y149.22 E1.14747 F4200 ; Print pattern perimeter
G1 X169.5267 Y170.4332 E1.14747 F4200 ; Print pattern perimeter
G1 E-0.5 F3000 ; Retract
G1 Z0.7 F12000 ; Z hop
G0 X172.9867 Y128.0068 F12000 ; Move to next pattern
G1 Z0.6 F12000 ; Z hop return
G1 E0.5 F1800 ; Un-retract
SET_PRESSURE_ADVANCE ADVANCE=0.07 ; Set pressure advance
M117 PA 0.07
G1 X194.1999 Y149.22 E1.14747 F4200 ; Print pattern perimeter
G1 X172.9867 Y170.4332 E1.14747 F4200 ; Print pattern perimeter
G1 E-0.5 F3000 ; Retract
G1 Z0.7 F12000 ; Z hop
G0 X173.5765 Y128.0068 F12000 ; Move to start next pattern perimeter
G1 Z0.6 F12000 ; Z hop return
G1 E0.5 F1800 ; Un-retract
G1 X194.7897 Y149.22 E1.14747 F4200 ; Print pattern perimeter
G1 X173.5765 Y170.4332 E1.14747 F4200 ; Print pattern perimeter
G1 E-0.5 F3000 ; Retract
G1 Z0.7 F12000 ; Z hop
G0 X174.1664 Y128.0068 F12000 ; Move to start next pattern perimeter
G1 Z0.6 F12000 ; Z hop return
G1 E0.5 F1800 ; Un-retract
G1 X195.3796 Y149.22 E1.14747 F4200 ; Print pattern perimeter
G1 X174.1664 Y170.4332 E1.14747 F4200 ; Print pattern perimeter
G1 E-0.5 F3000 ; Retract
G1 Z0.7 F12000 ; Z hop
G0 X177.6264 Y128.0068 F12000 ; Move to next pattern
G1 Z0.6 F12000 ; Z hop return
G1 E0.5 F1800 ; Un-retract
SET_PRESSURE_ADVANCE ADVANCE=0.075 ; Set pressure advance
M117 PA 0.075
G1 X198.8396 Y149.22 E1.14747 F4200 ; Print pattern perimeter
G1 X177.6264 Y170.4332 E1.14747 F4200 ; Print pattern perimeter
G1 E-0.5 F3000 ; Retract
G1 Z0.7 F12000 ; Z hop
G0 X178.2162 Y128.0068 F12000 ; Move to start next pattern perimeter
G1 Z0.6 F12000 ; Z hop return
G1 E0.5 F1800 ; Un-retract
G1 X199.4294 Y149.22 E1.14747 F4200 ; Print pattern perimeter
G1 X178.2162 Y170.4332 E1.14747 F4200 ; Print pattern perimeter
G1 E-0.5 F3000 ; Retract
G1 Z0.7 F12000 ; Z hop
G0 X178.806 Y128.0068 F12000 ; Move to start next pattern perimeter
G1 Z0.6 F12000 ; Z hop return
G1 E0.5 F1800 ; Un-retract
G1 X200.0193 Y149.22 E1.14747 F4200 ; Print pattern perimeter
G1 X178.806 Y170.4332 E1.14747 F4200 ; Print pattern perimeter
G1 E-0.5 F3000 ; Retract
G1 Z0.7 F12000 ; Z hop
G0 X182.266 Y128.0068 F12000 ; Move to next pattern
G1 Z0.6 F12000 ; Z hop return
G1 E0.5 F1800 ; Un-retract
SET_PRESSURE_ADVANCE ADVANCE=0.08 ; Set pressure advance
M117 PA 0.08
G1 X203.4793 Y149.22 E1.14747 F4200 ; Print pattern perimeter
G1 X182.266 Y170.4332 E1.14747 F4200 ; Print pattern perimeter
G1 E-0.5 F3000 ; Retract
G1 Z0.7 F12000 ; Z hop
G0 X182.8559 Y128.0068 F12000 ; Move to start next pattern perimeter
G1 Z0.6 F12000 ; Z hop return
G1 E0.5 F1800 ; Un-retract
G1 X204.0691 Y149.22 E1.14747 F4200 ; Print pattern perimeter
G1 X182.8559 Y170.4332 E1.14747 F4200 ; Print pattern perimeter
G1 E-0.5 F3000 ; Retract
G1 Z0.7 F12000 ; Z hop
G0 X183.4457 Y128.0068 F12000 ; Move to start next pattern perimeter
G1 Z0.6 F12000 ; Z hop return
G1 E0.5 F1800 ; Un-retract
G1 X204.6589 Y149.22 E1.14747 F4200 ; Print pattern perimeter
G1 X183.4457 Y170.4332 E1.14747 F4200 ; Print pattern perimeter
G1 E-0.5 F3000 ; Retract
G1 Z0.7 F12000 ; Z hop
G0 X108.0312 Y128.0068 F12000 ; Move back to start position
G1 Z0.6 F12000 ; Z hop return
G1 E0.5 F1800 ; Un-retract
G0 Z0.8 F12000 ; Move to layer height
SET_PRESSURE_ADVANCE ADVANCE=0 ; Set pressure advance
M117 PA 0
G1 X129.2444 Y149.22 E1.14747 F4200 ; Print pattern perimeter
G1 X108.0312 Y170.4332 E1.14747 F4200 ; Print pattern perimeter
G1 E-0.5 F3000 ; Retract
G1 Z0.9 F12000 ; Z hop
G0 X108.621 Y128.0068 F12000 ; Move to start next pattern perimeter
G1 Z0.8 F12000 ; Z hop return
G1 E0.5 F1800 ; Un-retract
G1 X129.8342 Y149.22 E1.14747 F4200 ; Print pattern perimeter
G1 X108.621 Y170.4332 E1.14747 F4200 ; Print pattern perimeter
G1 E-0.5 F3000 ; Retract
G1 Z0.9 F12000 ; Z hop
G0 X109.2109 Y128.0068 F12000 ; Move to start next pattern perimeter
G1 Z0.8 F12000 ; Z hop return
G1 E0.5 F1800 ; Un-retract
G1 X130.4241 Y149.22 E1.14747 F4200 ; Print pattern perimeter
G1 X109.2109 Y170.4332 E1.14747 F4200 ; Print pattern perimeter
G1 E-0.5 F3000 ; Retract
G1 Z0.9 F12000 ; Z hop
G0 X112.6709 Y128.0068 F12000 ; Move to next pattern
G1 Z0.8 F12000 ; Z hop return
G1 E0.5 F1800 ; Un-retract
SET_PRESSURE_ADVANCE ADVANCE=0.005 ; Set pressure advance
M117 PA 0.005
G1 X133.8841 Y149.22 E1.14747 F4200 ; Print pattern perimeter
G1 X112.6709 Y170.4332 E1.14747 F4200 ; Print pattern perimeter
G1 E-0.5 F3000 ; Retract
G1 Z0.9 F12000 ; Z hop
G0 X113.2607 Y128.0068 F12000 ; Move to start next pattern perimeter
G1 Z0.8 F12000 ; Z hop return
G1 E0.5 F1800 ; Un-retract
G1 X134.4739 Y149.22 E1.14747 F4200 ; Print pattern perimeter
G1 X113.2607 Y170.4332 E1.14747 F4200 ; Print pattern perimeter
G1 E-0.5 F3000 ; Retract
G1 Z0.9 F12000 ; Z hop
G0 X113.8505 Y128.0068 F12000 ; Move to start next pattern perimeter
G1 Z0.8 F12000 ; Z hop return
G1 E0.5 F1800 ; Un-retract
G1 X135.0637 Y149.22 E1.14747 F4200 ; Print pattern perimeter
G1 X113.8505 Y170.4332 E1.14747 F4200 ; Print pattern perimeter
G1 E-0.5 F3000 ; Retract
G1 Z0.9 F12000 ; Z hop
G0 X117.3105 Y128.0068 F12000 ; Move to next pattern
G1 Z0.8 F12000 ; Z hop return
G1 E0.5 F1800 ; Un-retract
SET_PRESSURE_ADVANCE ADVANCE=0.01 ; Set pressure advance
M117 PA 0.01
G1 X138.5237 Y149.22 E1.14747 F4200 ; Print pattern perimeter
G1 X117.3105 Y170.4332 E1.14747 F4200 ; Print pattern perimeter
G1 E-0.5 F3000 ; Retract
G1 Z0.9 F12000 ; Z hop
G0 X117.9004 Y128.0068 F12000 ; Move to start next pattern perimeter
G1 Z0.8 F12000 ; Z hop return
G1 E0.5 F1800 ; Un-retract
G1 X139.1136 Y149.22 E1.14747 F4200 ; Print pattern perimeter
G1 X117.9004 Y170.4332 E1.14747 F4200 ; Print pattern perimeter
G1 E-0.5 F3000 ; Retract
G1 Z0.9 F12000 ; Z hop
G0 X118.4902 Y128.0068 F12000 ; Move to start next pattern perimeter
G1 Z0.8 F12000 ; Z hop return
G1 E0.5 F1800 ; Un-retract
G1 X139.7034 Y149.22 E1.14747 F4200 ; Print pattern perimeter
G1 X118.4902 Y170.4332 E1.14747 F4200 ; Print pattern perimeter
G1 E-0.5 F3000 ; Retract
G1 Z0.9 F12000 ; Z hop
G0 X121.9502 Y128.0068 F12000 ; Move to next pattern
G1 Z0.8 F12000 ; Z hop return
G1 E0.5 F1800 ; Un-retract
SET_PRESSURE_ADVANCE ADVANCE=0.015 ; Set pressure advance
M117 PA 0.015
G1 X143.1634 Y149.22 E1.14747 F4200 ; Print pattern perimeter
G1 X121.9502 Y170.4332 E1.14747 F4200 ; Print pattern perimeter
G1 E-0.5 F3000 ; Retract
G1 Z0.9 F12000 ; Z hop
G0 X122.5401 Y128.0068 F12000 ; Move to start next pattern perimeter
G1 Z0.8 F12000 ; Z hop return
G1 E0.5 F1800 ; Un-retract
G1 X143.7533 Y149.22 E1.14747 F4200 ; Print pattern perimeter
G1 X122.5401 Y170.4332 E1.14747 F4200 ; Print pattern perimeter
G1 E-0.5 F3000 ; Retract
G1 Z0.9 F12000 ; Z hop
G0 X123.1299 Y128.0068 F12000 ; Move to start next pattern perimeter
G1 Z0.8 F12000 ; Z hop return
G1 E0.5 F1800 ; Un-retract
G1 X144.3431 Y149.22 E1.14747 F4200 ; Print pattern perimeter
G1 X123.1299 Y170.4332 E1.14747 F4200 ; Print pattern perimeter
G1 E-0.5 F3000 ; Retract
G1 Z0.9 F12000 ; Z hop
G0 X126.5899 Y128.0068 F12000 ; Move to next pattern
G1 Z0.8 F12000 ; Z hop return
G1 E0.5 F1800 ; Un-retract
SET_PRESSURE_ADVANCE ADVANCE=0.02 ; Set pressure advance
M117 PA 0.02
G1 X147.8031 Y149.22 E1.14747 F4200 ; Print pattern perimeter
G1 X126.5899 Y170.4332 E1.14747 F4200 ; Print pattern perimeter
G1 E-0.5 F3000 ; Retract
G1 Z0.9 F12000 ; Z hop
G0 X127.1797 Y128.0068 F12000 ; Move to start next pattern perimeter
G1 Z0.8 F12000 ; Z hop return
G1 E0.5 F1800 ; Un-retract
G1 X148.3929 Y149.22 E1.14747 F4200 ; Print pattern perimeter
G1 X127.1797 Y170.4332 E1.14747 F4200 ; Print pattern perimeter
G1 E-0.5 F3000 ; Retract
G1 Z0.9 F12000 ; Z hop
G0 X127.7696 Y128.0068 F12000 ; Move to start next pattern perimeter
G1 Z0.8 F12000 ; Z hop return
G1 E0.5 F1800 ; Un-retract
G1 X148.9828 Y149.22 E1.14747 F4200 ; Print pattern perimeter
G1 X127.7696 Y170.4332 E1.14747 F4200 ; Print pattern perimeter
G1 E-0.5 F3000 ; Retract
G1 Z0.9 F12000 ; Z hop
G0 X131.2296 Y128.0068 F12000 ; Move to next pattern
G1 Z0.8 F12000 ; Z hop return
G1 E0.5 F1800 ; Un-retract
SET_PRESSURE_ADVANCE ADVANCE=0.025 ; Set pressure advance
M117 PA 0.025
G1 X152.4428 Y149.22 E1.14747 F4200 ; Print pattern perimeter
G1 X131.2296 Y170.4332 E1.14747 F4200 ; Print pattern perimeter
G1 E-0.5 F3000 ; Retract
G1 Z0.9 F12000 ; Z hop
G0 X131.8194 Y128.0068 F12000 ; Move to start next pattern perimeter
G1 Z0.8 F12000 ; Z hop return
G1 E0.5 F1800 ; Un-retract
G1 X153.0326 Y149.22 E1.14747 F4200 ; Print pattern perimeter
G1 X131.8194 Y170.4332 E1.14747 F4200 ; Print pattern perimeter
G1 E-0.5 F3000 ; Retract
G1 Z0.9 F12000 ; Z hop
G0 X132.4093 Y128.0068 F12000 ; Move to start next pattern perimeter
G1 Z0.8 F12000 ; Z hop return
G1 E0.5 F1800 ; Un-retract
G1 X153.6225 Y149.22 E1.14747 F4200 ; Print pattern perimeter
G1 X132.4093 Y170.4332 E1.14747 F4200 ; Print pattern perimeter
G1 E-0.5 F3000 ; Retract
G1 Z0.9 F12000 ; Z hop
G0 X135.8693 Y128.0068 F12000 ; Move to next pattern
G1 Z0.8 F12000 ; Z hop return
G1 E0.5 F1800 ; Un-retract
SET_PRESSURE_ADVANCE ADVANCE=0.03 ; Set pressure advance
M117 PA 0.03
G1 X157.0825 Y149.22 E1.14747 F4200 ; Print pattern perimeter
G1 X135.8693 Y170.4332 E1.14747 F4200 ; Print pattern perimeter
G1 E-0.5 F3000 ; Retract
G1 Z0.9 F12000 ; Z hop
G0 X136.4591 Y128.0068 F12000 ; Move to start next pattern perimeter
G1 Z0.8 F12000 ; Z hop return
G1 E0.5 F1800 ; Un-retract
G1 X157.6723 Y149.22 E1.14747 F4200 ; Print pattern perimeter
G1 X136.4591 Y170.4332 E1.14747 F4200 ; Print pattern perimeter
G1 E-0.5 F3000 ; Retract
G1 Z0.9 F12000 ; Z hop
G0 X137.0489 Y128.0068 F12000 ; Move to start next pattern perimeter
G1 Z0.8 F12000 ; Z hop return
G1 E0.5 F1800 ; Un-retract
G1 X158.2621 Y149.22 E1.14747 F4200 ; Print pattern perimeter
G1 X137.0489 Y170.4332 E1.14747 F4200 ; Print pattern perimeter
G1 E-0.5 F3000 ; Retract
G1 Z0.9 F12000 ; Z hop
G0 X140.5089 Y128.0068 F12000 ; Move to next pattern
G1 Z0.8 F12000 ; Z hop return
G1 E0.5 F1800 ; Un-retract
SET_PRESSURE_ADVANCE ADVANCE=0.035 ; Set pressure advance
M117 PA 0.035
G1 X161.7221 Y149.22 E1.14747 F4200 ; Print pattern perimeter
G1 X140.5089 Y170.4332 E1.14747 F4200 ; Print pattern perimeter
G1 E-0.5 F3000 ; Retract
G1 Z0.9 F12000 ; Z hop
G0 X141.0988 Y128.0068 F12000 ; Move to start next pattern perimeter
G1 Z0.8 F12000 ; Z hop return
G1 E0.5 F1800 ; Un-retract
G1 X162.312 Y149.22 E1.14747 F4200 ; Print pattern perimeter
G1 X141.0988 Y170.4332 E1.14747 F4200 ; Print pattern perimeter
G1 E-0.5 F3000 ; Retract
G1 Z0.9 F12000 ; Z hop
G0 X141.6886 Y128.0068 F12000 ; Move to start next pattern perimeter
G1 Z0.8 F12000 ; Z hop return
G1 E0.5 F1800 ; Un-retract
G1 X162.9018 Y149.22 E1.14747 F4200 ; Print pattern perimeter
G1 X141.6886 Y170.4332 E1.14747 F4200 ; Print pattern perimeter
G1 E-0.5 F3000 ; Retract
G1 Z0.9 F12000 ; Z hop
G0 X145.1486 Y128.0068 F12000 ; Move to next pattern
G1 Z0.8 F12000 ; Z hop return
G1 E0.5 F1800 ; Un-retract
SET_PRESSURE_ADVANCE ADVANCE=0.04 ; Set pressure advance
M117 PA 0.04
G1 X166.3618 Y149.22 E1.14747 F4200 ; Print pattern perimeter
G1 X145.1486 Y170.4332 E1.14747 F4200 ; Print pattern perimeter
G1 E-0.5 F3000 ; Retract
G1 Z0.9 F12000 ; Z hop
G0 X145.7385 Y128.0068 F12000 ; Move to start next pattern perimeter
G1 Z0.8 F12000 ; Z hop return
G1 E0.5 F1800 ; Un-retract
G1 X166.9517 Y149.22 E1.14747 F4200 ; Print pattern perimeter
G1 X145.7385 Y170.4332 E1.14747 F4200 ; Print pattern perimeter
G1 E-0.5 F3000 ; Retract
G1 Z0.9 F12000 ; Z hop
G0 X146.3283 Y128.0068 F12000 ; Move to start next pattern perimeter
G1 Z0.8 F12000 ; Z hop return
G1 E0.5 F1800 ; Un-retract
G1 X167.5415 Y149.22 E1.14747 F4200 ; Print pattern perimeter
G1 X146.3283 Y170.4332 E1.14747 F4200 ; Print pattern perimeter
G1 E-0.5 F3000 ; Retract
G1 Z0.9 F12000 ; Z hop
G0 X149.7883 Y128.0068 F12000 ; Move to next pattern
G1 Z0.8 F12000 ; Z hop return
G1 E0.5 F1800 ; Un-retract
SET_PRESSURE_ADVANCE ADVANCE=0.045 ; Set pressure advance
M117 PA 0.045
G1 X171.0015 Y149.22 E1.14747 F4200 ; Print pattern perimeter
G1 X149.7883 Y170.4332 E1.14747 F4200 ; Print pattern perimeter
G1 E-0.5 F3000 ; Retract
G1 Z0.9 F12000 ; Z hop
G0 X150.3781 Y128.0068 F12000 ; Move to start next pattern perimeter
G1 Z0.8 F12000 ; Z hop return
G1 E0.5 F1800 ; Un-retract
G1 X171.5913 Y149.22 E1.14747 F4200 ; Print pattern perimeter
G1 X150.3781 Y170.4332 E1.14747 F4200 ; Print pattern perimeter
G1 E-0.5 F3000 ; Retract
G1 Z0.9 F12000 ; Z hop
G0 X150.968 Y128.0068 F12000 ; Move to start next pattern perimeter
G1 Z0.8 F12000 ; Z hop return
G1 E0.5 F1800 ; Un-retract
G1 X172.1812 Y149.22 E1.14747 F4200 ; Print pattern perimeter
G1 X150.968 Y170.4332 E1.14747 F4200 ; Print pattern perimeter
G1 E-0.5 F3000 ; Retract
G1 Z0.9 F12000 ; Z hop
G0 X154.428 Y128.0068 F12000 ; Move to next pattern
G1 Z0.8 F12000 ; Z hop return
G1 E0.5 F1800 ; Un-retract
SET_PRESSURE_ADVANCE ADVANCE=0.05 ; Set pressure advance
M117 PA 0.05
G1 X175.6412 Y149.22 E1.14747 F4200 ; Print pattern perimeter
G1 X154.428 Y170.4332 E1.14747 F4200 ; Print pattern perimeter
G1 E-0.5 F3000 ; Retract
G1 Z0.9 F12000 ; Z hop
G0 X155.0178 Y128.0068 F12000 ; Move to start next pattern perimeter
G1 Z0.8 F12000 ; Z hop return
G1 E0.5 F1800 ; Un-retract
G1 X176.231 Y149.22 E1.14747 F4200 ; Print pattern perimeter
G1 X155.0178 Y170.4332 E1.14747 F4200 ; Print pattern perimeter
G1 E-0.5 F3000 ; Retract
G1 Z0.9 F12000 ; Z hop
G0 X155.6077 Y128.0068 F12000 ; Move to start next pattern perimeter
G1 Z0.8 F12000 ; Z hop return
G1 E0.5 F1800 ; Un-retract
G1 X176.8209 Y149.22 E1.14747 F4200 ; Print pattern perimeter
G1 X155.6077 Y170.4332 E1.14747 F4200 ; Print pattern perimeter
G1 E-0.5 F3000 ; Retract
G1 Z0.9 F12000 ; Z hop
G0 X159.0677 Y128.0068 F12000 ; Move to next pattern
G1 Z0.8 F12000 ; Z hop return
G1 E0.5 F1800 ; Un-retract
SET_PRESSURE_ADVANCE ADVANCE=0.055 ; Set pressure advance
M117 PA 0.055
G1 X180.2809 Y149.22 E1.14747 F4200 ; Print pattern perimeter
G1 X159.0677 Y170.4332 E1.14747 F4200 ; Print pattern perimeter
G1 E-0.5 F3000 ; Retract
G1 Z0.9 F12000 ; Z hop
G0 X159.6575 Y128.0068 F12000 ; Move to start next pattern perimeter
G1 Z0.8 F12000 ; Z hop return
G1 E0.5 F1800 ; Un-retract
G1 X180.8707 Y149.22 E1.14747 F4200 ; Print pattern perimeter
G1 X159.6575 Y170.4332 E1.14747 F4200 ; Print pattern perimeter
G1 E-0.5 F3000 ; Retract
G1 Z0.9 F12000 ; Z hop
G0 X160.2473 Y128.0068 F12000 ; Move to start next pattern perimeter
G1 Z0.8 F12000 ; Z hop return
G1 E0.5 F1800 ; Un-retract
G1 X181.4605 Y149.22 E1.14747 F4200 ; Print pattern perimeter
G1 X160.2473 Y170.4332 E1.14747 F4200 ; Print pattern perimeter
G1 E-0.5 F3000 ; Retract
G1 Z0.9 F12000 ; Z hop
G0 X163.7073 Y128.0068 F12000 ; Move to next pattern
G1 Z0.8 F12000 ; Z hop return
G1 E0.5 F1800 ; Un-retract
SET_PRESSURE_ADVANCE ADVANCE=0.06 ; Set pressure advance
M117 PA 0.06
G1 X184.9205 Y149.22 E1.14747 F4200 ; Print pattern perimeter
G1 X163.7073 Y170.4332 E1.14747 F4200 ; Print pattern perimeter
G1 E-0.5 F3000 ; Retract
G1 Z0.9 F12000 ; Z hop
G0 X164.2972 Y128.0068 F12000 ; Move to start next pattern perimeter
G1 Z0.8 F12000 ; Z hop return
G1 E0.5 F1800 ; Un-retract
G1 X185.5104 Y149.22 E1.14747 F4200 ; Print pattern perimeter
G1 X164.2972 Y170.4332 E1.14747 F4200 ; Print pattern perimeter
G1 E-0.5 F3000 ; Retract
G1 Z0.9 F12000 ; Z hop
G0 X164.887 Y128.0068 F12000 ; Move to start next pattern perimeter
G1 Z0.8 F12000 ; Z hop return
G1 E0.5 F1800 ; Un-retract
G1 X186.1002 Y149.22 E1.14747 F4200 ; Print pattern perimeter
G1 X164.887 Y170.4332 E1.14747 F4200 ; Print pattern perimeter
G1 E-0.5 F3000 ; Retract
G1 Z0.9 F12000 ; Z hop
G0 X168.347 Y128.0068 F12000 ; Move to next pattern
G1 Z0.8 F12000 ; Z hop return
G1 E0.5 F1800 ; Un-retract
SET_PRESSURE_ADVANCE ADVANCE=0.065 ; Set pressure advance
M117 PA 0.065
G1 X189.5602 Y149.22 E1.14747 F4200 ; Print pattern perimeter
G1 X168.347 Y170.4332 E1.14747 F4200 ; Print pattern perimeter
G1 E-0.5 F3000 ; Retract
G1 Z0.9 F12000 ; Z hop
G0 X168.9369 Y128.0068 F12000 ; Move to start next pattern perimeter
G1 Z0.8 F12000 ; Z hop return
G1 E0.5 F1800 ; Un-retract
G1 X190.1501 Y149.22 E1.14747 F4200 ; Print pattern perimeter
G1 X168.9369 Y170.4332 E1.14747 F4200 ; Print pattern perimeter
G1 E-0.5 F3000 ; Retract
G1 Z0.9 F12000 ; Z hop
G0 X169.5267 Y128.0068 F12000 ; Move to start next pattern perimeter
G1 Z0.8 F12000 ; Z hop return
G1 E0.5 F1800 ; Un-retract
G1 X190.7399 Y149.22 E1.14747 F4200 ; Print pattern perimeter
G1 X169.5267 Y170.4332 E1.14747 F4200 ; Print pattern perimeter
G1 E-0.5 F3000 ; Retract
G1 Z0.9 F12000 ; Z hop
G0 X172.9867 Y128.0068 F12000 ; Move to next pattern
G1 Z0.8 F12000 ; Z hop return
G1 E0.5 F1800 ; Un-retract
SET_PRESSURE_ADVANCE ADVANCE=0.07 ; Set pressure advance
M117 PA 0.07
G1 X194.1999 Y149.22 E1.14747 F4200 ; Print pattern perimeter
G1 X172.9867 Y170.4332 E1.14747 F4200 ; Print pattern perimeter
G1 E-0.5 F3000 ; Retract
G1 Z0.9 F12000 ; Z hop
G0 X173.5765 Y128.0068 F12000 ; Move to start next pattern perimeter
G1 Z0.8 F12000 ; Z hop return
G1 E0.5 F1800 ; Un-retract
G1 X194.7897 Y149.22 E1.14747 F4200 ; Print pattern perimeter
G1 X173.5765 Y170.4332 E1.14747 F4200 ; Print pattern perimeter
G1 E-0.5 F3000 ; Retract
G1 Z0.9 F12000 ; Z hop
G0 X174.1664 Y128.0068 F12000 ; Move to start next pattern perimeter
G1 Z0.8 F12000 ; Z hop return
G1 E0.5 F1800 ; Un-retract
G1 X195.3796 Y149.22 E1.14747 F4200 ; Print pattern perimeter
G1 X174.1664 Y170.4332 E1.14747 F4200 ; Print pattern perimeter
G1 E-0.5 F3000 ; Retract
G1 Z0.9 F12000 ; Z hop
G0 X177.6264 Y128.0068 F12000 ; Move to next pattern
G1 Z0.8 F12000 ; Z hop return
G1 E0.5 F1800 ; Un-retract
SET_PRESSURE_ADVANCE ADVANCE=0.075 ; Set pressure advance
M117 PA 0.075
G1 X198.8396 Y149.22 E1.14747 F4200 ; Print pattern perimeter
G1 X177.6264 Y170.4332 E1.14747 F4200 ; Print pattern perimeter
G1 E-0.5 F3000 ; Retract
G1 Z0.9 F12000 ; Z hop
G0 X178.2162 Y128.0068 F12000 ; Move to start next pattern perimeter
G1 Z0.8 F12000 ; Z hop return
G1 E0.5 F1800 ; Un-retract
G1 X199.4294 Y149.22 E1.14747 F4200 ; Print pattern perimeter
G1 X178.2162 Y170.4332 E1.14747 F4200 ; Print pattern perimeter
G1 E-0.5 F3000 ; Retract
G1 Z0.9 F12000 ; Z hop
G0 X178.806 Y128.0068 F12000 ; Move to start next pattern perimeter
G1 Z0.8 F12000 ; Z hop return
G1 E0.5 F1800 ; Un-retract
G1 X200.0193 Y149.22 E1.14747 F4200 ; Print pattern perimeter
G1 X178.806 Y170.4332 E1.14747 F4200 ; Print pattern perimeter
G1 E-0.5 F3000 ; Retract
G1 Z0.9 F12000 ; Z hop
G0 X182.266 Y128.0068 F12000 ; Move to next pattern
G1 Z0.8 F12000 ; Z hop return
G1 E0.5 F1800 ; Un-retract
SET_PRESSURE_ADVANCE ADVANCE=0.08 ; Set pressure advance
M117 PA 0.08
G1 X203.4793 Y149.22 E1.14747 F4200 ; Print pattern perimeter
G1 X182.266 Y170.4332 E1.14747 F4200 ; Print pattern perimeter
G1 E-0.5 F3000 ; Retract
G1 Z0.9 F12000 ; Z hop
G0 X182.8559 Y128.0068 F12000 ; Move to start next pattern perimeter
G1 Z0.8 F12000 ; Z hop return
G1 E0.5 F1800 ; Un-retract
G1 X204.0691 Y149.22 E1.14747 F4200 ; Print pattern perimeter
G1 X182.8559 Y170.4332 E1.14747 F4200 ; Print pattern perimeter
G1 E-0.5 F3000 ; Retract
G1 Z0.9 F12000 ; Z hop
G0 X183.4457 Y128.0068 F12000 ; Move to start next pattern perimeter
G1 Z0.8 F12000 ; Z hop return
G1 E0.5 F1800 ; Un-retract
G1 X204.6589 Y149.22 E1.14747 F4200 ; Print pattern perimeter
G1 X183.4457 Y170.4332 E1.14747 F4200 ; Print pattern perimeter
G1 E-0.5 F3000 ; Retract
G1 Z0.9 F12000 ; Z hop
G0 X108.0312 Y128.0068 F12000 ; Move back to start position
G1 Z0.8 F12000 ; Z hop return
G1 E0.5 F1800 ; Un-retract
G0 Z1 F12000 ; Move to layer height
SET_PRESSURE_ADVANCE ADVANCE=0 ; Set pressure advance
M117 PA 0
G1 X129.2444 Y149.22 E1.14747 F4200 ; Print pattern perimeter
G1 X108.0312 Y170.4332 E1.14747 F4200 ; Print pattern perimeter
G1 E-0.5 F3000 ; Retract
G1 Z1.1 F12000 ; Z hop
G0 X108.621 Y128.0068 F12000 ; Move to start next pattern perimeter
G1 Z1 F12000 ; Z hop return
G1 E0.5 F1800 ; Un-retract
G1 X129.8342 Y149.22 E1.14747 F4200 ; Print pattern perimeter
G1 X108.621 Y170.4332 E1.14747 F4200 ; Print pattern perimeter
G1 E-0.5 F3000 ; Retract
G1 Z1.1 F12000 ; Z hop
G0 X109.2109 Y128.0068 F12000 ; Move to start next pattern perimeter
G1 Z1 F12000 ; Z hop return
G1 E0.5 F1800 ; Un-retract
G1 X130.4241 Y149.22 E1.14747 F4200 ; Print pattern perimeter
G1 X109.2109 Y170.4332 E1.14747 F4200 ; Print pattern perimeter
G1 E-0.5 F3000 ; Retract
G1 Z1.1 F12000 ; Z hop
G0 X112.6709 Y128.0068 F12000 ; Move to next pattern
G1 Z1 F12000 ; Z hop return
G1 E0.5 F1800 ; Un-retract
SET_PRESSURE_ADVANCE ADVANCE=0.005 ; Set pressure advance
M117 PA 0.005
G1 X133.8841 Y149.22 E1.14747 F4200 ; Print pattern perimeter
G1 X112.6709 Y170.4332 E1.14747 F4200 ; Print pattern perimeter
G1 E-0.5 F3000 ; Retract
G1 Z1.1 F12000 ; Z hop
G0 X113.2607 Y128.0068 F12000 ; Move to start next pattern perimeter
G1 Z1 F12000 ; Z hop return
G1 E0.5 F1800 ; Un-retract
G1 X134.4739 Y149.22 E1.14747 F4200 ; Print pattern perimeter
G1 X113.2607 Y170.4332 E1.14747 F4200 ; Print pattern perimeter
G1 E-0.5 F3000 ; Retract
G1 Z1.1 F12000 ; Z hop
G0 X113.8505 Y128.0068 F12000 ; Move to start next pattern perimeter
G1 Z1 F12000 ; Z hop return
G1 E0.5 F1800 ; Un-retract
G1 X135.0637 Y149.22 E1.14747 F4200 ; Print pattern perimeter
G1 X113.8505 Y170.4332 E1.14747 F4200 ; Print pattern perimeter
G1 E-0.5 F3000 ; Retract
G1 Z1.1 F12000 ; Z hop
G0 X117.3105 Y128.0068 F12000 ; Move to next pattern
G1 Z1 F12000 ; Z hop return
G1 E0.5 F1800 ; Un-retract
SET_PRESSURE_ADVANCE ADVANCE=0.01 ; Set pressure advance
M117 PA 0.01
G1 X138.5237 Y149.22 E1.14747 F4200 ; Print pattern perimeter
G1 X117.3105 Y170.4332 E1.14747 F4200 ; Print pattern perimeter
G1 E-0.5 F3000 ; Retract
G1 Z1.1 F12000 ; Z hop
G0 X117.9004 Y128.0068 F12000 ; Move to start next pattern perimeter
G1 Z1 F12000 ; Z hop return
G1 E0.5 F1800 ; Un-retract
G1 X139.1136 Y149.22 E1.14747 F4200 ; Print pattern perimeter
G1 X117.9004 Y170.4332 E1.14747 F4200 ; Print pattern perimeter
G1 E-0.5 F3000 ; Retract
G1 Z1.1 F12000 ; Z hop
G0 X118.4902 Y128.0068 F12000 ; Move to start next pattern perimeter
G1 Z1 F12000 ; Z hop return
G1 E0.5 F1800 ; Un-retract
G1 X139.7034 Y149.22 E1.14747 F4200 ; Print pattern perimeter
G1 X118.4902 Y170.4332 E1.14747 F4200 ; Print pattern perimeter
G1 E-0.5 F3000 ; Retract
G1 Z1.1 F12000 ; Z hop
G0 X121.9502 Y128.0068 F12000 ; Move to next pattern
G1 Z1 F12000 ; Z hop return
G1 E0.5 F1800 ; Un-retract
SET_PRESSURE_ADVANCE ADVANCE=0.015 ; Set pressure advance
M117 PA 0.015
G1 X143.1634 Y149.22 E1.14747 F4200 ; Print pattern perimeter
G1 X121.9502 Y170.4332 E1.14747 F4200 ; Print pattern perimeter
G1 E-0.5 F3000 ; Retract
G1 Z1.1 F12000 ; Z hop
G0 X122.5401 Y128.0068 F12000 ; Move to start next pattern perimeter
G1 Z1 F12000 ; Z hop return
G1 E0.5 F1800 ; Un-retract
G1 X143.7533 Y149.22 E1.14747 F4200 ; Print pattern perimeter
G1 X122.5401 Y170.4332 E1.14747 F4200 ; Print pattern perimeter
G1 E-0.5 F3000 ; Retract
G1 Z1.1 F12000 ; Z hop
G0 X123.1299 Y128.0068 F12000 ; Move to start next pattern perimeter
G1 Z1 F12000 ; Z hop return
G1 E0.5 F1800 ; Un-retract
G1 X144.3431 Y149.22 E1.14747 F4200 ; Print pattern perimeter
G1 X123.1299 Y170.4332 E1.14747 F4200 ; Print pattern perimeter
G1 E-0.5 F3000 ; Retract
G1 Z1.1 F12000 ; Z hop
G0 X126.5899 Y128.0068 F12000 ; Move to next pattern
G1 Z1 F12000 ; Z hop return
G1 E0.5 F1800 ; Un-retract
SET_PRESSURE_ADVANCE ADVANCE=0.02 ; Set pressure advance
M117 PA 0.02
G1 X147.8031 Y149.22 E1.14747 F4200 ; Print pattern perimeter
G1 X126.5899 Y170.4332 E1.14747 F4200 ; Print pattern perimeter
G1 E-0.5 F3000 ; Retract
G1 Z1.1 F12000 ; Z hop
G0 X127.1797 Y128.0068 F12000 ; Move to start next pattern perimeter
G1 Z1 F12000 ; Z hop return
G1 E0.5 F1800 ; Un-retract
G1 X148.3929 Y149.22 E1.14747 F4200 ; Print pattern perimeter
G1 X127.1797 Y170.4332 E1.14747 F4200 ; Print pattern perimeter
G1 E-0.5 F3000 ; Retract
G1 Z1.1 F12000 ; Z hop
G0 X127.7696 Y128.0068 F12000 ; Move to start next pattern perimeter
G1 Z1 F12000 ; Z hop return
G1 E0.5 F1800 ; Un-retract
G1 X148.9828 Y149.22 E1.14747 F4200 ; Print pattern perimeter
G1 X127.7696 Y170.4332 E1.14747 F4200 ; Print pattern perimeter
G1 E-0.5 F3000 ; Retract
G1 Z1.1 F12000 ; Z hop
G0 X131.2296 Y128.0068 F12000 ; Move to next pattern
G1 Z1 F12000 ; Z hop return
G1 E0.5 F1800 ; Un-retract
SET_PRESSURE_ADVANCE ADVANCE=0.025 ; Set pressure advance
M117 PA 0.025
G1 X152.4428 Y149.22 E1.14747 F4200 ; Print pattern perimeter
G1 X131.2296 Y170.4332 E1.14747 F4200 ; Print pattern perimeter
G1 E-0.5 F3000 ; Retract
G1 Z1.1 F12000 ; Z hop
G0 X131.8194 Y128.0068 F12000 ; Move to start next pattern perimeter
G1 Z1 F12000 ; Z hop return
G1 E0.5 F1800 ; Un-retract
G1 X153.0326 Y149.22 E1.14747 F4200 ; Print pattern perimeter
G1 X131.8194 Y170.4332 E1.14747 F4200 ; Print pattern perimeter
G1 E-0.5 F3000 ; Retract
G1 Z1.1 F12000 ; Z hop
G0 X132.4093 Y128.0068 F12000 ; Move to start next pattern perimeter
G1 Z1 F12000 ; Z hop return
G1 E0.5 F1800 ; Un-retract
G1 X153.6225 Y149.22 E1.14747 F4200 ; Print pattern perimeter
G1 X132.4093 Y170.4332 E1.14747 F4200 ; Print pattern perimeter
G1 E-0.5 F3000 ; Retract
G1 Z1.1 F12000 ; Z hop
G0 X135.8693 Y128.0068 F12000 ; Move to next pattern
G1 Z1 F12000 ; Z hop return
G1 E0.5 F1800 ; Un-retract
SET_PRESSURE_ADVANCE ADVANCE=0.03 ; Set pressure advance
M117 PA 0.03
G1 X157.0825 Y149.22 E1.14747 F4200 ; Print pattern perimeter
G1 X135.8693 Y170.4332 E1.14747 F4200 ; Print pattern perimeter
G1 E-0.5 F3000 ; Retract
G1 Z1.1 F12000 ; Z hop
G0 X136.4591 Y128.0068 F12000 ; Move to start next pattern perimeter
G1 Z1 F12000 ; Z hop return
G1 E0.5 F1800 ; Un-retract
G1 X157.6723 Y149.22 E1.14747 F4200 ; Print pattern perimeter
G1 X136.4591 Y170.4332 E1.14747 F4200 ; Print pattern perimeter
G1 E-0.5 F3000 ; Retract
G1 Z1.1 F12000 ; Z hop
G0 X137.0489 Y128.0068 F12000 ; Move to start next pattern perimeter
G1 Z1 F12000 ; Z hop return
G1 E0.5 F1800 ; Un-retract
G1 X158.2621 Y149.22 E1.14747 F4200 ; Print pattern perimeter
G1 X137.0489 Y170.4332 E1.14747 F4200 ; Print pattern perimeter
G1 E-0.5 F3000 ; Retract
G1 Z1.1 F12000 ; Z hop
G0 X140.5089 Y128.0068 F12000 ; Move to next pattern
G1 Z1 F12000 ; Z hop return
G1 E0.5 F1800 ; Un-retract
SET_PRESSURE_ADVANCE ADVANCE=0.035 ; Set pressure advance
M117 PA 0.035
G1 X161.7221 Y149.22 E1.14747 F4200 ; Print pattern perimeter
G1 X140.5089 Y170.4332 E1.14747 F4200 ; Print pattern perimeter
G1 E-0.5 F3000 ; Retract
G1 Z1.1 F12000 ; Z hop
G0 X141.0988 Y128.0068 F12000 ; Move to start next pattern perimeter
G1 Z1 F12000 ; Z hop return
G1 E0.5 F1800 ; Un-retract
G1 X162.312 Y149.22 E1.14747 F4200 ; Print pattern perimeter
G1 X141.0988 Y170.4332 E1.14747 F4200 ; Print pattern perimeter
G1 E-0.5 F3000 ; Retract
G1 Z1.1 F12000 ; Z hop
G0 X141.6886 Y128.0068 F12000 ; Move to start next pattern perimeter
G1 Z1 F12000 ; Z hop return
G1 E0.5 F1800 ; Un-retract
G1 X162.9018 Y149.22 E1.14747 F4200 ; Print pattern perimeter
G1 X141.6886 Y170.4332 E1.14747 F4200 ; Print pattern perimeter
G1 E-0.5 F3000 ; Retract
G1 Z1.1 F12000 ; Z hop
G0 X145.1486 Y128.0068 F12000 ; Move to next pattern
G1 Z1 F12000 ; Z hop return
G1 E0.5 F1800 ; Un-retract
SET_PRESSURE_ADVANCE ADVANCE=0.04 ; Set pressure advance
M117 PA 0.04
G1 X166.3618 Y149.22 E1.14747 F4200 ; Print pattern perimeter
G1 X145.1486 Y170.4332 E1.14747 F4200 ; Print pattern perimeter
G1 E-0.5 F3000 ; Retract
G1 Z1.1 F12000 ; Z hop
G0 X145.7385 Y128.0068 F12000 ; Move to start next pattern perimeter
G1 Z1 F12000 ; Z hop return
G1 E0.5 F1800 ; Un-retract
G1 X166.9517 Y149.22 E1.14747 F4200 ; Print pattern perimeter
G1 X145.7385 Y170.4332 E1.14747 F4200 ; Print pattern perimeter
G1 E-0.5 F3000 ; Retract
G1 Z1.1 F12000 ; Z hop
G0 X146.3283 Y128.0068 F12000 ; Move to start next pattern perimeter
G1 Z1 F12000 ; Z hop return
G1 E0.5 F1800 ; Un-retract
G1 X167.5415 Y149.22 E1.14747 F4200 ; Print pattern perimeter
G1 X146.3283 Y170.4332 E1.14747 F4200 ; Print pattern perimeter
G1 E-0.5 F3000 ; Retract
G1 Z1.1 F12000 ; Z hop
G0 X149.7883 Y128.0068 F12000 ; Move to next pattern
G1 Z1 F12000 ; Z hop return
G1 E0.5 F1800 ; Un-retract
SET_PRESSURE_ADVANCE ADVANCE=0.045 ; Set pressure advance
M117 PA 0.045
G1 X171.0015 Y149.22 E1.14747 F4200 ; Print pattern perimeter
G1 X149.7883 Y170.4332 E1.14747 F4200 ; Print pattern perimeter
G1 E-0.5 F3000 ; Retract
G1 Z1.1 F12000 ; Z hop
G0 X150.3781 Y128.0068 F12000 ; Move to start next pattern perimeter
G1 Z1 F12000 ; Z hop return
G1 E0.5 F1800 ; Un-retract
G1 X171.5913 Y149.22 E1.14747 F4200 ; Print pattern perimeter
G1 X150.3781 Y170.4332 E1.14747 F4200 ; Print pattern perimeter
G1 E-0.5 F3000 ; Retract
