; generated by SuperSlicer 2.4 on 2022-11-13 at 05:40:37 UTC


;
;

;
;
; 

; external perimeters extrusion width = 0.40mm
; perimeters extrusion width = 0.46mm
; infill extrusion width = 0.64mm
; solid infill extrusion width = 0.56mm
; top infill extrusion width = 0.40mm
; first layer extrusion width = 0.50mm

; external perimeters extrusion width = 0.40mm
; perimeters extrusion width = 0.46mm
; infill extrusion width = 0.64mm
; solid infill extrusion width = 0.56mm
; top infill extrusion width = 0.40mm
; first layer extrusion width = 0.50mm

; external perimeters extrusion width = 0.40mm
; perimeters extrusion width = 0.46mm
; infill extrusion width = 0.64mm
; solid infill extrusion width = 0.56mm
; top infill extrusion width = 0.40mm
; first layer extrusion width = 0.50mm

; object:{"name":"paper_cutter_2","id":"paper_cutter_2.stl id:0 copy 0","object_center":[165.000001,200.904805,0.000000],"boundingbox_center":[165.000001,200.904805,3.180000],"boundingbox_size":[187.167444,22.156208,6.360000]}
; object:{"name":"paper_cutter_3","id":"paper_cutter_3.stl id:1 copy 0","object_center":[165.000001,230.077505,0.000000],"boundingbox_center":[165.000001,230.077505,6.782121],"boundingbox_size":[9.000000,24.189189,13.564243]}
; object:{"name":"Untitled","id":"Untitled.stl id:2 copy 0","object_center":[165.000004,135.827301,0.000000],"boundingbox_center":[165.000004,135.827301,5.388000],"boundingbox_size":[189.000000,95.998801,10.775999]}
; plater:{"center":[165.000004,165.000000,0.000000],"boundingbox_center":[165.000004,165.000000,6.782121],"boundingbox_size":[189.000000,154.344199,13.564243]}

M73 P0 R216


; Pre-Processed for Cancel-Object support by preprocess_cancellation v0.2.0
; 3 known objects
EXCLUDE_OBJECT_DEFINE NAME=paper_cutter_2_stl_id_0_copy_0 CENTER=165.074,200.868 POLYGON=[[71.616,190.027],[71.616,211.783],[258.384,211.783],[258.384,190.027]]
EXCLUDE_OBJECT_DEFINE NAME=paper_cutter_3_stl_id_1_copy_0 CENTER=166.189,229.922 POLYGON=[[160.7,218.183],[160.7,241.972],[169.38,241.972],[169.38,218.183]]
EXCLUDE_OBJECT_DEFINE NAME=Untitled_stl_id_2_copy_0 CENTER=162.170,141.679 POLYGON=[[70.7,88.521],[70.7,183.627],[259.3,183.627],[259.3,88.521]]
;TYPE:Custom
START_PRINT T_BED=60 T_EXTRUDER=200
M107
G21 ; set units to millimeters
G90 ; use absolute coordinates
M83 ; use relative distances for extrusion
; Filament gcode
;_TOOLCHANGE 0
M104 S200 ; set temperature
M109 S200 ; set temperature and wait for it to be reached
M190 S60 ; set bed temperature and wait for it to be reached
M107
;LAYER_CHANGE
;Z:0.2
;HEIGHT:0.2
G1 Z0.2 F9000
G92 E0
M73 P0 R216
G1 E-0.8 F3000
M204 S1000
G1 X77.754 Y85.046 F9000
G1 E0.8 F1800
;TYPE:Skirt
;WIDTH:0.52
G1 X76.504 Y86.215 E0.06657
G1 X75.91 Y87.822 E0.06657
G1 X66.912 Y161.671 E2.89219
G1 X66.886 Y180.942 E0.74919
G1 X67.803 Y209.097 E1.09513
G1 X67.932 Y210.218 E0.04387
G1 X68.183 Y211.155 E0.03771
G1 X68.473 Y211.854 E0.02942
G1 X68.958 Y212.694 E0.03771
G1 X69.418 Y213.295 E0.02942
G1 X70.104 Y213.981 E0.03771
G1 X70.705 Y214.441 E0.02942
G1 X71.545 Y214.926 E0.03771
G1 X72.511 Y215.315 E0.04047
G1 X165.362 Y245.686 E3.79789
G1 X166.383 Y245.868 E0.04029
G1 X169.5 Y245.888 E0.1212
G1 X170.727 Y245.679 E0.0484
G1 X257.561 Y215.29 E3.57651
G1 X258.455 Y214.926 E0.03752
G1 X259.295 Y214.441 E0.03771
G1 X259.896 Y213.981 E0.02942
G1 X260.582 Y213.295 E0.03771
G1 X261.042 Y212.694 E0.02942
G1 X261.527 Y211.854 E0.03771
G1 X261.817 Y211.155 E0.02942
G1 X262.068 Y210.218 E0.03771
G1 X262.197 Y209.097 E0.04387
G1 X263.116 Y180.821 E1.09983
G1 X263.116 Y88.404 E3.5928
G1 X262.38 Y86.186 E0.09087
G1 X261.069 Y85.085 E0.06657
G1 X259.403 Y84.689 E0.06657
G1 X83.002 Y84.556 E6.85777
G1 X79.599 Y84.556 E0.13229
G1 X77.754 Y85.046 E0.07419
G1 X78.087 Y85.439 F9000
G1 F1800
G1 X76.962 Y86.391 E0.05728
G1 X76.384 Y87.879 E0.06209
G1 X67.385 Y161.729 E2.89219
G1 X67.363 Y180.927 E0.74635
G1 X68.279 Y209.082 E1.09513
G1 X68.405 Y210.156 E0.04205
G1 X68.624 Y210.973 E0.03287
G1 X68.914 Y211.672 E0.02942
G1 X69.336 Y212.404 E0.03286
G1 X69.797 Y213.004 E0.02942
G1 X70.395 Y213.602 E0.03287
G1 X70.995 Y214.063 E0.02942
G1 X71.727 Y214.486 E0.03287
G1 X72.659 Y214.861 E0.03905
G1 X165.511 Y245.233 E3.79789
G1 X166.4 Y245.391 E0.03511
G1 X169.5 Y245.411 E0.12052
G1 X170.57 Y245.229 E0.04218
G1 X257.404 Y214.84 E3.57651
G1 X258.273 Y214.486 E0.03648
G1 X259.005 Y214.063 E0.03287
G1 X259.605 Y213.602 E0.02942
G1 X260.203 Y213.004 E0.03287
G1 X260.664 Y212.404 E0.02942
G1 X261.086 Y211.672 E0.03286
G1 X261.376 Y210.973 E0.02942
G1 X261.595 Y210.156 E0.03287
G1 X261.721 Y209.082 E0.04205
G1 X262.639 Y180.821 E1.09923
G1 X262.639 Y88.404 E3.5928
G1 X262.121 Y86.647 E0.07121
G1 X260.95 Y85.561 E0.06209
G1 X259.402 Y85.166 E0.06209
G1 X83.001 Y85.033 E6.85777
G1 X79.599 Y85.033 E0.13227
G1 X78.182 Y85.359 E0.05654
G1 X78.087 Y85.439 E0.00481
G1 E-0.8 F3000
; printing object paper_cutter_2.stl id:0 copy 0
EXCLUDE_OBJECT_START NAME=paper_cutter_2_stl_id_0_copy_0
G1 X254.101 Y199.254 F9000
G1 E0.8 F1800
;TYPE:Internal perimeter
;WIDTH:0.5
G1 X75.773 Y199.254 E6.64205
M73 P0 R215
G1 X75.773 Y202.982 E0.13887
G1 X254.101 Y202.982 E6.64205
G1 X254.101 Y199.254 E0.13887
G1 X253.644 Y199.711 F9000
G1 F1800
G1 X76.23 Y199.711 E6.608
G1 X76.23 Y202.525 E0.10482
G1 X253.644 Y202.525 E6.608
G1 X253.644 Y199.711 E0.10482
G1 X253.187 Y200.168 F9000
;TYPE:External perimeter
G1 F1800
G1 X76.687 Y200.168 E6.57395
G1 X76.687 Y202.068 E0.07077
G1 X253.187 Y202.068 E6.57395
G1 X253.187 Y200.168 E0.07077
;WIPE_START
M204 S3000
G1 X253.187 Y199.768 F9000
;WIPE_END
G1 E-0.8 F3000
M204 S1000
G1 X257.25 Y192.38 F9000
G1 E0.8 F1800
;TYPE:Internal perimeter
G1 X257.32 Y192.91 E0.01988
G1 X257.32 Y208.9 E0.59559
G1 X257.25 Y209.429 E0.01988
G1 X257.078 Y209.845 E0.01677
G1 X256.803 Y210.203 E0.01677
G1 X256.446 Y210.477 E0.01677
G1 X256.03 Y210.649 E0.01677
G1 X255.501 Y210.719 E0.01988
G1 X74.499 Y210.719 E6.74163
G1 X73.97 Y210.649 E0.01988
G1 X73.554 Y210.477 E0.01677
G1 X73.197 Y210.203 E0.01677
G1 X72.922 Y209.845 E0.01677
G1 X72.75 Y209.429 E0.01677
G1 X72.68 Y208.9 E0.01988
G1 X72.68 Y192.91 E0.59559
G1 X72.75 Y192.38 E0.01988
G1 X72.922 Y191.964 E0.01677
G1 X73.197 Y191.607 E0.01677
G1 X73.554 Y191.333 E0.01677
G1 X73.97 Y191.161 E0.01677
G1 X74.499 Y191.091 E0.01988
G1 X255.501 Y191.091 E6.74163
G1 X255.807 Y191.131 E0.0115
G1 X256.03 Y191.161 E0.00839
G1 X256.446 Y191.333 E0.01677
G1 X256.803 Y191.607 E0.01677
G1 X257.078 Y191.964 E0.01677
G1 X257.25 Y192.38 E0.01677
G1 X257.695 Y192.261 F9000
G1 F1800
G1 X257.777 Y192.88 E0.02324
G1 X257.777 Y208.93 E0.59782
G1 X257.695 Y209.549 E0.02324
G1 X257.477 Y210.076 E0.02125
G1 X257.129 Y210.529 E0.02126
G1 X256.677 Y210.876 E0.02125
G1 X256.149 Y211.094 E0.02125
G1 X255.531 Y211.176 E0.02324
G1 X74.469 Y211.176 E6.74386
G1 X73.851 Y211.094 E0.02324
G1 X73.323 Y210.876 E0.02125
G1 X72.871 Y210.529 E0.02125
G1 X72.523 Y210.076 E0.02126
G1 X72.305 Y209.549 E0.02125
G1 X72.223 Y208.93 E0.02324
G1 X72.223 Y192.88 E0.59782
G1 X72.305 Y192.261 E0.02324
G1 X72.523 Y191.734 E0.02125
G1 X72.871 Y191.281 E0.02125
G1 X73.323 Y190.934 E0.02125
G1 X73.851 Y190.715 E0.02125
G1 X74.469 Y190.634 E0.02324
G1 X255.531 Y190.634 E6.74386
M73 P1 R214
G1 X255.867 Y190.678 E0.01261
G1 X256.149 Y190.715 E0.01063
G1 X256.677 Y190.934 E0.02125
G1 X257.129 Y191.281 E0.02125
G1 X257.477 Y191.734 E0.02125
G1 X257.695 Y192.261 E0.02125
G1 E-0.8 F3000
G1 X258.141 Y209.668 F9000
G1 E0.8 F1800
;TYPE:External perimeter
G1 X257.876 Y210.306 E0.02574
G1 X257.455 Y210.855 E0.02574
G1 X256.907 Y211.275 E0.02574
G1 X256.269 Y211.54 E0.02574
G1 X255.561 Y211.633 E0.0266
G1 X74.439 Y211.633 E6.74609
M73 P1 R214
G1 X73.731 Y211.54 E0.0266
G1 X73.093 Y211.275 E0.02574
G1 X72.545 Y210.855 E0.02574
G1 X72.124 Y210.306 E0.02574
G1 X71.859 Y209.668 E0.02574
G1 X71.766 Y208.96 E0.0266
G1 X71.766 Y192.85 E0.60005
G1 X71.859 Y192.142 E0.0266
G1 X72.124 Y191.503 E0.02574
G1 X72.545 Y190.955 E0.02574
G1 X73.093 Y190.534 E0.02574
G1 X73.731 Y190.27 E0.02574
G1 X74.439 Y190.177 E0.0266
G1 X255.561 Y190.177 E6.74609
G1 X255.926 Y190.225 E0.01373
G1 X256.269 Y190.27 E0.01287
G1 X256.907 Y190.534 E0.02574
G1 X257.455 Y190.955 E0.02574
G1 X257.876 Y191.503 E0.02574
G1 X258.141 Y192.142 E0.02574
G1 X258.234 Y192.85 E0.0266
G1 X258.234 Y208.96 E0.60005
G1 X258.141 Y209.668 E0.0266
;WIPE_START
M204 S3000
G1 X257.75 Y209.755 F9000
;WIPE_END
G1 E-0.8 F3000
M204 S1000
G1 X257.167 Y192.359 F9000
G1 E0.8 F1800
;TYPE:Solid infill
;WIDTH:0.49304
G1 F2400
G1 X256.105 Y191.297 E0.05515
G1 X255.361 Y191.2 F9000
G1 F2400
G1 X257.251 Y193.089 E0.09816
G1 X257.251 Y193.736 F9000
G1 F2400
G1 X254.715 Y191.199 E0.13174
G1 X254.068 Y191.199 F9000
G1 F2400
G1 X257.251 Y194.382 E0.16532
G1 X257.251 Y195.029 F9000
G1 F2400
G1 X253.422 Y191.199 E0.19891
G1 X252.775 Y191.199 F9000
G1 F2400
G1 X257.251 Y195.675 E0.23249
G1 X257.251 Y196.321 F9000
G1 F2400
G1 X252.128 Y191.199 E0.26607
G1 X251.482 Y191.199 F9000
G1 F2400
G1 X257.251 Y196.968 E0.29965
G1 X257.251 Y197.614 F9000
G1 F2400
G1 X250.835 Y191.199 E0.33324
G1 X250.189 Y191.198 F9000
G1 F2400
G1 X257.251 Y198.261 E0.36682
G1 X257.251 Y198.907 F9000
G1 F2400
G1 X249.542 Y191.198 E0.4004
G1 X248.896 Y191.198 F9000
G1 F2400
G1 X257.251 Y199.554 E0.43398
G1 X257.251 Y200.2 F9000
G1 F2400
G1 X248.249 Y191.198 E0.46757
G1 X247.603 Y191.198 F9000
G1 F2400
G1 X257.251 Y200.846 E0.50115
G1 X257.251 Y201.493 F9000
G1 F2400
G1 X246.956 Y191.198 E0.53473
G1 X246.309 Y191.198 F9000
G1 F2400
G1 X257.251 Y202.139 E0.56831
G1 X257.251 Y202.786 F9000
G1 F2400
G1 X254.17 Y199.704 E0.16004
G1 X254.17 Y200.351 F9000
G1 F2400
G1 X257.251 Y203.432 E0.16004
G1 X257.251 Y204.078 F9000
G1 F2400
G1 X254.17 Y200.997 E0.16004
G1 X254.17 Y201.644 F9000
G1 F2400
G1 X257.251 Y204.725 E0.16004
G1 X257.251 Y205.371 F9000
G1 F2400
G1 X254.17 Y202.29 E0.16004
G1 X254.17 Y202.936 F9000
G1 F2400
G1 X257.251 Y206.018 E0.16004
G1 X257.251 Y206.664 F9000
G1 F2400
G1 X253.637 Y203.05 E0.18769
G1 X252.991 Y203.05 F9000
G1 F2400
G1 X257.251 Y207.31 E0.22127
G1 X257.251 Y207.957 F9000
G1 F2400
G1 X252.345 Y203.05 E0.25484
G1 X251.698 Y203.05 F9000
G1 F2400
G1 X257.251 Y208.603 E0.28842
G1 X257.21 Y209.208 F9000
G1 F2400
G1 X251.052 Y203.05 E0.31985
G1 X250.405 Y203.05 F9000
G1 F2400
G1 X257.061 Y209.706 E0.3457
G1 X256.801 Y210.093 F9000
G1 F2400
G1 X249.759 Y203.05 E0.36579
G1 X249.113 Y203.05 F9000
G1 F2400
G1 X256.45 Y210.388 E0.3811
G1 X256 Y210.584 F9000
G1 F2400
G1 X248.466 Y203.05 E0.3913
G1 X247.82 Y203.05 F9000
G1 F2400
G1 X255.42 Y210.65 E0.39474
G1 X254.773 Y210.65 F9000
G1 F2400
G1 X247.173 Y203.05 E0.39474
G1 X246.527 Y203.05 F9000
G1 F2400
G1 X254.127 Y210.65 E0.39474
G1 X253.48 Y210.65 F9000
G1 F2400
G1 X245.881 Y203.05 E0.39474
G1 X245.234 Y203.05 F9000
G1 F2400
G1 X252.834 Y210.65 E0.39474
G1 X252.188 Y210.65 F9000
G1 F2400
G1 X244.588 Y203.05 E0.39474
G1 X243.941 Y203.05 F9000
G1 F2400
G1 X251.541 Y210.65 E0.39474
G1 X250.895 Y210.65 F9000
G1 F2400
G1 X243.295 Y203.05 E0.39474
G1 X242.648 Y203.05 F9000
G1 F2400
G1 X250.248 Y210.65 E0.39474
G1 X249.602 Y210.65 F9000
G1 F2400
G1 X242.002 Y203.05 E0.39474
G1 X241.356 Y203.05 F9000
G1 F2400
G1 X248.956 Y210.65 E0.39474
G1 X248.309 Y210.65 F9000
G1 F2400
G1 X240.709 Y203.05 E0.39474
G1 X240.063 Y203.05 F9000
G1 F2400
G1 X247.663 Y210.65 E0.39474
G1 X247.016 Y210.65 F9000
G1 F2400
G1 X239.416 Y203.05 E0.39474
G1 X238.77 Y203.05 F9000
G1 F2400
G1 X246.37 Y210.65 E0.39474
G1 X245.723 Y210.65 F9000
G1 F2400
G1 X238.124 Y203.05 E0.39474
G1 X237.477 Y203.05 F9000
G1 F2400
G1 X245.077 Y210.65 E0.39474
G1 X244.431 Y210.65 F9000
G1 F2400
G1 X236.831 Y203.05 E0.39474
G1 X236.184 Y203.05 F9000
G1 F2400
G1 X243.784 Y210.65 E0.39474
G1 X243.138 Y210.65 F9000
G1 F2400
G1 X235.538 Y203.05 E0.39474
G1 X234.892 Y203.05 F9000
G1 F2400
G1 X242.491 Y210.65 E0.39474
G1 X241.845 Y210.65 F9000
G1 F2400
G1 X234.245 Y203.05 E0.39474
G1 X233.599 Y203.05 F9000
G1 F2400
G1 X241.199 Y210.65 E0.39474
G1 X240.552 Y210.65 F9000
G1 F2400
G1 X232.952 Y203.05 E0.39474
G1 X232.306 Y203.05 F9000
G1 F2400
G1 X239.906 Y210.65 E0.39474
G1 X239.259 Y210.65 F9000
G1 F2400
G1 X231.66 Y203.05 E0.39474
G1 X231.013 Y203.05 F9000
G1 F2400
G1 X238.613 Y210.65 E0.39474
G1 X237.967 Y210.65 F9000
G1 F2400
G1 X230.367 Y203.05 E0.39474
G1 X229.72 Y203.05 F9000
G1 F2400
G1 X237.32 Y210.65 E0.39474
G1 X236.674 Y210.65 F9000
G1 F2400
G1 X229.074 Y203.05 E0.39474
G1 X228.428 Y203.05 F9000
G1 F2400
G1 X236.027 Y210.65 E0.39474
G1 X235.381 Y210.65 F9000
G1 F2400
G1 X227.781 Y203.05 E0.39474
G1 X227.135 Y203.05 F9000
G1 F2400
G1 X234.735 Y210.65 E0.39474
G1 X234.088 Y210.65 F9000
G1 F2400
G1 X226.488 Y203.05 E0.39474
G1 X225.842 Y203.05 F9000
G1 F2400
G1 X233.442 Y210.65 E0.39474
G1 X232.795 Y210.65 F9000
G1 F2400
G1 X225.195 Y203.05 E0.39474
G1 X224.549 Y203.05 F9000
G1 F2400
G1 X232.149 Y210.65 E0.39474
G1 X231.503 Y210.65 F9000
G1 F2400
G1 X223.903 Y203.05 E0.39474
G1 X223.256 Y203.05 F9000
G1 F2400
G1 X230.856 Y210.65 E0.39474
G1 X230.21 Y210.65 F9000
G1 F2400
G1 X222.61 Y203.05 E0.39474
G1 X221.963 Y203.05 F9000
G1 F2400
G1 X229.563 Y210.65 E0.39474
G1 X228.917 Y210.65 F9000
G1 F2400
G1 X221.317 Y203.05 E0.39474
G1 X220.671 Y203.05 F9000
G1 F2400
G1 X228.27 Y210.65 E0.39474
G1 X227.624 Y210.65 F9000
G1 F2400
G1 X220.024 Y203.05 E0.39474
G1 X219.378 Y203.05 F9000
G1 F2400
G1 X226.978 Y210.65 E0.39474
G1 X226.331 Y210.65 F9000
G1 F2400
G1 X218.731 Y203.05 E0.39474
G1 X218.085 Y203.05 F9000
G1 F2400
G1 X225.685 Y210.65 E0.39474
G1 X225.038 Y210.65 F9000
G1 F2400
G1 X217.439 Y203.05 E0.39474
G1 X216.792 Y203.05 F9000
G1 F2400
G1 X224.392 Y210.65 E0.39474
G1 X223.746 Y210.65 F9000
G1 F2400
G1 X216.146 Y203.05 E0.39474
G1 X215.499 Y203.05 F9000
G1 F2400
G1 X223.099 Y210.65 E0.39474
G1 X222.453 Y210.65 F9000
G1 F2400
G1 X214.853 Y203.05 E0.39474
G1 X214.207 Y203.05 F9000
G1 F2400
G1 X221.806 Y210.65 E0.39474
G1 X221.16 Y210.65 F9000
G1 F2400
G1 X213.56 Y203.05 E0.39474
G1 X212.914 Y203.05 F9000
G1 F2400
G1 X220.514 Y210.65 E0.39474
G1 X219.867 Y210.65 F9000
G1 F2400
G1 X212.267 Y203.05 E0.39474
G1 X211.621 Y203.05 F9000
G1 F2400
G1 X219.221 Y210.65 E0.39474
G1 X218.574 Y210.65 F9000
G1 F2400
G1 X210.975 Y203.05 E0.39474
G1 X210.328 Y203.05 F9000
G1 F2400
G1 X217.928 Y210.65 E0.39474
G1 X217.282 Y210.65 F9000
G1 F2400
G1 X209.682 Y203.05 E0.39474
G1 X209.035 Y203.05 F9000
G1 F2400
G1 X216.635 Y210.65 E0.39474
G1 X215.989 Y210.65 F9000
G1 F2400
G1 X208.389 Y203.05 E0.39474
G1 X207.742 Y203.05 F9000
G1 F2400
G1 X215.342 Y210.65 E0.39474
G1 X214.696 Y210.65 F9000
G1 F2400
G1 X207.096 Y203.05 E0.39474
G1 X206.45 Y203.05 F9000
G1 F2400
G1 X214.05 Y210.65 E0.39474
G1 X213.403 Y210.65 F9000
G1 F2400
G1 X205.803 Y203.05 E0.39474
G1 X205.157 Y203.05 F9000
G1 F2400
G1 X212.757 Y210.65 E0.39474
G1 X212.11 Y210.65 F9000
G1 F2400
G1 X204.51 Y203.05 E0.39474
G1 X203.864 Y203.05 F9000
G1 F2400
G1 X211.464 Y210.65 E0.39474
G1 X210.817 Y210.65 F9000
G1 F2400
G1 X203.218 Y203.05 E0.39474
G1 X202.571 Y203.05 F9000
G1 F2400
G1 X210.171 Y210.65 E0.39474
G1 X209.525 Y210.65 F9000
G1 F2400
G1 X201.925 Y203.05 E0.39474
G1 X201.278 Y203.05 F9000
G1 F2400
G1 X208.878 Y210.65 E0.39474
G1 X208.232 Y210.65 F9000
G1 F2400
G1 X200.632 Y203.05 E0.39474
G1 X199.986 Y203.05 F9000
G1 F2400
G1 X207.585 Y210.65 E0.39474
G1 X206.939 Y210.65 F9000
G1 F2400
G1 X199.339 Y203.05 E0.39474
G1 X198.693 Y203.05 F9000
G1 F2400
G1 X206.293 Y210.65 E0.39474
G1 X205.646 Y210.65 F9000
G1 F2400
G1 X198.046 Y203.05 E0.39474
G1 X197.4 Y203.05 F9000
G1 F2400
G1 X205 Y210.65 E0.39474
G1 X204.353 Y210.65 F9000
G1 F2400
G1 X196.754 Y203.05 E0.39474
G1 X196.107 Y203.05 F9000
G1 F2400
G1 X203.707 Y210.65 E0.39474
G1 X203.061 Y210.65 F9000
G1 F2400
G1 X195.461 Y203.05 E0.39474
G1 X194.814 Y203.05 F9000
G1 F2400
G1 X202.414 Y210.65 E0.39474
G1 X201.768 Y210.65 F9000
G1 F2400
G1 X194.168 Y203.05 E0.39474
G1 X193.522 Y203.05 F9000
G1 F2400
G1 X201.121 Y210.65 E0.39474
G1 X200.475 Y210.65 F9000
G1 F2400
G1 X192.875 Y203.05 E0.39474
G1 X192.229 Y203.05 F9000
G1 F2400
