; generated by SuperSlicer 2.3.57 on 2022-02-07 at 15:21:43 UTC


;
;

;
;
; 

; external perimeters extrusion width = 0.40mm
; perimeters extrusion width = 0.40mm
; infill extrusion width = 0.72mm
; solid infill extrusion width = 0.40mm
; top infill extrusion width = 0.40mm
; first layer extrusion width = 0.48mm


;TYPE:Custom
START_PRINT T_BED=60 T_EXTRUDER=200
M107
G21 ; set units to millimeters
G90 ; use absolute coordinates
M83 ; use relative distances for extrusion
; Filament gcode
M104 S200 ; set temperature
M109 S200 ; set temperature and wait for it to be reached
M190 S60 ; set bed temperature and wait for it to be reached
;LAYER_CHANGE
;Z:0.24
;HEIGHT:0.24
G1 Z0.24 F9000
G1 E-0.6 F3000
G1 X132.956 Y121.951 F9000
G1 E0.6 F1800
;TYPE:Skirt
;WIDTH:0.48
G1 F600
G1 X129.989 Y125.265 E0.19019
G1 X127.414 Y128.641 E0.18155
G1 X124.99 Y132.427 E0.19219
G1 X122.552 Y136.868 E0.2166
G1 X120.961 Y140.126 E0.15505
G1 X119.54 Y143.682 E0.1637
G1 X118.413 Y147.406 E0.16638
G1 X117.557 Y151.396 E0.17444
G1 X117.009 Y155.645 E0.18318
G1 X116.809 Y159.796 E0.1777
G1 X116.924 Y163.782 E0.17047
G1 X117.272 Y166.851 E0.13207
G1 X117.989 Y170.271 E0.14939
G1 X119.146 Y173.72 E0.15556
G1 X120.463 Y176.622 E0.13625
G1 X121.986 Y179.402 E0.13553
G1 X123.565 Y181.938 E0.12773
G1 X124.736 Y183.553 E0.0853
G1 X126.619 Y185.697 E0.12199
G1 X146.841 Y205.942 E1.22345
G1 X148.899 Y207.486 E0.11
G1 X151.008 Y208.585 E0.10169
G1 X153.357 Y209.373 E0.1059
G1 X155.758 Y209.723 E0.10377
G1 X174.143 Y209.727 E0.78604
G1 X176.21 Y209.46 E0.08912
G1 X176.998 Y209.276 E0.0346
G1 X178.771 Y208.685 E0.0799
G1 X180.797 Y207.666 E0.09699
G1 X182.646 Y206.369 E0.09654
G1 X183.232 Y205.872 E0.03284
G1 X203.364 Y185.715 E1.21804
G1 X205.243 Y183.579 E0.12165
G1 X206.326 Y182.105 E0.0782
G1 X208.016 Y179.397 E0.13649
G1 X209.663 Y176.372 E0.14725
G1 X210.954 Y173.479 E0.13544
G1 X212.014 Y170.258 E0.14499
G1 X212.693 Y167.098 E0.13818
G1 X213.076 Y163.771 E0.14321
G1 X213.192 Y159.59 E0.17882
G1 X212.975 Y155.427 E0.17823
G1 X212.438 Y151.366 E0.17516
G1 X211.529 Y147.196 E0.18247
G1 X210.456 Y143.669 E0.15761
G1 X209.03 Y140.107 E0.16407
G1 X207.446 Y136.866 E0.15423
G1 X205.013 Y132.433 E0.21618
G1 X202.699 Y128.8 E0.18418
G1 X200 Y125.252 E0.1906
G1 X196.759 Y121.681 E0.20619
G1 X195.936 Y121.078 E0.0436
G1 X195.024 Y120.635 E0.04335
G1 X194.048 Y120.363 E0.04335
G1 X193.032 Y120.27 E0.0436
G1 X136.957 Y120.27 E2.39754
G1 X136.208 Y120.322 E0.03209
G1 X135.478 Y120.472 E0.03184
G1 X134.78 Y120.714 E0.03159
G1 X134.12 Y121.045 E0.03159
G1 X133.508 Y121.46 E0.03159
G1 X133.001 Y121.911 E0.02903
G1 X133.267 Y122.251 F9000
G1 F600
G1 X133.244 Y122.268 E0.00122
G1 X130.317 Y125.54 E0.18771
G1 X127.75 Y128.907 E0.18102
G1 X125.365 Y132.635 E0.18923
G1 X122.932 Y137.066 E0.21613
G1 X121.353 Y140.298 E0.15377
G1 X119.945 Y143.82 E0.16218
G1 X118.829 Y147.51 E0.16482
G1 X117.98 Y151.465 E0.17297
G1 X117.437 Y155.668 E0.18116
G1 X117.237 Y159.785 E0.17625
G1 X117.352 Y163.754 E0.16978
G1 X117.697 Y166.798 E0.13096
G1 X118.403 Y170.158 E0.1468
G1 X119.539 Y173.552 E0.15302
G1 X120.843 Y176.422 E0.13479
G1 X122.356 Y179.185 E0.13469
G1 X123.931 Y181.713 E0.12735
G1 X125.074 Y183.29 E0.08326
G1 X126.937 Y185.409 E0.12064
G1 X147.132 Y205.628 E1.22183
G1 X149.131 Y207.126 E0.10679
G1 X151.182 Y208.194 E0.09887
G1 X153.46 Y208.958 E0.10273
G1 X155.786 Y209.296 E0.10047
G1 X174.128 Y209.299 E0.78421
G1 X176.145 Y209.036 E0.08697
G1 X176.875 Y208.866 E0.03205
G1 X178.605 Y208.289 E0.078
G1 X180.592 Y207.29 E0.09507
G1 X182.394 Y206.023 E0.09417
G1 X182.935 Y205.563 E0.03037
G1 X203.049 Y185.424 E1.21697
G1 X204.913 Y183.306 E0.12064
G1 X205.97 Y181.867 E0.07631
G1 X207.646 Y179.181 E0.13536
G1 X209.269 Y176.203 E0.14504
G1 X210.554 Y173.325 E0.13476
G1 X211.599 Y170.152 E0.14282
G1 X212.269 Y167.033 E0.13637
G1 X212.649 Y163.746 E0.1415
G1 X212.764 Y159.598 E0.17739
G1 X212.548 Y155.47 E0.17677
G1 X212.016 Y151.442 E0.17369
G1 X211.122 Y147.33 E0.17995
G1 X210.053 Y143.814 E0.1571
G1 X208.644 Y140.293 E0.16213
G1 X207.066 Y137.063 E0.15371
G1 X204.64 Y132.644 E0.21557
G1 X202.361 Y129.065 E0.18139
G1 X199.676 Y125.532 E0.18974
G1 X196.509 Y122.032 E0.20181
G1 X195.75 Y121.466 E0.04047
G1 X194.896 Y121.045 E0.04071
G1 X193.98 Y120.786 E0.04071
G1 X193.032 Y120.698 E0.04071
G1 X136.959 Y120.698 E2.39742
G1 X135.599 Y120.883 E0.05868
G1 X134.329 Y121.419 E0.05892
G1 X133.314 Y122.214 E0.05513
G1 E-0.6 F3000
G1 X146.061 Y143.462 F9000
G1 E0.6 F1800
;TYPE:Internal perimeter
G1 F600
G1 X142.974 Y145.367 E0.15508
G1 X142.904 Y145.415 E0.00362
G1 X140.353 Y147.283 E0.1352
G1 X138.026 Y149.324 E0.13233
G1 X135.937 Y151.541 E0.13023
G1 X134.167 Y153.826 E0.12358
G1 X132.344 Y156.714 E0.14602
G1 X131.416 Y158.522 E0.0869
G1 X130.767 Y160.356 E0.08319
G1 X130.196 Y162.471 E0.09364
G1 X129.552 Y164.945 E0.10933
G1 X131.662 Y165.354 E0.09187
G1 X132.287 Y162.966 E0.10554
G1 X132.855 Y160.868 E0.09294
G1 X133.494 Y159.145 E0.07859
G1 X134.579 Y157.145 E0.09727
G1 X136.287 Y154.556 E0.13261
G1 X138.193 Y152.232 E0.12852
G1 X140.249 Y150.189 E0.12392
G1 X142.532 Y148.314 E0.1263
G1 X145.284 Y146.429 E0.14263
G1 X148.236 Y144.709 E0.14606
G1 X151.747 Y142.971 E0.16751
G1 X154.57 Y141.845 E0.12997
G1 X157.222 Y141.048 E0.1184
G1 X159.739 Y140.547 E0.1097
G1 X162.166 Y140.319 E0.10423
G1 X164.212 Y140.348 E0.08748
G1 X164.212 Y170.943 E1.30811
G1 X163.615 Y171.006 E0.02567
G1 X162.403 Y171.352 E0.05389
G1 X161.269 Y171.902 E0.05389
G1 X160.247 Y172.64 E0.05389
G1 X159.368 Y173.544 E0.05389
G1 X158.658 Y174.585 E0.05389
G1 X158.139 Y175.734 E0.05389
G1 X157.825 Y176.954 E0.05389
G1 X157.727 Y178.211 E0.05389
G1 X157.848 Y179.466 E0.05389
G1 X158.184 Y180.681 E0.05389
G1 X158.724 Y181.82 E0.05389
G1 X159.452 Y182.848 E0.05389
G1 X160.348 Y183.735 E0.05389
G1 X161.383 Y184.455 E0.05389
G1 X162.526 Y184.984 E0.05389
G1 X163.744 Y185.309 E0.05389
G1 X165 Y185.418 E0.05389
G1 X166.256 Y185.309 E0.05389
G1 X167.474 Y184.984 E0.05389
G1 X168.617 Y184.455 E0.05389
G1 X169.652 Y183.735 E0.05389
G1 X170.548 Y182.848 E0.05389
G1 X171.276 Y181.82 E0.05389
G1 X171.816 Y180.681 E0.05389
G1 X172.152 Y179.466 E0.05389
G1 X172.272 Y178.211 E0.05389
G1 X172.175 Y176.955 E0.05389
G1 X171.861 Y175.734 E0.05389
G1 X171.342 Y174.585 E0.05389
G1 X170.632 Y173.544 E0.05389
G1 X169.753 Y172.64 E0.05389
G1 X168.731 Y171.902 E0.05389
G1 X167.597 Y171.352 E0.05389
G1 X166.385 Y171.006 E0.05389
G1 X165.788 Y170.943 E0.02567
G1 X165.788 Y140.383 E1.3066
G1 X167.832 Y140.407 E0.08739
G1 X170.841 Y140.752 E0.12948
G1 X173.932 Y141.433 E0.13534
G1 X176.79 Y142.35 E0.12832
G1 X179.715 Y143.569 E0.13551
G1 X182.851 Y145.186 E0.15086
G1 X185.826 Y147.045 E0.14998
G1 X186.007 Y147.169 E0.00935
G1 X188.591 Y149.118 E0.13838
G1 X190.77 Y151.058 E0.12477
G1 X192.679 Y153.085 E0.11906
G1 X194.277 Y155.161 E0.11199
G1 X195.964 Y157.878 E0.13676
G1 X196.869 Y159.707 E0.08725
G1 X197.479 Y161.52 E0.08176
G1 X198.311 Y165.36 E0.16798
G1 X200.448 Y164.945 E0.09303
G1 X199.804 Y162.471 E0.10933
G1 X199.233 Y160.356 E0.09364
G1 X198.584 Y158.522 E0.08319
G1 X197.656 Y156.714 E0.0869
G1 X195.833 Y153.826 E0.14602
G1 X194.063 Y151.541 E0.12358
G1 X191.974 Y149.324 E0.13023
G1 X189.647 Y147.283 E0.13233
G1 X187.096 Y145.415 E0.1352
G1 X187.026 Y145.367 E0.00362
G1 X183.939 Y143.462 E0.15508
G1 X180.569 Y141.68 E0.16301
G1 X177.508 Y140.328 E0.14307
G1 X174.638 Y139.331 E0.12991
G1 X171.902 Y138.65 E0.12053
G1 X169.261 Y138.263 E0.11412
G1 X166.691 Y138.154 E0.11001
G1 X165 Y138.234 E0.07237
G1 X163.309 Y138.154 E0.07237
G1 X160.739 Y138.263 E0.11001
G1 X158.098 Y138.65 E0.11412
G1 X155.362 Y139.331 E0.12053
G1 X152.492 Y140.328 E0.12991
G1 X149.431 Y141.68 E0.14307
G1 X146.114 Y143.434 E0.16044
G1 E-0.6 F3000
G1 X132.843 Y159.667 F9000
G1 E0.6 F1800
;TYPE:External perimeter
G1 F600
G1 X133.103 Y158.967 E0.03189
G1 X134.212 Y156.925 E0.09936
G1 X135.942 Y154.302 E0.13434
G1 X137.875 Y151.943 E0.13041
G1 X139.962 Y149.871 E0.12572
G1 X142.274 Y147.971 E0.12796
G1 X145.054 Y146.066 E0.14409
G1 X148.033 Y144.332 E0.14735
G1 X151.572 Y142.579 E0.16886
G1 X154.429 Y141.44 E0.1315
G1 X157.119 Y140.631 E0.12008
G1 X159.677 Y140.122 E0.11152
G1 X162.149 Y139.89 E0.10615
G1 X164.576 Y139.924 E0.1038
G1 X164.64 Y139.929 E0.00274
G1 X164.64 Y171.328 E1.3425
G1 X163.697 Y171.428 E0.04057
G1 X162.556 Y171.754 E0.0507
G1 X161.489 Y172.272 E0.0507
G1 X160.528 Y172.966 E0.0507
G1 X159.701 Y173.816 E0.0507
G1 X159.033 Y174.796 E0.0507
G1 X158.544 Y175.876 E0.0507
G1 X158.25 Y177.025 E0.0507
G1 X158.158 Y178.207 E0.0507
G1 X158.271 Y179.388 E0.0507
G1 X158.587 Y180.531 E0.0507
G1 X159.095 Y181.602 E0.0507
G1 X159.78 Y182.57 E0.0507
G1 X160.623 Y183.405 E0.0507
G1 X161.597 Y184.081 E0.0507
G1 X162.673 Y184.58 E0.0507
G1 X163.819 Y184.885 E0.0507
G1 X165 Y184.988 E0.0507
G1 X166.181 Y184.885 E0.0507
G1 X167.327 Y184.58 E0.0507
G1 X168.403 Y184.081 E0.0507
G1 X169.377 Y183.405 E0.0507
G1 X170.22 Y182.57 E0.0507
G1 X170.905 Y181.602 E0.0507
G1 X171.413 Y180.531 E0.0507
G1 X171.729 Y179.388 E0.0507
G1 X171.842 Y178.207 E0.0507
G1 X171.75 Y177.025 E0.0507
G1 X171.456 Y175.876 E0.0507
G1 X170.967 Y174.796 E0.0507
G1 X170.299 Y173.816 E0.0507
G1 X169.472 Y172.966 E0.0507
G1 X168.511 Y172.272 E0.0507
G1 X167.444 Y171.754 E0.0507
G1 X166.303 Y171.428 E0.0507
G1 X165.36 Y171.328 E0.04057
G1 X165.36 Y139.949 E1.34163
G1 X167.859 Y139.979 E0.10686
G1 X170.911 Y140.328 E0.13136
G1 X174.044 Y141.019 E0.13714
G1 X176.938 Y141.947 E0.12995
G1 X179.896 Y143.18 E0.13703
G1 X183.063 Y144.814 E0.15236
G1 X186.062 Y146.686 E0.15115
G1 X186.257 Y146.821 E0.01016
G1 X188.862 Y148.786 E0.13952
G1 X191.069 Y150.751 E0.12632
G1 X193.006 Y152.807 E0.12078
G1 X194.63 Y154.917 E0.11382
G1 X196.339 Y157.67 E0.13855
G1 X197.266 Y159.543 E0.08937
G1 X197.892 Y161.406 E0.08402
G1 X198.641 Y164.859 E0.15107
G1 X199.918 Y164.612 E0.0556
G1 X199.389 Y162.581 E0.08973
G1 X198.823 Y160.484 E0.09286
G1 X198.19 Y158.692 E0.08126
G1 X197.284 Y156.926 E0.08485
G1 X195.482 Y154.072 E0.14433
G1 X193.737 Y151.819 E0.12181
G1 X191.676 Y149.633 E0.12848
G1 X189.378 Y147.618 E0.13066
G1 X186.85 Y145.765 E0.13403
G1 X186.793 Y145.728 E0.0029
G1 X183.726 Y143.834 E0.15411
G1 X180.382 Y142.065 E0.16175
G1 X177.351 Y140.727 E0.14168
G1 X174.516 Y139.742 E0.12833
G1 X171.819 Y139.071 E0.1188
G1 X169.221 Y138.69 E0.11227
G1 X166.692 Y138.583 E0.10824
G1 X165 Y138.663 E0.07242
G1 X163.308 Y138.583 E0.07242
G1 X160.779 Y138.69 E0.10824
G1 X158.181 Y139.071 E0.11227
G1 X155.484 Y139.742 E0.1188
G1 X152.649 Y140.727 E0.12833
G1 X149.618 Y142.065 E0.14168
G1 X146.274 Y143.834 E0.16175
G1 X143.207 Y145.728 E0.15411
G1 X143.15 Y145.765 E0.0029
G1 X140.622 Y147.618 E0.13403
G1 X138.324 Y149.633 E0.13066
G1 X136.263 Y151.819 E0.12848
G1 X134.518 Y154.072 E0.12181
G1 X132.716 Y156.926 E0.14433
G1 X131.81 Y158.692 E0.08485
G1 X131.177 Y160.484 E0.08126
G1 X130.611 Y162.581 E0.09286
G1 X130.082 Y164.612 E0.08973
G1 X131.349 Y164.857 E0.05518
G1 X131.873 Y162.856 E0.08844
G1 X132.446 Y160.738 E0.09384
G1 X132.822 Y159.723 E0.04627
;WIPE_START
G1 X133.238 Y159.599 F9000
;WIPE_END
G1 E-0.6 F3000
G1 X127.192 Y168.803 F9000
G1 E0.6 F1800
;TYPE:Internal perimeter
G1 F600
G1 X152.108 Y167.515 E1.06674
G1 X152.108 Y165.487 E0.0867
G1 X124.131 Y166.934 E1.19777
G1 X124.131 Y167.117 E0.00779
G1 X123.767 Y167.155 E0.01566
G1 X123.536 Y166.08 E0.04703
G1 X123.222 Y163.366 E0.11681
G1 X123.119 Y159.67 E0.1581
G1 X123.31 Y156.012 E0.1566
G1 X123.779 Y152.457 E0.15329
G1 X124.529 Y148.964 E0.15277
G1 X125.497 Y145.766 E0.14288
G1 X126.668 Y142.82 E0.13553
G1 X128.146 Y139.792 E0.14407
G1 X130.486 Y135.531 E0.20783
G1 X132.501 Y132.377 E0.16003
G1 X134.849 Y129.292 E0.16575
G1 X137.273 Y126.581 E0.15548
G1 X192.727 Y126.581 E2.37098
G1 X195.151 Y129.292 E0.15548
G1 X197.499 Y132.377 E0.16575
G1 X199.514 Y135.531 E0.16003
G1 X201.854 Y139.792 E0.20783
G1 X203.332 Y142.82 E0.14407
G1 X204.503 Y145.766 E0.13553
G1 X205.471 Y148.964 E0.14288
G1 X206.221 Y152.457 E0.15277
G1 X206.69 Y156.012 E0.15329
G1 X206.881 Y159.67 E0.1566
G1 X206.778 Y163.366 E0.1581
G1 X206.464 Y166.08 E0.11681
G1 X206.233 Y167.155 E0.04703
G1 X205.869 Y167.117 E0.01566
G1 X205.869 Y166.934 E0.0078
G1 X177.892 Y165.487 E1.19777
G1 X177.892 Y167.515 E0.0867
G1 X205.806 Y168.958 E1.19508
G1 X205.063 Y171.21 E0.10138
G1 X203.968 Y173.652 E0.11443
G1 X202.563 Y176.218 E0.12508
G1 X201.123 Y178.528 E0.1164
G1 X177.85 Y170.288 E1.05555
G1 X177.215 Y172.084 E0.08145
G1 X199.734 Y180.29 E1.02475
G1 X198.737 Y181.422 E0.06449
G1 X196.905 Y183.129 E0.10702
G1 X194.645 Y184.867 E0.12194
G1 X192.21 Y186.371 E0.12232
G1 X189.62 Y187.661 E0.12375
G1 X187.355 Y188.556 E0.10412
G1 X185.36 Y189.111 E0.08851
G1 X185.134 Y189.153 E0.00986
G1 X185.013 Y188.266 E0.03829
G1 X184.532 Y186.683 E0.07072
G1 X183.774 Y185.123 E0.07414
G1 X182.727 Y183.624 E0.07819
G1 X181.401 Y182.263 E0.08123
G1 X179.861 Y181.125 E0.08189
G1 X178.131 Y180.231 E0.08326
G1 X176.404 Y179.66 E0.07776
G1 X175.47 Y179.442 E0.04099
G1 X175.009 Y181.542 E0.09192
G1 X175.804 Y181.724 E0.03486
G1 X177.231 Y182.187 E0.06416
G1 X178.686 Y182.936 E0.06997
G1 X179.97 Y183.89 E0.06841
G1 X181.072 Y185.029 E0.06776
G1 X181.924 Y186.255 E0.06383
G1 X182.535 Y187.519 E0.05999
G1 X182.915 Y188.775 E0.05615
G1 X183.09 Y190.078 E0.05617
G1 X183.11 Y191.837 E0.07524
G1 X182.883 Y193.599 E0.07594
G1 X182.404 Y195.559 E0.08629
G1 X181.822 Y197.204 E0.07458
G1 X181.029 Y198.705 E0.07259
G1 X179.904 Y200.264 E0.08221
G1 X178.86 Y201.319 E0.06344
G1 X177.727 Y202.15 E0.06009
G1 X176.314 Y202.869 E0.0678
G1 X175.177 Y203.233 E0.05102
G1 X173.921 Y203.418 E0.05426
G1 X172.22 Y203.395 E0.07275
G1 X171.204 Y203.228 E0.044
G1 X170.473 Y202.994 E0.03283
G1 X169.898 Y202.706 E0.02748
G1 X169.344 Y202.306 E0.02923
G1 X168.681 Y201.645 E0.04001
G1 X167.948 Y200.634 E0.05341
G1 X167.156 Y199.094 E0.07405
G1 X166.422 Y197.062 E0.09238
G1 X166.284 Y196.527 E0.02362
G1 X165.96 Y194.63 E0.08228
G1 X165.764 Y192.463 E0.09302
G1 X165.816 Y190.672 E0.07663
G1 X165.936 Y189.935 E0.03191
G1 X166.295 Y189.948 E0.01537
G1 X166.352 Y190.595 E0.02776
G1 X166.612 Y191.571 E0.04319
G1 X167.003 Y192.413 E0.03968
G1 X167.481 Y193.098 E0.03572
G1 X168.01 Y193.629 E0.03206
G1 X168.566 Y194.02 E0.02906
G1 X169.135 Y194.286 E0.02685
G1 X169.709 Y194.441 E0.02542
G1 X170.285 Y194.491 E0.02472
G1 X170.861 Y194.441 E0.02474
G1 X171.436 Y194.287 E0.02542
G1 X172.004 Y194.02 E0.02685
G1 X172.561 Y193.63 E0.02906
G1 X173.09 Y193.099 E0.03206
G1 X173.568 Y192.413 E0.03572
G1 X173.959 Y191.572 E0.03968
G1 X174.219 Y190.596 E0.04319
G1 X174.311 Y189.54 E0.0453
G1 X174.219 Y188.484 E0.0453
G1 X173.959 Y187.508 E0.04319
G1 X173.568 Y186.667 E0.03968
G1 X173.09 Y185.981 E0.03572
G1 X172.561 Y185.45 E0.03206
G1 X172.005 Y185.059 E0.02906
G1 X171.436 Y184.793 E0.02685
G1 X170.862 Y184.639 E0.02542
G1 X170.285 Y184.588 E0.02472
G1 X169.709 Y184.639 E0.02472
G1 X169.135 Y184.793 E0.02542
G1 X168.566 Y185.059 E0.02685
G1 X168.01 Y185.45 E0.02906
G1 X167.481 Y185.981 E0.03205
G1 X167.003 Y186.666 E0.03572
G1 X166.688 Y187.343 E0.03193
G1 X166.352 Y187.244 E0.01502
G1 X166.427 Y186.714 E0.02285
G1 X165.286 Y186.339 E0.05137
G1 X165 Y186.869 E0.02572
G1 X164.714 Y186.339 E0.02572
G1 X163.573 Y186.714 E0.05137
G1 X163.648 Y187.244 E0.02285
G1 X163.312 Y187.343 E0.01502
G1 X162.997 Y186.666 E0.03193
G1 X162.519 Y185.981 E0.03572
G1 X161.99 Y185.45 E0.03205
G1 X161.434 Y185.059 E0.02906
G1 X160.865 Y184.793 E0.02685
G1 X160.291 Y184.639 E0.02542
G1 X159.715 Y184.588 E0.02472
G1 X159.138 Y184.639 E0.02472
G1 X158.564 Y184.793 E0.02542
G1 X157.995 Y185.059 E0.02685
G1 X157.439 Y185.45 E0.02906
G1 X156.91 Y185.981 E0.03206
G1 X156.432 Y186.667 E0.03572
G1 X156.041 Y187.508 E0.03968
G1 X155.781 Y188.484 E0.04319
G1 X155.689 Y189.54 E0.0453
G1 X155.781 Y190.596 E0.0453
G1 X156.041 Y191.572 E0.04319
G1 X156.432 Y192.413 E0.03968
G1 X156.91 Y193.099 E0.03572
G1 X157.439 Y193.63 E0.03206
G1 X157.996 Y194.02 E0.02906
G1 X158.564 Y194.287 E0.02685
