; generated by SuperSlicer 2.3.57 on 2022-02-09 at 00:17:39 UTC


;
;

;
;
; 

; external perimeters extrusion width = 0.40mm
; perimeters extrusion width = 0.40mm
; infill extrusion width = 0.72mm
; solid infill extrusion width = 0.40mm
; top infill extrusion width = 0.40mm
; first layer extrusion width = 0.48mm


;TYPE:Custom
START_PRINT T_BED=60 T_EXTRUDER=200
M107
G21 ; set units to millimeters
G90 ; use absolute coordinates
M83 ; use relative distances for extrusion
; Filament gcode
M104 S200 ; set temperature
M109 S200 ; set temperature and wait for it to be reached
M190 S60 ; set bed temperature and wait for it to be reached
;LAYER_CHANGE
;Z:0.24
;HEIGHT:0.24
G1 Z0.24 F9000
G1 E-0.6 F3000
G1 X138.855 Y140.05 F9000
G1 E0.6 F1800
;TYPE:Skirt
;WIDTH:0.48
G1 F600
G1 X138.084 Y140.851 E0.04752
G1 X137.336 Y141.924 E0.05592
G1 X136.785 Y143.11 E0.05592
G1 X136.478 Y144.191 E0.04803
G1 X134.978 Y159.265 E0.64767
G1 X135 Y160.781 E0.06485
G1 X135.338 Y162.314 E0.0671
G1 X135.975 Y163.729 E0.06635
G1 X136.893 Y164.995 E0.06685
G1 X137.919 Y165.947 E0.05985
G1 X138.967 Y166.625 E0.05336
G1 X140.25 Y167.17 E0.0596
G1 X141.64 Y167.474 E0.06086
G1 X163.203 Y168.383 E0.92274
G1 X164.552 Y168.253 E0.05795
G1 X174.601 Y166.358 E0.43723
G1 X175.622 Y166.03 E0.04584
G1 X176.408 Y165.664 E0.03709
G1 X177.196 Y165.176 E0.0396
G1 X177.874 Y164.635 E0.0371
G1 X178.933 Y163.469 E0.06735
G1 X179.719 Y162.131 E0.06635
G1 X180.222 Y160.644 E0.0671
G1 X180.407 Y159.157 E0.0641
G1 X180.379 Y158.271 E0.0379
G1 X178.859 Y141.165 E0.73423
G1 X178.722 Y140.275 E0.03852
G1 X178.319 Y138.981 E0.05792
G1 X177.774 Y137.907 E0.05153
G1 X176.963 Y136.814 E0.05817
G1 X175.991 Y135.904 E0.05692
G1 X174.968 Y135.223 E0.05252
G1 X173.746 Y134.682 E0.05718
G1 X172.624 Y134.394 E0.04953
G1 X171.298 Y134.275 E0.05692
G1 X161.721 Y135.042 E0.41077
G1 X151.658 Y135.96 E0.43201
G1 X141.601 Y138.476 E0.44327
G1 X140.137 Y139.123 E0.06842
G1 X138.903 Y140.015 E0.06511
G1 X139.174 Y140.339 F9000
G1 F600
G1 X138.432 Y141.104 E0.04556
G1 X137.712 Y142.128 E0.05352
G1 X137.185 Y143.263 E0.05352
G1 X136.896 Y144.289 E0.04557
G1 X135.407 Y159.281 E0.64416
G1 X135.423 Y160.712 E0.06115
G1 X135.736 Y162.153 E0.06307
G1 X136.335 Y163.495 E0.06282
G1 X137.182 Y164.675 E0.06211
G1 X138.169 Y165.598 E0.05778
G1 X139.158 Y166.241 E0.05046
G1 X140.381 Y166.762 E0.05682
G1 X141.707 Y167.051 E0.05803
G1 X163.196 Y167.955 E0.91956
G1 X164.481 Y167.831 E0.0552
G1 X174.476 Y165.948 E0.43489
G1 X175.261 Y165.71 E0.03506
G1 X176.187 Y165.296 E0.04335
G1 X176.928 Y164.84 E0.03723
G1 X177.555 Y164.346 E0.0341
G1 X178.577 Y163.229 E0.06475
G1 X179.327 Y161.959 E0.06306
G1 X179.806 Y160.54 E0.06402
G1 X179.98 Y159.126 E0.0609
G1 X178.433 Y141.208 E0.76895
G1 X178.309 Y140.392 E0.03528
G1 X177.937 Y139.179 E0.05424
G1 X177.453 Y138.204 E0.04653
G1 X176.714 Y137.181 E0.054
G1 X175.888 Y136.372 E0.04941
G1 X174.852 Y135.649 E0.054
G1 X173.678 Y135.113 E0.0552
G1 X172.583 Y134.822 E0.04845
G1 X171.297 Y134.704 E0.0552
G1 X161.758 Y135.469 E0.40917
G1 X151.748 Y136.38 E0.42975
G1 X141.754 Y138.877 E0.44045
G1 X140.375 Y139.48 E0.06433
G1 X139.223 Y140.304 E0.06056
G1 E-0.6 F3000
G1 X171.572 Y159.419 F9000
G1 E0.6 F1800
;TYPE:Internal perimeter
G1 F600
G1 X171.55 Y159.363 E0.00259
G1 X171.515 Y159.231 E0.00585
G1 X171.493 Y159.096 E0.00585
G1 X171.486 Y158.959 E0.00585
G1 X171.493 Y158.823 E0.00585
G1 X171.515 Y158.688 E0.00585
G1 X171.55 Y158.555 E0.00585
G1 X171.599 Y158.428 E0.00585
G1 X171.661 Y158.306 E0.00585
G1 X171.736 Y158.191 E0.00585
G1 X171.822 Y158.085 E0.00585
G1 X171.918 Y157.988 E0.00585
G1 X172.025 Y157.902 E0.00585
G1 X172.139 Y157.828 E0.00585
G1 X172.261 Y157.766 E0.00585
G1 X172.389 Y157.717 E0.00585
G1 X172.521 Y157.681 E0.00585
G1 X172.656 Y157.66 E0.00585
G1 X172.793 Y157.653 E0.00585
G1 X172.929 Y157.66 E0.00585
G1 X173.064 Y157.681 E0.00585
G1 X173.196 Y157.717 E0.00585
G1 X173.324 Y157.766 E0.00585
G1 X173.446 Y157.828 E0.00585
G1 X173.56 Y157.902 E0.00585
G1 X173.667 Y157.988 E0.00585
G1 X173.763 Y158.085 E0.00585
G1 X173.849 Y158.191 E0.00585
G1 X173.924 Y158.306 E0.00585
G1 X173.986 Y158.428 E0.00585
G1 X174.035 Y158.555 E0.00585
G1 X174.07 Y158.688 E0.00585
G1 X174.092 Y158.823 E0.00585
G1 X174.099 Y158.959 E0.00585
G1 X174.092 Y159.096 E0.00585
G1 X174.07 Y159.231 E0.00585
G1 X174.035 Y159.363 E0.00585
G1 X173.986 Y159.49 E0.00585
G1 X173.924 Y159.612 E0.00585
G1 X173.849 Y159.727 E0.00585
G1 X173.763 Y159.833 E0.00585
G1 X173.667 Y159.93 E0.00585
G1 X173.56 Y160.016 E0.00585
G1 X173.446 Y160.09 E0.00585
G1 X173.324 Y160.152 E0.00585
G1 X173.196 Y160.201 E0.00585
G1 X173.064 Y160.237 E0.00585
G1 X172.929 Y160.258 E0.00585
G1 X172.793 Y160.265 E0.00585
G1 X172.656 Y160.258 E0.00585
G1 X172.521 Y160.237 E0.00585
G1 X172.389 Y160.201 E0.00585
G1 X172.261 Y160.152 E0.00585
G1 X172.139 Y160.09 E0.00585
G1 X172.025 Y160.016 E0.00585
G1 X171.918 Y159.93 E0.00585
G1 X171.822 Y159.833 E0.00585
G1 X171.736 Y159.727 E0.00585
G1 X171.661 Y159.612 E0.00585
G1 X171.593 Y159.475 E0.00653
G1 X171.193 Y159.629 F9000
;TYPE:External perimeter
G1 F600
G1 X171.142 Y159.495 E0.00611
G1 X171.095 Y159.32 E0.00777
G1 X171.067 Y159.14 E0.00777
G1 X171.057 Y158.959 E0.00777
G1 X171.067 Y158.778 E0.00777
G1 X171.095 Y158.598 E0.00777
G1 X171.142 Y158.423 E0.00777
G1 X171.207 Y158.253 E0.00777
G1 X171.29 Y158.091 E0.00777
G1 X171.389 Y157.939 E0.00777
G1 X171.503 Y157.798 E0.00777
G1 X171.631 Y157.67 E0.00777
G1 X171.773 Y157.555 E0.00777
G1 X171.925 Y157.456 E0.00777
G1 X172.087 Y157.374 E0.00777
G1 X172.256 Y157.309 E0.00777
G1 X172.432 Y157.262 E0.00777
G1 X172.611 Y157.233 E0.00777
G1 X172.793 Y157.224 E0.00777
G1 X172.974 Y157.233 E0.00777
G1 X173.153 Y157.262 E0.00777
G1 X173.329 Y157.309 E0.00777
G1 X173.498 Y157.374 E0.00777
G1 X173.66 Y157.456 E0.00777
G1 X173.813 Y157.555 E0.00777
G1 X173.954 Y157.67 E0.00777
G1 X174.082 Y157.798 E0.00777
G1 X174.196 Y157.939 E0.00777
G1 X174.295 Y158.091 E0.00777
G1 X174.378 Y158.253 E0.00777
G1 X174.443 Y158.423 E0.00777
G1 X174.49 Y158.598 E0.00777
G1 X174.518 Y158.778 E0.00777
G1 X174.528 Y158.959 E0.00777
G1 X174.518 Y159.14 E0.00777
G1 X174.49 Y159.32 E0.00777
G1 X174.443 Y159.495 E0.00777
G1 X174.378 Y159.665 E0.00777
G1 X174.295 Y159.827 E0.00777
G1 X174.196 Y159.979 E0.00777
G1 X174.082 Y160.12 E0.00777
G1 X173.954 Y160.249 E0.00777
G1 X173.813 Y160.363 E0.00777
G1 X173.66 Y160.462 E0.00777
G1 X173.498 Y160.544 E0.00777
G1 X173.329 Y160.609 E0.00777
G1 X173.153 Y160.656 E0.00777
G1 X172.974 Y160.685 E0.00777
G1 X172.793 Y160.694 E0.00777
G1 X172.611 Y160.685 E0.00777
G1 X172.432 Y160.656 E0.00777
G1 X172.256 Y160.609 E0.00777
G1 X172.087 Y160.544 E0.00777
G1 X171.925 Y160.462 E0.00777
G1 X171.773 Y160.363 E0.00777
G1 X171.631 Y160.249 E0.00777
G1 X171.503 Y160.12 E0.00777
G1 X171.389 Y159.979 E0.00777
G1 X171.29 Y159.827 E0.00777
G1 X171.217 Y159.684 E0.00685
;WIPE_START
G1 X171.28 Y159.515 F9000
;WIPE_END
G1 E-0.6 F3000
G1 X173.027 Y157.834 F9000
G1 E0.6 F1800
;TYPE:Solid infill
;WIDTH:0.505809
G1 X173.543 Y158.35 E0.03288
G1 X173.633 Y158.474 E0.0069
G1 X173.715 Y158.659 E0.00914
G1 X173.757 Y158.858 E0.00914
G1 X173.757 Y159.061 E0.00914
G1 X173.738 Y159.151 E0.00419
G1 X172.596 Y158.01 E0.07276
G1 X172.398 Y158.073 E0.00938
G1 X172.222 Y158.174 E0.00914
G1 X172.187 Y158.206 E0.00215
G1 X173.545 Y159.565 E0.08656
G1 X173.514 Y159.608 E0.00243
G1 X173.363 Y159.744 E0.00914
G1 X173.208 Y159.833 E0.00805
G1 X171.92 Y158.546 E0.08204
G1 X171.87 Y158.659 E0.0056
G1 X171.828 Y158.858 E0.00914
G1 X171.828 Y159.059 E0.00907
G1 X172.877 Y160.108 E0.06685
G1 E-0.6 F3000
G1 X163.526 Y159.515 F9000
G1 E0.6 F1800
;TYPE:Internal perimeter
;WIDTH:0.48
G1 F600
G1 X163.558 Y159.523 E0.00138
G1 X163.685 Y159.572 E0.00585
G1 X163.807 Y159.634 E0.00585
G1 X163.922 Y159.708 E0.00585
G1 X164.028 Y159.794 E0.00585
G1 X164.125 Y159.891 E0.00585
G1 X164.211 Y159.997 E0.00585
G1 X164.285 Y160.112 E0.00585
G1 X164.347 Y160.234 E0.00585
G1 X164.396 Y160.362 E0.00585
G1 X164.432 Y160.494 E0.00585
G1 X164.453 Y160.629 E0.00585
G1 X164.46 Y160.765 E0.00585
G1 X164.453 Y160.902 E0.00585
G1 X164.432 Y161.037 E0.00585
G1 X164.396 Y161.169 E0.00585
G1 X164.347 Y161.296 E0.00585
G1 X164.285 Y161.418 E0.00585
G1 X164.211 Y161.533 E0.00585
G1 X164.125 Y161.639 E0.00585
G1 X164.028 Y161.736 E0.00585
G1 X163.922 Y161.822 E0.00585
G1 X163.807 Y161.896 E0.00585
G1 X163.685 Y161.958 E0.00585
G1 X163.558 Y162.007 E0.00585
G1 X163.426 Y162.043 E0.00585
G1 X163.291 Y162.064 E0.00585
G1 X163.154 Y162.071 E0.00585
G1 X163.017 Y162.064 E0.00585
G1 X162.882 Y162.043 E0.00585
G1 X162.75 Y162.007 E0.00585
G1 X162.623 Y161.958 E0.00585
G1 X162.501 Y161.896 E0.00585
G1 X162.386 Y161.822 E0.00585
G1 X162.28 Y161.736 E0.00585
G1 X162.183 Y161.639 E0.00585
G1 X162.097 Y161.533 E0.00585
G1 X162.023 Y161.418 E0.00585
G1 X161.961 Y161.296 E0.00585
G1 X161.912 Y161.169 E0.00585
G1 X161.876 Y161.037 E0.00585
G1 X161.855 Y160.902 E0.00585
G1 X161.848 Y160.765 E0.00585
G1 X161.855 Y160.629 E0.00585
G1 X161.876 Y160.494 E0.00585
G1 X161.912 Y160.362 E0.00585
G1 X161.961 Y160.234 E0.00585
G1 X162.023 Y160.112 E0.00585
G1 X162.097 Y159.997 E0.00585
G1 X162.183 Y159.891 E0.00585
G1 X162.28 Y159.794 E0.00585
G1 X162.386 Y159.708 E0.00585
G1 X162.501 Y159.634 E0.00585
G1 X162.623 Y159.572 E0.00585
G1 X162.75 Y159.523 E0.00585
G1 X162.882 Y159.488 E0.00585
G1 X163.017 Y159.466 E0.00585
G1 X163.154 Y159.459 E0.00585
G1 X163.291 Y159.466 E0.00585
G1 X163.426 Y159.488 E0.00585
G1 X163.468 Y159.499 E0.0019
G1 X163.579 Y159.085 F9000
;TYPE:External perimeter
G1 F600
G1 X163.69 Y159.115 E0.00491
G1 X163.86 Y159.18 E0.00777
G1 X164.022 Y159.262 E0.00777
G1 X164.174 Y159.361 E0.00777
G1 X164.315 Y159.476 E0.00777
G1 X164.444 Y159.604 E0.00777
G1 X164.558 Y159.745 E0.00777
G1 X164.657 Y159.898 E0.00777
G1 X164.739 Y160.059 E0.00777
G1 X164.804 Y160.229 E0.00777
G1 X164.851 Y160.404 E0.00777
G1 X164.88 Y160.584 E0.00777
G1 X164.889 Y160.765 E0.00777
G1 X164.88 Y160.947 E0.00777
G1 X164.851 Y161.126 E0.00777
G1 X164.804 Y161.301 E0.00777
G1 X164.739 Y161.471 E0.00777
G1 X164.657 Y161.633 E0.00777
G1 X164.558 Y161.785 E0.00777
G1 X164.444 Y161.926 E0.00777
G1 X164.315 Y162.055 E0.00777
G1 X164.174 Y162.169 E0.00777
G1 X164.022 Y162.268 E0.00777
G1 X163.86 Y162.35 E0.00777
G1 X163.69 Y162.416 E0.00777
G1 X163.515 Y162.463 E0.00777
G1 X163.335 Y162.491 E0.00777
G1 X163.154 Y162.5 E0.00777
G1 X162.973 Y162.491 E0.00777
G1 X162.793 Y162.463 E0.00777
G1 X162.618 Y162.416 E0.00777
G1 X162.448 Y162.35 E0.00777
G1 X162.286 Y162.268 E0.00777
G1 X162.134 Y162.169 E0.00777
G1 X161.993 Y162.055 E0.00777
G1 X161.864 Y161.926 E0.00777
G1 X161.75 Y161.785 E0.00777
G1 X161.651 Y161.633 E0.00777
G1 X161.569 Y161.471 E0.00777
G1 X161.504 Y161.301 E0.00777
G1 X161.457 Y161.126 E0.00777
G1 X161.428 Y160.947 E0.00777
G1 X161.419 Y160.765 E0.00777
G1 X161.428 Y160.584 E0.00777
G1 X161.457 Y160.404 E0.00777
G1 X161.504 Y160.229 E0.00777
G1 X161.569 Y160.059 E0.00777
G1 X161.651 Y159.898 E0.00777
G1 X161.75 Y159.745 E0.00777
G1 X161.864 Y159.604 E0.00777
G1 X161.993 Y159.476 E0.00777
G1 X162.134 Y159.361 E0.00777
G1 X162.286 Y159.262 E0.00777
G1 X162.448 Y159.18 E0.00777
G1 X162.618 Y159.115 E0.00777
G1 X162.793 Y159.068 E0.00777
G1 X162.973 Y159.039 E0.00777
G1 X163.154 Y159.03 E0.00777
G1 X163.335 Y159.039 E0.00777
G1 X163.521 Y159.07 E0.00806
;WIPE_START
G1 X163.609 Y159.196 F9000
;WIPE_END
G1 X163.388 Y159.64
;TYPE:Solid infill
;WIDTH:0.505809
G1 F1800
G1 X163.904 Y160.156 E0.03288
G1 X163.994 Y160.28 E0.0069
G1 X164.077 Y160.465 E0.00914
G1 X164.119 Y160.664 E0.00914
G1 X164.119 Y160.867 E0.00914
G1 X164.1 Y160.958 E0.00419
G1 X162.958 Y159.816 E0.07276
G1 X162.759 Y159.879 E0.00938
G1 X162.584 Y159.98 E0.00914
G1 X162.548 Y160.012 E0.00215
G1 X163.907 Y161.371 E0.08656
G1 X163.875 Y161.414 E0.00243
G1 X163.724 Y161.55 E0.00914
G1 X163.569 Y161.639 E0.00805
G1 X162.282 Y160.352 E0.08204
G1 X162.231 Y160.465 E0.0056
G1 X162.189 Y160.664 E0.00914
G1 X162.189 Y160.865 E0.00907
G1 X163.238 Y161.914 E0.06685
G1 E-0.6 F3000
G1 X152.094 Y158.679 F9000
G1 E0.6 F1800
;TYPE:Internal perimeter
;WIDTH:0.48
G1 F600
G1 X152.116 Y158.671 E0.00103
G1 X152.248 Y158.635 E0.00585
G1 X152.383 Y158.614 E0.00585
G1 X152.52 Y158.607 E0.00585
G1 X152.656 Y158.614 E0.00585
G1 X152.791 Y158.635 E0.00585
G1 X152.923 Y158.671 E0.00585
G1 X153.051 Y158.72 E0.00585
G1 X153.173 Y158.782 E0.00585
G1 X153.288 Y158.856 E0.00585
G1 X153.394 Y158.942 E0.00585
G1 X153.49 Y159.039 E0.00585
G1 X153.577 Y159.145 E0.00585
G1 X153.651 Y159.26 E0.00585
G1 X153.713 Y159.382 E0.00585
G1 X153.762 Y159.509 E0.00585
G1 X153.797 Y159.641 E0.00585
G1 X153.819 Y159.776 E0.00585
G1 X153.826 Y159.913 E0.00585
G1 X153.819 Y160.049 E0.00585
G1 X153.797 Y160.184 E0.00585
G1 X153.762 Y160.317 E0.00585
G1 X153.713 Y160.444 E0.00585
G1 X153.651 Y160.566 E0.00585
G1 X153.577 Y160.681 E0.00585
G1 X153.49 Y160.787 E0.00585
G1 X153.394 Y160.884 E0.00585
G1 X153.288 Y160.97 E0.00585
G1 X153.173 Y161.044 E0.00585
G1 X153.051 Y161.106 E0.00585
G1 X152.923 Y161.155 E0.00585
G1 X152.791 Y161.191 E0.00585
G1 X152.656 Y161.212 E0.00585
G1 X152.52 Y161.219 E0.00585
G1 X152.383 Y161.212 E0.00585
G1 X152.248 Y161.191 E0.00585
G1 X152.116 Y161.155 E0.00585
G1 X151.988 Y161.106 E0.00585
G1 X151.867 Y161.044 E0.00585
G1 X151.752 Y160.97 E0.00585
G1 X151.646 Y160.884 E0.00585
G1 X151.549 Y160.787 E0.00585
G1 X151.463 Y160.681 E0.00585
G1 X151.389 Y160.566 E0.00585
G1 X151.326 Y160.444 E0.00585
G1 X151.277 Y160.317 E0.00585
G1 X151.242 Y160.184 E0.00585
G1 X151.221 Y160.049 E0.00585
G1 X151.214 Y159.913 E0.00585
G1 X151.221 Y159.776 E0.00585
G1 X151.242 Y159.641 E0.00585
G1 X151.277 Y159.509 E0.00585
G1 X151.326 Y159.382 E0.00585
G1 X151.389 Y159.26 E0.00585
G1 X151.463 Y159.145 E0.00585
G1 X151.549 Y159.039 E0.00585
G1 X151.646 Y158.942 E0.00585
G1 X151.752 Y158.856 E0.00585
G1 X151.867 Y158.782 E0.00585
G1 X151.988 Y158.72 E0.00585
G1 X152.038 Y158.701 E0.00225
G1 X151.884 Y158.301 F9000
;TYPE:External perimeter
G1 F600
G1 X151.984 Y158.262 E0.00456
G1 X152.159 Y158.215 E0.00777
G1 X152.338 Y158.187 E0.00777
G1 X152.52 Y158.178 E0.00777
G1 X152.701 Y158.187 E0.00777
G1 X152.881 Y158.215 E0.00777
G1 X153.056 Y158.262 E0.00777
G1 X153.226 Y158.328 E0.00777
G1 X153.387 Y158.41 E0.00777
G1 X153.54 Y158.509 E0.00777
G1 X153.681 Y158.623 E0.00777
G1 X153.809 Y158.752 E0.00777
G1 X153.924 Y158.893 E0.00777
G1 X154.023 Y159.045 E0.00777
G1 X154.105 Y159.207 E0.00777
G1 X154.17 Y159.377 E0.00777
G1 X154.217 Y159.552 E0.00777
G1 X154.246 Y159.731 E0.00777
G1 X154.255 Y159.913 E0.00777
G1 X154.246 Y160.094 E0.00777
G1 X154.217 Y160.274 E0.00777
G1 X154.17 Y160.449 E0.00777
G1 X154.105 Y160.619 E0.00777
G1 X154.023 Y160.781 E0.00777
G1 X153.924 Y160.933 E0.00777
G1 X153.809 Y161.074 E0.00777
G1 X153.681 Y161.202 E0.00777
G1 X153.54 Y161.317 E0.00777
G1 X153.387 Y161.416 E0.00777
G1 X153.226 Y161.498 E0.00777
G1 X153.056 Y161.563 E0.00777
G1 X152.881 Y161.61 E0.00777
G1 X152.701 Y161.639 E0.00777
G1 X152.52 Y161.648 E0.00777
G1 X152.338 Y161.639 E0.00777
G1 X152.159 Y161.61 E0.00777
G1 X151.984 Y161.563 E0.00777
G1 X151.814 Y161.498 E0.00777
G1 X151.652 Y161.416 E0.00777
G1 X151.5 Y161.317 E0.00777
G1 X151.359 Y161.202 E0.00777
G1 X151.23 Y161.074 E0.00777
G1 X151.116 Y160.933 E0.00777
G1 X151.017 Y160.781 E0.00777
G1 X150.934 Y160.619 E0.00777
G1 X150.869 Y160.449 E0.00777
G1 X150.822 Y160.274 E0.00777
G1 X150.794 Y160.094 E0.00777
G1 X150.784 Y159.913 E0.00777
G1 X150.794 Y159.731 E0.00777
G1 X150.822 Y159.552 E0.00777
G1 X150.869 Y159.377 E0.00777
G1 X150.934 Y159.207 E0.00777
G1 X151.017 Y159.045 E0.00777
G1 X151.116 Y158.893 E0.00777
G1 X151.23 Y158.752 E0.00777
G1 X151.359 Y158.623 E0.00777
G1 X151.5 Y158.509 E0.00777
G1 X151.652 Y158.41 E0.00777
G1 X151.828 Y158.322 E0.0084
;WIPE_START
G1 X151.967 Y158.368 F9000
;WIPE_END
G1 X152.754 Y158.788
;TYPE:Solid infill
;WIDTH:0.505809
G1 F1800
G1 X153.27 Y159.304 E0.03288
G1 X153.36 Y159.428 E0.0069
G1 X153.442 Y159.613 E0.00914
