; generated by SuperSlicer 2.3.57 on 2022-02-06 at 05:13:36 UTC


;
;

;
;
; 

; external perimeters extrusion width = 0.30mm
; perimeters extrusion width = 0.34mm
; infill extrusion width = 0.54mm
; solid infill extrusion width = 0.42mm
; top infill extrusion width = 0.30mm
; first layer extrusion width = 0.36mm

; external perimeters extrusion width = 0.30mm
; perimeters extrusion width = 0.34mm
; infill extrusion width = 0.54mm
; solid infill extrusion width = 0.42mm
; top infill extrusion width = 0.30mm
; first layer extrusion width = 0.36mm

; external perimeters extrusion width = 0.30mm
; perimeters extrusion width = 0.34mm
; infill extrusion width = 0.54mm
; solid infill extrusion width = 0.42mm
; top infill extrusion width = 0.30mm
; first layer extrusion width = 0.36mm

; external perimeters extrusion width = 0.30mm
; perimeters extrusion width = 0.34mm
; infill extrusion width = 0.54mm
; solid infill extrusion width = 0.42mm
; top infill extrusion width = 0.30mm
; first layer extrusion width = 0.36mm

; external perimeters extrusion width = 0.30mm
; perimeters extrusion width = 0.34mm
; infill extrusion width = 0.54mm
; solid infill extrusion width = 0.42mm
; top infill extrusion width = 0.30mm
; first layer extrusion width = 0.36mm

; object:{"name":"Part7-white-42","id":"Part7-white-42.STL id:0 copy 0","object_center":[151.001465,120.166090,0.000000],"boundingbox_center":[151.001465,120.166090,0.660000],"boundingbox_size":[3.477129,3.477129,1.320000]}
; object:{"name":"Part8-white2x","id":"Part8-white2x.STL id:1 copy 0","object_center":[120.650059,148.648057,0.000000],"boundingbox_center":[120.650059,148.648057,0.615000],"boundingbox_size":[1.379765,2.535117,1.230000]}
; object:{"name":"Part8-white2x","id":"Part8-white2x.STL id:2 copy 0","object_center":[177.348505,150.171074,0.000000],"boundingbox_center":[177.348505,150.171074,0.600000],"boundingbox_size":[1.346112,2.473285,1.200000]}
; plater:{"center":[148.990869,134.917621,0.000000],"boundingbox_center":[148.990869,134.917621,0.660000],"boundingbox_size":[58.061384,32.980191,1.320000]}

;TYPE:Custom
START_PRINT T_BED=60 T_EXTRUDER=200
M107
G21 ; set units to millimeters
G90 ; use absolute coordinates
M83 ; use relative distances for extrusion
; Filament gcode
M104 S200 ; set temperature
M109 S200 ; set temperature and wait for it to be reached
M190 S60 ; set bed temperature and wait for it to be reached
;LAYER_CHANGE
;Z:0.2
;HEIGHT:0.2
G1 Z0.2 F7200
G1 E-0.6 F3000
G1 X128.909 Y133.141 F7200
G1 E0.6 F1800
;TYPE:Skirt
;WIDTH:0.36
G1 F929
G1 X116.905 Y144.764 E0.44053
G1 X116.271 Y145.715 E0.03014
G1 X115.873 Y146.714 E0.02834
G1 X115.671 Y147.75 E0.02784
G1 X115.658 Y149.018 E0.03343
G1 X115.876 Y150.229 E0.03245
G1 X116.252 Y151.24 E0.02843
G1 X116.897 Y152.294 E0.03257
G1 X117.649 Y153.083 E0.02875
G1 X118.259 Y153.524 E0.01985
G1 X119.032 Y153.914 E0.02282
G1 X119.754 Y154.128 E0.01985
G1 X120.6 Y154.236 E0.02249
G1 X177.423 Y155.732 E1.49868
G1 X178.445 Y155.628 E0.02707
G1 X179.456 Y155.282 E0.02817
G1 X180.292 Y154.78 E0.02571
G1 X181.054 Y154.064 E0.02758
G1 X181.612 Y153.271 E0.02555
G1 X182 Y152.426 E0.02453
G1 X182.246 Y151.508 E0.02504
G1 X182.344 Y150.549 E0.02543
G1 X182.302 Y149.591 E0.02528
G1 X182.084 Y148.523 E0.02874
G1 X181.669 Y147.465 E0.02997
G1 X181.145 Y146.616 E0.02629
G1 X155.473 Y116.069 E1.05204
G1 X154.606 Y115.288 E0.03076
G1 X153.659 Y114.72 E0.02911
G1 X152.565 Y114.309 E0.03082
G1 X151.805 Y114.155 E0.02045
G1 X151.178 Y114.11 E0.01657
G1 X150.176 Y114.158 E0.02645
G1 X149.033 Y114.43 E0.03097
G1 X147.989 Y114.902 E0.03021
G1 X147.088 Y115.54 E0.02911
G1 X128.942 Y133.11 E0.66594
G1 X129.161 Y133.336 F7200
G1 F929
G1 X117.158 Y144.956 E0.44044
G1 X116.555 Y145.857 E0.02861
G1 X116.178 Y146.8 E0.02677
G1 X115.987 Y147.778 E0.02626
G1 X115.972 Y148.98 E0.0317
G1 X116.18 Y150.139 E0.03105
G1 X116.532 Y151.089 E0.0267
G1 X117.141 Y152.091 E0.03092
G1 X117.842 Y152.831 E0.02688
G1 X118.412 Y153.246 E0.0186
G1 X119.143 Y153.617 E0.02159
G1 X119.819 Y153.818 E0.0186
G1 X120.616 Y153.92 E0.02119
G1 X177.423 Y155.415 E1.49824
G1 X178.372 Y155.32 E0.02516
G1 X179.316 Y154.998 E0.02629
G1 X180.093 Y154.533 E0.02385
G1 X180.801 Y153.872 E0.02556
G1 X181.335 Y153.117 E0.02438
G1 X181.702 Y152.318 E0.02318
G1 X181.935 Y151.451 E0.02366
G1 X182.027 Y150.545 E0.024
G1 X181.987 Y149.634 E0.02405
G1 X181.782 Y148.618 E0.02734
G1 X181.383 Y147.603 E0.02875
G1 X180.884 Y146.797 E0.02498
G1 X155.246 Y116.29 E1.05064
G1 X154.425 Y115.548 E0.02919
G1 X153.533 Y115.011 E0.02744
G1 X152.499 Y114.619 E0.02917
G1 X151.767 Y114.47 E0.0197
G1 X151.178 Y114.427 E0.01557
G1 X150.227 Y114.471 E0.02509
G1 X149.14 Y114.728 E0.02945
G1 X148.145 Y115.178 E0.0288
G1 X147.292 Y115.783 E0.02757
G1 X129.193 Y133.305 E0.66417
G1 X129.409 Y133.528 F7200
G1 F929
G1 X117.411 Y145.148 E0.44037
G1 X116.838 Y145.999 E0.02705
G1 X116.484 Y146.882 E0.02507
G1 X116.303 Y147.801 E0.02469
G1 X116.287 Y148.937 E0.02997
G1 X116.483 Y150.044 E0.02964
G1 X116.809 Y150.935 E0.025
G1 X117.385 Y151.889 E0.02938
G1 X118.036 Y152.579 E0.02501
G1 X118.566 Y152.969 E0.01736
G1 X119.252 Y153.319 E0.02031
G1 X119.883 Y153.507 E0.01736
G1 X120.632 Y153.603 E0.01989
G1 X177.421 Y155.098 E1.49777
G1 X178.299 Y155.011 E0.02329
G1 X179.176 Y154.713 E0.0244
G1 X179.89 Y154.289 E0.0219
G1 X180.549 Y153.679 E0.02367
G1 X181.055 Y152.967 E0.02305
G1 X181.402 Y152.215 E0.02183
G1 X181.623 Y151.394 E0.02241
G1 X181.71 Y150.542 E0.02258
G1 X181.673 Y149.677 E0.02282
G1 X181.479 Y148.713 E0.02594
G1 X181.1 Y147.745 E0.02738
G1 X180.627 Y146.983 E0.02366
G1 X155.02 Y116.512 E1.04939
G1 X154.239 Y115.806 E0.02776
G1 X153.407 Y115.302 E0.02564
G1 X152.428 Y114.928 E0.02764
G1 X151.724 Y114.784 E0.01893
G1 X151.178 Y114.744 E0.01445
G1 X150.24 Y114.79 E0.02474
G1 X149.139 Y115.066 E0.02993
G1 X148.169 Y115.533 E0.02838
G1 X147.246 Y116.251 E0.03085
G1 X129.441 Y133.496 E0.65353
G1 X129.661 Y133.723 F7200
G1 F929
G1 X117.658 Y145.348 E0.44056
G1 X117.118 Y146.149 E0.02547
G1 X116.788 Y146.973 E0.02338
G1 X116.619 Y147.834 E0.02313
G1 X116.603 Y148.909 E0.02836
G1 X116.788 Y149.955 E0.02799
G1 X117.089 Y150.786 E0.02331
G1 X117.633 Y151.69 E0.02781
G1 X118.233 Y152.331 E0.02315
G1 X118.725 Y152.694 E0.01613
G1 X119.37 Y153.025 E0.01911
G1 X119.952 Y153.198 E0.01601
G1 X120.652 Y153.286 E0.0186
G1 X177.426 Y154.781 E1.49737
G1 X178.235 Y154.7 E0.02144
G1 X179.038 Y154.427 E0.02236
G1 X179.691 Y154.042 E0.02
G1 X180.3 Y153.482 E0.0218
G1 X180.778 Y152.813 E0.02169
G1 X181.103 Y152.108 E0.02047
G1 X181.311 Y151.337 E0.02103
G1 X181.393 Y150.534 E0.02129
G1 X181.359 Y149.72 E0.02147
G1 X181.175 Y148.803 E0.02467
G1 X180.813 Y147.88 E0.02612
G1 X180.368 Y147.166 E0.02221
G1 X154.79 Y116.73 E1.04818
G1 X154.057 Y116.066 E0.02607
G1 X153.28 Y115.593 E0.02398
G1 X152.36 Y115.238 E0.026
G1 X151.687 Y115.099 E0.01814
G1 X151.177 Y115.061 E0.01347
G1 X150.293 Y115.103 E0.02333
G1 X149.252 Y115.362 E0.0283
G1 X148.336 Y115.803 E0.02679
G1 X147.454 Y116.49 E0.02948
G1 X129.693 Y133.692 E0.6519
G1 X129.913 Y133.919 F7200
G1 F929
G1 X117.904 Y145.548 E0.44073
G1 X117.4 Y146.294 E0.02376
G1 X117.092 Y147.063 E0.02182
G1 X116.935 Y147.862 E0.02147
G1 X116.918 Y148.876 E0.02675
G1 X117.093 Y149.87 E0.02659
G1 X117.372 Y150.642 E0.02164
G1 X117.88 Y151.491 E0.0261
G1 X118.434 Y152.085 E0.02141
G1 X118.884 Y152.42 E0.0148
G1 X119.482 Y152.728 E0.01773
G1 X120.016 Y152.887 E0.01468
G1 X120.667 Y152.97 E0.01731
G1 X177.428 Y154.464 E1.49704
G1 X178.169 Y154.39 E0.01963
G1 X178.907 Y154.138 E0.02056
G1 X179.5 Y153.789 E0.01814
G1 X180.054 Y153.281 E0.01981
G1 X180.505 Y152.651 E0.02043
G1 X180.806 Y151.997 E0.019
G1 X180.999 Y151.281 E0.01954
G1 X181.076 Y150.526 E0.01999
G1 X181.045 Y149.763 E0.02013
G1 X180.872 Y148.897 E0.02328
G1 X180.531 Y148.025 E0.02471
G1 X180.112 Y147.353 E0.02087
G1 X154.559 Y116.949 E1.04712
G1 X153.872 Y116.323 E0.02452
G1 X153.149 Y115.882 E0.02231
G1 X152.288 Y115.547 E0.02435
G1 X151.177 Y115.378 E0.02964
G1 X150.346 Y115.415 E0.02193
G1 X149.361 Y115.66 E0.02678
G1 X148.499 Y116.075 E0.0252
G1 X147.661 Y116.731 E0.02807
G1 X129.945 Y133.887 E0.65021
; INIT printing object Part7-white-42.STL id:0 copy 0
G1 E-0.6 F3000
; printing object Part7-white-42.STL id:0 copy 0
G1 X150.292 Y120.576 F7200
G1 E0.6 F1800
;TYPE:Internal perimeter
G1 F929
G1 X150.222 Y120.419 E0.00452
G1 X150.186 Y120.252 E0.00452
G1 X150.186 Y120.08 E0.00452
G1 X150.222 Y119.913 E0.00452
G1 X150.292 Y119.756 E0.00452
G1 X150.392 Y119.618 E0.00452
G1 X150.536 Y119.488 E0.00509
G1 X150.572 Y119.465 E0.00114
G1 X150.748 Y119.386 E0.00509
G1 X150.916 Y119.351 E0.00452
G1 X151.087 Y119.351 E0.00452
G1 X151.255 Y119.386 E0.00452
G1 X151.431 Y119.465 E0.00509
G1 X151.467 Y119.488 E0.00114
G1 X151.611 Y119.618 E0.00509
G1 X151.711 Y119.756 E0.00452
G1 X151.781 Y119.913 E0.00452
G1 X151.817 Y120.08 E0.00452
G1 X151.817 Y120.273 E0.00509
G1 X151.81 Y120.316 E0.00114
G1 X151.75 Y120.5 E0.00509
G1 X151.665 Y120.648 E0.00452
G1 X151.55 Y120.775 E0.00452
G1 X151.411 Y120.876 E0.00452
G1 X151.255 Y120.946 E0.00452
G1 X151.087 Y120.981 E0.00452
G1 X150.916 Y120.981 E0.00452
G1 X150.748 Y120.946 E0.00452
G1 X150.592 Y120.876 E0.00452
G1 X150.436 Y120.763 E0.00509
G1 X150.405 Y120.732 E0.00114
G1 X150.318 Y120.612 E0.0039
G1 X152.119 Y120.39 F7200
G1 F929
G1 X152.042 Y120.629 E0.00662
G1 X151.923 Y120.835 E0.00628
G1 X151.763 Y121.012 E0.00628
G1 X151.571 Y121.152 E0.00628
G1 X151.353 Y121.249 E0.00628
G1 X151.12 Y121.298 E0.00628
G1 X150.882 Y121.298 E0.00628
G1 X150.65 Y121.249 E0.00628
G1 X150.432 Y121.152 E0.00628
G1 X150.229 Y121.005 E0.00662
G1 X150.163 Y120.939 E0.00246
G1 X150.015 Y120.735 E0.00662
G1 X149.919 Y120.518 E0.00628
G1 X149.869 Y120.285 E0.00628
G1 X149.869 Y120.047 E0.00628
G1 X149.919 Y119.814 E0.00628
G1 X150.015 Y119.597 E0.00628
G1 X150.155 Y119.404 E0.00628
G1 X150.342 Y119.236 E0.00662
G1 X150.42 Y119.185 E0.00246
G1 X150.65 Y119.083 E0.00662
G1 X150.882 Y119.034 E0.00628
G1 X151.12 Y119.034 E0.00628
G1 X151.353 Y119.083 E0.00628
G1 X151.583 Y119.185 E0.00662
G1 X151.661 Y119.236 E0.00246
G1 X151.848 Y119.404 E0.00662
G1 X151.988 Y119.597 E0.00628
G1 X152.084 Y119.814 E0.00628
G1 X152.134 Y120.047 E0.00628
G1 X152.134 Y120.298 E0.00662
G1 X152.126 Y120.346 E0.00127
G1 X152.439 Y120.395 F7200
;TYPE:External perimeter
G1 F929
G1 X152.429 Y120.465 E0.00184
G1 X152.333 Y120.759 E0.00816
G1 X152.181 Y121.023 E0.00803
G1 X151.977 Y121.249 E0.00803
G1 X151.73 Y121.428 E0.00803
G1 X151.452 Y121.552 E0.00803
G1 X151.154 Y121.616 E0.00803
G1 X150.849 Y121.616 E0.00803
G1 X150.551 Y121.552 E0.00803
G1 X150.273 Y121.428 E0.00803
G1 X150.022 Y121.246 E0.00816
G1 X149.921 Y121.145 E0.00377
G1 X149.739 Y120.895 E0.00816
G1 X149.615 Y120.616 E0.00803
G1 X149.552 Y120.318 E0.00803
G1 X149.552 Y120.014 E0.00803
G1 X149.615 Y119.716 E0.00803
G1 X149.739 Y119.437 E0.00803
G1 X149.918 Y119.191 E0.00803
G1 X150.148 Y118.984 E0.00816
G1 X150.268 Y118.906 E0.00377
G1 X150.551 Y118.78 E0.00816
G1 X150.849 Y118.717 E0.00803
G1 X151.154 Y118.717 E0.00803
G1 X151.452 Y118.78 E0.00803
G1 X151.735 Y118.906 E0.00816
G1 X151.855 Y118.984 E0.00377
G1 X152.085 Y119.191 E0.00816
G1 X152.264 Y119.437 E0.00803
G1 X152.388 Y119.716 E0.00803
G1 X152.451 Y120.014 E0.00803
G1 X152.451 Y120.323 E0.00816
G1 X152.447 Y120.351 E0.00074
;WIPE_START
G1 X152.374 Y120.421 F7200
;WIPE_END
G1 X151.758 Y120.035
;TYPE:Solid infill
;WIDTH:0.380449
G1 F929
G1 X151.391 Y119.668 E0.01446
G1 X151.364 Y119.643 E0.00103
G1 X151.195 Y119.562 E0.00522
G1 X151.068 Y119.535 E0.00362
G1 X150.935 Y119.535 E0.0037
G1 X150.832 Y119.557 E0.00294
G1 X151.608 Y120.332 E0.03057
G1 X151.58 Y120.427 E0.00274
G1 X151.515 Y120.539 E0.00362
G1 X151.445 Y120.618 E0.00294
G1 X150.551 Y119.724 E0.03521
G1 X150.528 Y119.743 E0.00084
G1 X150.452 Y119.849 E0.00362
G1 X150.398 Y119.97 E0.0037
G1 X150.389 Y120.01 E0.00115
G1 X151.267 Y120.888 E0.03459
G1 X150.38 Y120.276 F7200
;TYPE:Gap fill
;WIDTH:0.115121
G1 F929
G1 X150.397 Y120.308 E0.00022
;WIDTH:0.15652

G1 X150.492 Y120.456 E0.00166
;WIDTH:0.201869

G1 X150.607 Y120.586 E0.00229
G1 X150.709 Y120.673 E0.00177
;WIDTH:0.168214

G1 X150.813 Y120.745 E0.00132
;WIDTH:0.124018

G1 X150.891 Y120.788 E0.0006
; INIT stop printing object Part7-white-42.STL id:0 copy 0
; INIT printing object Part8-white2x.STL id:2 copy 0
G1 E-0.6 F3000
; stop printing object Part7-white-42.STL id:0 copy 0
; printing object Part8-white2x.STL id:2 copy 0
G1 X177.468 Y151.121 F7200
G1 E0.6 F1800
;TYPE:External perimeter
;WIDTH:0.36
G1 F929
G1 X177.406 Y151.112 E0.00166
G1 X177.349 Y151.078 E0.00175
G1 X177.268 Y151.001 E0.00294
G1 X177.183 Y150.882 E0.00385
G1 X177.104 Y150.727 E0.00459
G1 X177.04 Y150.548 E0.00501
G1 X176.962 Y150.131 E0.01118
G1 X176.973 Y149.72 E0.01084
G1 X177.008 Y149.55 E0.00457
G1 X177.059 Y149.408 E0.004
G1 X177.118 Y149.305 E0.00312
G1 X177.173 Y149.246 E0.00213
G1 X177.206 Y149.227 E0.00101
G1 X177.262 Y149.221 E0.00147
G1 X177.302 Y149.235 E0.00111
G1 X177.372 Y149.284 E0.00226
G1 X177.455 Y149.375 E0.00324
G1 X177.539 Y149.506 E0.0041
G1 X177.615 Y149.671 E0.00478
G1 X177.675 Y149.859 E0.0052
G1 X177.731 Y150.172 E0.0084
G1 X177.738 Y150.487 E0.00829
G1 X177.715 Y150.675 E0.00501
G1 X177.674 Y150.841 E0.0045
G1 X177.619 Y150.972 E0.00374
G1 X177.56 Y151.061 E0.00281
G1 X177.51 Y151.105 E0.00175
;WIPE_START
G1 X177.435 Y151.067 F7200
;WIPE_END
G1 X177.241 Y149.383
;TYPE:Gap fill
;WIDTH:0.204571
G1 F929
G1 X177.265 Y149.503 E0.00165
;WIDTH:0.262073

G1 X177.281 Y149.627 E0.00228
;WIDTH:0.360635

G1 X177.297 Y149.757 E0.00346
;WIDTH:0.437454

G1 X177.326 Y149.946 E0.00625
;WIDTH:0.500662

G1 X177.338 Y150.102 E0.00595
G1 X177.357 Y150.209 E0.00417
G1 X177.37 Y150.332 E0.0047
;WIDTH:0.460541

G1 X177.383 Y150.455 E0.00429
;WIDTH:0.429209

G1 X177.4 Y150.598 E0.00464
;WIDTH:0.348188

G1 X177.417 Y150.739 E0.00362
;WIDTH:0.24182

G1 X177.432 Y150.859 E0.00199
;WIDTH:0.168202

G1 X177.453 Y150.959 E0.00106
; INIT stop printing object Part8-white2x.STL id:2 copy 0
; INIT printing object Part8-white2x.STL id:1 copy 0
G1 E-0.6 F3000
; stop printing object Part8-white2x.STL id:2 copy 0
; printing object Part8-white2x.STL id:1 copy 0
G1 X120.773 Y149.629 F7200
G1 E0.6 F1800
;TYPE:External perimeter
;WIDTH:0.36
G1 F929
G1 X120.706 Y149.619 E0.00179
G1 X120.646 Y149.583 E0.00185
G1 X120.562 Y149.503 E0.00306
G1 X120.475 Y149.38 E0.00398
G1 X120.393 Y149.22 E0.00473
G1 X120.327 Y149.036 E0.00516
G1 X120.246 Y148.603 E0.01162
G1 X120.24 Y148.393 E0.00555
G1 X120.257 Y148.19 E0.00536
G1 X120.294 Y148.01 E0.00484
G1 X120.347 Y147.863 E0.00413
G1 X120.408 Y147.756 E0.00323
G1 X120.466 Y147.694 E0.00223
G1 X120.502 Y147.673 E0.0011
G1 X120.562 Y147.668 E0.0016
G1 X120.605 Y147.682 E0.00121
G1 X120.679 Y147.734 E0.00236
G1 X120.765 Y147.828 E0.00336
G1 X120.851 Y147.963 E0.00423
G1 X120.929 Y148.133 E0.00492
G1 X120.992 Y148.326 E0.00535
G1 X121.049 Y148.648 E0.00863
G1 X121.056 Y148.972 E0.00853
G1 X121.033 Y149.166 E0.00516
G1 X120.99 Y149.337 E0.00464
G1 X120.933 Y149.472 E0.00386
G1 X120.872 Y149.564 E0.00292
G1 X120.815 Y149.612 E0.00196
;WIPE_START
G1 X120.738 Y149.571 F7200
;WIPE_END
G1 X120.549 Y147.821
;TYPE:Gap fill
;WIDTH:0.165084
G1 F929
G1 X120.568 Y147.979 E0.00162
;WIDTH:0.304123

G1 X120.584 Y148.109 E0.00285
;WIDTH:0.407076

G1 X120.603 Y148.26 E0.0046
;WIDTH:0.483198

G1 X120.622 Y148.418 E0.00584
;WIDTH:0.523453

G1 X120.636 Y148.562 E0.00576
G1 X120.659 Y148.687 E0.0051
G1 X120.672 Y148.813 E0.00505
;WIDTH:0.492105

G1 X120.688 Y148.954 E0.00529
;WIDTH:0.451777

G1 X120.707 Y149.106 E0.00522
;WIDTH:0.363562

G1 X120.724 Y149.248 E0.00382
;WIDTH:0.252244

G1 X120.739 Y149.368 E0.00209
;WIDTH:0.191446

G1 X120.76 Y149.47 E0.00129
; INIT stop printing object Part8-white2x.STL id:1 copy 0
;LAYER_CHANGE
;Z:0.4
;HEIGHT:0.2
; stop printing object Part8-white2x.STL id:1 copy 0
G1 Z0.4 F7200
; INIT printing object Part7-white-42.STL id:0 copy 0
G1 E-0.6 F3000
; printing object Part7-white-42.STL id:0 copy 0
