; generated by SuperSlicer 2.3.57 on 2022-02-08 at 22:26:02 UTC


;
;

;
;
; 

; external perimeters extrusion width = 0.40mm
; perimeters extrusion width = 0.40mm
; infill extrusion width = 0.72mm
; solid infill extrusion width = 0.40mm
; top infill extrusion width = 0.40mm
; first layer extrusion width = 0.48mm


;TYPE:Custom
START_PRINT T_BED=60 T_EXTRUDER=200
M107
G21 ; set units to millimeters
G90 ; use absolute coordinates
M83 ; use relative distances for extrusion
; Filament gcode
M104 S200 ; set temperature
M109 S200 ; set temperature and wait for it to be reached
M190 S60 ; set bed temperature and wait for it to be reached
;LAYER_CHANGE
;Z:0.24
;HEIGHT:0.24
G1 Z0.24 F9000
G1 E-0.6 F3000
G1 X143.128 Y136.618 F9000
G1 E0.6 F1800
;TYPE:Skirt
;WIDTH:0.48
G1 F600
G1 X142.317 Y137.795 E0.06111
G1 X141.75 Y139.215 E0.06541
G1 X141.556 Y140.152 E0.04089
G1 X141.482 Y141.124 E0.04168
G1 X141.461 Y158.459 E0.74117
G1 X141.585 Y159.772 E0.05639
G1 X141.81 Y160.706 E0.04108
G1 X142.162 Y161.633 E0.04241
G1 X142.617 Y162.48 E0.04111
G1 X143.222 Y163.301 E0.04358
G1 X143.864 Y163.949 E0.03901
G1 X144.655 Y164.542 E0.04227
G1 X145.476 Y164.98 E0.03981
G1 X146.325 Y165.281 E0.03849
G1 X147.293 Y165.462 E0.0421
G1 X155.631 Y166.275 E0.3582
G1 X156.833 Y166.27 E0.05138
G1 X157.938 Y166.088 E0.04788
G1 X158.937 Y165.766 E0.04487
G1 X159.747 Y165.382 E0.03836
G1 X160.529 Y164.884 E0.03962
G1 X161.245 Y164.287 E0.03987
G1 X161.971 Y163.489 E0.04612
G1 X162.491 Y162.736 E0.03911
G1 X162.927 Y161.892 E0.04062
G1 X163.253 Y160.981 E0.04137
G1 X163.468 Y159.966 E0.04437
G1 X163.538 Y159.073 E0.03828
G1 X163.505 Y148.853 E0.43699
G1 X163.361 Y147.948 E0.03918
G1 X161.14 Y138.491 E0.41532
G1 X160.758 Y137.497 E0.04554
G1 X160.229 Y136.556 E0.04618
G1 X159.566 Y135.714 E0.04578
G1 X158.785 Y134.999 E0.04531
G1 X157.93 Y134.44 E0.04367
G1 X157.01 Y134.035 E0.04296
G1 X156.038 Y133.787 E0.04291
G1 X155.038 Y133.703 E0.04289
G1 X146.905 Y134.567 E0.34967
G1 X146.175 Y134.713 E0.03184
G1 X145.417 Y134.967 E0.03416
G1 X144.155 Y135.675 E0.06191
G1 X143.173 Y136.577 E0.05701
G1 X143.475 Y136.872 F9000
G1 F600
G1 X142.705 Y137.978 E0.05761
G1 X142.169 Y139.306 E0.06123
G1 X141.982 Y140.2 E0.03903
G1 X141.911 Y141.126 E0.03972
G1 X141.889 Y158.452 E0.74078
G1 X141.999 Y159.652 E0.05151
G1 X142.212 Y160.554 E0.03964
G1 X142.536 Y161.421 E0.03959
G1 X142.965 Y162.229 E0.0391
G1 X143.522 Y162.993 E0.04043
G1 X144.127 Y163.61 E0.03695
G1 X144.866 Y164.169 E0.03961
G1 X145.634 Y164.582 E0.03727
G1 X146.418 Y164.862 E0.03561
G1 X147.342 Y165.036 E0.0402
G1 X155.64 Y165.846 E0.35648
G1 X156.765 Y165.845 E0.0481
G1 X157.775 Y165.687 E0.04369
G1 X158.586 Y165.442 E0.03623
G1 X159.508 Y165.024 E0.04329
G1 X160.249 Y164.558 E0.03744
G1 X160.921 Y164.004 E0.0372
G1 X161.509 Y163.379 E0.03671
G1 X162.111 Y162.537 E0.04425
G1 X162.523 Y161.745 E0.03816
G1 X162.834 Y160.89 E0.03888
G1 X163.043 Y159.911 E0.04281
G1 X163.11 Y159.063 E0.03638
G1 X163.079 Y148.895 E0.43476
G1 X162.944 Y148.05 E0.03659
G1 X160.777 Y138.774 E0.40727
G1 X160.417 Y137.782 E0.04514
G1 X159.943 Y136.902 E0.04272
G1 X159.334 Y136.096 E0.04319
G1 X158.644 Y135.435 E0.04086
G1 X157.811 Y134.864 E0.04317
G1 X156.935 Y134.463 E0.0412
G1 X155.996 Y134.215 E0.04151
G1 X155.036 Y134.132 E0.04121
G1 X146.974 Y134.99 E0.34662
G1 X145.634 Y135.341 E0.05925
G1 X144.441 Y135.997 E0.05818
G1 X143.519 Y136.832 E0.05319
G1 E-0.6 F3000
G1 X147.409 Y149.393 F9000
G1 E0.6 F1800
;TYPE:External perimeter
G1 F600
G1 X147.421 Y149.346 E0.00207
G1 X147.447 Y149.263 E0.0037
G1 X147.477 Y149.19 E0.00338
G1 X147.509 Y149.127 E0.00304
G1 X147.543 Y149.074 E0.00266
G1 X147.577 Y149.033 E0.00227
G1 X147.609 Y149.003 E0.00189
G1 X147.638 Y148.983 E0.00152
G1 X147.687 Y148.964 E0.00223
G1 X147.733 Y148.964 E0.00197
G1 X147.797 Y148.986 E0.00291
G1 X147.837 Y149.01 E0.00199
G1 X147.881 Y149.045 E0.00238
G1 X147.927 Y149.09 E0.00276
G1 X147.973 Y149.146 E0.00313
G1 X148.02 Y149.213 E0.00347
G1 X148.065 Y149.289 E0.00378
G1 X148.107 Y149.374 E0.00405
G1 X148.146 Y149.466 E0.00428
G1 X148.181 Y149.565 E0.00448
G1 X148.211 Y149.669 E0.00463
G1 X148.237 Y149.777 E0.00474
G1 X148.257 Y149.888 E0.00481
G1 X148.271 Y150 E0.00483
G1 X148.279 Y150.112 E0.00481
G1 X148.281 Y150.223 E0.00475
G1 X148.278 Y150.332 E0.00465
G1 X148.268 Y150.437 E0.0045
G1 X148.253 Y150.536 E0.00431
G1 X148.233 Y150.629 E0.00408
G1 X148.209 Y150.715 E0.00381
G1 X148.18 Y150.792 E0.00351
G1 X148.148 Y150.859 E0.00317
G1 X148.115 Y150.915 E0.0028
G1 X148.081 Y150.961 E0.00242
G1 X148.048 Y150.995 E0.00203
G1 X147.99 Y151.034 E0.00298
G1 X147.964 Y151.043 E0.00121
G1 X147.929 Y151.046 E0.00151
G1 X147.87 Y151.032 E0.00256
G1 X147.834 Y151.014 E0.00175
G1 X147.792 Y150.986 E0.00213
G1 X147.748 Y150.948 E0.00252
G1 X147.701 Y150.898 E0.0029
G1 X147.654 Y150.838 E0.00326
G1 X147.608 Y150.768 E0.00359
G1 X147.564 Y150.688 E0.00388
G1 X147.523 Y150.601 E0.00414
G1 X147.485 Y150.506 E0.00436
G1 X147.452 Y150.405 E0.00454
G1 X147.424 Y150.299 E0.00468
G1 X147.4 Y150.19 E0.00477
G1 X147.383 Y150.079 E0.00482
G1 X147.371 Y149.966 E0.00483
G1 X147.365 Y149.854 E0.0048
G1 X147.365 Y149.744 E0.00472
G1 X147.37 Y149.637 E0.00459
G1 X147.382 Y149.534 E0.00443
G1 X147.396 Y149.451 E0.00357
;WIPE_START
G1 X147.456 Y149.378 F9000
;WIPE_END
G1 X147.884 Y150.805
;TYPE:Gap fill
;WIDTH:0.155094
G1 F600
G1 X147.913 Y150.734 E0.0008
;WIDTH:0.285405
G1 X147.889 Y150.543 E0.00449
;WIDTH:0.415877
G1 X147.87 Y150.389 E0.00564
;WIDTH:0.492834
G1 X147.849 Y150.221 E0.00747
;WIDTH:0.545327
G1 X147.828 Y150.044 E0.00877
G1 X147.806 Y149.866 E0.00885
;WIDTH:0.516946
G1 X147.785 Y149.693 E0.00809
;WIDTH:0.44856
G1 X147.762 Y149.511 E0.00724
;WIDTH:0.327924
G1 X147.739 Y149.325 E0.00517
;WIDTH:0.185831
G1 X147.717 Y149.169 E0.00212
G1 E-0.6 F3000
G1 X155.224 Y149.889 F9000
G1 E0.6 F1800
;TYPE:Internal perimeter
;WIDTH:0.48
G1 F600
G1 X155.191 Y149.772 E0.00522
G1 X155.174 Y149.666 E0.00461
G1 X155.168 Y149.558 E0.00461
G1 X155.174 Y149.45 E0.00461
G1 X155.191 Y149.344 E0.00461
G1 X155.218 Y149.24 E0.00461
G1 X155.257 Y149.139 E0.00461
G1 X155.306 Y149.043 E0.00461
G1 X155.365 Y148.953 E0.00461
G1 X155.433 Y148.869 E0.00461
G1 X155.509 Y148.793 E0.00461
G1 X155.592 Y148.725 E0.00461
G1 X155.683 Y148.666 E0.00461
G1 X155.779 Y148.617 E0.00461
G1 X155.88 Y148.579 E0.00461
G1 X155.984 Y148.551 E0.00461
G1 X156.09 Y148.534 E0.00461
G1 X156.198 Y148.528 E0.00461
G1 X156.305 Y148.534 E0.00461
G1 X156.412 Y148.551 E0.00461
G1 X156.516 Y148.579 E0.00461
G1 X156.616 Y148.617 E0.00461
G1 X156.712 Y148.666 E0.00461
G1 X156.803 Y148.725 E0.00461
G1 X156.887 Y148.793 E0.00461
G1 X156.963 Y148.869 E0.00461
G1 X157.031 Y148.953 E0.00461
G1 X157.089 Y149.043 E0.00461
G1 X157.138 Y149.139 E0.00461
G1 X157.177 Y149.24 E0.00461
G1 X157.205 Y149.344 E0.00461
G1 X157.222 Y149.45 E0.00461
G1 X157.227 Y149.558 E0.00461
G1 X157.222 Y149.666 E0.00461
G1 X157.205 Y149.772 E0.00461
G1 X157.177 Y149.876 E0.00461
G1 X157.138 Y149.977 E0.00461
G1 X157.089 Y150.073 E0.00461
G1 X157.031 Y150.163 E0.00461
G1 X156.963 Y150.247 E0.00461
G1 X156.887 Y150.323 E0.00461
G1 X156.803 Y150.391 E0.00461
G1 X156.712 Y150.45 E0.00461
G1 X156.616 Y150.499 E0.00461
G1 X156.516 Y150.537 E0.00461
G1 X156.412 Y150.565 E0.00461
G1 X156.305 Y150.582 E0.00461
G1 X156.198 Y150.588 E0.00461
G1 X156.09 Y150.582 E0.00461
G1 X155.984 Y150.565 E0.00461
G1 X155.879 Y150.537 E0.00461
G1 X155.779 Y150.499 E0.00461
G1 X155.683 Y150.45 E0.00461
G1 X155.592 Y150.391 E0.00461
G1 X155.509 Y150.323 E0.00461
G1 X155.433 Y150.247 E0.00461
G1 X155.365 Y150.163 E0.00461
G1 X155.306 Y150.073 E0.00461
G1 X155.257 Y149.977 E0.00461
G1 X155.245 Y149.946 E0.00143
G1 X154.845 Y150.099 F9000
;TYPE:External perimeter
G1 F600
G1 X154.81 Y150.009 E0.00414
G1 X154.771 Y149.861 E0.00653
G1 X154.747 Y149.71 E0.00653
G1 X154.739 Y149.558 E0.00653
G1 X154.747 Y149.405 E0.00653
G1 X154.771 Y149.255 E0.00653
G1 X154.81 Y149.107 E0.00653
G1 X154.865 Y148.965 E0.00653
G1 X154.934 Y148.829 E0.00653
G1 X155.018 Y148.7 E0.00653
G1 X155.114 Y148.582 E0.00653
G1 X155.222 Y148.474 E0.00653
G1 X155.34 Y148.378 E0.00653
G1 X155.468 Y148.295 E0.00653
G1 X155.604 Y148.225 E0.00653
G1 X155.747 Y148.171 E0.00653
G1 X155.894 Y148.131 E0.00653
G1 X156.045 Y148.107 E0.00653
G1 X156.198 Y148.099 E0.00653
G1 X156.35 Y148.107 E0.00653
G1 X156.501 Y148.131 E0.00653
G1 X156.648 Y148.171 E0.00653
G1 X156.791 Y148.225 E0.00653
G1 X156.927 Y148.295 E0.00653
G1 X157.055 Y148.378 E0.00653
G1 X157.174 Y148.474 E0.00653
G1 X157.282 Y148.582 E0.00653
G1 X157.378 Y148.7 E0.00653
G1 X157.461 Y148.829 E0.00653
G1 X157.53 Y148.965 E0.00653
G1 X157.585 Y149.107 E0.00653
G1 X157.625 Y149.255 E0.00653
G1 X157.648 Y149.405 E0.00653
G1 X157.656 Y149.558 E0.00653
G1 X157.648 Y149.71 E0.00653
G1 X157.625 Y149.861 E0.00653
G1 X157.585 Y150.009 E0.00653
G1 X157.53 Y150.151 E0.00653
G1 X157.461 Y150.287 E0.00653
G1 X157.378 Y150.415 E0.00653
G1 X157.282 Y150.534 E0.00653
G1 X157.174 Y150.642 E0.00653
G1 X157.055 Y150.738 E0.00653
G1 X156.927 Y150.821 E0.00653
G1 X156.791 Y150.891 E0.00653
G1 X156.648 Y150.945 E0.00653
G1 X156.501 Y150.985 E0.00653
G1 X156.35 Y151.009 E0.00653
G1 X156.198 Y151.017 E0.00653
G1 X156.045 Y151.009 E0.00653
G1 X155.894 Y150.985 E0.00653
G1 X155.747 Y150.945 E0.00653
G1 X155.604 Y150.891 E0.00653
G1 X155.468 Y150.821 E0.00653
G1 X155.34 Y150.738 E0.00653
G1 X155.222 Y150.642 E0.00653
G1 X155.114 Y150.534 E0.00653
G1 X155.018 Y150.415 E0.00653
G1 X154.934 Y150.287 E0.00653
G1 X154.867 Y150.155 E0.00635
;WIPE_START
G1 X154.904 Y150.022 F9000
;WIPE_END
G1 E-0.6 F3000
G1 X156.292 Y148.685 F9000
G1 E0.6 F1800
;TYPE:Solid infill
;WIDTH:0.490187
G1 X156.744 Y149.137 E0.02791
G1 X156.798 Y149.211 E0.00401
G1 X156.857 Y149.344 E0.00633
G1 X156.887 Y149.485 E0.00633
G1 X156.887 Y149.63 E0.00633
G1 X156.857 Y149.772 E0.00633
G1 X156.832 Y149.83 E0.00276
G1 X155.923 Y148.922 E0.05608
G1 X155.79 Y148.997 E0.00668
G1 X155.682 Y149.094 E0.00633
G1 X155.601 Y149.205 E0.00603
G1 X156.548 Y150.152 E0.05846
G1 X156.48 Y150.192 E0.00343
G1 X156.35 Y150.234 E0.00594
G1 X156.116 Y150.246 E0.01022
G1 X156.014 Y150.224 E0.00459
G1 X155.324 Y149.534 E0.0426
G1 E-0.6 F3000
G1 X155.034 Y141.53 F9000
G1 E0.6 F1800
;TYPE:External perimeter
;WIDTH:0.48
G1 F600
G1 X154.981 Y141.463 E0.00361
G1 X154.935 Y141.393 E0.00359
G1 X154.891 Y141.314 E0.00388
G1 X154.85 Y141.226 E0.00414
G1 X154.812 Y141.131 E0.00436
G1 X154.779 Y141.03 E0.00454
G1 X154.751 Y140.925 E0.00468
G1 X154.727 Y140.816 E0.00477
G1 X154.71 Y140.704 E0.00482
G1 X154.698 Y140.592 E0.00483
G1 X154.692 Y140.48 E0.0048
G1 X154.692 Y140.369 E0.00472
G1 X154.698 Y140.262 E0.00459
G1 X154.709 Y140.159 E0.00443
G1 X154.726 Y140.062 E0.00423
G1 X154.748 Y139.971 E0.00398
G1 X154.774 Y139.889 E0.0037
G1 X154.804 Y139.815 E0.00338
G1 X154.836 Y139.752 E0.00304
G1 X154.87 Y139.7 E0.00266
G1 X154.904 Y139.659 E0.00227
G1 X154.936 Y139.629 E0.00189
G1 X154.965 Y139.608 E0.00152
G1 X154.991 Y139.596 E0.00124
G1 X155.035 Y139.587 E0.00191
G1 X155.09 Y139.597 E0.00236
G1 X155.124 Y139.611 E0.00162
G1 X155.164 Y139.636 E0.00199
G1 X155.208 Y139.67 E0.00238
G1 X155.254 Y139.716 E0.00276
G1 X155.301 Y139.772 E0.00313
G1 X155.347 Y139.839 E0.00347
G1 X155.392 Y139.915 E0.00378
G1 X155.434 Y139.999 E0.00405
G1 X155.473 Y140.092 E0.00428
G1 X155.508 Y140.19 E0.00448
G1 X155.539 Y140.294 E0.00463
G1 X155.564 Y140.402 E0.00474
G1 X155.584 Y140.513 E0.00481
G1 X155.598 Y140.625 E0.00483
G1 X155.606 Y140.738 E0.00481
G1 X155.608 Y140.849 E0.00475
G1 X155.605 Y140.957 E0.00465
G1 X155.595 Y141.062 E0.0045
G1 X155.58 Y141.162 E0.00431
G1 X155.56 Y141.255 E0.00408
G1 X155.536 Y141.341 E0.00381
G1 X155.507 Y141.417 E0.00351
G1 X155.475 Y141.484 E0.00317
G1 X155.442 Y141.541 E0.0028
G1 X155.408 Y141.586 E0.00242
G1 X155.375 Y141.62 E0.00203
G1 X155.317 Y141.659 E0.00298
G1 X155.281 Y141.671 E0.00165
G1 X155.229 Y141.668 E0.00222
G1 X155.197 Y141.658 E0.00141
G1 X155.161 Y141.64 E0.00175
G1 X155.119 Y141.612 E0.00213
G1 X155.075 Y141.573 E0.00251
;WIPE_START
G1 X155.036 Y141.522 F9000
;WIPE_END
G1 E-0.6 F3000
G1 X155.044 Y139.794 F9000
G1 E0.6 F1800
;TYPE:Gap fill
;WIDTH:0.185831
G1 F600
G1 X155.066 Y139.951 E0.00212
;WIDTH:0.327924
G1 X155.089 Y140.137 E0.00517
;WIDTH:0.44856
G1 X155.112 Y140.318 E0.00724
;WIDTH:0.516946
G1 X155.133 Y140.491 E0.00809
;WIDTH:0.545327
G1 X155.155 Y140.669 E0.00885
G1 X155.177 Y140.846 E0.00877
;WIDTH:0.492834
G1 X155.197 Y141.015 E0.00747
;WIDTH:0.415877
G1 X155.216 Y141.168 E0.00564
;WIDTH:0.285405
G1 X155.24 Y141.359 E0.00449
;WIDTH:0.155094
G1 X155.211 Y141.431 E0.0008
G1 E-0.6 F3000
G1 X147.45 Y141.832 F9000
G1 E0.6 F1800
;TYPE:External perimeter
;WIDTH:0.48
G1 F600
G1 X147.424 Y141.734 E0.00436
G1 X147.4 Y141.624 E0.00477
G1 X147.383 Y141.513 E0.00482
G1 X147.371 Y141.401 E0.00483
G1 X147.365 Y141.289 E0.0048
G1 X147.365 Y141.178 E0.00472
G1 X147.37 Y141.071 E0.00459
G1 X147.382 Y140.968 E0.00443
G1 X147.399 Y140.871 E0.00423
G1 X147.421 Y140.78 E0.00398
G1 X147.447 Y140.698 E0.0037
G1 X147.477 Y140.624 E0.00338
G1 X147.509 Y140.561 E0.00304
G1 X147.543 Y140.509 E0.00266
G1 X147.577 Y140.468 E0.00227
G1 X147.609 Y140.437 E0.00189
G1 X147.638 Y140.417 E0.00152
G1 X147.687 Y140.398 E0.00223
G1 X147.733 Y140.398 E0.00197
G1 X147.797 Y140.42 E0.00291
G1 X147.837 Y140.445 E0.00199
G1 X147.881 Y140.479 E0.00238
G1 X147.927 Y140.525 E0.00276
G1 X147.973 Y140.581 E0.00313
G1 X148.02 Y140.647 E0.00347
G1 X148.065 Y140.724 E0.00378
G1 X148.107 Y140.808 E0.00405
G1 X148.146 Y140.901 E0.00428
G1 X148.181 Y140.999 E0.00448
G1 X148.211 Y141.103 E0.00463
G1 X148.237 Y141.211 E0.00474
G1 X148.257 Y141.322 E0.00481
G1 X148.271 Y141.434 E0.00483
G1 X148.279 Y141.547 E0.00481
G1 X148.281 Y141.658 E0.00475
G1 X148.278 Y141.766 E0.00465
G1 X148.268 Y141.871 E0.0045
G1 X148.253 Y141.971 E0.00431
G1 X148.233 Y142.064 E0.00408
G1 X148.209 Y142.149 E0.00381
G1 X148.18 Y142.226 E0.00351
G1 X148.148 Y142.293 E0.00317
G1 X148.115 Y142.35 E0.0028
G1 X148.081 Y142.395 E0.00242
G1 X148.048 Y142.429 E0.00203
G1 X148.018 Y142.453 E0.00165
G1 X147.99 Y142.468 E0.00133
G1 X147.953 Y142.48 E0.00165
G1 X147.902 Y142.477 E0.00222
G1 X147.87 Y142.467 E0.00141
G1 X147.834 Y142.449 E0.00175
G1 X147.792 Y142.421 E0.00213
G1 X147.748 Y142.382 E0.00252
G1 X147.701 Y142.332 E0.0029
G1 X147.654 Y142.272 E0.00326
G1 X147.608 Y142.202 E0.00359
G1 X147.564 Y142.123 E0.00388
G1 X147.523 Y142.035 E0.00414
G1 X147.485 Y141.94 E0.00436
G1 X147.469 Y141.889 E0.00229
;WIPE_START
G1 X147.521 Y141.759 F9000
;WIPE_END
G1 X147.717 Y140.603
;TYPE:Gap fill
;WIDTH:0.185831
G1 F600
G1 X147.739 Y140.76 E0.00212
;WIDTH:0.327924
G1 X147.762 Y140.946 E0.00517
;WIDTH:0.44856
G1 X147.785 Y141.127 E0.00724
;WIDTH:0.516946
G1 X147.806 Y141.3 E0.00809
;WIDTH:0.545327
G1 X147.828 Y141.478 E0.00885
G1 X147.849 Y141.655 E0.00877
;WIDTH:0.492834
G1 X147.87 Y141.823 E0.00747
;WIDTH:0.415877
G1 X147.889 Y141.977 E0.00564
;WIDTH:0.285405
G1 X147.913 Y142.168 E0.00449
;WIDTH:0.155094
G1 X147.884 Y142.24 E0.0008
G1 E-0.6 F3000
G1 X147.559 Y157.594 F9000
G1 E0.6 F1800
;TYPE:External perimeter
;WIDTH:0.48
G1 F600
G1 X147.588 Y157.568 E0.00166
G1 X147.643 Y157.535 E0.00275
G1 X147.687 Y157.526 E0.00191
G1 X147.712 Y157.528 E0.00106
G1 X147.776 Y157.55 E0.00291
G1 X147.816 Y157.575 E0.00199
G1 X147.859 Y157.609 E0.00238
G1 X147.905 Y157.655 E0.00276
G1 X147.952 Y157.711 E0.00313
G1 X147.999 Y157.777 E0.00347
G1 X148.044 Y157.854 E0.00378
G1 X148.086 Y157.938 E0.00405
G1 X148.125 Y158.031 E0.00428
G1 X148.16 Y158.129 E0.00448
G1 X148.19 Y158.233 E0.00463
G1 X148.215 Y158.341 E0.00474
G1 X148.235 Y158.452 E0.00481
G1 X148.249 Y158.564 E0.00483
G1 X148.258 Y158.677 E0.00481
G1 X148.26 Y158.788 E0.00475
G1 X148.256 Y158.896 E0.00465
G1 X148.247 Y159.001 E0.0045
G1 X148.232 Y159.101 E0.00431
G1 X148.212 Y159.194 E0.00408
G1 X148.187 Y159.28 E0.00381
G1 X148.159 Y159.356 E0.00351
G1 X148.127 Y159.423 E0.00317
G1 X148.093 Y159.48 E0.0028
G1 X148.06 Y159.525 E0.00242
G1 X148.027 Y159.559 E0.00203
