; generated by SuperSlicer 2.3.57 on 2022-02-08 at 01:22:33 UTC


;
;

;
;
; 

; external perimeters extrusion width = 0.40mm
; perimeters extrusion width = 0.40mm
; infill extrusion width = 0.40mm
; solid infill extrusion width = 0.40mm
; top infill extrusion width = 0.40mm
; first layer extrusion width = 0.52mm


;TYPE:Custom
START_PRINT T_BED=70 T_EXTRUDER=230
M107
G21 ; set units to millimeters
G90 ; use absolute coordinates
M83 ; use relative distances for extrusion
; Filament gcode
M104 S230 ; set temperature
M109 S230 ; set temperature and wait for it to be reached
M190 S70 ; set bed temperature and wait for it to be reached
;LAYER_CHANGE
;Z:0.24
;HEIGHT:0.24
G1 Z0.24 F9000
G1 E-1 F3000
G1 X119.25 Y132.501 F9000
G1 E1 F1800
;TYPE:Skirt
;WIDTH:0.52
G1 F600
G1 X118.361 Y133.51 E0.0629
G1 X117.671 Y134.625 E0.06128
G1 X117.147 Y135.905 E0.06467
G1 X116.844 Y137.208 E0.06254
G1 X116.745 Y138.434 E0.05747
G1 X116.496 Y149.702 E0.5269
G1 X116.322 Y160.998 E0.5281
G1 X116.405 Y162.214 E0.05699
G1 X116.705 Y163.597 E0.06614
G1 X117.178 Y164.821 E0.06136
G1 X117.839 Y165.967 E0.06185
G1 X118.645 Y166.961 E0.05978
G1 X119.744 Y167.923 E0.06829
G1 X121.067 Y168.695 E0.07162
G1 X122.703 Y169.245 E0.08068
G1 X124.184 Y169.417 E0.06971
G1 X149.383 Y169.667 E1.178
G1 X182.691 Y169.666 E1.55706
G1 X183.756 Y169.541 E0.05012
G1 X184.815 Y169.211 E0.05183
G1 X185.779 Y168.707 E0.05087
G1 X186.664 Y168.018 E0.05243
G1 X187.497 Y167.067 E0.05907
G1 X188.093 Y166.039 E0.05558
G1 X188.492 Y164.906 E0.05611
G1 X188.669 Y163.724 E0.05591
G1 X188.502 Y151.927 E0.5515
G1 X188.054 Y140.546 E0.53245
G1 X187.911 Y139.508 E0.04897
G1 X187.594 Y138.509 E0.04902
G1 X185.467 Y133.781 E0.24233
G1 X184.833 Y132.754 E0.05643
G1 X184.018 Y131.903 E0.05506
G1 X183.052 Y131.24 E0.05479
G1 X181.97 Y130.789 E0.05479
G1 X180.819 Y130.568 E0.05479
G1 X157.453 Y130.365 E1.09234
G1 X124.062 Y130.389 E1.56093
G1 X122.67 Y130.611 E0.06587
G1 X121.43 Y131.041 E0.06136
G1 X120.258 Y131.69 E0.06264
G1 X119.297 Y132.463 E0.05764
G1 X119.602 Y132.814 F9000
G1 F600
G1 X118.742 Y133.782 E0.06053
G1 X118.087 Y134.84 E0.05818
G1 X117.589 Y136.06 E0.0616
G1 X117.303 Y137.305 E0.05971
G1 X117.213 Y138.451 E0.05374
G1 X116.965 Y149.704 E0.52618
G1 X116.79 Y161.003 E0.52825
G1 X116.865 Y162.122 E0.05239
G1 X117.148 Y163.444 E0.06322
G1 X117.593 Y164.603 E0.05804
G1 X118.215 Y165.686 E0.05837
G1 X118.959 Y166.611 E0.05552
G1 X120 Y167.53 E0.06488
G1 X121.242 Y168.26 E0.06737
G1 X122.795 Y168.785 E0.07664
G1 X124.185 Y168.949 E0.06539
G1 X149.384 Y169.199 E1.17804
G1 X182.668 Y169.198 E1.55592
G1 X183.644 Y169.086 E0.04591
G1 X184.615 Y168.787 E0.04751
G1 X185.502 Y168.328 E0.04667
G1 X186.315 Y167.703 E0.04793
G1 X187.104 Y166.811 E0.05568
G1 X187.665 Y165.85 E0.05202
G1 X188.038 Y164.788 E0.0526
G1 X188.202 Y163.68 E0.05239
G1 X188.034 Y151.943 E0.54872
G1 X187.586 Y140.557 E0.53264
G1 X187.45 Y139.597 E0.04536
G1 X187.155 Y138.673 E0.04531
G1 X185.045 Y133.985 E0.24032
G1 X184.447 Y133.022 E0.053
G1 X183.699 Y132.246 E0.05038
G1 X182.808 Y131.641 E0.05038
G1 X181.811 Y131.23 E0.05038
G1 X180.752 Y131.032 E0.05038
G1 X157.453 Y130.834 E1.08919
G1 X124.106 Y130.856 E1.55885
G1 X122.79 Y131.064 E0.06228
G1 X121.635 Y131.462 E0.05712
G1 X120.533 Y132.07 E0.05884
G1 X119.649 Y132.776 E0.05289
G1 E-1 F3000
G1 X124.021 Y140.274 F9000
G1 E1 F1800
;TYPE:Internal perimeter
G1 F600
G1 X123.895 Y140.195 E0.00691
G1 X123.72 Y140.041 E0.01093
G1 X123.55 Y139.833 E0.01254
G1 X123.407 Y139.589 E0.01325
G1 X123.286 Y139.283 E0.01537
G1 X123.205 Y138.937 E0.01663
G1 X123.176 Y138.587 E0.01642
G1 X123.199 Y138.212 E0.01753
G1 X123.276 Y137.861 E0.01681
G1 X123.402 Y137.55 E0.01567
G1 X123.527 Y137.344 E0.0113
G1 X123.676 Y137.17 E0.01069
G1 X123.846 Y137.03 E0.01029
G1 X124.03 Y136.926 E0.00987
G1 X124.232 Y136.852 E0.01006
G1 X124.466 Y136.809 E0.01112
G1 X124.65 Y136.8 E0.00862
G1 X146.95 Y136.977 E1.04251
G1 X146.938 Y137.348 E0.01734
G1 X146.916 Y137.465 E0.00556
G1 X146.872 Y137.588 E0.00613
G1 X146.718 Y137.916 E0.01695
G1 X146.633 Y138.174 E0.0127
G1 X146.585 Y138.438 E0.01253
G1 X146.579 Y138.692 E0.01187
G1 X146.607 Y138.894 E0.00957
G1 X146.661 Y139.073 E0.00873
G1 X146.74 Y139.236 E0.00844
G1 X146.846 Y139.388 E0.00867
G1 X146.993 Y139.54 E0.00989
G1 X147.184 Y139.682 E0.01112
G1 X147.271 Y139.737 E0.00481
G1 X147.811 Y140.038 E0.02891
G1 X148.02 Y140.198 E0.0123
G1 X148.565 Y140.709 E0.03491
G1 X124.673 Y140.472 E1.11689
G1 X124.483 Y140.454 E0.00891
G1 X124.308 Y140.41 E0.00848
G1 X124.101 Y140.323 E0.01048
G1 X124.072 Y140.305 E0.00159
G1 X123.825 Y140.703 F9000
;TYPE:External perimeter
G1 F600
G1 X123.615 Y140.573 E0.01154
G1 X123.382 Y140.367 E0.01453
G1 X123.164 Y140.102 E0.01604
G1 X122.985 Y139.795 E0.01663
G1 X122.837 Y139.423 E0.01867
G1 X122.741 Y139.01 E0.01985
G1 X122.706 Y138.592 E0.0196
G1 X122.734 Y138.147 E0.02084
G1 X122.827 Y137.722 E0.02034
G1 X122.981 Y137.339 E0.0193
G1 X123.147 Y137.068 E0.01488
G1 X123.347 Y136.835 E0.01436
G1 X123.579 Y136.643 E0.01405
G1 X123.832 Y136.499 E0.01359
G1 X124.108 Y136.399 E0.01372
G1 X124.411 Y136.342 E0.01445
G1 X124.641 Y136.331 E0.01072
G1 X147.31 Y136.511 E1.05974
G1 X147.373 Y136.767 E0.01231
G1 X147.414 Y137.135 E0.01732
G1 X147.405 Y137.398 E0.0123
G1 X147.37 Y137.587 E0.009
G1 X147.306 Y137.767 E0.00893
G1 X147.155 Y138.09 E0.01665
G1 X147.088 Y138.291 E0.00991
G1 X147.052 Y138.486 E0.00929
G1 X147.048 Y138.664 E0.00832
G1 X147.066 Y138.793 E0.00609
G1 X147.099 Y138.902 E0.00533
G1 X147.145 Y138.998 E0.00497
G1 X147.209 Y139.089 E0.00517
G1 X147.304 Y139.187 E0.0064
G1 X147.449 Y139.296 E0.00845
G1 X147.509 Y139.334 E0.00335
G1 X148.068 Y139.645 E0.02991
G1 X148.323 Y139.839 E0.01499
G1 X148.909 Y140.39 E0.03756
G1 X149.052 Y140.517 E0.00897
G1 X149.195 Y140.666 E0.00963
G1 X149.245 Y140.738 E0.00413
G1 X149.269 Y140.787 E0.00253
G1 X149.281 Y140.825 E0.00187
G1 X149.286 Y140.861 E0.00171
G1 X149.286 Y140.903 E0.00197
G1 X149.277 Y140.955 E0.00243
G1 X149.257 Y141.015 E0.00296
G1 X149.226 Y141.076 E0.00321
G1 X149.193 Y141.119 E0.00254
G1 X149.162 Y141.15 E0.00205
G1 X149.105 Y141.183 E0.00307
G1 X124.649 Y140.94 E1.14329
G1 X124.404 Y140.917 E0.01151
G1 X124.159 Y140.855 E0.01181
G1 X123.876 Y140.735 E0.0144
;WIPE_START
G1 X123.833 Y140.456 F9000
;WIPE_END
G1 E-1 F3000
G1 X146.595 Y137.79 F9000
G1 E1 F1800
;TYPE:Solid infill
;WIDTH:0.525946
G1 X146.141 Y137.336 E0.03037
G1 X145.473 Y137.331 E0.03156
G1 X146.27 Y138.128 E0.05331
G1 X146.22 Y138.4 E0.01307
G1 X146.213 Y138.713 E0.01479
G1 X146.216 Y138.737 E0.00113
G1 X144.805 Y137.326 E0.09431
G1 X144.138 Y137.321 E0.03156
G1 X146.954 Y140.137 E0.18829
G1 X146.892 Y140.327 E0.00945
G1 X146.477 Y140.323 E0.01962
G1 X143.47 Y137.316 E0.20105
G1 X142.803 Y137.311 E0.03156
G1 X145.808 Y140.316 E0.20094
G1 X145.139 Y140.31 E0.03164
G1 X142.135 Y137.306 E0.20083
G1 X141.468 Y137.301 E0.03156
G1 X144.47 Y140.303 E0.20072
G1 X143.8 Y140.296 E0.03164
G1 X140.8 Y137.296 E0.20061
G1 X140.133 Y137.291 E0.03156
G1 X143.131 Y140.29 E0.2005
G1 X142.462 Y140.283 E0.03164
G1 X139.465 Y137.286 E0.20039
G1 X138.798 Y137.281 E0.03156
G1 X141.793 Y140.277 E0.20028
G1 X141.124 Y140.27 E0.03164
G1 X138.13 Y137.276 E0.20017
G1 X137.462 Y137.271 E0.03156
G1 X140.454 Y140.263 E0.20006
G1 X139.785 Y140.257 E0.03164
G1 X136.795 Y137.266 E0.19995
G1 X136.127 Y137.261 E0.03156
G1 X139.116 Y140.25 E0.19984
G1 X138.447 Y140.243 E0.03164
G1 X135.46 Y137.256 E0.19973
G1 X134.792 Y137.251 E0.03156
G1 X137.778 Y140.237 E0.19962
G1 X137.108 Y140.23 E0.03164
G1 X134.125 Y137.246 E0.19951
G1 X133.457 Y137.241 E0.03156
G1 X136.439 Y140.223 E0.1994
G1 X135.77 Y140.217 E0.03164
G1 X132.79 Y137.236 E0.19929
G1 X132.122 Y137.231 E0.03156
G1 X135.101 Y140.21 E0.19918
G1 X134.432 Y140.203 E0.03164
G1 X131.455 Y137.226 E0.19907
G1 X130.787 Y137.221 E0.03156
G1 X133.762 Y140.197 E0.19896
G1 X133.093 Y140.19 E0.03164
G1 X130.119 Y137.216 E0.19885
G1 X129.452 Y137.211 E0.03156
G1 X132.424 Y140.183 E0.19874
G1 X131.755 Y140.177 E0.03164
G1 X128.784 Y137.206 E0.19863
G1 X128.117 Y137.201 E0.03156
G1 X131.086 Y140.17 E0.19852
G1 X130.416 Y140.164 E0.03164
G1 X127.449 Y137.196 E0.19841
G1 X126.782 Y137.191 E0.03156
G1 X129.747 Y140.157 E0.1983
G1 X129.078 Y140.15 E0.03164
G1 X126.114 Y137.186 E0.19819
G1 X125.447 Y137.181 E0.03156
G1 X128.409 Y140.144 E0.19808
G1 X127.74 Y140.137 E0.03164
G1 X124.779 Y137.176 E0.19797
G1 X124.498 Y137.174 E0.01329
G1 X124.328 Y137.206 E0.00815
G1 X124.195 Y137.255 E0.00673
G1 X127.07 Y140.13 E0.19229
G1 X126.401 Y140.124 E0.03164
G1 X123.83 Y137.552 E0.17193
G1 X123.729 Y137.715 E0.00904
G1 X123.627 Y137.969 E0.01298
G1 X123.619 Y138.004 E0.00167
G1 X125.732 Y140.117 E0.14129
G1 X125.063 Y140.11 E0.03164
G1 X123.543 Y138.59 E0.10164
G1 X123.567 Y138.88 E0.01374
G1 X123.636 Y139.174 E0.01428
G1 X123.736 Y139.428 E0.01294
G1 X123.762 Y139.472 E0.00241
G1 X124.589 Y140.299 E0.0553
G1 E-1 F3000
G1 X141.879 Y148.113 F9000
G1 E1 F1800
;TYPE:Internal perimeter
;WIDTH:0.52
G1 F600
G1 X147.027 Y148.154 E0.24064
G1 X147.014 Y148.54 E0.01804
G1 X146.992 Y148.66 E0.0057
G1 X146.946 Y148.786 E0.00626
G1 X146.791 Y149.118 E0.01716
G1 X146.705 Y149.379 E0.01281
G1 X146.656 Y149.644 E0.01262
G1 X146.65 Y149.9 E0.01195
G1 X146.679 Y150.104 E0.00962
G1 X146.733 Y150.283 E0.00878
G1 X146.812 Y150.447 E0.00848
G1 X146.919 Y150.599 E0.00871
G1 X147.067 Y150.752 E0.00995
G1 X147.259 Y150.896 E0.0112
G1 X147.346 Y150.951 E0.00484
G1 X147.894 Y151.256 E0.0293
G1 X148.107 Y151.418 E0.01251
G1 X148.676 Y151.953 E0.0365
G1 X124.454 Y151.713 E1.13235
G1 X124.261 Y151.694 E0.00908
G1 X124.081 Y151.649 E0.00866
G1 X123.87 Y151.561 E0.01068
G1 X123.661 Y151.431 E0.01152
G1 X123.482 Y151.273 E0.01114
G1 X123.309 Y151.062 E0.01277
G1 X123.164 Y150.813 E0.01348
G1 X123.04 Y150.502 E0.01563
G1 X122.958 Y150.15 E0.01691
G1 X122.928 Y149.794 E0.01669
G1 X122.952 Y149.414 E0.01782
G1 X123.031 Y149.056 E0.0171
G1 X123.158 Y148.74 E0.01594
G1 X123.286 Y148.53 E0.01151
G1 X123.438 Y148.353 E0.0109
G1 X123.611 Y148.21 E0.0105
G1 X123.799 Y148.103 E0.01007
G1 X124.005 Y148.028 E0.01026
G1 X124.243 Y147.984 E0.01133
G1 X124.43 Y147.975 E0.00877
G1 X141.819 Y148.113 E0.81289
G1 X141.823 Y147.644 F9000
;TYPE:External perimeter
G1 F600
G1 X147.384 Y147.688 E0.25997
G1 X147.448 Y147.95 E0.0126
G1 X147.49 Y148.324 E0.01756
G1 X147.481 Y148.59 E0.01248
G1 X147.446 Y148.783 E0.00914
G1 X147.38 Y148.965 E0.00906
G1 X147.227 Y149.292 E0.01686
G1 X147.16 Y149.495 E0.01002
G1 X147.124 Y149.693 E0.00939
G1 X147.119 Y149.872 E0.00841
G1 X147.138 Y150.003 E0.00614
G1 X147.171 Y150.113 E0.00537
G1 X147.218 Y150.209 E0.00501
G1 X147.281 Y150.301 E0.00521
G1 X147.377 Y150.4 E0.00645
G1 X147.524 Y150.509 E0.00854
G1 X147.585 Y150.547 E0.00338
G1 X148.151 Y150.863 E0.0303
G1 X148.41 Y151.06 E0.0152
G1 X149.003 Y151.618 E0.03805
G1 X149.148 Y151.747 E0.00909
G1 X149.293 Y151.898 E0.00977
G1 X149.344 Y151.972 E0.00421
G1 X149.369 Y152.021 E0.00259
G1 X149.381 Y152.06 E0.00191
G1 X149.386 Y152.097 E0.00175
G1 X149.386 Y152.141 E0.00202
G1 X149.377 Y152.193 E0.00249
G1 X149.357 Y152.254 E0.00302
G1 X149.324 Y152.317 E0.00327
G1 X149.291 Y152.361 E0.00259
G1 X149.259 Y152.393 E0.0021
G1 X149.2 Y152.427 E0.0032
G1 X124.43 Y152.181 E1.15798
G1 X124.181 Y152.158 E0.01168
G1 X123.932 Y152.095 E0.01198
G1 X123.655 Y151.979 E0.01407
G1 X123.381 Y151.808 E0.01509
G1 X123.144 Y151.6 E0.01474
G1 X122.923 Y151.33 E0.01627
G1 X122.741 Y151.019 E0.01687
G1 X122.592 Y150.642 E0.01893
G1 X122.494 Y150.223 E0.02013
G1 X122.459 Y149.799 E0.01987
G1 X122.487 Y149.348 E0.02113
G1 X122.581 Y148.917 E0.02062
G1 X122.738 Y148.529 E0.01957
G1 X122.906 Y148.253 E0.0151
G1 X123.109 Y148.017 E0.01457
G1 X123.344 Y147.823 E0.01426
G1 X123.601 Y147.677 E0.01379
G1 X123.881 Y147.575 E0.01392
G1 X124.189 Y147.517 E0.01465
G1 X124.421 Y147.506 E0.01088
G1 X141.763 Y147.644 E0.81068
;WIPE_START
G1 X142.02 Y147.992 F9000
;WIPE_END
G1 E-1 F3000
G1 X146.678 Y148.968 F9000
G1 E1 F1800
;TYPE:Solid infill
;WIDTH:0.528287
G1 X146.224 Y148.514 E0.03051
G1 X145.556 Y148.509 E0.0317
G1 X146.348 Y149.3 E0.05318
G1 X146.291 Y149.607 E0.01479
G1 X146.284 Y149.899 E0.01391
G1 X144.889 Y148.504 E0.09375
G1 X144.221 Y148.499 E0.0317
G1 X147.08 Y151.357 E0.192
G1 X147.01 Y151.571 E0.01068
G1 X146.627 Y151.567 E0.01819
G1 X143.554 Y148.494 E0.20645
G1 X142.886 Y148.489 E0.0317
G1 X145.958 Y151.561 E0.20634
G1 X145.289 Y151.554 E0.03178
G1 X142.218 Y148.484 E0.20623
G1 X141.551 Y148.479 E0.0317
G1 X144.62 Y151.547 E0.20612
G1 X143.951 Y151.541 E0.03178
G1 X140.883 Y148.474 E0.20601
G1 X140.216 Y148.469 E0.0317
G1 X143.281 Y151.534 E0.2059
G1 X142.612 Y151.528 E0.03178
G1 X139.548 Y148.464 E0.20579
G1 X138.881 Y148.459 E0.0317
G1 X141.943 Y151.521 E0.20567
G1 X141.274 Y151.514 E0.03178
G1 X138.213 Y148.454 E0.20556
G1 X137.546 Y148.449 E0.0317
G1 X140.605 Y151.508 E0.20545
G1 X139.935 Y151.501 E0.03178
G1 X136.878 Y148.444 E0.20534
G1 X136.211 Y148.439 E0.0317
G1 X139.266 Y151.494 E0.20523
G1 X138.597 Y151.488 E0.03178
G1 X135.543 Y148.434 E0.20512
G1 X134.875 Y148.429 E0.0317
G1 X137.928 Y151.481 E0.20501
G1 X137.259 Y151.474 E0.03178
G1 X134.208 Y148.424 E0.2049
G1 X133.54 Y148.419 E0.0317
G1 X136.589 Y151.468 E0.20479
G1 X135.92 Y151.461 E0.03178
G1 X132.873 Y148.414 E0.20468
G1 X132.205 Y148.409 E0.0317
G1 X135.251 Y151.454 E0.20457
G1 X134.582 Y151.448 E0.03178
G1 X131.538 Y148.404 E0.20445
G1 X130.87 Y148.399 E0.0317
G1 X133.913 Y151.441 E0.20434
G1 X133.243 Y151.435 E0.03178
G1 X130.203 Y148.394 E0.20423
G1 X129.535 Y148.389 E0.0317
G1 X132.574 Y151.428 E0.20412
G1 X131.905 Y151.421 E0.03178
G1 X128.868 Y148.384 E0.20401
G1 X128.2 Y148.379 E0.0317
G1 X131.236 Y151.415 E0.2039
G1 X130.567 Y151.408 E0.03178
G1 X127.532 Y148.374 E0.20379
G1 X126.865 Y148.369 E0.0317
G1 X129.897 Y151.401 E0.20368
G1 X129.228 Y151.395 E0.03178
G1 X126.197 Y148.364 E0.20357
G1 X125.53 Y148.359 E0.0317
G1 X128.559 Y151.388 E0.20346
G1 X127.89 Y151.381 E0.03178
G1 X124.862 Y148.354 E0.20335
G1 X124.275 Y148.349 E0.02787
G1 X124.208 Y148.362 E0.00326
G1 X127.221 Y151.375 E0.20235
G1 X126.551 Y151.368 E0.03178
G1 X123.752 Y148.568 E0.18805
G1 X123.695 Y148.615 E0.00349
G1 X123.583 Y148.745 E0.00817
G1 X123.486 Y148.904 E0.00885
G1 X123.468 Y148.947 E0.0022
G1 X125.882 Y151.361 E0.16213
G1 X125.213 Y151.355 E0.03178
G1 X123.316 Y149.458 E0.1274
G1 X123.295 Y149.79 E0.0158
G1 X123.32 Y150.093 E0.01444
G1 X123.33 Y150.134 E0.002
G1 X124.747 Y151.552 E0.09521
G1 E-1 F3000
G1 X125.627 Y163 F9000
G1 E1 F1800
;TYPE:Internal perimeter
;WIDTH:0.52
G1 F600
G1 X124.308 Y162.987 E0.06167
G1 X124.111 Y162.968 E0.00924
G1 X123.928 Y162.922 E0.00883
G1 X123.714 Y162.832 E0.01088
G1 X123.5 Y162.7 E0.01173
G1 X123.318 Y162.539 E0.01135
G1 X123.142 Y162.324 E0.013
G1 X122.994 Y162.071 E0.01372
G1 X122.868 Y161.755 E0.01589
G1 X122.785 Y161.397 E0.01718
G1 X122.755 Y161.035 E0.01697
G1 X122.779 Y160.648 E0.01811
G1 X122.859 Y160.285 E0.01739
G1 X122.988 Y159.963 E0.01621
G1 X123.119 Y159.749 E0.01173
G1 X123.274 Y159.569 E0.01111
G1 X123.45 Y159.423 E0.0107
G1 X123.641 Y159.314 E0.01027
G1 X123.851 Y159.238 E0.01046
G1 X124.094 Y159.192 E0.01154
G1 X124.285 Y159.183 E0.00892
G1 X147.177 Y159.365 E1.07016
G1 X147.164 Y159.766 E0.01875
G1 X147.141 Y159.889 E0.00584
G1 X147.094 Y160.017 E0.0064
G1 X146.937 Y160.354 E0.01737
G1 X146.851 Y160.616 E0.01292
G1 X146.801 Y160.884 E0.01272
G1 X146.795 Y161.141 E0.01203
G1 X146.824 Y161.346 E0.00968
G1 X146.879 Y161.527 E0.00882
G1 X146.958 Y161.691 E0.00852
G1 X147.065 Y161.844 E0.00875
G1 X147.214 Y161.998 E0.01001
G1 X147.407 Y162.143 E0.01129
G1 X147.496 Y162.198 E0.00487
G1 X148.05 Y162.508 E0.02969
G1 X148.267 Y162.673 E0.01272
G1 X148.861 Y163.231 E0.03809
G1 X125.687 Y163.001 E1.08333
G1 X125.683 Y163.469 F9000
;TYPE:External perimeter
G1 F600
G1 X124.284 Y163.455 E0.06539
G1 X124.032 Y163.431 E0.01184
G1 X123.78 Y163.368 E0.01216
G1 X123.498 Y163.25 E0.01427
G1 X123.22 Y163.077 E0.01531
G1 X122.98 Y162.866 E0.01495
G1 X122.756 Y162.592 E0.01651
