; generated by SuperSlicer 2.3.57 on 2022-02-05 at 22:04:12 UTC


;
;

;
;
; 

; external perimeters extrusion width = 0.40mm
; perimeters extrusion width = 0.45mm
; infill extrusion width = 0.72mm
; solid infill extrusion width = 0.56mm
; top infill extrusion width = 0.40mm
; first layer extrusion width = 0.48mm

; external perimeters extrusion width = 0.40mm
; perimeters extrusion width = 0.45mm
; infill extrusion width = 0.72mm
; solid infill extrusion width = 0.56mm
; top infill extrusion width = 0.40mm
; first layer extrusion width = 0.48mm

; external perimeters extrusion width = 0.40mm
; perimeters extrusion width = 0.45mm
; infill extrusion width = 0.72mm
; solid infill extrusion width = 0.56mm
; top infill extrusion width = 0.40mm
; first layer extrusion width = 0.48mm

; external perimeters extrusion width = 0.40mm
; perimeters extrusion width = 0.45mm
; infill extrusion width = 0.72mm
; solid infill extrusion width = 0.56mm
; top infill extrusion width = 0.40mm
; first layer extrusion width = 0.48mm

; external perimeters extrusion width = 0.40mm
; perimeters extrusion width = 0.45mm
; infill extrusion width = 0.72mm
; solid infill extrusion width = 0.56mm
; top infill extrusion width = 0.40mm
; first layer extrusion width = 0.48mm

; object:{"name":"Part1-Blue","id":"Part1-Blue.STL id:0 copy 0","object_center":[152.500000,150.000000,0.000000],"boundingbox_center":[152.500000,150.000000,6.000000],"boundingbox_size":[103.538013,100.000000,12.000000]}
; plater:{"center":[152.500000,150.000000,0.000000],"boundingbox_center":[152.500000,150.000000,6.000000],"boundingbox_size":[103.538013,100.000000,12.000000]}

;TYPE:Custom
START_PRINT T_BED=70 T_EXTRUDER=230
M107
G21 ; set units to millimeters
G90 ; use absolute coordinates
M83 ; use relative distances for extrusion
; Filament gcode
M109 S230 ; set temperature and wait for it to be reached
M190 S70 ; set bed temperature and wait for it to be reached
;LAYER_CHANGE
;Z:0.24
;HEIGHT:0.24
G1 Z0.24 F7200
G1 E-1.2 F3000
G1 X115.951 Y104.797 F7200
G1 E1.2 F1800
;TYPE:Skirt
;WIDTH:0.48
G1 X114.754 Y106.372 E0.08459
G1 X113.989 Y107.84 E0.07075
G1 X104.095 Y127.792 E0.9522
G1 X101.527 Y133.459 E0.26601
G1 X99.426 Y139.193 E0.26107
G1 X98.165 Y143.924 E0.20934
G1 X97.412 Y148.804 E0.21112
G1 X97.188 Y153.694 E0.2093
G1 X97.494 Y158.636 E0.21172
G1 X98.325 Y163.489 E0.21051
G1 X99.673 Y168.225 E0.21051
G1 X101.525 Y172.797 E0.21092
G1 X103.848 Y177.128 E0.21011
G1 X106.62 Y181.182 E0.20999
G1 X110.038 Y185.241 E0.22686
G1 X113.804 Y188.952 E0.22607
G1 X117.906 Y192.304 E0.22648
G1 X122.297 Y195.258 E0.22627
G1 X126.943 Y197.793 E0.22627
G1 X131.803 Y199.886 E0.22627
G1 X136.837 Y201.519 E0.22627
G1 X142.001 Y202.679 E0.22627
G1 X147.25 Y203.356 E0.22627
G1 X152.501 Y203.543 E0.22468
G1 X157.749 Y203.356 E0.22451
G1 X162.998 Y202.679 E0.22627
G1 X168.162 Y201.52 E0.22627
G1 X173.195 Y199.886 E0.22627
G1 X178.056 Y197.793 E0.22627
G1 X182.702 Y195.259 E0.22627
G1 X187.093 Y192.304 E0.22627
G1 X191.198 Y188.949 E0.22668
G1 X194.961 Y185.242 E0.22587
G1 X198.379 Y181.184 E0.2268
G1 X201.152 Y177.127 E0.21013
G1 X203.475 Y172.797 E0.21011
G1 X205.327 Y168.225 E0.21092
G1 X206.675 Y163.489 E0.21051
G1 X207.506 Y158.636 E0.21051
G1 X207.812 Y153.693 E0.21172
G1 X207.588 Y148.803 E0.2093
G1 X206.835 Y143.923 E0.21112
G1 X205.573 Y139.191 E0.2094
G1 X203.472 Y133.456 E0.26114
G1 X200.905 Y127.791 E0.26592
G1 X191.013 Y107.843 E0.95198
G1 X190.249 Y106.376 E0.07071
G1 X189.049 Y104.797 E0.08479
G1 X187.781 Y103.601 E0.07455
G1 X186.245 Y102.566 E0.07918
G1 X184.549 Y101.798 E0.07958
G1 X182.894 Y101.353 E0.07331
G1 X154.727 Y96.649 E1.22095
G1 X152.505 Y96.458 E0.09537
G1 X150.27 Y96.65 E0.09592
G1 X122.107 Y101.352 E1.22079
G1 X120.45 Y101.798 E0.07334
G1 X118.755 Y102.566 E0.07958
G1 X117.219 Y103.601 E0.07918
G1 X115.994 Y104.756 E0.07198
G1 X116.288 Y105.067 F7200
G1 F1800
G1 X116.259 Y105.095 E0.00171
G1 X115.111 Y106.609 E0.08124
G1 X114.37 Y108.035 E0.06873
G1 X104.481 Y127.978 E0.95176
G1 X101.928 Y133.61 E0.26434
G1 X99.835 Y139.322 E0.26012
G1 X98.584 Y144.015 E0.20763
G1 X97.838 Y148.848 E0.20911
G1 X97.617 Y153.694 E0.20741
G1 X97.92 Y158.589 E0.20968
G1 X98.744 Y163.396 E0.20854
G1 X100.079 Y168.088 E0.20854
G1 X101.912 Y172.613 E0.20873
G1 X104.215 Y176.907 E0.20835
G1 X106.963 Y180.925 E0.20812
G1 X110.352 Y184.949 E0.22494
G1 X114.09 Y188.632 E0.22438
G1 X118.161 Y191.959 E0.22476
G1 X122.519 Y194.891 E0.22457
G1 X127.129 Y197.407 E0.22457
G1 X131.954 Y199.484 E0.22457
G1 X136.95 Y201.106 E0.22457
G1 X142.074 Y202.257 E0.22457
G1 X147.284 Y202.928 E0.22457
G1 X152.498 Y203.114 E0.22308
G1 X157.713 Y202.929 E0.22311
G1 X162.927 Y202.257 E0.22476
G1 X168.048 Y201.107 E0.22438
G1 X173.048 Y199.484 E0.22476
G1 X177.868 Y197.408 E0.22439
G1 X182.479 Y194.893 E0.22457
G1 X186.837 Y191.961 E0.22457
G1 X190.908 Y188.634 E0.22476
G1 X194.646 Y184.951 E0.22438
G1 X198.039 Y180.923 E0.22519
G1 X200.785 Y176.907 E0.20799
G1 X203.087 Y172.617 E0.20817
G1 X204.921 Y168.088 E0.20892
G1 X206.256 Y163.396 E0.20854
G1 X207.08 Y158.589 E0.20854
G1 X207.383 Y153.694 E0.20968
G1 X207.162 Y148.848 E0.20741
G1 X206.416 Y144.014 E0.20911
G1 X205.165 Y139.322 E0.20765
G1 X203.073 Y133.613 E0.25995
G1 X200.518 Y127.976 E0.26462
G1 X190.63 Y108.036 E0.9516
G1 X189.891 Y106.612 E0.06859
G1 X188.744 Y105.098 E0.08124
G1 X187.516 Y103.938 E0.07219
G1 X186.032 Y102.938 E0.07654
G1 X184.401 Y102.2 E0.07654
G1 X182.793 Y101.769 E0.07117
G1 X154.661 Y97.073 E1.21945
G1 X152.505 Y96.886 E0.09251
G1 X150.339 Y97.073 E0.09295
G1 X122.208 Y101.769 E1.21939
G1 X120.599 Y102.2 E0.07124
G1 X118.968 Y102.938 E0.07654
G1 X117.483 Y103.938 E0.07654
G1 X116.332 Y105.026 E0.06772
; INIT printing object Part1-Blue.STL id:0 copy 0
G1 E-1.2 F3000
; printing object Part1-Blue.STL id:0 copy 0
G1 X144.694 Y105.893 F7200
G1 E1.2 F1800
;TYPE:Internal perimeter
G1 X145.992 Y104.15 E0.09293
G1 X147.056 Y103.134 E0.0629
G1 X148.276 Y102.311 E0.0629
G1 X149.616 Y101.704 E0.0629
G1 X151.039 Y101.331 E0.0629
G1 X152.5 Y101.202 E0.06271
G1 X152.812 Y101.229 E0.01337
G1 X153.961 Y101.331 E0.04934
G1 X155.384 Y101.704 E0.0629
G1 X156.724 Y102.311 E0.0629
G1 X157.944 Y103.134 E0.0629
G1 X159.008 Y104.15 E0.0629
G1 X160.306 Y105.893 E0.09293
G1 X180.768 Y105.893 E0.87487
G1 X181.896 Y105.989 E0.04841
G1 X182.942 Y106.261 E0.04623
G1 X183.928 Y106.706 E0.04623
G1 X184.824 Y107.31 E0.04623
G1 X185.605 Y108.058 E0.04623
G1 X186.249 Y108.926 E0.04623
G1 X186.737 Y109.891 E0.04623
G1 X187.056 Y110.924 E0.04623
G1 X187.195 Y111.997 E0.04623
G1 X187.151 Y113.077 E0.04623
G1 X186.79 Y114.771 E0.07406
G1 X190.677 Y119.879 E0.27445
G1 X193.849 Y124.766 E0.24906
G1 X196.647 Y129.875 E0.24905
G1 X199.056 Y135.178 E0.24906
G1 X201.058 Y140.638 E0.24863
G1 X202.198 Y144.913 E0.18914
G1 X202.87 Y149.275 E0.18872
G1 X203.07 Y153.684 E0.18872
G1 X202.796 Y158.09 E0.18872
G1 X202.051 Y162.441 E0.18872
G1 X200.843 Y166.686 E0.18872
G1 X199.186 Y170.777 E0.18872
G1 X197.099 Y174.667 E0.18872
G1 X194.605 Y178.314 E0.18891
G1 X191.482 Y182.022 E0.20728
G1 X188.025 Y185.427 E0.20746
G1 X184.267 Y188.497 E0.20747
G1 X180.241 Y191.206 E0.20747
G1 X175.982 Y193.53 E0.20746
G1 X171.525 Y195.449 E0.20747
G1 X166.91 Y196.947 E0.20747
G1 X162.175 Y198.01 E0.20747
G1 X157.363 Y198.631 E0.20747
G1 X152.5 Y198.802 E0.20803
G1 X147.637 Y198.631 E0.20803
G1 X142.825 Y198.01 E0.20747
G1 X138.09 Y196.947 E0.20747
G1 X133.475 Y195.449 E0.20747
G1 X129.018 Y193.53 E0.20747
G1 X124.759 Y191.206 E0.20747
G1 X120.733 Y188.497 E0.20747
G1 X116.975 Y185.427 E0.20747
G1 X113.518 Y182.022 E0.20747
G1 X110.395 Y178.314 E0.20728
G1 X107.901 Y174.667 E0.18891
G1 X105.814 Y170.777 E0.18872
G1 X104.157 Y166.686 E0.18872
G1 X102.949 Y162.441 E0.18872
G1 X102.204 Y158.09 E0.18872
G1 X101.93 Y153.684 E0.18872
G1 X102.13 Y149.275 E0.18872
G1 X102.802 Y144.913 E0.18872
G1 X103.942 Y140.638 E0.18914
G1 X105.944 Y135.178 E0.24863
G1 X108.353 Y129.875 E0.24906
G1 X111.151 Y124.766 E0.24906
G1 X114.323 Y119.879 E0.24905
G1 X118.21 Y114.771 E0.27445
G1 X117.849 Y113.077 E0.07406
G1 X117.805 Y111.997 E0.04623
G1 X117.944 Y110.924 E0.04623
G1 X118.263 Y109.891 E0.04623
G1 X118.751 Y108.926 E0.04623
G1 X119.395 Y108.058 E0.04623
G1 X120.176 Y107.31 E0.04623
G1 X121.072 Y106.706 E0.04623
G1 X122.058 Y106.261 E0.04623
G1 X123.104 Y105.989 E0.04623
G1 X124.232 Y105.893 E0.04841
G1 X144.634 Y105.893 E0.87231
G1 X144.479 Y105.464 F7200
G1 F1800
G1 X145.67 Y103.865 E0.08527
G1 X146.787 Y102.799 E0.066
G1 X148.066 Y101.935 E0.066
G1 X149.472 Y101.299 E0.066
G1 X150.965 Y100.907 E0.066
G1 X152.5 Y100.771 E0.06587
G1 X152.849 Y100.802 E0.01499
G1 X154.035 Y100.907 E0.05088
G1 X155.528 Y101.299 E0.066
G1 X156.934 Y101.935 E0.066
G1 X158.213 Y102.799 E0.066
G1 X159.33 Y103.865 E0.066
G1 X160.521 Y105.464 E0.08527
G1 X180.786 Y105.464 E0.86645
G1 X181.968 Y105.565 E0.05074
G1 X183.085 Y105.855 E0.04934
G1 X184.137 Y106.33 E0.04934
G1 X185.094 Y106.976 E0.04934
G1 X185.928 Y107.773 E0.04934
G1 X186.615 Y108.7 E0.04934
G1 X187.136 Y109.73 E0.04934
G1 X187.476 Y110.833 E0.04934
G1 X187.625 Y111.978 E0.04934
G1 X187.578 Y113.131 E0.04934
G1 X187.25 Y114.668 E0.06721
G1 X191.028 Y119.633 E0.26673
G1 X194.217 Y124.546 E0.25042
G1 X197.03 Y129.683 E0.25042
G1 X199.452 Y135.016 E0.25042
G1 X201.467 Y140.509 E0.25015
G1 X202.618 Y144.824 E0.19097
G1 X203.297 Y149.233 E0.1907
G1 X203.499 Y153.688 E0.19069
G1 X203.222 Y158.14 E0.1907
G1 X202.469 Y162.536 E0.1907
G1 X201.248 Y166.825 E0.19069
G1 X199.574 Y170.959 E0.1907
G1 X197.466 Y174.89 E0.19069
G1 X194.946 Y178.574 E0.19082
G1 X191.796 Y182.313 E0.20905
G1 X188.311 Y185.746 E0.20917
G1 X184.523 Y188.842 E0.20917
G1 X180.464 Y191.573 E0.20917
G1 X176.17 Y193.916 E0.20917
G1 X171.676 Y195.851 E0.20917
G1 X167.023 Y197.361 E0.20917
G1 X162.25 Y198.433 E0.20917
G1 X157.398 Y199.058 E0.20917
G1 X152.5 Y199.231 E0.20953
G1 X147.602 Y199.058 E0.20953
G1 X142.75 Y198.433 E0.20917
G1 X137.977 Y197.361 E0.20917
G1 X133.324 Y195.851 E0.20917
G1 X128.83 Y193.916 E0.20917
G1 X124.536 Y191.573 E0.20917
G1 X120.477 Y188.842 E0.20917
G1 X116.689 Y185.746 E0.20917
G1 X113.204 Y182.313 E0.20917
G1 X110.054 Y178.574 E0.20905
G1 X107.534 Y174.89 E0.19082
G1 X105.426 Y170.959 E0.19069
G1 X103.752 Y166.825 E0.1907
G1 X102.531 Y162.536 E0.19069
G1 X101.778 Y158.14 E0.19069
G1 X101.501 Y153.688 E0.1907
G1 X101.703 Y149.233 E0.19069
G1 X102.382 Y144.824 E0.1907
G1 X103.533 Y140.509 E0.19097
G1 X105.548 Y135.016 E0.25015
G1 X107.97 Y129.683 E0.25042
G1 X110.783 Y124.546 E0.25042
G1 X113.972 Y119.633 E0.25042
G1 X117.75 Y114.668 E0.26673
G1 X117.422 Y113.131 E0.06721
G1 X117.375 Y111.978 E0.04934
G1 X117.524 Y110.833 E0.04934
G1 X117.864 Y109.73 E0.04934
G1 X118.385 Y108.7 E0.04934
G1 X119.072 Y107.773 E0.04934
G1 X119.906 Y106.976 E0.04934
G1 X120.863 Y106.33 E0.04934
G1 X121.915 Y105.855 E0.04934
G1 X123.032 Y105.565 E0.04934
G1 X124.214 Y105.464 E0.05074
G1 X144.419 Y105.464 E0.86388
G1 X144.264 Y105.036 F7200
;TYPE:External perimeter
G1 F1800
G1 X145.348 Y103.58 E0.07762
G1 X146.517 Y102.464 E0.06909
G1 X147.856 Y101.56 E0.06909
G1 X149.328 Y100.893 E0.06909
G1 X150.892 Y100.483 E0.06909
G1 X152.5 Y100.341 E0.06904
G1 X152.887 Y100.375 E0.0166
G1 X154.108 Y100.483 E0.05243
G1 X155.672 Y100.893 E0.06909
G1 X157.144 Y101.56 E0.06909
G1 X158.483 Y102.464 E0.06909
G1 X159.652 Y103.58 E0.06909
G1 X160.736 Y105.036 E0.07762
G1 X180.804 Y105.036 E0.85802
G1 X182.041 Y105.141 E0.05308
G1 X183.228 Y105.45 E0.05246
G1 X184.347 Y105.955 E0.05246
G1 X185.364 Y106.641 E0.05246
G1 X186.25 Y107.489 E0.05246
G1 X186.981 Y108.474 E0.05246
G1 X187.535 Y109.569 E0.05246
G1 X187.896 Y110.742 E0.05246
G1 X188.054 Y111.958 E0.05246
G1 X188.005 Y113.184 E0.05246
G1 X187.71 Y114.565 E0.06036
G1 X191.379 Y119.386 E0.25901
G1 X194.585 Y124.326 E0.25179
G1 X197.414 Y129.491 E0.25179
G1 X199.849 Y134.853 E0.25179
G1 X201.876 Y140.379 E0.25167
G1 X203.038 Y144.736 E0.19279
G1 X203.724 Y149.19 E0.19267
G1 X203.929 Y153.692 E0.19267
G1 X203.649 Y158.189 E0.19267
G1 X202.888 Y162.631 E0.19267
G1 X201.654 Y166.965 E0.19267
G1 X199.963 Y171.142 E0.19267
G1 X197.833 Y175.113 E0.19267
G1 X195.288 Y178.833 E0.19272
G1 X192.111 Y182.604 E0.21082
G1 X188.598 Y186.066 E0.21087
G1 X184.779 Y189.186 E0.21087
G1 X180.687 Y191.94 E0.21087
G1 X176.357 Y194.302 E0.21087
G1 X171.827 Y196.252 E0.21087
G1 X167.136 Y197.774 E0.21087
G1 X162.324 Y198.855 E0.21087
G1 X157.433 Y199.486 E0.21087
G1 X152.5 Y199.66 E0.21103
G1 X147.567 Y199.486 E0.21103
G1 X142.676 Y198.855 E0.21087
G1 X137.864 Y197.774 E0.21087
G1 X133.173 Y196.252 E0.21087
G1 X128.643 Y194.302 E0.21087
G1 X124.313 Y191.94 E0.21087
G1 X120.221 Y189.186 E0.21087
G1 X116.402 Y186.066 E0.21087
G1 X112.889 Y182.604 E0.21087
G1 X109.712 Y178.833 E0.21082
G1 X107.167 Y175.113 E0.19272
G1 X105.037 Y171.142 E0.19267
G1 X103.346 Y166.965 E0.19267
G1 X102.112 Y162.631 E0.19267
G1 X101.351 Y158.189 E0.19267
G1 X101.071 Y153.692 E0.19267
G1 X101.276 Y149.19 E0.19267
G1 X101.962 Y144.736 E0.19267
G1 X103.124 Y140.379 E0.19279
G1 X105.151 Y134.853 E0.25167
G1 X107.586 Y129.491 E0.25179
G1 X110.415 Y124.326 E0.25179
G1 X113.621 Y119.386 E0.25179
G1 X117.29 Y114.565 E0.25901
G1 X116.995 Y113.184 E0.06036
G1 X116.946 Y111.958 E0.05246
G1 X117.104 Y110.742 E0.05246
G1 X117.465 Y109.569 E0.05246
G1 X118.019 Y108.474 E0.05246
G1 X118.75 Y107.489 E0.05246
G1 X119.636 Y106.641 E0.05246
G1 X120.653 Y105.955 E0.05246
G1 X121.772 Y105.45 E0.05246
G1 X122.959 Y105.141 E0.05246
G1 X124.196 Y105.036 E0.05308
G1 X144.204 Y105.036 E0.85546
;WIPE_START
G1 X144.628 Y105.201 F7200
;WIPE_END
G1 X186.246 Y109.062
;TYPE:Solid infill
;WIDTH:0.47872
G1 F3600
G1 X185.149 Y107.965 E0.06618
G1 X184.667 Y107.505 E0.02839
G1 X183.806 Y106.924 E0.0443
G1 X183.25 Y106.673 E0.02601
G1 X186.449 Y109.871 E0.19287
G1 X186.506 Y109.984 E0.00543
G1 X186.751 Y110.779 E0.03546
G1 X182.33 Y106.359 E0.26658
G1 X181.854 Y106.235 E0.02099
G1 X181.577 Y106.211 E0.01185
G1 X186.882 Y111.516 E0.31992
G1 X186.946 Y112.008 E0.02113
G1 X186.939 Y112.179 E0.00732
G1 X180.915 Y106.155 E0.36329
G1 X180.757 Y106.141 E0.00673
G1 X180.295 Y106.141 E0.0197
G1 X186.915 Y112.762 E0.39922
G1 X186.904 Y113.046 E0.01213
G1 X186.849 Y113.302 E0.01115
G1 X179.689 Y106.141 E0.43179
G1 X179.083 Y106.141 E0.02584
G1 X186.743 Y113.801 E0.46191
G1 X186.636 Y114.301 E0.02178
G1 X178.477 Y106.141 E0.49203
G1 X177.871 Y106.141 E0.02584
G1 X186.53 Y114.8 E0.52215
G1 X186.523 Y114.831 E0.00134
G1 X188.333 Y117.21 E0.12746
G1 X177.265 Y106.141 E0.66746
G1 X176.659 Y106.141 E0.02584
G1 X190.262 Y119.744 E0.82031
G1 X190.474 Y120.023 E0.01491
G1 X191.472 Y121.56 E0.07816
G1 X176.053 Y106.141 E0.9298
G1 X175.447 Y106.141 E0.02584
G1 X192.593 Y123.287 E1.03395
G1 X193.635 Y124.893 E0.08165
G1 X193.687 Y124.987 E0.00456
G1 X174.841 Y106.141 E1.13645
G1 X174.235 Y106.141 E0.02584
G1 X194.42 Y126.326 E1.21724
G1 X195.154 Y127.666 E0.06513
G1 X173.629 Y106.141 E1.29802
G1 X173.023 Y106.141 E0.02584
G1 X195.888 Y129.006 E1.37881
G1 X196.424 Y129.986 E0.04766
G1 X196.56 Y130.284 E0.01395
G1 X172.417 Y106.141 E1.45588
G1 X171.811 Y106.141 E0.02584
G1 X197.064 Y131.394 E1.52283
G1 X197.568 Y132.504 E0.05199
G1 X171.205 Y106.141 E1.58978
G1 X170.599 Y106.141 E0.02584
G1 X198.072 Y133.614 E1.65673
G1 X198.577 Y134.724 E0.05199
G1 X169.993 Y106.141 E1.72368
G1 X169.388 Y106.141 E0.02584
G1 X199.003 Y135.757 E1.78595
G1 X199.354 Y136.714 E0.04347
G1 X168.782 Y106.141 E1.84367
G1 X168.176 Y106.141 E0.02584
G1 X199.705 Y137.671 E1.90138
G1 X200.057 Y138.628 E0.04347
G1 X167.57 Y106.141 E1.9591
G1 X166.964 Y106.141 E0.02584
G1 X200.408 Y139.585 E2.01682
G1 X200.759 Y140.543 E0.04347
G1 X166.358 Y106.141 E2.07453
G1 X165.752 Y106.141 E0.02584
G1 X201.002 Y141.392 E2.12576
G1 X201.222 Y142.218 E0.03646
G1 X165.146 Y106.141 E2.17558
G1 X164.54 Y106.141 E0.02584
G1 X201.443 Y143.044 E2.2254
G1 X201.663 Y143.871 E0.03646
G1 X163.934 Y106.141 E2.27522
G1 X163.328 Y106.141 E0.02584
G1 X201.883 Y144.697 E2.32505
G1 X201.954 Y144.964 E0.01178
