; generated by SuperSlicer 2.3.57 on 2022-02-06 at 02:24:25 UTC


;
;

;
;
; 

; external perimeters extrusion width = 0.40mm
; perimeters extrusion width = 0.45mm
; infill extrusion width = 0.72mm
; solid infill extrusion width = 0.56mm
; top infill extrusion width = 0.40mm
; first layer extrusion width = 0.48mm

; external perimeters extrusion width = 0.40mm
; perimeters extrusion width = 0.45mm
; infill extrusion width = 0.72mm
; solid infill extrusion width = 0.56mm
; top infill extrusion width = 0.40mm
; first layer extrusion width = 0.48mm

; external perimeters extrusion width = 0.40mm
; perimeters extrusion width = 0.45mm
; infill extrusion width = 0.72mm
; solid infill extrusion width = 0.56mm
; top infill extrusion width = 0.40mm
; first layer extrusion width = 0.48mm

; external perimeters extrusion width = 0.40mm
; perimeters extrusion width = 0.45mm
; infill extrusion width = 0.72mm
; solid infill extrusion width = 0.56mm
; top infill extrusion width = 0.40mm
; first layer extrusion width = 0.48mm

; external perimeters extrusion width = 0.40mm
; perimeters extrusion width = 0.45mm
; infill extrusion width = 0.72mm
; solid infill extrusion width = 0.56mm
; top infill extrusion width = 0.40mm
; first layer extrusion width = 0.48mm

; object:{"name":"Part6-yellow","id":"Part6-yellow.STL id:0 copy 0","object_center":[165.000000,165.000000,0.000000],"boundingbox_center":[165.000000,165.000000,0.615000],"boundingbox_size":[10.843301,10.180996,1.230000]}
; plater:{"center":[165.000000,165.000000,0.000000],"boundingbox_center":[165.000000,165.000000,0.615000],"boundingbox_size":[10.843301,10.180996,1.230000]}

;TYPE:Custom
START_PRINT T_BED=60 T_EXTRUDER=200
M107
G21 ; set units to millimeters
G90 ; use absolute coordinates
M83 ; use relative distances for extrusion
; Filament gcode
M104 S200 ; set temperature
M109 S200 ; set temperature and wait for it to be reached
M190 S60 ; set bed temperature and wait for it to be reached
;LAYER_CHANGE
;Z:0.24
;HEIGHT:0.24
G1 Z0.24 F7200
G1 E-0.6 F3000
G1 X157.386 Y156.822 F7200
G1 E0.6 F1800
;TYPE:Skirt
;WIDTH:0.48
G1 X156.604 Y157.634 E0.04819
G1 X155.95 Y158.469 E0.04534
G1 X155.394 Y159.338 E0.04412
G1 X154.921 Y160.251 E0.04396
G1 X154.505 Y161.281 E0.04749
G1 X154.039 Y163.028 E0.0773
G1 X153.547 Y165.918 E0.12537
G1 X153.465 Y166.98 E0.04552
G1 X153.647 Y168.573 E0.06856
G1 X154.154 Y169.985 E0.06414
G1 X154.94 Y171.218 E0.06252
G1 X156.01 Y172.254 E0.06367
G1 X158.794 Y174.344 E0.14886
G1 X159.999 Y174.999 E0.05864
G1 X161.46 Y175.564 E0.06697
G1 X162.806 Y175.949 E0.05984
G1 X163.917 Y176.139 E0.04819
G1 X164.997 Y176.204 E0.04626
G1 X166.079 Y176.138 E0.04635
G1 X167.499 Y175.878 E0.06172
G1 X168.514 Y175.574 E0.04531
G1 X170.014 Y174.994 E0.06874
G1 X171.22 Y174.336 E0.05875
G1 X174.073 Y172.2 E0.15237
G1 X175.073 Y171.193 E0.06069
G1 X175.9 Y169.882 E0.06629
G1 X176.387 Y168.414 E0.06612
G1 X176.535 Y166.97 E0.06204
G1 X176.472 Y166.08 E0.03815
G1 X175.998 Y163.246 E0.12285
G1 X175.548 Y161.43 E0.08001
G1 X175.155 Y160.421 E0.04629
G1 X174.494 Y159.152 E0.06119
G1 X173.878 Y158.233 E0.04731
G1 X173.278 Y157.5 E0.0405
G1 X172.473 Y156.689 E0.04883
G1 X171.581 Y155.964 E0.04916
G1 X170.675 Y155.37 E0.04634
G1 X169.369 Y154.71 E0.06255
G1 X168.269 Y154.306 E0.05009
G1 X167.234 Y154.041 E0.04568
G1 X166.163 Y153.87 E0.04636
G1 X165.005 Y153.796 E0.04962
G1 X163.896 Y153.865 E0.04751
G1 X162.443 Y154.114 E0.06304
G1 X161.363 Y154.426 E0.04804
G1 X160.384 Y154.817 E0.04508
G1 X159.465 Y155.286 E0.04411
G1 X158.502 Y155.907 E0.04899
G1 X157.432 Y156.784 E0.05915
G1 X157.714 Y157.111 F7200
G1 F1800
G1 X157.587 Y157.22 E0.00716
G1 X156.915 Y157.929 E0.04175
G1 X155.761 Y159.56 E0.08543
G1 X155.309 Y160.434 E0.04206
G1 X154.908 Y161.426 E0.04575
G1 X154.461 Y163.102 E0.07418
G1 X153.971 Y165.976 E0.12466
G1 X153.893 Y166.983 E0.04316
G1 X154.068 Y168.491 E0.06492
G1 X154.547 Y169.814 E0.06015
G1 X155.288 Y170.966 E0.05855
G1 X156.3 Y171.937 E0.06
G1 X159.029 Y173.985 E0.14584
G1 X160.162 Y174.603 E0.05521
G1 X161.595 Y175.157 E0.06568
G1 X162.893 Y175.53 E0.05773
G1 X163.961 Y175.713 E0.04633
G1 X164.998 Y175.776 E0.04441
G1 X166.029 Y175.712 E0.04414
G1 X167.403 Y175.461 E0.05976
G1 X169.851 Y174.598 E0.11095
G1 X170.986 Y173.977 E0.05532
G1 X173.783 Y171.883 E0.1494
G1 X174.723 Y170.944 E0.05678
G1 X175.508 Y169.707 E0.06263
G1 X175.968 Y168.324 E0.06234
G1 X176.107 Y166.97 E0.05821
G1 X176.046 Y166.135 E0.03579
G1 X175.576 Y163.319 E0.12207
G1 X175.146 Y161.58 E0.07657
G1 X174.341 Y159.745 E0.08569
G1 X173.599 Y158.579 E0.05906
G1 X172.965 Y157.793 E0.04319
G1 X172.189 Y157.009 E0.04717
G1 X171.331 Y156.312 E0.04727
G1 X170.464 Y155.743 E0.04432
G1 X169.194 Y155.101 E0.06085
G1 X168.141 Y154.715 E0.04795
G1 X167.15 Y154.461 E0.04373
G1 X166.123 Y154.297 E0.04446
G1 X165.007 Y154.225 E0.04785
G1 X163.944 Y154.291 E0.04551
G1 X162.533 Y154.533 E0.0612
G1 X161.495 Y154.834 E0.04622
G1 X160.559 Y155.208 E0.04311
G1 X159.578 Y155.718 E0.04726
G1 X158.416 Y156.505 E0.06001
G1 X157.759 Y157.071 E0.03709
G1 X158.039 Y157.395 F7200
G1 F1800
G1 X157.874 Y157.538 E0.0093
G1 X157.228 Y158.223 E0.04028
G1 X156.131 Y159.776 E0.08128
G1 X155.312 Y161.57 E0.08433
G1 X154.883 Y163.177 E0.07111
G1 X154.397 Y166.029 E0.12371
G1 X154.322 Y166.979 E0.04075
G1 X154.486 Y168.396 E0.06097
G1 X154.936 Y169.634 E0.05632
G1 X155.633 Y170.711 E0.05487
G1 X156.585 Y171.616 E0.05613
G1 X159.267 Y173.629 E0.1434
G1 X160.326 Y174.207 E0.05158
G1 X162.595 Y175.016 E0.10298
G1 X163.904 Y175.274 E0.05703
G1 X164.999 Y175.347 E0.04692
G1 X165.978 Y175.287 E0.04194
G1 X167.312 Y175.042 E0.05802
G1 X169.687 Y174.202 E0.10768
G1 X170.747 Y173.621 E0.05167
G1 X173.499 Y171.561 E0.14697
G1 X174.381 Y170.685 E0.05317
G1 X175.119 Y169.529 E0.05864
G1 X175.55 Y168.23 E0.05853
G1 X175.678 Y166.97 E0.05413
G1 X175.621 Y166.189 E0.03346
G1 X175.154 Y163.397 E0.12106
G1 X174.742 Y161.724 E0.07366
G1 X173.973 Y159.964 E0.08214
G1 X173.253 Y158.831 E0.05738
G1 X172.648 Y158.082 E0.04116
G1 X171.9 Y157.326 E0.04549
G1 X171.081 Y156.66 E0.04513
G1 X170.249 Y156.113 E0.04256
G1 X169.02 Y155.493 E0.05887
G1 X168.008 Y155.123 E0.04605
G1 X167.061 Y154.88 E0.0418
G1 X166.072 Y154.722 E0.04282
G1 X165.003 Y154.653 E0.04582
G1 X163.993 Y154.717 E0.04326
G1 X162.625 Y154.952 E0.05935
G1 X161.633 Y155.239 E0.04415
G1 X160.729 Y155.601 E0.04165
G1 X159.797 Y156.086 E0.04491
G1 X158.665 Y156.855 E0.05851
G1 X158.084 Y157.356 E0.03279
G1 X158.365 Y157.68 F7200
G1 F1800
G1 X158.163 Y157.854 E0.01141
G1 X157.545 Y158.511 E0.03856
G1 X156.499 Y159.996 E0.07766
G1 X155.716 Y161.713 E0.0807
G1 X155.305 Y163.252 E0.06808
G1 X154.821 Y166.087 E0.123
G1 X154.75 Y166.98 E0.0383
G1 X154.904 Y168.304 E0.05697
G1 X155.328 Y169.46 E0.05263
G1 X155.977 Y170.454 E0.05076
G1 X156.872 Y171.296 E0.05254
G1 X159.505 Y173.272 E0.14078
G1 X160.495 Y173.813 E0.04823
G1 X162.691 Y174.599 E0.0997
G1 X163.958 Y174.849 E0.0552
G1 X164.999 Y174.919 E0.04461
G1 X165.926 Y174.861 E0.03974
G1 X167.215 Y174.624 E0.05601
G1 X169.522 Y173.806 E0.10465
G1 X170.607 Y173.196 E0.05321
G1 X173.214 Y171.24 E0.13937
G1 X174.037 Y170.43 E0.04936
G1 X174.726 Y169.356 E0.05457
G1 X175.131 Y168.142 E0.0547
G1 X175.25 Y166.966 E0.05054
G1 X175.196 Y166.245 E0.03093
G1 X174.732 Y163.469 E0.12032
G1 X174.339 Y161.868 E0.07053
G1 X173.604 Y160.182 E0.0786
G1 X172.906 Y159.083 E0.05567
G1 X172.335 Y158.374 E0.03892
G1 X171.615 Y157.646 E0.04378
G1 X170.831 Y157.008 E0.04323
G1 X170.038 Y156.487 E0.04055
G1 X168.846 Y155.884 E0.05712
G1 X167.876 Y155.53 E0.04415
G1 X166.972 Y155.299 E0.03988
G1 X165.005 Y155.082 E0.08462
G1 X164.042 Y155.142 E0.04126
G1 X162.717 Y155.37 E0.05748
G1 X160.905 Y155.992 E0.08193
G1 X160.016 Y156.454 E0.04282
G1 X158.918 Y157.2 E0.05674
G1 X158.41 Y157.64 E0.02876
G1 X158.727 Y157.971 F7200
G1 F1800
G1 X157.86 Y158.802 E0.05136
G1 X156.87 Y160.21 E0.0736
G1 X156.12 Y161.856 E0.07731
G1 X155.726 Y163.332 E0.06531
G1 X155.246 Y166.146 E0.12206
G1 X155.179 Y166.98 E0.03579
G1 X155.324 Y168.215 E0.05315
G1 X155.718 Y169.281 E0.0486
G1 X156.321 Y170.198 E0.04694
G1 X157.157 Y170.975 E0.04877
G1 X159.743 Y172.916 E0.13824
G1 X160.66 Y173.417 E0.0447
G1 X162.788 Y174.181 E0.09666
G1 X164.011 Y174.423 E0.05334
G1 X164.999 Y174.49 E0.0423
G1 X165.875 Y174.436 E0.03753
G1 X167.122 Y174.206 E0.05421
G1 X169.356 Y173.411 E0.10139
G1 X170.369 Y172.84 E0.04973
G1 X172.925 Y170.922 E0.13663
G1 X173.689 Y170.178 E0.0456
G1 X174.336 Y169.179 E0.05088
G1 X174.712 Y168.051 E0.05084
G1 X174.821 Y166.97 E0.04647
G1 X174.772 Y166.301 E0.02865
G1 X174.311 Y163.548 E0.11937
G1 X173.937 Y162.016 E0.06741
G1 X173.235 Y160.4 E0.0753
G1 X172.557 Y159.331 E0.05415
G1 X172.021 Y158.667 E0.03649
G1 X171.331 Y157.967 E0.04204
G1 X170.585 Y157.359 E0.04109
G1 X169.828 Y156.86 E0.03879
G1 X168.673 Y156.276 E0.05534
G1 X166.884 Y155.719 E0.08011
G1 X165.003 Y155.51 E0.08094
G1 X164.091 Y155.568 E0.03904
G1 X162.805 Y155.79 E0.05582
G1 X161.081 Y156.382 E0.07793
G1 X160.236 Y156.822 E0.04074
G1 X159.173 Y157.544 E0.05493
G1 X158.771 Y157.93 E0.02384
G1 X159.065 Y158.237 F7200
G1 F1800
G1 X158.179 Y159.088 E0.05254
G1 X157.241 Y160.424 E0.06981
G1 X156.524 Y161.997 E0.0739
G1 X156.148 Y163.406 E0.06235
G1 X155.67 Y166.204 E0.12135
G1 X155.607 Y166.979 E0.03323
G1 X155.742 Y168.123 E0.04926
G1 X156.107 Y169.102 E0.04468
G1 X156.663 Y169.939 E0.04294
G1 X157.439 Y170.651 E0.04506
G1 X159.983 Y172.561 E0.13601
G1 X160.825 Y173.022 E0.04101
G1 X162.88 Y173.762 E0.09341
G1 X164.06 Y173.998 E0.05145
G1 X164.998 Y174.062 E0.04018
G1 X165.822 Y174.011 E0.03533
G1 X167.027 Y173.788 E0.05236
G1 X169.188 Y173.016 E0.09813
G1 X170.13 Y172.484 E0.04625
G1 X172.644 Y170.597 E0.13441
G1 X173.346 Y169.921 E0.04167
G1 X173.945 Y169.003 E0.04685
G1 X174.293 Y167.961 E0.04696
G1 X174.393 Y166.969 E0.04263
G1 X173.889 Y163.621 E0.14478
G1 X173.531 Y162.154 E0.06454
G1 X172.864 Y160.614 E0.07177
G1 X172.207 Y159.58 E0.05237
G1 X171.703 Y158.954 E0.03434
G1 X171.046 Y158.287 E0.04005
G1 X170.336 Y157.708 E0.03918
G1 X169.613 Y157.231 E0.03701
G1 X168.501 Y156.669 E0.05327
G1 X166.796 Y156.138 E0.07634
G1 X165.006 Y155.939 E0.07702
G1 X164.146 Y155.993 E0.03683
G1 X162.899 Y156.208 E0.05413
G1 X161.258 Y156.773 E0.07418
G1 X160.46 Y157.187 E0.03846
G1 X159.429 Y157.888 E0.05331
G1 X159.109 Y158.196 E0.01898
G1 X159.404 Y158.502 F7200
G1 F1800
G1 X158.496 Y159.377 E0.05389
G1 X157.61 Y160.642 E0.06606
G1 X156.929 Y162.138 E0.07028
G1 X156.57 Y163.481 E0.05944
G1 X156.095 Y166.263 E0.12064
G1 X156.036 Y166.981 E0.03082
G1 X156.106 Y167.755 E0.03325
G1 X156.252 Y168.35 E0.02618
G1 X156.542 Y169.01 E0.03082
G1 X156.9 Y169.553 E0.02778
G1 X157.615 Y170.246 E0.04258
G1 X160.147 Y172.151 E0.13547
G1 X161.055 Y172.655 E0.04442
G1 X162.801 Y173.296 E0.07952
G1 X164.081 Y173.568 E0.05595
G1 X165.001 Y173.633 E0.03944
G1 X166.273 Y173.514 E0.05462
G1 X167.543 Y173.188 E0.05603
G1 X169.029 Y172.618 E0.06804
G1 X169.971 Y172.071 E0.04658
G1 X172.472 Y170.188 E0.13385
G1 X173.06 Y169.593 E0.03581
G1 X173.451 Y169.024 E0.02949
G1 X173.723 Y168.419 E0.02839
G1 X173.91 Y167.684 E0.03243
G1 X173.964 Y166.966 E0.03076
G1 X173.466 Y163.694 E0.1415
G1 X173.127 Y162.297 E0.06148
G1 X172.492 Y160.827 E0.06845
G1 X171.859 Y159.829 E0.05054
G1 X171.385 Y159.242 E0.03225
G1 X170.159 Y158.109 E0.07138
G1 X168.724 Y157.239 E0.07174
G1 X167.593 Y156.79 E0.05204
G1 X166.797 Y156.577 E0.03523
G1 X165.005 Y156.367 E0.07713
G1 X164.197 Y156.419 E0.03464
G1 X162.993 Y156.626 E0.0522
G1 X161.436 Y157.163 E0.07043
G1 X160.68 Y157.555 E0.03641
G1 X159.685 Y158.231 E0.05143
G1 X159.447 Y158.461 E0.01414
G1 X159.743 Y158.767 F7200
G1 F1800
G1 X158.815 Y159.663 E0.05517
G1 X157.982 Y160.855 E0.06217
G1 X157.336 Y162.274 E0.06666
G1 X156.992 Y163.556 E0.05678
G1 X156.464 Y166.981 E0.14817
G1 X156.662 Y168.224 E0.05381
G1 X156.93 Y168.827 E0.02818
G1 X157.261 Y169.318 E0.02534
G1 X157.895 Y169.921 E0.0374
G1 X160.423 Y171.822 E0.13521
G1 X161.242 Y172.269 E0.0399
G1 X162.936 Y172.889 E0.07714
G1 X164.145 Y173.144 E0.05285
G1 X164.999 Y173.205 E0.0366
G1 X166.203 Y173.092 E0.0517
G1 X167.406 Y172.781 E0.05312
G1 X168.838 Y172.234 E0.06554
G1 X169.693 Y171.743 E0.04212
G1 X172.189 Y169.866 E0.13353
G1 X172.697 Y169.362 E0.03061
G1 X173.06 Y168.845 E0.02701
G1 X173.311 Y168.298 E0.02572
G1 X173.486 Y167.622 E0.02988
G1 X173.536 Y166.97 E0.02797
G1 X173.044 Y163.768 E0.13848
G1 X172.723 Y162.439 E0.05845
G1 X172.123 Y161.044 E0.06493
G1 X171.748 Y160.419 E0.03114
G1 X171.066 Y159.528 E0.04799
G1 X169.905 Y158.455 E0.0676
G1 X168.548 Y157.63 E0.0679
G1 X167.454 Y157.195 E0.05035
G1 X166.7 Y156.995 E0.03333
G1 X165.005 Y156.796 E0.07299
G1 X164.247 Y156.844 E0.03246
G1 X163.084 Y157.044 E0.05046
G1 X161.614 Y157.552 E0.06649
G1 X160.901 Y157.922 E0.03437
G1 X159.943 Y158.574 E0.04952
G1 X159.786 Y158.725 E0.00932
; INIT printing object Part6-yellow.STL id:0 copy 0
G1 E-0.6 F3000
; printing object Part6-yellow.STL id:0 copy 0
G1 X163.586 Y166.931 F7200
G1 E0.6 F1800
;TYPE:Internal perimeter
G1 X162.184 Y166.846 E0.06007
G1 X161.815 Y166.789 E0.01593
G1 X161.815 Y165.198 E0.06801
G1 X161.159 Y165.052 E0.02875
G1 X161.18 Y164.702 E0.01498
G1 X161.232 Y164.344 E0.01548
G1 X161.314 Y163.987 E0.01567
G1 X161.426 Y163.638 E0.01566
G1 X161.565 Y163.303 E0.01548
G1 X161.729 Y162.989 E0.01516
G1 X161.915 Y162.698 E0.01475
G1 X162.115 Y162.44 E0.01396
G1 X162.335 Y162.203 E0.01382
G1 X162.572 Y161.992 E0.01357
G1 X162.832 Y161.797 E0.01387
G1 X163.115 Y161.622 E0.01423
G1 X163.416 Y161.47 E0.01445
G1 X163.732 Y161.343 E0.01452
G1 X164.058 Y161.245 E0.01456
G1 X164.397 Y161.173 E0.01482
G1 X164.767 Y161.124 E0.01598
G1 X164.993 Y161.109 E0.00968
G1 X165.358 Y161.137 E0.01565
G1 X165.742 Y161.199 E0.01664
G1 X166.095 Y161.287 E0.01554
G1 X166.423 Y161.401 E0.01484
G1 X166.733 Y161.541 E0.01457
G1 X167.031 Y161.708 E0.0146
G1 X167.31 Y161.899 E0.01445
G1 X167.565 Y162.109 E0.01414
G1 X167.794 Y162.336 E0.01377
G1 X168 Y162.581 E0.01369
G1 X168.186 Y162.848 E0.01392
G1 X168.355 Y163.141 E0.01445
G1 X168.503 Y163.456 E0.0149
G1 X168.628 Y163.791 E0.01527
G1 X168.726 Y164.141 E0.01552
G1 X168.795 Y164.499 E0.01561
G1 X168.834 Y164.861 E0.01555
G1 X168.838 Y165.05 E0.00812
G1 X168.185 Y165.191 E0.02854
G1 X168.185 Y166.788 E0.06827
G1 X167.826 Y166.844 E0.01552
G1 X166.415 Y166.933 E0.06049
G1 X166.415 Y168.552 E0.0692
G1 X166.094 Y168.675 E0.01469
G1 X165.76 Y168.777 E0.01493
G1 X165.454 Y168.845 E0.01339
G1 X165.175 Y168.883 E0.01203
G1 X165.007 Y168.892 E0.00717
G1 X164.753 Y168.875 E0.01091
G1 X164.475 Y168.832 E0.012
G1 X164.166 Y168.756 E0.01361
G1 X163.82 Y168.644 E0.01556
G1 X163.586 Y168.554 E0.01072
G1 X163.586 Y166.991 E0.06681
G1 X163.157 Y167.334 F7200
G1 F1800
G1 X162.138 Y167.272 E0.04368
G1 X161.865 Y167.23 E0.01178
G1 X161.387 Y167.12 E0.02099
G1 X161.387 Y165.542 E0.06749
G1 X160.739 Y165.397 E0.02841
G1 X160.73 Y165.048 E0.01492
G1 X160.753 Y164.659 E0.01668
G1 X160.81 Y164.265 E0.01701
G1 X160.9 Y163.873 E0.01719
G1 X161.023 Y163.49 E0.0172
G1 X161.177 Y163.122 E0.01705
G1 X161.358 Y162.774 E0.01676
G1 X161.564 Y162.451 E0.01638
G1 X161.788 Y162.162 E0.01562
G1 X162.035 Y161.897 E0.0155
G1 X162.3 Y161.659 E0.01523
G1 X162.59 Y161.443 E0.01548
G1 X162.905 Y161.248 E0.01582
G1 X163.24 Y161.079 E0.01604
G1 X163.59 Y160.939 E0.01612
G1 X163.951 Y160.829 E0.01613
G1 X164.324 Y160.75 E0.01632
G1 X164.725 Y160.697 E0.01731
G1 X164.996 Y160.68 E0.01158
G1 X165.408 Y160.711 E0.0177
G1 X165.828 Y160.779 E0.01819
G1 X166.218 Y160.876 E0.01715
G1 X166.581 Y161.003 E0.01647
G1 X166.926 Y161.158 E0.01618
G1 X167.257 Y161.344 E0.01622
G1 X167.568 Y161.556 E0.01608
G1 X167.853 Y161.791 E0.01581
G1 X168.11 Y162.046 E0.01546
G1 X168.34 Y162.321 E0.01534
G1 X168.548 Y162.618 E0.01551
G1 X168.735 Y162.942 E0.016
G1 X168.899 Y163.29 E0.01644
G1 X169.036 Y163.658 E0.01679
G1 X169.143 Y164.042 E0.01704
G1 X169.219 Y164.436 E0.01714
G1 X169.262 Y164.833 E0.01709
G1 X169.27 Y165.221 E0.0166
G1 X169.255 Y165.399 E0.00761
G1 X168.613 Y165.537 E0.02806
