; generated by SuperSlicer 2.3.57 on 2022-02-08 at 05:32:18 UTC


;
;

;
;
; 

; external perimeters extrusion width = 0.40mm
; perimeters extrusion width = 0.40mm
; infill extrusion width = 0.40mm
; solid infill extrusion width = 0.40mm
; top infill extrusion width = 0.40mm
; first layer extrusion width = 0.52mm


;TYPE:Custom
START_PRINT T_BED=70 T_EXTRUDER=230
M107
G21 ; set units to millimeters
G90 ; use absolute coordinates
M83 ; use relative distances for extrusion
; Filament gcode
M104 S230 ; set temperature
M109 S230 ; set temperature and wait for it to be reached
M190 S70 ; set bed temperature and wait for it to be reached
;LAYER_CHANGE
;Z:0.24
;HEIGHT:0.24
G1 Z0.24 F9000
G1 E-1 F3000
G1 X147.975 Y143.92 F9000
G1 E1 F1800
;TYPE:Skirt
;WIDTH:0.52
G1 F600
G1 X147.155 Y144.879 E0.05899
G1 X146.497 Y145.956 E0.05902
G1 X146.008 Y147.136 E0.05972
G1 X145.671 Y148.558 E0.06832
G1 X145.573 Y149.922 E0.06391
G1 X145.575 Y161.344 E0.53394
G1 X145.689 Y162.57 E0.05754
G1 X145.99 Y163.832 E0.06064
G1 X146.382 Y164.838 E0.05046
G1 X153.832 Y181.289 E0.84426
G1 X154.851 Y183.089 E0.09668
G1 X155.848 Y184.356 E0.07537
G1 X157.353 Y185.757 E0.09613
G1 X158.577 Y186.605 E0.06959
G1 X159.904 Y187.293 E0.06987
G1 X161.813 Y187.955 E0.09448
G1 X163.264 Y188.235 E0.06904
G1 X164.761 Y188.329 E0.07014
G1 X166.764 Y188.169 E0.09393
G1 X168.317 Y187.806 E0.07454
G1 X170.256 Y187.022 E0.09778
G1 X171.613 Y186.219 E0.07372
G1 X173.292 Y184.828 E0.10191
G1 X174.42 Y183.532 E0.08031
G1 X175.497 Y181.827 E0.09429
G1 X183.929 Y165.94 E0.84078
G1 X184.293 Y164.773 E0.05715
G1 X184.426 Y163.52 E0.0589
G1 X184.425 Y152.076 E0.53497
G1 X184.332 Y151.156 E0.04324
G1 X184.119 Y150.309 E0.04081
G1 X181.839 Y145.157 E0.26339
G1 X181.302 Y144.236 E0.04985
G1 X180.679 Y143.504 E0.0449
G1 X179.942 Y142.888 E0.0449
G1 X179.112 Y142.405 E0.0449
G1 X178.213 Y142.067 E0.0449
G1 X176.758 Y141.854 E0.06876
G1 X153.502 Y141.669 E1.08716
G1 X152.406 Y141.742 E0.05135
G1 X151.163 Y142.013 E0.05948
G1 X150.041 Y142.454 E0.05633
G1 X148.912 Y143.127 E0.06147
G1 X148.021 Y143.881 E0.05455
G1 X148.324 Y144.238 F9000
G1 F600
G1 X148.299 Y144.259 E0.00154
G1 X147.519 Y145.175 E0.05626
G1 X146.903 Y146.191 E0.0555
G1 X146.435 Y147.338 E0.05792
G1 X146.137 Y148.61 E0.06105
G1 X146.043 Y149.781 E0.05493
G1 X146.041 Y161.171 E0.53244
G1 X146.144 Y162.451 E0.06002
G1 X146.442 Y163.706 E0.06031
G1 X154.25 Y181.078 E0.89035
G1 X155.234 Y182.82 E0.09351
G1 X156.168 Y184.012 E0.0708
G1 X157.643 Y185.389 E0.0943
G1 X158.813 Y186.201 E0.06659
G1 X160.088 Y186.862 E0.06712
G1 X161.935 Y187.503 E0.0914
G1 X163.323 Y187.77 E0.06606
G1 X164.755 Y187.86 E0.06711
G1 X166.699 Y187.705 E0.09114
G1 X168.19 Y187.354 E0.0716
G1 X170.085 Y186.585 E0.09562
G1 X171.467 Y185.747 E0.07554
G1 X173.094 Y184.364 E0.09983
G1 X174.429 Y182.712 E0.0993
G1 X175.095 Y181.586 E0.06116
G1 X183.501 Y165.749 E0.83815
G1 X183.836 Y164.67 E0.05281
G1 X183.958 Y163.506 E0.05471
G1 X183.957 Y152.092 E0.53356
G1 X183.869 Y151.227 E0.04066
G1 X183.667 Y150.434 E0.03825
G1 X181.416 Y145.358 E0.25957
G1 X180.935 Y144.528 E0.04485
G1 X180.355 Y143.843 E0.04196
G1 X179.671 Y143.27 E0.0417
G1 X178.894 Y142.82 E0.04196
G1 X178.052 Y142.509 E0.04196
G1 X176.747 Y142.322 E0.06166
G1 X153.501 Y142.138 E1.08667
G1 X152.472 Y142.206 E0.04823
G1 X151.298 Y142.462 E0.05617
G1 X150.241 Y142.878 E0.0531
G1 X149.172 Y143.518 E0.05825
G1 X148.37 Y144.199 E0.04918
G1 E-1 F3000
G1 X163.873 Y148.183 F9000
G1 E1 F1800
;TYPE:Internal perimeter
G1 F600
G1 X176.104 Y148.28 E0.57177
G1 X176.091 Y148.666 E0.01804
G1 X176.069 Y148.786 E0.0057
G1 X176.024 Y148.912 E0.00626
G1 X175.868 Y149.244 E0.01716
G1 X175.782 Y149.504 E0.01281
G1 X175.733 Y149.77 E0.01262
G1 X175.727 Y150.025 E0.01195
G1 X175.756 Y150.229 E0.00962
G1 X175.81 Y150.409 E0.00878
G1 X175.889 Y150.572 E0.00848
G1 X175.996 Y150.725 E0.00871
G1 X176.144 Y150.878 E0.00995
G1 X176.336 Y151.022 E0.0112
G1 X176.424 Y151.076 E0.00484
G1 X176.971 Y151.382 E0.0293
G1 X177.184 Y151.544 E0.01251
G1 X177.753 Y152.079 E0.0365
G1 X153.531 Y151.838 E1.13235
G1 X153.338 Y151.82 E0.00908
G1 X153.158 Y151.775 E0.00866
G1 X152.948 Y151.687 E0.01068
G1 X152.738 Y151.556 E0.01152
G1 X152.56 Y151.399 E0.01114
G1 X152.387 Y151.188 E0.01277
G1 X152.241 Y150.939 E0.01348
G1 X152.118 Y150.628 E0.01563
G1 X152.036 Y150.276 E0.01691
G1 X152.006 Y149.92 E0.01669
G1 X152.029 Y149.539 E0.01782
G1 X152.108 Y149.182 E0.0171
G1 X152.235 Y148.866 E0.01594
G1 X152.364 Y148.655 E0.01151
G1 X152.516 Y148.478 E0.0109
G1 X152.689 Y148.336 E0.0105
G1 X152.876 Y148.229 E0.01007
G1 X153.082 Y148.154 E0.01026
G1 X153.32 Y148.109 E0.01133
G1 X153.508 Y148.1 E0.00877
G1 X163.813 Y148.182 E0.48176
G1 X163.817 Y147.714 F9000
;TYPE:External perimeter
G1 F600
G1 X176.461 Y147.814 E0.59109
G1 X176.525 Y148.076 E0.0126
G1 X176.567 Y148.449 E0.01756
G1 X176.558 Y148.716 E0.01248
G1 X176.523 Y148.908 E0.00914
G1 X176.457 Y149.091 E0.00906
G1 X176.305 Y149.417 E0.01686
G1 X176.237 Y149.621 E0.01002
G1 X176.201 Y149.818 E0.00939
G1 X176.197 Y149.998 E0.00841
G1 X176.215 Y150.128 E0.00614
G1 X176.248 Y150.238 E0.00537
G1 X176.295 Y150.335 E0.00501
G1 X176.359 Y150.426 E0.00521
G1 X176.455 Y150.525 E0.00645
G1 X176.601 Y150.635 E0.00854
G1 X176.662 Y150.673 E0.00338
G1 X177.228 Y150.989 E0.0303
G1 X177.487 Y151.186 E0.0152
G1 X178.08 Y151.743 E0.03805
G1 X178.226 Y151.872 E0.00909
G1 X178.37 Y152.023 E0.00977
G1 X178.422 Y152.097 E0.00421
G1 X178.446 Y152.147 E0.00259
G1 X178.458 Y152.186 E0.00191
G1 X178.464 Y152.223 E0.00175
G1 X178.463 Y152.266 E0.00202
G1 X178.454 Y152.319 E0.00249
G1 X178.434 Y152.38 E0.00302
G1 X178.402 Y152.442 E0.00327
G1 X178.369 Y152.487 E0.00259
G1 X178.336 Y152.518 E0.0021
G1 X178.277 Y152.553 E0.0032
G1 X153.507 Y152.306 E1.15798
G1 X153.258 Y152.283 E0.01168
G1 X153.01 Y152.22 E0.01198
G1 X152.732 Y152.104 E0.01407
G1 X152.458 Y151.934 E0.01509
G1 X152.221 Y151.725 E0.01474
G1 X152.001 Y151.456 E0.01627
G1 X151.819 Y151.144 E0.01687
G1 X151.669 Y150.768 E0.01893
G1 X151.572 Y150.349 E0.02013
G1 X151.536 Y149.925 E0.01987
G1 X151.564 Y149.474 E0.02113
G1 X151.659 Y149.043 E0.02062
G1 X151.815 Y148.655 E0.01957
G1 X151.983 Y148.379 E0.0151
G1 X152.186 Y148.143 E0.01457
G1 X152.422 Y147.948 E0.01426
G1 X152.678 Y147.802 E0.01379
G1 X152.958 Y147.7 E0.01392
G1 X153.266 Y147.643 E0.01465
G1 X153.499 Y147.632 E0.01088
G1 X163.757 Y147.713 E0.47956
;WIPE_START
G1 X164.014 Y148.062 F9000
;WIPE_END
G1 E-1 F3000
G1 X175.755 Y149.093 F9000
G1 E1 F1800
;TYPE:Solid infill
;WIDTH:0.528287
G1 X175.301 Y148.639 E0.03051
G1 X174.634 Y148.634 E0.0317
G1 X175.425 Y149.426 E0.05318
G1 X175.369 Y149.732 E0.01479
G1 X175.362 Y150.025 E0.01391
G1 X173.966 Y148.629 E0.09375
G1 X173.298 Y148.624 E0.0317
G1 X176.157 Y151.483 E0.192
G1 X176.088 Y151.697 E0.01068
G1 X175.705 Y151.693 E0.01819
G1 X172.631 Y148.619 E0.20645
G1 X171.963 Y148.614 E0.0317
G1 X175.036 Y151.686 E0.20634
G1 X174.366 Y151.68 E0.03178
G1 X171.296 Y148.609 E0.20623
G1 X170.628 Y148.604 E0.0317
G1 X173.697 Y151.673 E0.20612
G1 X173.028 Y151.666 E0.03178
G1 X169.961 Y148.599 E0.20601
G1 X169.293 Y148.594 E0.0317
G1 X172.359 Y151.66 E0.2059
G1 X171.69 Y151.653 E0.03178
G1 X168.626 Y148.589 E0.20579
G1 X167.958 Y148.584 E0.0317
G1 X171.02 Y151.646 E0.20567
G1 X170.351 Y151.64 E0.03178
G1 X167.291 Y148.579 E0.20556
G1 X166.623 Y148.574 E0.0317
G1 X169.682 Y151.633 E0.20545
G1 X169.013 Y151.627 E0.03178
G1 X165.955 Y148.569 E0.20534
G1 X165.288 Y148.564 E0.0317
G1 X168.344 Y151.62 E0.20523
G1 X167.674 Y151.613 E0.03178
G1 X164.62 Y148.559 E0.20512
G1 X163.953 Y148.554 E0.0317
G1 X167.005 Y151.607 E0.20501
G1 X166.336 Y151.6 E0.03178
G1 X163.285 Y148.549 E0.2049
G1 X162.618 Y148.544 E0.0317
G1 X165.667 Y151.593 E0.20479
G1 X164.998 Y151.587 E0.03178
G1 X161.95 Y148.539 E0.20468
G1 X161.283 Y148.534 E0.0317
G1 X164.328 Y151.58 E0.20457
G1 X163.659 Y151.573 E0.03178
G1 X160.615 Y148.529 E0.20445
G1 X159.948 Y148.524 E0.0317
G1 X162.99 Y151.567 E0.20434
G1 X162.321 Y151.56 E0.03178
G1 X159.28 Y148.519 E0.20423
G1 X158.612 Y148.514 E0.0317
G1 X161.652 Y151.553 E0.20412
G1 X160.982 Y151.547 E0.03178
G1 X157.945 Y148.509 E0.20401
G1 X157.277 Y148.504 E0.0317
G1 X160.313 Y151.54 E0.2039
G1 X159.644 Y151.534 E0.03178
G1 X156.61 Y148.499 E0.20379
G1 X155.942 Y148.494 E0.0317
G1 X158.975 Y151.527 E0.20368
G1 X158.306 Y151.52 E0.03178
G1 X155.275 Y148.489 E0.20357
G1 X154.607 Y148.484 E0.0317
G1 X157.636 Y151.514 E0.20346
G1 X156.967 Y151.507 E0.03178
G1 X153.94 Y148.479 E0.20335
G1 X153.353 Y148.475 E0.02787
G1 X153.285 Y148.487 E0.00326
G1 X156.298 Y151.5 E0.20235
G1 X155.629 Y151.494 E0.03178
G1 X152.829 Y148.694 E0.18805
G1 X152.772 Y148.74 E0.00349
G1 X152.66 Y148.871 E0.00817
G1 X152.563 Y149.03 E0.00885
G1 X152.546 Y149.073 E0.0022
G1 X154.96 Y151.487 E0.16213
G1 X154.29 Y151.48 E0.03178
G1 X152.394 Y149.584 E0.1274
G1 X152.372 Y149.916 E0.0158
G1 X152.398 Y150.219 E0.01444
G1 X152.407 Y150.26 E0.002
G1 X153.825 Y151.677 E0.09521
G1 E-1 F3000
G1 X152.025 Y161.391 F9000
G1 E1 F1800
;TYPE:Internal perimeter
;WIDTH:0.52
G1 F600
G1 X152.006 Y161.163 E0.01072
G1 X152.029 Y160.782 E0.01782
G1 X152.108 Y160.425 E0.0171
G1 X152.235 Y160.108 E0.01594
G1 X152.364 Y159.898 E0.01151
G1 X152.516 Y159.721 E0.0109
G1 X152.689 Y159.578 E0.0105
G1 X152.876 Y159.472 E0.01007
G1 X153.082 Y159.397 E0.01026
G1 X153.32 Y159.352 E0.01133
G1 X153.508 Y159.343 E0.00877
G1 X176.104 Y159.523 E1.05633
G1 X176.091 Y159.908 E0.01804
G1 X176.069 Y160.028 E0.0057
G1 X176.024 Y160.154 E0.00626
G1 X175.868 Y160.487 E0.01716
G1 X175.782 Y160.747 E0.01281
G1 X175.733 Y161.013 E0.01262
G1 X175.727 Y161.268 E0.01195
G1 X175.756 Y161.472 E0.00962
G1 X175.81 Y161.652 E0.00878
G1 X175.889 Y161.815 E0.00848
G1 X175.996 Y161.968 E0.00871
G1 X176.144 Y162.121 E0.00995
G1 X176.336 Y162.264 E0.0112
G1 X176.424 Y162.319 E0.00484
G1 X176.971 Y162.625 E0.0293
G1 X177.184 Y162.787 E0.01251
G1 X177.753 Y163.322 E0.0365
G1 X153.531 Y163.081 E1.13235
G1 X153.338 Y163.063 E0.00908
G1 X153.158 Y163.018 E0.00866
G1 X152.948 Y162.929 E0.01068
G1 X152.738 Y162.799 E0.01152
G1 X152.56 Y162.642 E0.01114
G1 X152.387 Y162.43 E0.01277
G1 X152.241 Y162.181 E0.01348
G1 X152.118 Y161.871 E0.01563
G1 X152.036 Y161.518 E0.01691
G1 X152.03 Y161.451 E0.00317
G1 X151.563 Y161.49 F9000
;TYPE:External perimeter
G1 F600
G1 X151.536 Y161.168 E0.01513
G1 X151.564 Y160.717 E0.02113
G1 X151.659 Y160.286 E0.02062
G1 X151.815 Y159.898 E0.01957
G1 X151.983 Y159.622 E0.0151
G1 X152.186 Y159.385 E0.01457
G1 X152.422 Y159.191 E0.01426
G1 X152.678 Y159.045 E0.01379
G1 X152.958 Y158.943 E0.01392
G1 X153.266 Y158.886 E0.01465
G1 X153.499 Y158.875 E0.01088
G1 X176.461 Y159.057 E1.07346
G1 X176.525 Y159.319 E0.0126
G1 X176.567 Y159.692 E0.01756
G1 X176.558 Y159.959 E0.01248
G1 X176.523 Y160.151 E0.00914
G1 X176.457 Y160.333 E0.00906
G1 X176.305 Y160.66 E0.01686
G1 X176.237 Y160.864 E0.01002
G1 X176.201 Y161.061 E0.00939
G1 X176.197 Y161.241 E0.00841
G1 X176.215 Y161.371 E0.00614
G1 X176.248 Y161.481 E0.00537
G1 X176.295 Y161.578 E0.00501
G1 X176.359 Y161.669 E0.00521
G1 X176.455 Y161.768 E0.00645
G1 X176.601 Y161.878 E0.00854
G1 X176.662 Y161.916 E0.00338
G1 X177.228 Y162.232 E0.0303
G1 X177.487 Y162.429 E0.0152
G1 X178.08 Y162.986 E0.03805
G1 X178.226 Y163.115 E0.00909
G1 X178.37 Y163.266 E0.00977
G1 X178.422 Y163.34 E0.00421
G1 X178.446 Y163.39 E0.00259
G1 X178.458 Y163.429 E0.00191
G1 X178.464 Y163.466 E0.00175
G1 X178.463 Y163.509 E0.00202
G1 X178.454 Y163.562 E0.00249
G1 X178.434 Y163.623 E0.00302
G1 X178.402 Y163.685 E0.00327
G1 X178.369 Y163.73 E0.00259
G1 X178.336 Y163.761 E0.0021
G1 X178.277 Y163.795 E0.0032
G1 X153.507 Y163.549 E1.15798
G1 X153.258 Y163.526 E0.01168
G1 X153.01 Y163.463 E0.01198
G1 X152.732 Y163.347 E0.01407
G1 X152.458 Y163.177 E0.01509
G1 X152.221 Y162.968 E0.01474
G1 X152.001 Y162.699 E0.01627
G1 X151.819 Y162.387 E0.01687
G1 X151.669 Y162.011 E0.01893
G1 X151.572 Y161.592 E0.02013
G1 X151.568 Y161.55 E0.00194
;WIPE_START
G1 X151.829 Y161.306 F9000
;WIPE_END
G1 E-1 F3000
G1 X175.755 Y160.336 F9000
G1 E1 F1800
;TYPE:Solid infill
;WIDTH:0.528287
G1 X175.301 Y159.882 E0.03051
G1 X174.634 Y159.877 E0.0317
G1 X175.425 Y160.669 E0.05318
G1 X175.369 Y160.975 E0.01479
G1 X175.362 Y161.268 E0.01391
G1 X173.966 Y159.872 E0.09375
G1 X173.298 Y159.867 E0.0317
G1 X176.157 Y162.726 E0.192
G1 X176.088 Y162.94 E0.01068
G1 X175.705 Y162.936 E0.01819
G1 X172.631 Y159.862 E0.20645
G1 X171.963 Y159.857 E0.0317
G1 X175.036 Y162.929 E0.20634
G1 X174.366 Y162.923 E0.03178
G1 X171.296 Y159.852 E0.20623
G1 X170.628 Y159.847 E0.0317
G1 X173.697 Y162.916 E0.20612
G1 X173.028 Y162.909 E0.03178
G1 X169.961 Y159.842 E0.20601
G1 X169.293 Y159.837 E0.0317
G1 X172.359 Y162.903 E0.2059
G1 X171.69 Y162.896 E0.03178
G1 X168.626 Y159.832 E0.20579
G1 X167.958 Y159.827 E0.0317
G1 X171.02 Y162.889 E0.20567
G1 X170.351 Y162.883 E0.03178
G1 X167.291 Y159.822 E0.20556
G1 X166.623 Y159.817 E0.0317
G1 X169.682 Y162.876 E0.20545
G1 X169.013 Y162.869 E0.03178
G1 X165.955 Y159.812 E0.20534
G1 X165.288 Y159.807 E0.0317
G1 X168.344 Y162.863 E0.20523
G1 X167.674 Y162.856 E0.03178
G1 X164.62 Y159.802 E0.20512
G1 X163.953 Y159.797 E0.0317
G1 X167.005 Y162.85 E0.20501
G1 X166.336 Y162.843 E0.03178
G1 X163.285 Y159.792 E0.2049
G1 X162.618 Y159.787 E0.0317
G1 X165.667 Y162.836 E0.20479
G1 X164.998 Y162.83 E0.03178
G1 X161.95 Y159.782 E0.20468
G1 X161.283 Y159.777 E0.0317
G1 X164.328 Y162.823 E0.20457
G1 X163.659 Y162.816 E0.03178
G1 X160.615 Y159.772 E0.20445
G1 X159.948 Y159.767 E0.0317
G1 X162.99 Y162.81 E0.20434
G1 X162.321 Y162.803 E0.03178
G1 X159.28 Y159.762 E0.20423
G1 X158.612 Y159.757 E0.0317
G1 X161.652 Y162.796 E0.20412
G1 X160.982 Y162.79 E0.03178
G1 X157.945 Y159.752 E0.20401
G1 X157.277 Y159.747 E0.0317
G1 X160.313 Y162.783 E0.2039
G1 X159.644 Y162.776 E0.03178
G1 X156.61 Y159.742 E0.20379
G1 X155.942 Y159.737 E0.0317
G1 X158.975 Y162.77 E0.20368
G1 X158.306 Y162.763 E0.03178
G1 X155.275 Y159.732 E0.20357
G1 X154.607 Y159.727 E0.0317
G1 X157.636 Y162.756 E0.20346
G1 X156.967 Y162.75 E0.03178
G1 X153.94 Y159.722 E0.20335
G1 X153.353 Y159.718 E0.02787
G1 X153.285 Y159.73 E0.00326
G1 X156.298 Y162.743 E0.20235
G1 X155.629 Y162.737 E0.03178
G1 X152.829 Y159.937 E0.18805
G1 X152.772 Y159.983 E0.00349
G1 X152.66 Y160.114 E0.00817
G1 X152.563 Y160.273 E0.00885
G1 X152.546 Y160.316 E0.0022
G1 X154.96 Y162.73 E0.16213
G1 X154.29 Y162.723 E0.03178
G1 X152.394 Y160.826 E0.1274
G1 X152.372 Y161.158 E0.0158
G1 X152.398 Y161.461 E0.01444
G1 X152.407 Y161.503 E0.002
G1 X153.825 Y162.92 E0.09521
G1 E-1 F3000
G1 X165.326 Y181.465 F9000
G1 E1 F1800
;TYPE:Internal perimeter
;WIDTH:0.52
G1 F600
G1 X165.627 Y181.344 E0.01519
G1 X166.036 Y181.092 E0.02244
G1 X166.396 Y180.775 E0.02244
G1 X166.698 Y180.402 E0.02244
G1 X166.932 Y179.983 E0.02244
G1 X167.092 Y179.53 E0.02244
G1 X167.171 Y179.072 E0.02172
G1 X167.181 Y178.817 E0.01195
G1 X167.171 Y178.561 E0.01195
G1 X167.092 Y178.103 E0.02172
G1 X166.932 Y177.651 E0.02244
G1 X166.698 Y177.232 E0.02244
G1 X166.396 Y176.858 E0.02244
G1 X166.036 Y176.541 E0.02244
G1 X165.627 Y176.289 E0.02244
G1 X165.182 Y176.11 E0.02244
G1 X164.712 Y176.009 E0.02244
G1 X164.233 Y175.989 E0.02244
G1 X163.756 Y176.05 E0.02244
G1 X163.297 Y176.19 E0.02244
G1 X162.869 Y176.406 E0.02244
G1 X162.483 Y176.692 E0.02244
G1 X162.15 Y177.038 E0.02244
G1 X161.882 Y177.436 E0.02244
G1 X161.684 Y177.874 E0.02244
G1 X161.563 Y178.338 E0.02244
G1 X161.522 Y178.817 E0.02244
G1 X161.563 Y179.295 E0.02244
G1 X161.684 Y179.76 E0.02244
G1 X161.882 Y180.197 E0.02244
G1 X162.15 Y180.595 E0.02244
G1 X162.565 Y181.027 E0.02798
G1 X162.336 Y181.33 E0.01774
G1 X161.899 Y181.097 E0.0231
G1 X161.419 Y180.774 E0.02708
G1 X160.974 Y180.403 E0.02708
G1 X160.57 Y179.988 E0.02708
G1 X160.21 Y179.534 E0.02708
G1 X159.899 Y179.045 E0.02708
G1 X159.641 Y178.527 E0.02708
G1 X159.436 Y177.985 E0.02708
G1 X159.289 Y177.425 E0.02708
G1 X159.2 Y176.853 E0.02708
G1 X159.17 Y176.274 E0.02708
G1 X159.2 Y175.696 E0.02708
G1 X159.289 Y175.123 E0.02708
