; generated by SuperSlicer 2.3.57 on 2022-02-14 at 05:01:34 UTC


;
;

;
;
; 

; external perimeters extrusion width = 0.40mm
; perimeters extrusion width = 0.45mm
; infill extrusion width = 0.72mm
; solid infill extrusion width = 0.56mm
; top infill extrusion width = 0.40mm
; support material extrusion width = 0.42mm
; first layer extrusion width = 0.48mm

; object:{"name":"Part2","id":"Part2.STL id:0 copy 0","object_center":[152.500000,150.000000,0.000000],"boundingbox_center":[152.500000,150.000000,6.450000],"boundingbox_size":[21.750000,169.309619,12.900001]}
; plater:{"center":[152.500000,150.000000,0.000000],"boundingbox_center":[152.500000,150.000000,6.450000],"boundingbox_size":[21.750000,169.309619,12.900001]}

;TYPE:Custom
START_PRINT T_BED=60 T_EXTRUDER=200
M107
G21 ; set units to millimeters
G90 ; use absolute coordinates
M83 ; use relative distances for extrusion
; Filament gcode
M104 S200 ; set temperature
M109 S200 ; set temperature and wait for it to be reached
M190 S60 ; set bed temperature and wait for it to be reached
;LAYER_CHANGE
;Z:0.24
;HEIGHT:0.24
G1 Z0.24 F9000
G1 E-0.6 F3000
G1 X138.285 Y64.469 F9000
G1 E0.6 F1800
; External perimeter
;Skirt
SET_VELOCITY_LIMIT ACCEL=3000 ACCEL_TO_DECEL=3000 SQUARE_CORNER_VELOCITY=8

; Support material

;TYPE:Skirt
;WIDTH:0.48
G1 X138.112 Y65.431 E0.04181
G1 X138.126 Y234.772 E7.24025
G1 X138.322 Y235.654 E0.03861
G1 X138.748 Y236.513 E0.041
G1 X139.342 Y237.199 E0.03881
G1 X140.087 Y237.718 E0.03881
G1 X140.718 Y237.987 E0.02933
G1 X149.883 Y240.939 E0.41166
G1 X150.67 Y241.051 E0.034
G1 X159.329 Y241.237 E0.37031
G1 X162.581 Y241.036 E0.13931
G1 X163.184 Y240.927 E0.02618
G1 X163.76 Y240.719 E0.02618
G1 X164.296 Y240.415 E0.02638
G1 X164.77 Y240.027 E0.02618
G1 X171.494 Y233.273 E0.40748
G1 X172.033 Y232.485 E0.04081
G1 X172.349 Y231.584 E0.04081
G1 X172.426 Y230.845 E0.0318
G1 X172.409 Y193.952 E1.57736
G1 X157.094 Y64.849 E5.55858
G1 X156.715 Y63.81 E0.04728
G1 X156.143 Y62.994 E0.04261
G1 X155.347 Y62.349 E0.0438
G1 X154.398 Y61.95 E0.044
G1 X153.522 Y61.831 E0.03781
G1 X145.56 Y61.83 E0.34042
G1 X141.586 Y61.84 E0.1699
G1 X140.881 Y61.963 E0.03059
G1 X140.194 Y62.226 E0.03143
G1 X139.372 Y62.773 E0.04221
G1 X138.727 Y63.52 E0.04221
G1 X138.31 Y64.415 E0.0422
G1 X138.695 Y64.594 F9000
G1 F1800
G1 X138.54 Y65.459 E0.03757
G1 X138.552 Y234.732 E7.23735
G1 X138.73 Y235.52 E0.03456
G1 X139.115 Y236.289 E0.03677
G1 X139.651 Y236.9 E0.03475
G1 X140.327 Y237.359 E0.03494
G1 X150.02 Y240.531 E0.43607
G1 X150.69 Y240.623 E0.02892
G1 X159.335 Y240.808 E0.3697
G1 X162.539 Y240.61 E0.13723
G1 X163.586 Y240.327 E0.04636
G1 X164.476 Y239.716 E0.04618
G1 X171.165 Y232.997 E0.40535
G1 X171.651 Y232.291 E0.03663
G1 X171.933 Y231.478 E0.03682
G1 X171.997 Y230.844 E0.02723
G1 X171.983 Y193.993 E1.5756
G1 X156.676 Y64.94 E5.5564
G1 X156.33 Y63.999 E0.04285
G1 X155.812 Y63.268 E0.03832
G1 X155.086 Y62.692 E0.03963
G1 X154.229 Y62.349 E0.03944
G1 X153.51 Y62.26 E0.03099
G1 X145.56 Y62.259 E0.33992
G1 X141.656 Y62.265 E0.16691
G1 X141.044 Y62.363 E0.02647
G1 X140.449 Y62.58 E0.02708
G1 X139.697 Y63.059 E0.03813
G1 X139.102 Y63.729 E0.03832
G1 X138.72 Y64.539 E0.0383
; INIT printing object Part2.STL id:0 copy 0
G1 E-0.6 F3000
; printing object Part2.STL id:0 copy 0
G1 X159.13 Y234.597 F9000
G1 E0.6 F1800
; External perimeter
;SupportMaterialInterface
SET_VELOCITY_LIMIT ACCEL=3000 ACCEL_TO_DECEL=3000 SQUARE_CORNER_VELOCITY=8

; Thin walls

;TYPE:Support material interface
;WIDTH:0.42
G1 X159.13 Y190.517 E1.62074
G1 X158.553 Y190.517 E0.02122
G1 X158.553 Y234.435 E1.61477
G1 X157.976 Y234.435 E0.02122
G1 X157.976 Y190.517 E1.61477
G1 X157.399 Y190.517 E0.02122
G1 X157.399 Y234.435 E1.61477
G1 X156.822 Y234.435 E0.02122
G1 X156.822 Y190.517 E1.61477
G1 X156.245 Y190.517 E0.02122
G1 X156.245 Y234.435 E1.61477
G1 X155.667 Y234.435 E0.02122
G1 X155.667 Y227.665 E0.2489
G1 X155.09 Y227.665 E0.02122
G1 X155.09 Y234.435 E0.2489
G1 X154.513 Y234.435 E0.02122
G1 X154.513 Y227.503 E0.25486
G1 E-0.6 F3000
G1 X155.667 Y197.449 F9000
G1 E0.6 F1800
G1 X155.667 Y190.517 E0.25486
G1 X155.09 Y190.517 E0.02122
G1 X155.09 Y197.287 E0.2489
G1 X154.567 Y197.287 E0.01923
G1 X154.567 Y193.874 E0.12549
G1 X154.524 Y193.693 E0.00682
G1 X154.513 Y193.673 E0.00086
G1 X154.513 Y190.355 E0.12198
G1 E-0.6 F3000
G1 X168.783 Y230.84 F9000
G1 E0.6 F1800
; External perimeter
;SupportMaterial
SET_VELOCITY_LIMIT ACCEL=3000 ACCEL_TO_DECEL=3000 SQUARE_CORNER_VELOCITY=8

; Support material interface

;TYPE:Support material
;WIDTH:0.48
G1 X168.783 Y214.559 E0.6961
G1 X167.926 Y214.559 E0.03664
G1 X167.926 Y230.656 E0.68823
G1 X167.069 Y230.656 E0.03664
G1 X167.069 Y214.559 E0.68823
G1 X166.212 Y214.559 E0.03664
G1 X166.212 Y230.656 E0.68823
G1 X165.355 Y230.656 E0.03664
G1 X165.355 Y214.559 E0.68823
G1 X164.498 Y214.559 E0.03664
G1 X164.498 Y230.656 E0.68823
G1 X163.641 Y230.656 E0.03664
G1 X163.641 Y214.559 E0.68823
G1 X162.784 Y214.559 E0.03664
G1 X162.784 Y230.656 E0.68823
G1 X162.237 Y230.656 E0.02339
G1 X162.237 Y237.41 E0.28878
G1 X161.927 Y237.41 E0.01326
G1 X161.927 Y187.542 E2.13211
G1 X161.07 Y187.542 E0.03664
G1 X161.07 Y237.41 E2.13211
G1 X160.213 Y237.41 E0.03664
G1 X160.213 Y187.542 E2.13211
G1 X159.356 Y187.542 E0.03664
G1 X159.356 Y190.131 E0.11067
G1 X158.499 Y190.131 E0.03664
G1 X158.499 Y187.542 E0.11067
G1 X157.642 Y187.542 E0.03664
G1 X157.642 Y190.131 E0.11067
G1 X156.785 Y190.131 E0.03664
G1 X156.785 Y187.542 E0.11067
G1 X155.928 Y187.542 E0.03664
G1 X155.928 Y190.131 E0.11067
G1 X155.071 Y190.131 E0.03664
G1 X155.071 Y187.358 E0.11855
G1 X168.783 Y213.954 F9000
G1 F1800
G1 X168.783 Y194.296 E0.84049
G1 X167.926 Y194.296 E0.03664
G1 X167.926 Y213.77 E0.83262
G1 X167.069 Y213.77 E0.03664
G1 X167.069 Y194.296 E0.83262
G1 X166.212 Y194.296 E0.03664
G1 X166.212 Y213.77 E0.83262
G1 X165.355 Y213.77 E0.03664
G1 X165.355 Y194.296 E0.83262
G1 X164.498 Y194.296 E0.03664
G1 X164.498 Y213.77 E0.83262
G1 X163.641 Y213.77 E0.03664
G1 X163.641 Y194.296 E0.83262
G1 X162.784 Y194.296 E0.03664
G1 X162.784 Y213.954 E0.84049
G1 E-0.6 F3000
G1 X159.356 Y237.594 F9000
G1 E0.6 F1800
G1 X159.356 Y234.821 E0.11855
G1 X158.499 Y234.821 E0.03664
G1 X158.499 Y237.41 E0.11067
G1 X157.642 Y237.41 E0.03664
G1 X157.642 Y234.821 E0.11067
G1 X156.785 Y234.821 E0.03664
G1 X156.785 Y237.41 E0.11067
G1 X155.928 Y237.41 E0.03664
G1 X155.928 Y234.821 E0.11067
G1 X155.071 Y234.821 E0.03664
G1 X155.071 Y237.41 E0.11067
G1 X154.214 Y237.41 E0.03664
G1 X154.214 Y234.876 E0.10832
G1 X154.197 Y234.912 E0.00171
G1 X153.99 Y235.172 E0.01421
G1 X153.658 Y235.332 E0.01575
G1 X153.357 Y235.332 E0.01288
G1 X153.357 Y237.41 E0.08882
G1 X152.5 Y237.41 E0.03664
G1 X152.5 Y235.332 E0.08882
G1 X151.643 Y235.332 E0.03664
G1 X151.643 Y237.41 E0.08882
G1 X150.786 Y237.41 E0.03664
G1 X150.786 Y235.843 E0.06699
G1 E-0.6 F3000
G1 X155.071 Y227.463 F9000
G1 E0.6 F1800
G1 X155.071 Y197.489 E1.28154
G1 E-0.6 F3000
G1 X152.857 Y233.858 F9000
G1 E0.6 F1800
; External perimeter
;Perimeter
SET_VELOCITY_LIMIT ACCEL=2000 ACCEL_TO_DECEL=2000 SQUARE_CORNER_VELOCITY=8

; Overhang perimeter

;TYPE:Internal perimeter
G1 X142.421 Y233.858 E0.44619
G1 X142.42 Y66.142 E7.17079
G1 X145.559 Y66.142 E0.13422
G1 X152.856 Y66.142 E0.31197
G1 X152.857 Y233.798 E7.16822
G1 X153.285 Y234.287 F9000
; External perimeter
;ExternalPerimeter
SET_VELOCITY_LIMIT ACCEL=1000 ACCEL_TO_DECEL=1000 SQUARE_CORNER_VELOCITY=8

; Perimeter

;TYPE:External perimeter
G1 F1800
G1 X141.992 Y234.286 E0.48283
G1 X141.992 Y234.166 E0.0046
G1 X141.992 Y233.926 E0.00973
G1 X141.992 Y65.713 E7.19203
G1 X142.112 Y65.713 E0.0046
G1 X142.352 Y65.713 E0.00973
G1 X145.559 Y65.713 E0.13715
G1 X153.285 Y65.714 E0.33029
G1 X153.285 Y65.834 E0.0046
G1 X153.285 Y66.074 E0.00973
G1 X153.285 Y234.227 E7.18947
;WIPE_START
G1 X152.939 Y234.087 F9000
;WIPE_END
G1 X151.926 Y66.206
; External perimeter
;SolidInfill
SET_VELOCITY_LIMIT ACCEL=2000 ACCEL_TO_DECEL=2000 SQUARE_CORNER_VELOCITY=8

; Bridge infill

;TYPE:Solid infill
;WIDTH:0.472928
G1 F2400
G1 X152.608 Y66.888 E0.04063
G1 X152.608 Y67.494 E0.02553
G1 X151.504 Y66.391 E0.06575
G1 X150.898 Y66.391 E0.02553
G1 X152.608 Y68.1 E0.10186
G1 X152.608 Y68.706 E0.02553
G1 X150.292 Y66.39 E0.13796
G1 X149.686 Y66.39 E0.02553
G1 X152.608 Y69.312 E0.17406
G1 X152.608 Y69.918 E0.02553
G1 X149.08 Y66.39 E0.21016
G1 X148.474 Y66.39 E0.02553
G1 X152.608 Y70.524 E0.24627
G1 X152.608 Y71.13 E0.02553
G1 X147.868 Y66.39 E0.28237
G1 X147.262 Y66.39 E0.02553
G1 X152.608 Y71.736 E0.31847
G1 X152.608 Y72.342 E0.02553
G1 X146.656 Y66.39 E0.35457
G1 X146.05 Y66.39 E0.02553
G1 X152.608 Y72.948 E0.39068
G1 X152.608 Y73.554 E0.02553
G1 X145.444 Y66.39 E0.42678
G1 X144.838 Y66.39 E0.02553
G1 X152.608 Y74.16 E0.46288
G1 X152.608 Y74.766 E0.02553
G1 X144.232 Y66.39 E0.49899
G1 X143.626 Y66.39 E0.02553
G1 X152.608 Y75.372 E0.53509
G1 X152.608 Y75.978 E0.02553
G1 X143.02 Y66.39 E0.57119
G1 X142.669 Y66.39 E0.01479
G1 X142.669 Y66.645 E0.01074
G1 X152.608 Y76.584 E0.5921
G1 X152.608 Y77.19 E0.02553
G1 X142.669 Y67.251 E0.5921
G1 X142.669 Y67.857 E0.02553
G1 X152.608 Y77.796 E0.5921
G1 X152.608 Y78.402 E0.02553
G1 X142.669 Y68.463 E0.5921
G1 X142.669 Y69.069 E0.02553
G1 X152.608 Y79.008 E0.5921
G1 X152.608 Y79.614 E0.02553
G1 X142.669 Y69.675 E0.5921
G1 X142.669 Y70.281 E0.02553
G1 X152.608 Y80.22 E0.5921
G1 X152.608 Y80.826 E0.02553
G1 X142.669 Y70.887 E0.5921
G1 X142.669 Y71.493 E0.02553
G1 X152.608 Y81.432 E0.5921
G1 X152.608 Y82.038 E0.02553
G1 X142.669 Y72.099 E0.5921
G1 X142.669 Y72.705 E0.02553
G1 X152.608 Y82.644 E0.5921
G1 X152.608 Y83.25 E0.02553
G1 X142.669 Y73.311 E0.5921
G1 X142.669 Y73.917 E0.02553
G1 X152.608 Y83.856 E0.5921
G1 X152.608 Y84.462 E0.02553
G1 X142.669 Y74.523 E0.5921
G1 X142.669 Y75.129 E0.02553
G1 X152.608 Y85.068 E0.5921
G1 X152.608 Y85.674 E0.02553
G1 X142.669 Y75.735 E0.5921
G1 X142.669 Y76.341 E0.02553
G1 X152.608 Y86.28 E0.5921
G1 X152.608 Y86.886 E0.02553
G1 X142.669 Y76.947 E0.5921
G1 X142.669 Y77.553 E0.02553
G1 X152.608 Y87.492 E0.5921
G1 X152.608 Y88.098 E0.02553
G1 X142.669 Y78.159 E0.5921
G1 X142.669 Y78.765 E0.02553
G1 X152.608 Y88.704 E0.5921
G1 X152.608 Y89.31 E0.02553
G1 X142.669 Y79.371 E0.5921
G1 X142.669 Y79.977 E0.02553
G1 X152.608 Y89.916 E0.5921
G1 X152.608 Y90.522 E0.02553
G1 X142.669 Y80.583 E0.5921
G1 X142.669 Y81.189 E0.02553
G1 X152.608 Y91.128 E0.5921
G1 X152.608 Y91.734 E0.02553
G1 X142.669 Y81.795 E0.5921
G1 X142.669 Y82.401 E0.02553
G1 X152.608 Y92.34 E0.5921
G1 X152.608 Y92.946 E0.02553
G1 X142.669 Y83.007 E0.5921
G1 X142.669 Y83.613 E0.02553
G1 X152.608 Y93.552 E0.5921
G1 X152.608 Y94.158 E0.02553
G1 X142.669 Y84.219 E0.5921
G1 X142.669 Y84.825 E0.02553
G1 X152.608 Y94.764 E0.5921
G1 X152.608 Y95.37 E0.02553
G1 X142.669 Y85.431 E0.5921
G1 X142.669 Y86.037 E0.02553
G1 X152.608 Y95.976 E0.5921
G1 X152.608 Y96.582 E0.02553
G1 X142.669 Y86.643 E0.5921
G1 X142.669 Y87.249 E0.02553
G1 X152.608 Y97.188 E0.5921
G1 X152.608 Y97.794 E0.02553
G1 X142.669 Y87.855 E0.5921
G1 X142.669 Y88.461 E0.02553
G1 X152.608 Y98.399 E0.5921
G1 X152.608 Y99.005 E0.02553
G1 X142.669 Y89.067 E0.5921
G1 X142.669 Y89.673 E0.02553
G1 X152.608 Y99.611 E0.5921
G1 X152.608 Y100.217 E0.02553
G1 X142.669 Y90.279 E0.5921
G1 X142.669 Y90.885 E0.02553
G1 X152.608 Y100.823 E0.5921
G1 X152.608 Y101.429 E0.02553
G1 X142.669 Y91.491 E0.5921
G1 X142.669 Y92.097 E0.02553
G1 X152.608 Y102.035 E0.5921
G1 X152.608 Y102.641 E0.02553
G1 X142.669 Y92.703 E0.5921
G1 X142.669 Y93.308 E0.02553
G1 X152.608 Y103.247 E0.5921
G1 X152.608 Y103.853 E0.02553
G1 X142.669 Y93.914 E0.5921
G1 X142.669 Y94.52 E0.02553
G1 X152.608 Y104.459 E0.5921
G1 X152.608 Y105.065 E0.02553
G1 X142.669 Y95.126 E0.5921
G1 X142.669 Y95.732 E0.02553
G1 X152.608 Y105.671 E0.5921
G1 X152.608 Y106.277 E0.02553
G1 X142.669 Y96.338 E0.5921
G1 X142.669 Y96.944 E0.02553
G1 X152.608 Y106.883 E0.5921
G1 X152.608 Y107.489 E0.02553
G1 X142.669 Y97.55 E0.5921
G1 X142.669 Y98.156 E0.02553
G1 X152.608 Y108.095 E0.5921
G1 X152.608 Y108.701 E0.02553
G1 X142.669 Y98.762 E0.5921
G1 X142.669 Y99.368 E0.02553
G1 X152.608 Y109.307 E0.5921
G1 X152.608 Y109.913 E0.02553
G1 X142.669 Y99.974 E0.5921
G1 X142.669 Y100.58 E0.02553
G1 X152.608 Y110.519 E0.5921
G1 X152.608 Y111.125 E0.02553
G1 X142.669 Y101.186 E0.5921
G1 X142.669 Y101.792 E0.02553
G1 X152.608 Y111.731 E0.5921
G1 X152.608 Y112.337 E0.02553
G1 X142.669 Y102.398 E0.5921
G1 X142.669 Y103.004 E0.02553
G1 X152.608 Y112.943 E0.5921
G1 X152.608 Y113.549 E0.02553
G1 X142.669 Y103.61 E0.5921
G1 X142.669 Y104.216 E0.02553
G1 X152.608 Y114.155 E0.5921
G1 X152.608 Y114.761 E0.02553
G1 X142.669 Y104.822 E0.5921
G1 X142.669 Y105.428 E0.02553
G1 X152.608 Y115.367 E0.5921
G1 X152.608 Y115.973 E0.02553
G1 X142.669 Y106.034 E0.5921
G1 X142.669 Y106.64 E0.02553
G1 X152.608 Y116.579 E0.5921
G1 X152.608 Y117.185 E0.02553
G1 X142.669 Y107.246 E0.5921
G1 X142.669 Y107.852 E0.02553
G1 X152.608 Y117.791 E0.5921
G1 X152.608 Y118.397 E0.02553
G1 X142.669 Y108.458 E0.5921
G1 X142.669 Y109.064 E0.02553
G1 X152.608 Y119.003 E0.5921
G1 X152.608 Y119.609 E0.02553
G1 X142.669 Y109.67 E0.5921
G1 X142.669 Y110.276 E0.02553
G1 X152.608 Y120.215 E0.5921
G1 X152.608 Y120.821 E0.02553
G1 X142.669 Y110.882 E0.5921
G1 X142.669 Y111.488 E0.02553
G1 X152.608 Y121.427 E0.5921
G1 X152.608 Y122.033 E0.02553
G1 X142.669 Y112.094 E0.5921
G1 X142.669 Y112.7 E0.02553
G1 X152.608 Y122.639 E0.5921
G1 X152.608 Y123.245 E0.02553
G1 X142.669 Y113.306 E0.5921
G1 X142.669 Y113.912 E0.02553
G1 X152.608 Y123.851 E0.5921
G1 X152.608 Y124.457 E0.02553
G1 X142.669 Y114.518 E0.5921
G1 X142.669 Y115.124 E0.02553
G1 X152.608 Y125.063 E0.5921
G1 X152.608 Y125.669 E0.02553
G1 X142.669 Y115.73 E0.5921
G1 X142.669 Y116.336 E0.02553
G1 X152.608 Y126.275 E0.5921
G1 X152.608 Y126.881 E0.02553
G1 X142.669 Y116.942 E0.5921
G1 X142.669 Y117.548 E0.02553
G1 X152.608 Y127.487 E0.5921
G1 X152.608 Y128.093 E0.02553
G1 X142.669 Y118.154 E0.5921
G1 X142.669 Y118.76 E0.02553
G1 X152.608 Y128.699 E0.5921
G1 X152.608 Y129.305 E0.02553
G1 X142.669 Y119.366 E0.5921
G1 X142.669 Y119.972 E0.02553
G1 X152.608 Y129.911 E0.5921
G1 X152.608 Y130.517 E0.02553
G1 X142.669 Y120.578 E0.5921
G1 X142.669 Y121.184 E0.02553
G1 X152.608 Y131.123 E0.5921
G1 X152.608 Y131.729 E0.02553
G1 X142.669 Y121.79 E0.5921
G1 X142.669 Y122.396 E0.02553
G1 X152.608 Y132.335 E0.5921
G1 X152.608 Y132.941 E0.02553
G1 X142.669 Y123.002 E0.5921
G1 X142.669 Y123.608 E0.02553
G1 X152.608 Y133.547 E0.5921
G1 X152.608 Y134.153 E0.02553
G1 X142.669 Y124.214 E0.5921
G1 X142.669 Y124.82 E0.02553
G1 X152.608 Y134.759 E0.5921
G1 X152.608 Y135.365 E0.02553
G1 X142.669 Y125.426 E0.5921
G1 X142.669 Y126.032 E0.02553
G1 X152.608 Y135.971 E0.5921
G1 X152.608 Y136.577 E0.02553
G1 X142.669 Y126.638 E0.5921
G1 X142.669 Y127.244 E0.02553
G1 X152.608 Y137.183 E0.5921
G1 X152.608 Y137.789 E0.02553
G1 X142.669 Y127.85 E0.5921
G1 X142.669 Y128.456 E0.02553
G1 X152.608 Y138.395 E0.5921
G1 X152.608 Y139.001 E0.02553
G1 X142.669 Y129.062 E0.5921
G1 X142.669 Y129.668 E0.02553
G1 X152.608 Y139.606 E0.5921
G1 X152.608 Y140.212 E0.02553
G1 X142.669 Y130.274 E0.5921
G1 X142.669 Y130.88 E0.02553
G1 X152.608 Y140.818 E0.5921
G1 X152.608 Y141.424 E0.02553
G1 X142.669 Y131.486 E0.5921
G1 X142.669 Y132.092 E0.02553
G1 X152.608 Y142.03 E0.5921
G1 X152.608 Y142.636 E0.02553
G1 X142.669 Y132.698 E0.5921
G1 X142.669 Y133.304 E0.02553
G1 X152.608 Y143.242 E0.5921
G1 X152.608 Y143.848 E0.02553
G1 X142.669 Y133.91 E0.5921
G1 X142.669 Y134.515 E0.02553
G1 X152.608 Y144.454 E0.5921
G1 X152.608 Y145.06 E0.02553
G1 X142.669 Y135.121 E0.5921
G1 X142.669 Y135.727 E0.02553
G1 X152.608 Y145.666 E0.5921
G1 X152.608 Y146.272 E0.02553
G1 X142.669 Y136.333 E0.5921
G1 X142.669 Y136.939 E0.02553
G1 X152.608 Y146.878 E0.5921
G1 X152.608 Y147.484 E0.02553
G1 X142.669 Y137.545 E0.5921
G1 X142.669 Y138.151 E0.02553
G1 X152.608 Y148.09 E0.5921
G1 X152.608 Y148.696 E0.02553
G1 X142.669 Y138.757 E0.5921
G1 X142.669 Y139.363 E0.02553
G1 X152.608 Y149.302 E0.5921
G1 X152.608 Y149.908 E0.02553
G1 X142.669 Y139.969 E0.5921
