; generated by SuperSlicer 2.3.57 on 2022-02-08 at 22:13:56 UTC


;
;

;
;
; 

; external perimeters extrusion width = 0.40mm
; perimeters extrusion width = 0.40mm
; infill extrusion width = 0.72mm
; solid infill extrusion width = 0.40mm
; top infill extrusion width = 0.40mm
; first layer extrusion width = 0.48mm


;TYPE:Custom
START_PRINT T_BED=70 T_EXTRUDER=230
M107
G21 ; set units to millimeters
G90 ; use absolute coordinates
M83 ; use relative distances for extrusion
; Filament gcode
M104 S230 ; set temperature
M109 S230 ; set temperature and wait for it to be reached
M190 S70 ; set bed temperature and wait for it to be reached
;LAYER_CHANGE
;Z:0.24
;HEIGHT:0.24
G1 Z0.24 F9000
G1 E-1 F3000
G1 X147.272 Y144.956 F9000
G1 E1 F1800
;TYPE:Skirt
;WIDTH:0.48
G1 F600
G1 X146.438 Y145.818 E0.05128
G1 X145.696 Y146.753 E0.05103
G1 X145.108 Y147.661 E0.04626
G1 X144.347 Y149.197 E0.0733
G1 X143.985 Y150.192 E0.04525
G1 X143.671 Y151.422 E0.05428
G1 X143.503 Y152.52 E0.04752
G1 X143.442 Y153.518 E0.04275
G1 X143.493 Y154.979 E0.06248
G1 X146.402 Y180.934 E1.11666
G1 X146.738 Y182.466 E0.06708
G1 X147.357 Y183.919 E0.0675
G1 X147.855 Y184.731 E0.04073
G1 X148.474 Y185.505 E0.04237
G1 X149.761 Y186.649 E0.07364
G1 X150.643 Y187.188 E0.04419
G1 X151.541 Y187.586 E0.042
G1 X152.523 Y187.877 E0.04377
G1 X153.262 Y188.006 E0.03209
G1 X178.423 Y188.303 E1.07583
G1 X179.836 Y188.098 E0.06106
G1 X181.224 Y187.525 E0.06418
G1 X182.389 Y186.667 E0.06187
G1 X183.361 Y185.503 E0.06481
G1 X184.001 Y184.204 E0.06194
G1 X184.337 Y182.716 E0.0652
G1 X186.563 Y154.083 E1.2279
G1 X186.448 Y152.285 E0.07706
G1 X186.192 Y150.97 E0.05728
G1 X185.769 Y149.631 E0.06004
G1 X185.154 Y148.284 E0.06329
G1 X184.512 Y147.21 E0.05352
G1 X183.326 Y145.712 E0.08165
G1 X182.315 Y144.738 E0.06004
G1 X181.44 Y144.062 E0.04726
G1 X180.234 Y143.309 E0.06079
G1 X179.126 Y142.779 E0.05253
G1 X177.914 Y142.346 E0.05503
G1 X176.835 Y142.08 E0.04751
G1 X175.497 Y141.888 E0.05779
G1 X174.398 Y141.846 E0.04703
G1 X155.377 Y141.695 E0.81327
G1 X153.727 Y141.833 E0.0708
G1 X152.699 Y142.031 E0.04475
G1 X151.532 Y142.376 E0.05203
G1 X150.443 Y142.818 E0.05027
G1 X149.494 Y143.313 E0.04576
G1 X148.055 Y144.289 E0.0743
G1 X147.318 Y144.917 E0.04144
G1 X147.595 Y145.243 F9000
G1 F600
G1 X147.569 Y145.266 E0.00148
G1 X146.76 Y146.1 E0.04971
G1 X146.044 Y147.003 E0.04923
G1 X145.471 Y147.889 E0.04513
G1 X144.744 Y149.36 E0.07016
G1 X144.394 Y150.32 E0.04368
G1 X144.086 Y151.534 E0.05356
G1 X143.87 Y153.547 E0.08655
G1 X143.921 Y154.947 E0.0599
G1 X146.827 Y180.884 E1.1159
G1 X147.147 Y182.338 E0.06365
G1 X147.742 Y183.73 E0.06472
G1 X148.209 Y184.491 E0.03816
G1 X148.8 Y185.227 E0.04038
G1 X150.011 Y186.3 E0.06916
G1 X150.846 Y186.811 E0.04188
G1 X151.698 Y187.187 E0.03982
G1 X153.327 Y187.582 E0.07167
G1 X178.407 Y187.875 E1.07236
G1 X179.732 Y187.682 E0.05725
G1 X181.033 Y187.141 E0.06025
G1 X182.116 Y186.335 E0.05772
G1 X183.024 Y185.235 E0.06097
G1 X183.612 Y184.018 E0.05781
G1 X183.917 Y182.605 E0.06179
G1 X186.136 Y154.027 E1.22553
G1 X186.017 Y152.287 E0.07459
G1 X185.734 Y150.911 E0.06006
G1 X185.3 Y149.616 E0.05837
G1 X184.442 Y147.895 E0.08222
G1 X183.666 Y146.765 E0.05861
G1 X182.875 Y145.853 E0.05163
G1 X181.968 Y145.005 E0.05308
G1 X181.041 Y144.303 E0.04971
G1 X179.97 Y143.653 E0.05356
G1 X178.893 Y143.146 E0.05091
G1 X177.748 Y142.744 E0.05188
G1 X176.634 Y142.476 E0.04899
G1 X175.426 Y142.312 E0.05212
G1 X174.381 Y142.275 E0.04471
G1 X155.376 Y142.124 E0.81258
G1 X153.803 Y142.254 E0.06751
G1 X152.805 Y142.446 E0.04344
G1 X151.674 Y142.78 E0.05043
G1 X150.617 Y143.21 E0.04875
G1 X149.697 Y143.691 E0.0444
G1 X148.321 Y144.625 E0.07112
G1 X147.641 Y145.204 E0.03818
G1 E-1 F3000
G1 X174.211 Y159.321 F9000
G1 E1 F1800
;TYPE:Internal perimeter
G1 F600
G1 X174.367 Y159.315 E0.00666
G1 X174.832 Y159.214 E0.02034
G1 X175.274 Y159.037 E0.02034
G1 X175.679 Y158.787 E0.02034
G1 X176.036 Y158.473 E0.02034
G1 X176.335 Y158.103 E0.02034
G1 X176.567 Y157.687 E0.02034
G1 X176.725 Y157.239 E0.02034
G1 X176.803 Y156.784 E0.01973
G1 X176.814 Y156.532 E0.01078
G1 X176.803 Y156.28 E0.01078
G1 X176.725 Y155.825 E0.01973
G1 X176.567 Y155.376 E0.02034
G1 X176.335 Y154.961 E0.02034
G1 X176.036 Y154.591 E0.02034
G1 X175.679 Y154.276 E0.02034
G1 X175.274 Y154.027 E0.02034
G1 X174.832 Y153.849 E0.02034
G1 X174.367 Y153.749 E0.02034
G1 X173.892 Y153.729 E0.02034
G1 X173.42 Y153.789 E0.02034
G1 X172.965 Y153.929 E0.02034
G1 X172.54 Y154.143 E0.02034
G1 X172.157 Y154.426 E0.02034
G1 X171.828 Y154.77 E0.02034
G1 X171.561 Y155.164 E0.02034
G1 X171.365 Y155.597 E0.02034
G1 X171.246 Y156.058 E0.02034
G1 X171.205 Y156.532 E0.02034
G1 X171.246 Y157.006 E0.02034
G1 X171.365 Y157.466 E0.02034
G1 X171.561 Y157.9 E0.02034
G1 X171.828 Y158.294 E0.02034
G1 X172.157 Y158.638 E0.02034
G1 X172.54 Y158.921 E0.02034
G1 X173.039 Y159.172 E0.02389
G1 X172.903 Y159.518 E0.01587
G1 X172.558 Y159.417 E0.01535
G1 X172.006 Y159.193 E0.0255
G1 X171.479 Y158.913 E0.0255
G1 X170.984 Y158.58 E0.0255
G1 X170.527 Y158.198 E0.0255
G1 X170.11 Y157.771 E0.0255
G1 X169.74 Y157.303 E0.0255
G1 X169.42 Y156.8 E0.0255
G1 X169.154 Y156.267 E0.0255
G1 X168.943 Y155.709 E0.0255
G1 X168.791 Y155.132 E0.0255
G1 X168.7 Y154.543 E0.0255
G1 X168.669 Y153.947 E0.0255
G1 X168.7 Y153.352 E0.0255
G1 X168.791 Y152.762 E0.0255
G1 X168.943 Y152.186 E0.0255
G1 X169.154 Y151.628 E0.0255
G1 X169.42 Y151.094 E0.0255
G1 X169.74 Y150.591 E0.0255
G1 X170.11 Y150.124 E0.0255
G1 X170.527 Y149.697 E0.0255
G1 X170.984 Y149.315 E0.0255
G1 X171.479 Y148.982 E0.0255
G1 X172.006 Y148.701 E0.0255
G1 X172.558 Y148.477 E0.0255
G1 X173.13 Y148.31 E0.0255
G1 X173.717 Y148.203 E0.0255
G1 X174.312 Y148.157 E0.0255
G1 X174.908 Y148.173 E0.0255
G1 X175.499 Y148.249 E0.0255
G1 X176.08 Y148.386 E0.0255
G1 X176.643 Y148.582 E0.0255
G1 X177.183 Y148.835 E0.0255
G1 X177.694 Y149.142 E0.0255
G1 X178.171 Y149.5 E0.0255
G1 X178.609 Y149.905 E0.0255
G1 X179.002 Y150.353 E0.0255
G1 X179.348 Y150.839 E0.0255
G1 X179.642 Y151.358 E0.0255
G1 X179.88 Y151.904 E0.0255
G1 X180.062 Y152.472 E0.0255
G1 X180.184 Y153.056 E0.0255
G1 X180.246 Y153.658 E0.02586
G1 X180.253 Y153.947 E0.01239
G1 X180.246 Y154.237 E0.01239
G1 X180.184 Y154.838 E0.02586
G1 X180.062 Y155.422 E0.0255
G1 X179.88 Y155.99 E0.0255
G1 X179.642 Y156.537 E0.0255
G1 X179.348 Y157.056 E0.0255
G1 X179.002 Y157.542 E0.0255
G1 X178.609 Y157.99 E0.0255
G1 X178.171 Y158.395 E0.0255
G1 X177.694 Y158.752 E0.0255
G1 X177.183 Y159.059 E0.0255
G1 X176.643 Y159.312 E0.0255
G1 X176.08 Y159.508 E0.0255
G1 X175.499 Y159.645 E0.0255
G1 X174.908 Y159.722 E0.0255
G1 X174.312 Y159.737 E0.0255
G1 X174.002 Y159.713 E0.01327
G1 X174.009 Y159.33 E0.01639
G1 X174.151 Y159.324 E0.0061
G1 X173.602 Y158.866 F9000
;TYPE:External perimeter
G1 F600
G1 X173.91 Y158.905 E0.01326
G1 X174.312 Y158.888 E0.01723
G1 X174.706 Y158.803 E0.01723
G1 X175.08 Y158.653 E0.01723
G1 X175.423 Y158.442 E0.01723
G1 X175.726 Y158.175 E0.01723
G1 X175.979 Y157.862 E0.01723
G1 X176.175 Y157.51 E0.01723
G1 X176.309 Y157.13 E0.01723
G1 X176.377 Y156.738 E0.01701
G1 X176.385 Y156.532 E0.00884
G1 X176.377 Y156.325 E0.00884
G1 X176.309 Y155.933 E0.01701
G1 X176.175 Y155.553 E0.01723
G1 X175.979 Y155.202 E0.01723
G1 X175.726 Y154.888 E0.01723
G1 X175.423 Y154.622 E0.01723
G1 X175.08 Y154.411 E0.01723
G1 X174.706 Y154.261 E0.01723
G1 X174.312 Y154.176 E0.01723
G1 X173.91 Y154.159 E0.01723
G1 X173.51 Y154.21 E0.01723
G1 X173.125 Y154.328 E0.01723
G1 X172.765 Y154.509 E0.01723
G1 X172.441 Y154.749 E0.01723
G1 X172.163 Y155.04 E0.01723
G1 X171.937 Y155.373 E0.01723
G1 X171.771 Y155.741 E0.01723
G1 X171.669 Y156.13 E0.01723
G1 X171.635 Y156.532 E0.01723
G1 X171.669 Y156.933 E0.01723
G1 X171.771 Y157.323 E0.01723
G1 X171.937 Y157.69 E0.01723
G1 X172.163 Y158.024 E0.01723
G1 X172.441 Y158.315 E0.01723
G1 X172.765 Y158.555 E0.01723
G1 X173.125 Y158.736 E0.01723
G1 X173.51 Y158.854 E0.01723
G1 X173.543 Y158.858 E0.0014
;WIPE_START
G1 X173.722 Y159.152 F9000
;WIPE_END
G1 X173.55 Y160.096
G1 F600
G1 X173.032 Y160.002 E0.02251
G1 X172.417 Y159.823 E0.02738
G1 X171.824 Y159.581 E0.02738
G1 X171.258 Y159.28 E0.02738
G1 X170.727 Y158.923 E0.02738
G1 X170.235 Y158.513 E0.02738
G1 X169.788 Y158.054 E0.02738
G1 X169.391 Y157.552 E0.02738
G1 X169.047 Y157.011 E0.02738
G1 X168.76 Y156.438 E0.02738
G1 X168.535 Y155.839 E0.02738
G1 X168.371 Y155.22 E0.02738
G1 X168.273 Y154.587 E0.02738
G1 X168.24 Y153.947 E0.02738
G1 X168.273 Y153.307 E0.02738
G1 X168.371 Y152.675 E0.02738
G1 X168.535 Y152.055 E0.02738
G1 X168.76 Y151.456 E0.02738
G1 X169.047 Y150.883 E0.02738
G1 X169.391 Y150.343 E0.02738
G1 X169.788 Y149.84 E0.02738
G1 X170.235 Y149.382 E0.02738
G1 X170.727 Y148.971 E0.02738
G1 X171.258 Y148.614 E0.02738
G1 X171.824 Y148.313 E0.02738
G1 X172.417 Y148.072 E0.02738
G1 X173.032 Y147.893 E0.02738
G1 X173.662 Y147.778 E0.02738
G1 X174.301 Y147.728 E0.02738
G1 X174.941 Y147.745 E0.02738
G1 X175.576 Y147.827 E0.02738
G1 X176.199 Y147.974 E0.02738
G1 X176.804 Y148.185 E0.02738
G1 X177.384 Y148.456 E0.02738
G1 X177.934 Y148.786 E0.02738
G1 X178.446 Y149.17 E0.02738
G1 X178.916 Y149.605 E0.02738
G1 X179.339 Y150.086 E0.02738
G1 X179.71 Y150.608 E0.02738
G1 X180.025 Y151.166 E0.02738
G1 X180.282 Y151.753 E0.02738
G1 X180.477 Y152.363 E0.02738
G1 X180.608 Y152.99 E0.02738
G1 X180.674 Y153.63 E0.02752
G1 X180.682 Y153.947 E0.01357
G1 X180.674 Y154.264 E0.01356
G1 X180.608 Y154.904 E0.02752
G1 X180.477 Y155.531 E0.02738
G1 X180.282 Y156.142 E0.02738
G1 X180.025 Y156.728 E0.02738
G1 X179.71 Y157.286 E0.02738
G1 X179.339 Y157.808 E0.02738
G1 X178.916 Y158.289 E0.02738
G1 X178.446 Y158.724 E0.02738
G1 X177.934 Y159.108 E0.02738
G1 X177.384 Y159.438 E0.02738
G1 X176.804 Y159.71 E0.02738
G1 X176.199 Y159.92 E0.02738
G1 X175.576 Y160.067 E0.02738
G1 X174.941 Y160.149 E0.02738
G1 X174.301 Y160.166 E0.02738
G1 X173.662 Y160.117 E0.02738
G1 X173.609 Y160.107 E0.00231
;WIPE_START
G1 X173.415 Y159.719 F9000
;WIPE_END
G1 X173.388 Y159.867
;TYPE:Gap fill
;WIDTH:0.780213
G1 F600
G1 X173.422 Y159.773 E0.00722
G1 X173.458 Y159.596 E0.01311
;WIDTH:0.728104
G1 X173.47 Y159.538 E0.00406
;WIDTH:0.69597
G1 X173.505 Y159.36 E0.01161
;WIDTH:0.527249
G1 X173.419 Y159.21 E0.00824
;WIDTH:0.392302
G1 X173.313 Y159.014 E0.00758
G1 E-1 F3000
G1 X179.329 Y151.111 F9000
G1 E1 F1800
;TYPE:Solid infill
;WIDTH:0.493184
G1 X178.21 Y149.991 E0.06954
G1 X177.957 Y149.757 E0.01517
G1 X177.507 Y149.419 E0.02468
G1 X177.026 Y149.13 E0.02468
G1 X176.517 Y148.892 E0.02468
G1 X176.499 Y148.886 E0.00084
G1 X179.515 Y151.902 E0.18737
G1 X179.567 Y152.022 E0.00577
G1 X179.738 Y152.557 E0.02468
G1 X179.784 Y152.777 E0.00986
G1 X175.63 Y148.623 E0.25805
G1 X175.439 Y148.578 E0.00863
G1 X174.911 Y148.51 E0.0234
G1 X179.893 Y153.492 E0.30951
G1 X179.912 Y153.675 E0.00808
G1 X179.912 Y154.117 E0.01942
G1 X174.289 Y148.494 E0.34931
G1 X173.76 Y148.535 E0.02331
G1 X173.73 Y148.541 E0.00136
G1 X179.864 Y154.676 E0.38114
G1 X179.853 Y154.787 E0.00492
G1 X179.769 Y155.187 E0.01793
G1 X173.217 Y148.634 E0.40708
G1 X172.747 Y148.77 E0.0215
G1 X179.635 Y155.658 E0.42796
G1 X179.567 Y155.872 E0.00986
G1 X179.469 Y156.098 E0.01081
G1 X172.31 Y148.939 E0.44477
G1 X172.147 Y149.005 E0.00769
G1 X171.901 Y149.136 E0.01227
G1 X179.273 Y156.508 E0.45803
G1 X179.065 Y156.876 E0.01855
G1 X179.053 Y156.894 E0.00096
G1 X171.518 Y149.359 E0.46813
G1 X171.185 Y149.582 E0.0176
G1 X171.158 Y149.605 E0.00156
G1 X175.184 Y153.631 E0.25009
G1 X175.425 Y153.727 E0.01141
G1 X175.878 Y154.007 E0.0234
G1 X176.278 Y154.359 E0.0234
G1 X176.613 Y154.773 E0.0234
G1 X176.873 Y155.238 E0.0234
G1 X176.917 Y155.364 E0.00586
G1 X178.801 Y157.248 E0.11704
G1 X178.74 Y157.334 E0.00463
G1 X178.525 Y157.578 E0.01429
G1 X177.125 Y156.178 E0.08698
G1 X177.136 Y156.244 E0.00296
G1 X177.149 Y156.532 E0.01264
G1 X177.137 Y156.796 E0.01163
G1 X178.228 Y157.887 E0.06773
G1 X177.957 Y158.138 E0.01623
G1 X177.909 Y158.174 E0.00263
G1 X177.051 Y157.316 E0.05327
G1 X176.894 Y157.765 E0.02089
G1 X177.562 Y158.433 E0.04153
G1 X177.507 Y158.475 E0.00303
G1 X177.189 Y158.666 E0.01631
G1 X176.685 Y158.162 E0.03132
G1 X176.613 Y158.291 E0.00649
G1 X176.432 Y158.515 E0.01265
G1 X176.93 Y159.012 E0.03092
G1 E-1 F3000
G1 X174.591 Y153.644 F9000
G1 E1 F1800
G1 X170.828 Y149.881 E0.23382
G1 X170.754 Y149.942 E0.00422
G1 X170.522 Y150.181 E0.01462
G1 X173.751 Y153.41 E0.20064
G1 X173.349 Y153.462 E0.01781
G1 X173.232 Y153.497 E0.00536
G1 X170.237 Y150.502 E0.18608
G1 X170.013 Y150.785 E0.01586
G1 X169.975 Y150.846 E0.00314
G1 X172.778 Y153.649 E0.17415
G1 X172.375 Y153.852 E0.01982
G1 X169.739 Y151.216 E0.16376
G1 X169.711 Y151.259 E0.00225
G1 X169.533 Y151.616 E0.01752
G1 X172.025 Y154.108 E0.15482
G1 X171.936 Y154.174 E0.00489
G1 X171.715 Y154.404 E0.01399
G1 X169.354 Y152.043 E0.14668
G1 X169.262 Y152.288 E0.01148
G1 X169.206 Y152.501 E0.00969
G1 X171.445 Y154.74 E0.13909
G1 X171.269 Y155 E0.01381
G1 X171.216 Y155.117 E0.00562
G1 X169.094 Y152.994 E0.13186
G1 X169.033 Y153.386 E0.01741
G1 X169.025 Y153.532 E0.00641
G1 X171.035 Y155.541 E0.12485
G1 X170.915 Y156.001 E0.02086
G1 X170.913 Y156.026 E0.00108
G1 X169.013 Y154.126 E0.11805
G1 X169.033 Y154.508 E0.01683
G1 X169.077 Y154.796 E0.0128
G1 X170.875 Y156.594 E0.11169
G1 X170.915 Y157.063 E0.02067
G1 X170.977 Y157.302 E0.01087
G1 X169.255 Y155.58 E0.107
G1 X169.262 Y155.607 E0.00123
G1 X169.46 Y156.132 E0.02468
G1 X169.711 Y156.635 E0.02468
G1 X169.724 Y156.655 E0.00102
G1 X171.171 Y158.102 E0.0899
G1 X171.306 Y157.967 F9000
;TYPE:Gap fill
;WIDTH:0.295398
G1 F600
G1 X171.301 Y158.163 E0.00477
;WIDTH:0.425439
G1 X171.299 Y158.276 E0.00421
;WIDTH:0.457416
G1 X171.418 Y158.394 E0.0068
;WIDTH:0.368646
G1 X171.556 Y158.53 E0.00612
;WIDTH:0.328732
G1 X171.657 Y158.616 E0.00368
;WIDTH:0.294227
G1 X171.811 Y158.732 E0.00466
;WIDTH:0.213161
G1 X171.964 Y158.848 E0.0031
;WIDTH:0.178271
G1 X172.12 Y158.947 E0.00234
;WIDTH:0.152637
G1 X172.221 Y159.004 E0.00117
G1 E-1 F3000
G1 X174.895 Y159.465 F9000
G1 E1 F1800
;WIDTH:0.147702
G1 F600
G1 X175.059 Y159.422 E0.00162
;WIDTH:0.188559
G1 X175.176 Y159.392 E0.00166
;WIDTH:0.229416
G1 X175.294 Y159.361 E0.00215
;WIDTH:0.280239
G1 X175.411 Y159.33 E0.00277
G1 X175.534 Y159.282 E0.00301
;WIDTH:0.321923
G1 X175.628 Y159.243 E0.00274
;WIDTH:0.362385
G1 X175.722 Y159.205 E0.00315
;WIDTH:0.402847
G1 X175.815 Y159.166 E0.00356
;WIDTH:0.443309
G1 X175.909 Y159.127 E0.00397
;WIDTH:0.477286
G1 X176.08 Y159.033 E0.00829
;WIDTH:0.556568
G1 X176.199 Y158.963 E0.00693
;WIDTH:0.506072
G1 X176.347 Y158.997 E0.00689
;WIDTH:0.30174
G1 X176.532 Y159.04 E0.00474
;WIDTH:0.210925
G1 X176.658 Y159.069 E0.00206
G1 E-1 F3000
G1 X157.916 Y166.946 F9000
G1 E1 F1800
;TYPE:Internal perimeter
;WIDTH:0.48
G1 F600
G1 X176.181 Y167.091 E0.78098
G1 X176.206 Y167.314 E0.00959
G1 X176.2 Y167.513 E0.00852
G1 X176.177 Y167.636 E0.00536
G1 X176.131 Y167.764 E0.00581
G1 X175.98 Y168.088 E0.01527
G1 X175.898 Y168.336 E0.01119
G1 X175.851 Y168.589 E0.01099
G1 X175.845 Y168.831 E0.01036
G1 X175.872 Y169.023 E0.0083
G1 X175.923 Y169.192 E0.00755
G1 X175.997 Y169.346 E0.00728
G1 X176.098 Y169.489 E0.00748
G1 X176.237 Y169.633 E0.00859
G1 X176.42 Y169.77 E0.00977
G1 X176.503 Y169.822 E0.0042
G1 X177.039 Y170.121 E0.0262
G1 X177.25 Y170.282 E0.01137
G1 X177.884 Y170.878 E0.03718
G1 X154.167 Y170.642 E1.01407
G1 X153.974 Y170.624 E0.0083
G1 X153.793 Y170.578 E0.00799
G1 X153.581 Y170.49 E0.00979
G1 X153.372 Y170.359 E0.01056
G1 X153.192 Y170.201 E0.01022
G1 X153.019 Y169.99 E0.01167
G1 X152.874 Y169.742 E0.01229
G1 X152.752 Y169.433 E0.0142
G1 X152.671 Y169.084 E0.01533
G1 X152.641 Y168.731 E0.01514
G1 X152.664 Y168.354 E0.01616
G1 X152.742 Y167.999 E0.01553
G1 X152.869 Y167.685 E0.01451
G1 X152.997 Y167.474 E0.01055
G1 X153.15 Y167.296 E0.01002
G1 X153.325 Y167.152 E0.00966
G1 X153.513 Y167.045 E0.00928
G1 X153.72 Y166.969 E0.00944
G1 X153.959 Y166.925 E0.01037
G1 X154.146 Y166.916 E0.00799
G1 X157.856 Y166.945 E0.15863
G1 X157.859 Y166.517 F9000
;TYPE:External perimeter
G1 F600
G1 X176.529 Y166.665 E0.79827
G1 X176.595 Y166.931 E0.01171
