; generated by SuperSlicer 2.3.57 on 2022-02-08 at 23:02:41 UTC


;
;

;
;
; 

; external perimeters extrusion width = 0.40mm
; perimeters extrusion width = 0.40mm
; infill extrusion width = 0.72mm
; solid infill extrusion width = 0.40mm
; top infill extrusion width = 0.40mm
; first layer extrusion width = 0.48mm


;TYPE:Custom
START_PRINT T_BED=60 T_EXTRUDER=200
M107
G21 ; set units to millimeters
G90 ; use absolute coordinates
M83 ; use relative distances for extrusion
; Filament gcode
M104 S200 ; set temperature
M109 S200 ; set temperature and wait for it to be reached
M190 S60 ; set bed temperature and wait for it to be reached
;LAYER_CHANGE
;Z:0.24
;HEIGHT:0.24
G1 Z0.24 F9000
G1 E-0.6 F3000
G1 X134.427 Y130.353 F9000
G1 E0.6 F1800
;TYPE:Skirt
;WIDTH:0.48
G1 F600
G1 X133.699 Y131.11 E0.04488
G1 X133.093 Y131.893 E0.04235
G1 X132.394 Y133.052 E0.05784
G1 X131.98 Y133.958 E0.04261
G1 X131.649 Y134.916 E0.04334
G1 X131.347 Y136.218 E0.05715
G1 X131.219 Y137.277 E0.04559
G1 X131.192 Y138.208 E0.03981
G1 X131.654 Y152.562 E0.61402
G1 X131.864 Y153.71 E0.04994
G1 X132.306 Y155.113 E0.06288
G1 X132.774 Y156.122 E0.04755
G1 X133.505 Y157.284 E0.05869
G1 X134.168 Y158.086 E0.04449
G1 X134.842 Y158.737 E0.04005
G1 X135.617 Y159.334 E0.04187
G1 X136.354 Y159.781 E0.03683
G1 X137.841 Y160.4 E0.06888
G1 X138.678 Y160.609 E0.03686
G1 X139.707 Y160.736 E0.04433
G1 X164.443 Y161.556 E1.0582
G1 X176.564 Y161.07 E0.51867
G1 X177.645 Y160.845 E0.04719
G1 X178.582 Y160.519 E0.04242
G1 X179.512 Y160.063 E0.04431
G1 X180.302 Y159.553 E0.0402
G1 X181.668 Y158.333 E0.07831
G1 X182.714 Y156.962 E0.0737
G1 X183.529 Y155.385 E0.07592
G1 X184.06 Y153.736 E0.07406
G1 X184.298 Y152.311 E0.06176
G1 X186.084 Y136.646 E0.6741
G1 X186.106 Y134.738 E0.08161
G1 X185.866 Y133.124 E0.06978
G1 X185.328 Y131.431 E0.07594
G1 X184.542 Y129.921 E0.07277
G1 X183.401 Y128.473 E0.07881
G1 X182.046 Y127.332 E0.07574
G1 X180.518 Y126.518 E0.07405
G1 X179.067 Y126.081 E0.06476
G1 X177.412 Y125.929 E0.07109
G1 X152.008 Y126.845 E1.08687
G1 X138.759 Y128.182 E0.56933
G1 X137.779 Y128.413 E0.04304
G1 X136.884 Y128.741 E0.04075
G1 X135.999 Y129.188 E0.04239
G1 X135.245 Y129.681 E0.03853
G1 X134.473 Y130.315 E0.04271
G1 X134.743 Y130.646 F9000
G1 F600
G1 X134.033 Y131.378 E0.04361
G1 X133.452 Y132.127 E0.04051
G1 X132.777 Y133.245 E0.05585
G1 X132.06 Y135.036 E0.08245
G1 X131.769 Y136.293 E0.0552
G1 X131.647 Y137.306 E0.04361
G1 X131.62 Y138.195 E0.03805
G1 X132.078 Y152.499 E0.61188
G1 X132.278 Y153.597 E0.04771
G1 X132.699 Y154.942 E0.06023
G1 X133.143 Y155.903 E0.04529
G1 X133.83 Y157.002 E0.05539
G1 X134.473 Y157.785 E0.04335
G1 X135.112 Y158.404 E0.03805
G1 X135.852 Y158.976 E0.03997
G1 X136.548 Y159.399 E0.03482
G1 X137.953 Y159.986 E0.0651
G1 X138.752 Y160.187 E0.03525
G1 X139.73 Y160.308 E0.04212
G1 X164.418 Y161.128 E1.05613
G1 X176.489 Y160.648 E0.51652
G1 X177.526 Y160.434 E0.04525
G1 X178.404 Y160.129 E0.03975
G1 X179.289 Y159.697 E0.04212
G1 X180.023 Y159.226 E0.03727
G1 X181.345 Y158.051 E0.07563
G1 X182.353 Y156.732 E0.07097
G1 X183.136 Y155.213 E0.07305
G1 X183.645 Y153.629 E0.07116
G1 X183.872 Y152.262 E0.05924
G1 X185.658 Y136.601 E0.67391
G1 X185.682 Y134.805 E0.0768
G1 X185.453 Y133.237 E0.06775
G1 X184.942 Y131.619 E0.07257
G1 X184.189 Y130.164 E0.07004
G1 X183.108 Y128.786 E0.07486
G1 X181.811 Y127.691 E0.07258
G1 X180.357 Y126.915 E0.07047
G1 X178.983 Y126.501 E0.06135
G1 X177.407 Y126.357 E0.06766
G1 X152.053 Y127.271 E1.08473
G1 X138.85 Y128.601 E0.56735
G1 X137.911 Y128.821 E0.04126
G1 X137.062 Y129.131 E0.03864
G1 X136.221 Y129.555 E0.04029
G1 X135.525 Y130.007 E0.03544
G1 X134.789 Y130.608 E0.04063
G1 E-0.6 F3000
G1 X151.724 Y149.032 F9000
G1 E0.6 F1800
;TYPE:Internal perimeter
G1 F600
G1 X151.519 Y149.236 E0.01238
G1 X151.345 Y149.476 E0.01266
G1 X151.205 Y149.739 E0.01275
G1 X151.094 Y150.02 E0.01292
G1 X151.012 Y150.316 E0.01311
G1 X150.959 Y150.621 E0.01326
G1 X150.933 Y150.932 E0.01334
G1 X150.936 Y151.244 E0.01333
G1 X150.967 Y151.552 E0.01323
G1 X151.027 Y151.851 E0.01306
G1 X151.118 Y152.139 E0.01287
G1 X151.241 Y152.409 E0.01272
G1 X151.4 Y152.658 E0.01261
G1 X151.587 Y152.865 E0.01194
G1 X151.782 Y153.017 E0.01058
G1 X151.981 Y153.123 E0.00964
G1 X152.184 Y153.188 E0.0091
G1 X152.374 Y153.214 E0.00821
G1 X152.505 Y153.215 E0.00562
G1 X152.698 Y153.191 E0.0083
G1 X152.906 Y153.126 E0.00932
G1 X153.115 Y153.018 E0.01004
G1 X153.323 Y152.859 E0.0112
G1 X153.522 Y152.644 E0.01254
G1 X153.688 Y152.398 E0.01268
G1 X153.821 Y152.13 E0.01278
G1 X153.924 Y151.845 E0.01297
G1 X153.999 Y151.547 E0.01315
G1 X154.046 Y151.239 E0.01329
G1 X154.065 Y150.928 E0.01335
G1 X154.055 Y150.616 E0.01332
G1 X154.017 Y150.31 E0.01319
G1 X153.949 Y150.013 E0.01302
G1 X153.851 Y149.73 E0.01283
G1 X153.719 Y149.464 E0.01269
G1 X153.551 Y149.223 E0.01257
G1 X153.362 Y149.029 E0.01156
G1 X153.166 Y148.889 E0.0103
G1 X152.966 Y148.794 E0.00947
G1 X152.763 Y148.738 E0.00901
G1 X152.557 Y148.719 E0.00883
G1 X152.35 Y148.736 E0.00889
G1 X152.142 Y148.79 E0.0092
G1 X151.933 Y148.887 E0.00982
G1 X151.773 Y148.998 E0.00832
G1 E-0.6 F3000
G1 X151.856 Y152.523 F9000
G1 E0.6 F1800
;TYPE:External perimeter
G1 F600
G1 X151.88 Y152.551 E0.00157
G1 X152.016 Y152.656 E0.00736
G1 X152.149 Y152.727 E0.00642
G1 X152.279 Y152.769 E0.00588
G1 X152.404 Y152.786 E0.0054
G1 X152.48 Y152.786 E0.00321
G1 X152.607 Y152.77 E0.00549
G1 X152.743 Y152.728 E0.0061
G1 X152.885 Y152.655 E0.00682
G1 X153.034 Y152.541 E0.00801
G1 X153.185 Y152.377 E0.00954
G1 X153.317 Y152.182 E0.01006
G1 X153.426 Y151.961 E0.01054
G1 X153.514 Y151.72 E0.01099
G1 X153.579 Y151.462 E0.01135
G1 X153.619 Y151.194 E0.01159
G1 X153.636 Y150.921 E0.01168
G1 X153.627 Y150.65 E0.01163
G1 X153.594 Y150.384 E0.01142
G1 X153.537 Y150.132 E0.01109
G1 X153.455 Y149.896 E0.01066
G1 X153.349 Y149.682 E0.01018
G1 X153.22 Y149.497 E0.00967
G1 X153.082 Y149.356 E0.00841
G1 X152.948 Y149.26 E0.00708
G1 X152.816 Y149.197 E0.00625
G1 X152.685 Y149.161 E0.00579
G1 X152.554 Y149.149 E0.00561
G1 X152.422 Y149.16 E0.00567
G1 X152.287 Y149.195 E0.00598
G1 X152.147 Y149.26 E0.0066
G1 X152 Y149.362 E0.00766
G1 X151.846 Y149.516 E0.0093
G1 X151.709 Y149.704 E0.00994
G1 X151.594 Y149.919 E0.01043
G1 X151.501 Y150.156 E0.01089
G1 X151.431 Y150.41 E0.01127
G1 X151.384 Y150.676 E0.01154
G1 X151.362 Y150.948 E0.01167
G1 X151.364 Y151.221 E0.01165
G1 X151.391 Y151.488 E0.01149
G1 X151.443 Y151.744 E0.01118
G1 X151.519 Y151.985 E0.01077
G1 X151.619 Y152.204 E0.0103
G1 X151.742 Y152.397 E0.0098
G1 X151.816 Y152.479 E0.00469
;WIPE_START
G1 X151.844 Y152.558 F9000
;WIPE_END
G1 E-0.6 F3000
G1 X150.992 Y153.799 F9000
G1 E0.6 F1800
;TYPE:Internal perimeter
G1 F600
G1 X150.817 Y153.594 E0.01156
G1 X150.651 Y153.356 E0.01239
G1 X150.502 Y153.092 E0.01297
G1 X150.372 Y152.804 E0.01351
G1 X150.263 Y152.495 E0.014
G1 X150.176 Y152.169 E0.01442
G1 X150.115 Y151.829 E0.01477
G1 X150.078 Y151.479 E0.01504
G1 X150.068 Y151.123 E0.01522
G1 X150.084 Y150.765 E0.01531
G1 X150.126 Y150.41 E0.01531
G1 X150.194 Y150.061 E0.01521
G1 X150.286 Y149.722 E0.01503
G1 X150.402 Y149.397 E0.01475
G1 X150.54 Y149.089 E0.0144
G1 X150.698 Y148.803 E0.01397
G1 X150.873 Y148.541 E0.01348
G1 X151.062 Y148.305 E0.01293
G1 X151.264 Y148.098 E0.01235
G1 X151.474 Y147.922 E0.01175
G1 X151.691 Y147.776 E0.01115
G1 X151.911 Y147.662 E0.01059
G1 X152.131 Y147.579 E0.01009
G1 X152.351 Y147.525 E0.00968
G1 X152.57 Y147.501 E0.00939
G1 X152.786 Y147.506 E0.00925
G1 X153 Y147.539 E0.00926
G1 X153.212 Y147.601 E0.00942
G1 X153.42 Y147.692 E0.00973
G1 X153.624 Y147.813 E0.01015
G1 X153.822 Y147.964 E0.01066
G1 X154.012 Y148.146 E0.01123
G1 X154.19 Y148.357 E0.01182
G1 X154.355 Y148.597 E0.01242
G1 X154.503 Y148.862 E0.013
G1 X154.632 Y149.152 E0.01354
G1 X154.74 Y149.461 E0.01403
G1 X154.824 Y149.789 E0.01445
G1 X154.884 Y150.129 E0.01479
G1 X154.919 Y150.48 E0.01506
G1 X154.928 Y150.836 E0.01523
G1 X154.91 Y151.194 E0.01531
G1 X154.866 Y151.549 E0.0153
G1 X154.797 Y151.898 E0.0152
G1 X154.703 Y152.236 E0.01501
G1 X154.585 Y152.56 E0.01473
G1 X154.446 Y152.866 E0.01437
G1 X154.288 Y153.151 E0.01394
G1 X154.112 Y153.411 E0.01344
G1 X153.921 Y153.645 E0.01289
G1 X153.719 Y153.85 E0.01231
G1 X153.508 Y154.025 E0.01171
G1 X153.291 Y154.168 E0.01112
G1 X153.071 Y154.281 E0.01056
G1 X152.851 Y154.362 E0.01006
G1 X152.631 Y154.413 E0.00966
G1 X152.41 Y154.436 E0.0095
G1 X152.226 Y154.432 E0.00783
G1 X152.01 Y154.4 E0.00937
G1 X151.798 Y154.34 E0.00941
G1 X151.589 Y154.251 E0.0097
G1 X151.385 Y154.132 E0.01012
G1 X151.186 Y153.983 E0.01062
G1 X151.036 Y153.841 E0.00885
G1 X150.741 Y154.152 F9000
;TYPE:External perimeter
G1 F600
G1 X150.685 Y154.099 E0.00331
G1 X150.477 Y153.856 E0.01367
G1 X150.288 Y153.584 E0.01416
G1 X150.119 Y153.286 E0.01465
G1 X149.974 Y152.964 E0.01511
G1 X149.853 Y152.621 E0.01552
G1 X149.758 Y152.262 E0.01589
G1 X149.69 Y151.89 E0.01619
G1 X149.65 Y151.508 E0.01642
G1 X149.639 Y151.12 E0.01658
G1 X149.657 Y150.731 E0.01666
G1 X149.702 Y150.344 E0.01666
G1 X149.776 Y149.963 E0.01657
G1 X149.877 Y149.593 E0.01641
G1 X150.005 Y149.237 E0.01617
G1 X150.156 Y148.898 E0.01587
G1 X150.331 Y148.58 E0.0155
G1 X150.527 Y148.287 E0.01508
G1 X150.741 Y148.021 E0.01462
G1 X150.972 Y147.784 E0.01413
G1 X151.216 Y147.579 E0.01364
G1 X151.472 Y147.407 E0.01316
G1 X151.735 Y147.27 E0.01271
G1 X152.005 Y147.168 E0.01231
G1 X152.277 Y147.102 E0.01199
G1 X152.551 Y147.072 E0.01177
G1 X152.823 Y147.078 E0.01166
G1 X153.093 Y147.12 E0.01166
G1 X153.358 Y147.197 E0.01179
G1 X153.616 Y147.31 E0.01203
G1 X153.864 Y147.457 E0.01236
G1 X154.102 Y147.638 E0.01276
G1 X154.325 Y147.852 E0.01322
G1 X154.532 Y148.097 E0.0137
G1 X154.72 Y148.37 E0.0142
G1 X154.887 Y148.67 E0.01468
G1 X155.031 Y148.994 E0.01513
G1 X155.15 Y149.337 E0.01555
G1 X155.243 Y149.697 E0.01591
G1 X155.309 Y150.071 E0.01621
G1 X155.347 Y150.453 E0.01644
G1 X155.357 Y150.841 E0.01659
G1 X155.337 Y151.23 E0.01666
G1 X155.29 Y151.617 E0.01665
G1 X155.214 Y151.997 E0.01657
G1 X155.111 Y152.366 E0.0164
G1 X154.982 Y152.722 E0.01616
G1 X154.829 Y153.059 E0.01584
G1 X154.653 Y153.375 E0.01547
G1 X154.456 Y153.667 E0.01505
G1 X154.24 Y153.931 E0.01459
G1 X154.009 Y154.166 E0.0141
G1 X153.764 Y154.369 E0.01361
G1 X153.508 Y154.539 E0.01313
G1 X153.244 Y154.674 E0.01268
G1 X152.974 Y154.773 E0.01229
G1 X152.701 Y154.837 E0.01197
G1 X152.427 Y154.865 E0.0118
G1 X152.191 Y154.86 E0.01009
G1 X151.92 Y154.82 E0.0117
G1 X151.655 Y154.745 E0.01178
G1 X151.396 Y154.635 E0.01201
G1 X151.147 Y154.49 E0.01233
G1 X150.909 Y154.311 E0.01273
G1 X150.785 Y154.193 E0.00731
;WIPE_START
G1 X150.759 Y154.077 F9000
;WIPE_END
G1 X151.379 Y153.4
;TYPE:Gap fill
;WIDTH:0.767741
G1 F600
G1 X151.453 Y153.468 E0.00719
G1 X151.556 Y153.545 E0.00919
;WIDTH:0.817587
G1 X151.722 Y153.65 E0.01502
;WIDTH:0.843233
G1 X151.859 Y153.714 E0.01195
G1 X152.014 Y153.771 E0.01308
;WIDTH:0.875857
G1 X152.138 Y153.8 E0.01042
G1 X152.304 Y153.822 E0.01378
G1 X152.385 Y153.825 E0.0067
G1 X152.568 Y153.812 E0.01505
G1 X152.679 Y153.792 E0.00934
;WIDTH:0.827182
G1 X152.852 Y153.746 E0.01384
;WIDTH:0.795292
G1 X153.007 Y153.683 E0.01244
;WIDTH:0.76127
G1 X153.14 Y153.617 E0.01048
G1 X153.185 Y153.59 E0.00373
G1 X153.276 Y153.53 E0.00772
;WIDTH:0.690326
G1 X153.411 Y153.435 E0.0105
;WIDTH:0.666283
G1 X153.55 Y153.312 E0.01137
;WIDTH:0.635094
G1 X153.665 Y153.198 E0.0094
G1 X153.728 Y153.126 E0.00559
G1 X153.799 Y153.036 E0.00671
;WIDTH:0.57808
G1 X153.896 Y152.91 E0.00834
G1 X153.972 Y152.787 E0.00758
;WIDTH:0.550818
G1 X154.063 Y152.635 E0.00886
G1 X154.078 Y152.606 E0.0016
G1 X154.129 Y152.5 E0.00585
G1 X154.179 Y152.394 E0.00585
G1 X154.224 Y152.288 E0.00573
;WIDTH:0.522803
G1 X154.291 Y152.104 E0.00921
G1 X154.336 Y151.959 E0.00716
G1 X154.379 Y151.798 E0.00783
;WIDTH:0.512203
G1 X154.418 Y151.62 E0.00838
G1 X154.443 Y151.481 E0.0065
G1 X154.468 Y151.295 E0.00863
G1 X154.482 Y151.157 E0.00637
G1 X154.487 Y151.051 E0.00488
G1 X154.494 Y150.923 E0.00585
G1 X154.495 Y150.83 E0.00428
G1 X154.491 Y150.712 E0.00544
G1 X154.487 Y150.572 E0.00646
G1 X154.482 Y150.507 E0.003
G1 X154.468 Y150.376 E0.00603
;WIDTH:0.540161
G1 X154.445 Y150.19 E0.00915
G1 X154.416 Y150.046 E0.00714
G1 X154.38 Y149.875 E0.00851
G1 X154.338 Y149.736 E0.00712
;WIDTH:0.585313
G1 X154.285 Y149.566 E0.00945
G1 X154.273 Y149.535 E0.00179
G1 X154.23 Y149.431 E0.00598
;WIDTH:0.615449
G1 X154.186 Y149.328 E0.00632
G1 X154.124 Y149.2 E0.00799
G1 X154.059 Y149.084 E0.00749
;WIDTH:0.658925
G1 X153.957 Y148.92 E0.01169
G1 X153.919 Y148.867 E0.00398
G1 X153.843 Y148.774 E0.0073
;WIDTH:0.724127
G1 X153.732 Y148.643 E0.01152
G1 X153.608 Y148.525 E0.01145
;WIDTH:0.776402
G1 X153.48 Y148.419 E0.01201
G1 X153.427 Y148.381 E0.00473
;WIDTH:0.816309
G1 X153.295 Y148.3 E0.01181
;WIDTH:0.841654
G1 X153.141 Y148.222 E0.01359
G1 X153.004 Y148.174 E0.01151
;WIDTH:0.877064
G1 X152.837 Y148.132 E0.01417
G1 X152.732 Y148.119 E0.00869
G1 X152.597 Y148.111 E0.0112
G1 X152.456 Y148.121 E0.01163
;WIDTH:0.851796
G1 X152.285 Y148.15 E0.01387
;WIDTH:0.823686
G1 X152.147 Y148.191 E0.01104
;WIDTH:0.794273
G1 X151.976 Y148.257 E0.01358
;WIDTH:0.767346
G1 X151.926 Y148.282 E0.00401
G1 X151.799 Y148.354 E0.01039
;WIDTH:0.714954
G1 X151.651 Y148.451 E0.01174
G1 X151.616 Y148.478 E0.00292
G1 X151.524 Y148.556 E0.00796
;WIDTH:0.6443
G1 X151.392 Y148.674 E0.0105
G1 X151.325 Y148.749 E0.00594
;WIDTH:0.611942
G1 X151.258 Y148.823 E0.00562
G1 X151.154 Y148.952 E0.00925
;WIDTH:0.580328
G1 X151.092 Y149.042 E0.00578
G1 X151.034 Y149.133 E0.0057
;WIDTH:0.551028
G1 X150.94 Y149.288 E0.00903
G1 X150.877 Y149.416 E0.00708
G1 X150.803 Y149.569 E0.00847
G1 X150.751 Y149.71 E0.00751
;WIDTH:0.519089
G1 X150.684 Y149.896 E0.00922
G1 X150.648 Y150.027 E0.00634
G1 X150.599 Y150.211 E0.00888
G1 X150.595 Y150.233 E0.00103
G1 X150.55 Y150.476 E0.01155
G1 X150.535 Y150.577 E0.00477
G1 X150.524 Y150.689 E0.00523
G1 X150.513 Y150.8 E0.00523
G1 X150.505 Y150.927 E0.00591
G1 X150.502 Y151.127 E0.00932
G1 X150.505 Y151.279 E0.00709
G1 X150.516 Y151.45 E0.00801
G1 X150.535 Y151.629 E0.00841
G1 X150.556 Y151.766 E0.00646
;WIDTH:0.550273
G1 X150.591 Y151.95 E0.00933
G1 X150.62 Y152.07 E0.00614
G1 X150.652 Y152.179 E0.00565
;WIDTH:0.578988
G1 X150.707 Y152.358 E0.00985
G1 X150.76 Y152.489 E0.00742
;WIDTH:0.612848
G1 X150.83 Y152.655 E0.01013
G1 X150.888 Y152.761 E0.00674
;WIDTH:0.650331
G1 X150.945 Y152.867 E0.00719
G1 X151.016 Y152.982 E0.00806
;WIDTH:0.675273
G1 X151.088 Y153.081 E0.00764
;WIDTH:0.70063
G1 X151.207 Y153.231 E0.01238
G1 X151.246 Y153.275 E0.0038
G1 X151.322 Y153.348 E0.00682
G1 E-0.6 F3000
G1 X162.791 Y152.186 F9000
G1 E0.6 F1800
;TYPE:Internal perimeter
;WIDTH:0.48
G1 F600
G1 X162.809 Y152.363 E0.00759
G1 X162.869 Y152.662 E0.01306
G1 X162.96 Y152.949 E0.01287
G1 X163.083 Y153.22 E0.01272
G1 X163.242 Y153.468 E0.01261
G1 X163.429 Y153.676 E0.01194
G1 X163.624 Y153.828 E0.01058
G1 X163.823 Y153.934 E0.00964
G1 X164.025 Y153.999 E0.0091
G1 X164.216 Y154.025 E0.00821
G1 X164.347 Y154.026 E0.00562
G1 X164.54 Y154.001 E0.0083
G1 X164.748 Y153.937 E0.00932
G1 X164.957 Y153.829 E0.01004
G1 X165.165 Y153.67 E0.0112
G1 X165.364 Y153.455 E0.01254
G1 X165.529 Y153.209 E0.01268
G1 X165.663 Y152.941 E0.01278
G1 X165.766 Y152.656 E0.01297
G1 X165.841 Y152.357 E0.01315
G1 X165.888 Y152.05 E0.01329
G1 X165.906 Y151.738 E0.01335
G1 X165.897 Y151.427 E0.01332
G1 X165.858 Y151.121 E0.01319
G1 X165.791 Y150.824 E0.01302
G1 X165.693 Y150.541 E0.01283
G1 X165.561 Y150.275 E0.01269
G1 X165.393 Y150.033 E0.01257
G1 X165.204 Y149.84 E0.01156
G1 X165.008 Y149.7 E0.0103
G1 X164.807 Y149.605 E0.00947
G1 X164.604 Y149.549 E0.00901
G1 X164.399 Y149.529 E0.00883
G1 X164.191 Y149.546 E0.00889
G1 X163.983 Y149.601 E0.0092
G1 X163.775 Y149.697 E0.00982
G1 X163.566 Y149.843 E0.01088
G1 X163.361 Y150.047 E0.01238
G1 X163.187 Y150.287 E0.01266
G1 X163.046 Y150.55 E0.01275
G1 X162.936 Y150.831 E0.01292
G1 X162.854 Y151.126 E0.01311
G1 X162.8 Y151.432 E0.01326
G1 X162.775 Y151.743 E0.01334
G1 X162.777 Y152.055 E0.01333
G1 X162.785 Y152.126 E0.00308
G1 E-0.6 F3000
