; generated by SuperSlicer 2.3.57 on 2022-02-06 at 02:51:40 UTC


;
;

;
;
; 

; external perimeters extrusion width = 0.20mm
; perimeters extrusion width = 0.23mm
; infill extrusion width = 0.36mm
; solid infill extrusion width = 0.28mm
; top infill extrusion width = 0.20mm
; first layer extrusion width = 0.24mm

; external perimeters extrusion width = 0.20mm
; perimeters extrusion width = 0.23mm
; infill extrusion width = 0.36mm
; solid infill extrusion width = 0.28mm
; top infill extrusion width = 0.20mm
; first layer extrusion width = 0.24mm

; external perimeters extrusion width = 0.20mm
; perimeters extrusion width = 0.23mm
; infill extrusion width = 0.36mm
; solid infill extrusion width = 0.28mm
; top infill extrusion width = 0.20mm
; first layer extrusion width = 0.24mm

; external perimeters extrusion width = 0.20mm
; perimeters extrusion width = 0.23mm
; infill extrusion width = 0.36mm
; solid infill extrusion width = 0.28mm
; top infill extrusion width = 0.20mm
; first layer extrusion width = 0.24mm

; external perimeters extrusion width = 0.20mm
; perimeters extrusion width = 0.23mm
; infill extrusion width = 0.36mm
; solid infill extrusion width = 0.28mm
; top infill extrusion width = 0.20mm
; first layer extrusion width = 0.24mm

; object:{"name":"Part3-red2x","id":"Part3-red2x.STL id:0 copy 0","object_center":[152.499956,140.363771,0.000000],"boundingbox_center":[152.499956,140.363771,0.600000],"boundingbox_size":[27.796190,5.510006,1.200000]}
; object:{"name":"Part4-red","id":"Part4-red.STL id:1 copy 0","object_center":[152.372695,156.340437,0.000000],"boundingbox_center":[152.372695,156.340437,0.600000],"boundingbox_size":[12.105349,12.101335,1.200000]}
; object:{"name":"Part3-red2x","id":"Part3-red2x.STL id:2 copy 0","object_center":[152.499956,146.671319,0.000000],"boundingbox_center":[152.499956,146.671319,0.600000],"boundingbox_size":[27.796190,5.510006,1.200000]}
; plater:{"center":[152.499956,149.999936,0.000000],"boundingbox_center":[152.499956,149.999936,0.600000],"boundingbox_size":[27.796190,24.782336,1.200000]}

;TYPE:Custom
START_PRINT T_BED=70 T_EXTRUDER=230
M107
G21 ; set units to millimeters
G90 ; use absolute coordinates
M83 ; use relative distances for extrusion
; Filament gcode
M104 S230 ; set temperature
M109 S230 ; set temperature and wait for it to be reached
M190 S70 ; set bed temperature and wait for it to be reached
;LAYER_CHANGE
;Z:0.14
;HEIGHT:0.14
G1 Z0.14 F7200
G1 E-1.2 F3000
G1 X134.837 Y134.319 F7200
G1 E1.2 F1800
;TYPE:Skirt
;WIDTH:0.24
G1 X134.12 Y135.237 E0.01423
G1 X133.708 Y135.918 E0.00973
G1 X133.44 Y136.47 E0.00749
G1 X133.151 Y137.194 E0.00953
G1 X132.99 Y137.71 E0.0066
G1 X132.789 Y138.613 E0.01131
G1 X132.706 Y139.245 E0.00779
G1 X132.658 Y140.154 E0.01112
G1 X132.658 Y146.514 E0.07773
G1 X132.727 Y147.57 E0.01292
G1 X132.835 Y148.247 E0.00838
G1 X133.085 Y149.24 E0.01251
G1 X133.47 Y150.238 E0.01308
G1 X133.748 Y150.792 E0.00757
G1 X134.249 Y151.61 E0.01172
G1 X142.678 Y163.406 E0.17718
G1 X143.346 Y164.243 E0.01309
G1 X144.041 Y164.969 E0.01228
G1 X145.247 Y165.991 E0.01932
G1 X146.43 Y166.759 E0.01724
G1 X147.288 Y167.207 E0.01183
G1 X148.177 Y167.576 E0.01176
G1 X149.56 Y168.003 E0.01769
G1 X150.9 Y168.246 E0.01665
G1 X152.333 Y168.334 E0.01754
G1 X153.3 Y168.301 E0.01183
G1 X154.273 Y168.183 E0.01198
G1 X155.704 Y167.866 E0.01791
G1 X157.045 Y167.389 E0.01739
G1 X158.06 Y166.903 E0.01376
G1 X159.126 Y166.256 E0.01524
G1 X160.092 Y165.524 E0.0148
G1 X161.041 Y164.633 E0.01591
G1 X170.817 Y153.058 E0.18516
G1 X171.194 Y152.551 E0.00772
G1 X171.579 Y151.913 E0.00911
G1 X171.894 Y151.229 E0.0092
G1 X172.139 Y150.464 E0.00983
G1 X172.276 Y149.755 E0.00883
G1 X172.341 Y148.934 E0.01006
G1 X172.331 Y142.149 E0.08291
G1 X172.269 Y141.57 E0.00712
G1 X172.145 Y140.967 E0.00752
G1 X171.804 Y139.955 E0.01305
G1 X169.679 Y135.268 E0.06289
G1 X169.391 Y134.741 E0.00735
G1 X169.052 Y134.244 E0.00735
G1 X168.388 Y133.503 E0.01216
G1 X167.617 Y132.885 E0.01209
G1 X166.754 Y132.4 E0.01209
G1 X165.825 Y132.063 E0.01209
G1 X165.088 Y131.91 E0.0092
G1 X164.331 Y131.851 E0.00927
G1 X141.356 Y131.668 E0.28078
G1 X140.002 Y131.706 E0.01655
G1 X138.782 Y131.923 E0.01514
G1 X137.563 Y132.345 E0.01576
G1 X136.538 Y132.888 E0.01418
G1 X136.059 Y133.21 E0.00705
G1 X135.52 Y133.646 E0.00848
G1 X134.859 Y134.298 E0.01135
G1 X135.006 Y134.448 F7200
G1 F1800
G1 X134.988 Y134.465 E0.00031
G1 X134.287 Y135.364 E0.01392
G1 X133.886 Y136.03 E0.0095
G1 X133.622 Y136.578 E0.00743
G1 X133.191 Y137.771 E0.01551
G1 X132.994 Y138.657 E0.01109
G1 X132.914 Y139.272 E0.00758
G1 X132.868 Y140.16 E0.01087
G1 X132.868 Y146.523 E0.07776
G1 X132.937 Y147.553 E0.01261
G1 X133.042 Y148.207 E0.00809
G1 X133.287 Y149.18 E0.01227
G1 X133.67 Y150.17 E0.01297
G1 X133.936 Y150.697 E0.00722
G1 X134.424 Y151.493 E0.01141
G1 X142.848 Y163.283 E0.17707
G1 X143.505 Y164.105 E0.01286
G1 X144.187 Y164.818 E0.01206
G1 X145.357 Y165.812 E0.01876
G1 X146.53 Y166.574 E0.01709
G1 X147.373 Y167.014 E0.01162
G1 X148.251 Y167.38 E0.01162
G1 X149.609 Y167.799 E0.01738
G1 X150.921 Y168.037 E0.01629
G1 X152.328 Y168.124 E0.01723
G1 X153.284 Y168.092 E0.0117
G1 X154.246 Y167.975 E0.01184
G1 X155.646 Y167.664 E0.01752
G1 X156.974 Y167.191 E0.01723
G1 X157.961 Y166.718 E0.01337
G1 X159.009 Y166.082 E0.01498
G1 X159.957 Y165.363 E0.01454
G1 X160.89 Y164.488 E0.01563
G1 X170.654 Y152.926 E0.18494
G1 X171.017 Y152.438 E0.00743
G1 X171.391 Y151.819 E0.00884
G1 X171.696 Y151.159 E0.00889
G1 X171.936 Y150.41 E0.00961
G1 X172.068 Y149.725 E0.00853
G1 X172.131 Y148.926 E0.00979
G1 X172.122 Y142.167 E0.08259
G1 X172.06 Y141.598 E0.007
G1 X171.94 Y141.012 E0.00731
G1 X171.605 Y140.025 E0.01274
G1 X169.493 Y135.367 E0.06249
G1 X169.217 Y134.859 E0.00707
G1 X168.892 Y134.38 E0.00707
G1 X168.253 Y133.664 E0.01173
G1 X167.5 Y133.059 E0.0118
G1 X166.658 Y132.587 E0.0118
G1 X165.749 Y132.26 E0.0118
G1 X165.048 Y132.117 E0.00875
G1 X164.329 Y132.061 E0.00882
G1 X141.351 Y131.878 E0.28081
G1 X140.026 Y131.914 E0.0162
G1 X138.827 Y132.128 E0.01489
G1 X137.64 Y132.54 E0.01534
G1 X136.639 Y133.072 E0.01386
G1 X136.179 Y133.383 E0.00678
G1 X135.649 Y133.811 E0.00833
G1 X135.028 Y134.427 E0.01069
G1 X135.191 Y134.581 F7200
G1 F1800
G1 X134.917 Y134.87 E0.00487
G1 X134.393 Y135.589 E0.01087
G1 X134.051 Y136.166 E0.0082
G1 X133.809 Y136.674 E0.00687
G1 X133.392 Y137.831 E0.01504
G1 X133.2 Y138.7 E0.01087
G1 X133.123 Y139.298 E0.00737
G1 X133.078 Y140.161 E0.01056
G1 X133.078 Y146.526 E0.07778
G1 X133.146 Y147.536 E0.01237
G1 X133.249 Y148.172 E0.00787
G1 X133.49 Y149.126 E0.01203
G1 X133.867 Y150.096 E0.01271
G1 X134.121 Y150.597 E0.00687
G1 X134.595 Y151.372 E0.0111
G1 X143.015 Y163.155 E0.17697
G1 X143.663 Y163.967 E0.01271
G1 X144.334 Y164.667 E0.01185
G1 X145.473 Y165.637 E0.01828
G1 X146.629 Y166.389 E0.01685
G1 X147.462 Y166.824 E0.01149
G1 X148.325 Y167.183 E0.01142
G1 X149.659 Y167.595 E0.01707
G1 X150.947 Y167.829 E0.016
G1 X152.329 Y167.914 E0.01692
G1 X153.269 Y167.883 E0.01149
G1 X154.225 Y167.766 E0.01178
G1 X155.594 Y167.46 E0.01714
G1 X156.904 Y166.992 E0.017
G1 X157.867 Y166.53 E0.01306
G1 X158.896 Y165.905 E0.01471
G1 X159.827 Y165.198 E0.01428
G1 X160.742 Y164.338 E0.01535
G1 X170.491 Y152.794 E0.18464
G1 X170.844 Y152.32 E0.00723
G1 X171.206 Y151.72 E0.00856
G1 X171.5 Y151.082 E0.00859
G1 X171.733 Y150.356 E0.00931
G1 X171.861 Y149.695 E0.00823
G1 X171.922 Y148.912 E0.0096
G1 X171.913 Y142.185 E0.08221
G1 X171.853 Y141.632 E0.0068
G1 X171.735 Y141.058 E0.00717
G1 X171.406 Y140.094 E0.01244
G1 X169.306 Y135.462 E0.06215
G1 X169.041 Y134.973 E0.0068
G1 X168.732 Y134.517 E0.00673
G1 X168.11 Y133.818 E0.01144
G1 X167.38 Y133.231 E0.01144
G1 X166.563 Y132.774 E0.01144
G1 X165.681 Y132.459 E0.01144
G1 X165.003 Y132.323 E0.00844
G1 X164.32 Y132.271 E0.00837
G1 X141.352 Y132.088 E0.2807
G1 X140.049 Y132.123 E0.01592
G1 X138.883 Y132.331 E0.01448
G1 X137.723 Y132.733 E0.01499
G1 X136.746 Y133.253 E0.01354
G1 X136.271 Y133.576 E0.00701
G1 X135.682 Y134.061 E0.00932
G1 X135.212 Y134.559 E0.00838
G1 X135.364 Y134.703 F7200
G1 F1800
G1 X135.073 Y135.012 E0.00519
G1 X134.566 Y135.709 E0.01053
G1 X134.23 Y136.276 E0.00805
G1 X133.995 Y136.774 E0.00674
G1 X133.593 Y137.892 E0.01451
G1 X133.405 Y138.742 E0.01064
G1 X133.332 Y139.324 E0.00716
G1 X133.288 Y140.162 E0.01026
G1 X133.288 Y146.534 E0.07788
G1 X133.355 Y147.519 E0.01206
G1 X133.455 Y148.131 E0.00758
G1 X133.691 Y149.066 E0.01179
G1 X134.065 Y150.026 E0.01259
G1 X134.308 Y150.502 E0.00653
G1 X134.77 Y151.256 E0.0108
G1 X143.181 Y163.027 E0.1768
G1 X143.821 Y163.829 E0.01255
G1 X144.48 Y164.517 E0.01163
G1 X145.589 Y165.461 E0.01781
G1 X146.723 Y166.201 E0.01654
G1 X147.551 Y166.634 E0.01142
G1 X148.404 Y166.989 E0.01128
G1 X149.714 Y167.392 E0.01675
G1 X150.973 Y167.621 E0.01563
G1 X152.324 Y167.704 E0.01654
G1 X153.253 Y167.673 E0.01135
G1 X154.198 Y167.558 E0.01163
G1 X155.541 Y167.257 E0.01683
G1 X156.832 Y166.794 E0.01676
G1 X157.768 Y166.345 E0.01269
G1 X158.778 Y165.731 E0.01444
G1 X159.687 Y165.041 E0.01395
G1 X160.591 Y164.193 E0.01514
G1 X170.327 Y152.663 E0.18442
G1 X170.667 Y152.206 E0.00695
G1 X171.018 Y151.627 E0.00828
G1 X171.305 Y151.006 E0.00835
G1 X171.53 Y150.303 E0.00902
G1 X171.653 Y149.666 E0.00793
G1 X171.712 Y148.911 E0.00926
G1 X171.703 Y142.198 E0.08203
G1 X171.645 Y141.661 E0.0066
G1 X171.53 Y141.104 E0.00695
G1 X171.208 Y140.165 E0.01214
G1 X169.12 Y135.559 E0.06179
G1 X168.872 Y135.099 E0.00639
G1 X168.577 Y134.66 E0.00646
G1 X167.976 Y133.98 E0.01109
G1 X167.265 Y133.407 E0.01116
G1 X166.468 Y132.962 E0.01116
G1 X165.613 Y132.658 E0.01109
G1 X164.971 Y132.53 E0.008
G1 X164.318 Y132.481 E0.008
G1 X141.353 Y132.298 E0.28066
G1 X140.073 Y132.332 E0.01564
G1 X138.939 Y132.533 E0.01408
G1 X137.807 Y132.925 E0.01464
G1 X136.858 Y133.431 E0.01314
G1 X136.397 Y133.744 E0.00681
G1 X135.819 Y134.22 E0.00915
G1 X135.385 Y134.681 E0.00774
G1 X135.537 Y134.824 F7200
G1 F1800
G1 X135.228 Y135.153 E0.00551
G1 X134.899 Y135.582 E0.00661
G1 X134.555 Y136.13 E0.00791
G1 X134.181 Y136.874 E0.01018
G1 X133.796 Y137.946 E0.01392
G1 X133.612 Y138.779 E0.01042
G1 X133.54 Y139.349 E0.00702
G1 X133.498 Y140.168 E0.01002
G1 X133.498 Y146.536 E0.07782
G1 X133.564 Y147.501 E0.01182
G1 X133.661 Y148.09 E0.0073
G1 X133.893 Y149.006 E0.01155
G1 X134.262 Y149.951 E0.01239
G1 X134.493 Y150.402 E0.0062
G1 X134.941 Y151.134 E0.0105
G1 X143.351 Y162.903 E0.17677
G1 X143.979 Y163.691 E0.01232
G1 X144.626 Y164.366 E0.01142
G1 X145.706 Y165.286 E0.01734
G1 X146.823 Y166.016 E0.01631
G1 X147.641 Y166.444 E0.01128
G1 X148.478 Y166.792 E0.01108
G1 X149.758 Y167.187 E0.01637
G1 X150.994 Y167.412 E0.01534
G1 X152.32 Y167.495 E0.01624
G1 X153.237 Y167.464 E0.01122
G1 X154.17 Y167.35 E0.01149
G1 X155.489 Y167.054 E0.01651
G1 X156.76 Y166.596 E0.01651
G1 X157.669 Y166.16 E0.01232
G1 X158.659 Y165.557 E0.01417
G1 X159.552 Y164.88 E0.01369
G1 X160.439 Y164.048 E0.01486
G1 X170.167 Y152.527 E0.18427
G1 X170.49 Y152.093 E0.00661
G1 X170.833 Y151.528 E0.00808
G1 X171.109 Y150.93 E0.00805
G1 X171.327 Y150.25 E0.00872
G1 X171.445 Y149.636 E0.00764
G1 X171.502 Y148.903 E0.00899
G1 X171.494 Y142.216 E0.08172
G1 X171.438 Y141.695 E0.0064
G1 X171.325 Y141.151 E0.0068
G1 X171.012 Y140.241 E0.01176
G1 X168.934 Y135.658 E0.06149
G1 X168.697 Y135.216 E0.00613
G1 X168.419 Y134.799 E0.00613
G1 X167.835 Y134.136 E0.0108
G1 X167.147 Y133.581 E0.0108
G1 X166.375 Y133.15 E0.0108
G1 X165.547 Y132.858 E0.01073
G1 X164.933 Y132.737 E0.00764
G1 X164.31 Y132.69 E0.00764
G1 X141.354 Y132.508 E0.28055
G1 X140.103 Y132.54 E0.01529
G1 X138.995 Y132.735 E0.01374
G1 X137.89 Y133.118 E0.01429
G1 X136.965 Y133.611 E0.01281
G1 X136.518 Y133.916 E0.00661
G1 X135.956 Y134.379 E0.0089
G1 X135.558 Y134.802 E0.00711
G1 X135.713 Y134.942 F7200
G1 F1800
G1 X135.245 Y135.465 E0.00858
G1 X134.614 Y136.449 E0.0143
G1 X134.198 Y137.393 E0.01259
G1 X134.01 Y137.958 E0.00728
G1 X133.826 Y138.777 E0.01026
G1 X133.715 Y139.931 E0.01417
G1 X133.709 Y146.609 E0.08161
G1 X133.777 Y147.51 E0.01104
G1 X133.873 Y148.076 E0.00701
G1 X134.095 Y148.951 E0.01103
G1 X134.46 Y149.879 E0.01219
G1 X135.116 Y151.018 E0.01605
G1 X143.517 Y162.775 E0.1766
G1 X144.138 Y163.553 E0.01216
G1 X144.772 Y164.215 E0.01121
G1 X145.818 Y165.108 E0.0168
G1 X146.922 Y165.831 E0.01613
G1 X147.73 Y166.254 E0.01114
G1 X148.552 Y166.596 E0.01087
G1 X149.813 Y166.984 E0.01613
G1 X151.02 Y167.203 E0.01499
G1 X152.32 Y167.285 E0.01593
G1 X153.221 Y167.255 E0.01101
G1 X154.142 Y167.141 E0.01135
G1 X155.435 Y166.85 E0.0162
G1 X156.682 Y166.401 E0.0162
G1 X157.569 Y165.975 E0.01202
G1 X158.55 Y165.377 E0.01404
G1 X159.426 Y164.712 E0.01344
G1 X160.317 Y163.87 E0.01499
G1 X170.031 Y152.361 E0.18405
G1 X170.558 Y151.588 E0.01143
G1 X170.899 Y150.89 E0.0095
G1 X171.175 Y149.977 E0.01164
G1 X171.289 Y149.006 E0.01195
G1 X171.292 Y142.477 E0.07979
G1 X171.244 Y141.817 E0.00809
G1 X171.094 Y141.096 E0.009
G1 X170.888 Y140.484 E0.00789
G1 X168.78 Y135.823 E0.06252
G1 X168.478 Y135.259 E0.00782
G1 X168.102 Y134.734 E0.00789
G1 X167.662 Y134.262 E0.00789
G1 X167.17 Y133.853 E0.00782
G1 X166.629 Y133.511 E0.00782
G1 X166.043 Y133.239 E0.00789
G1 X165.428 Y133.044 E0.00789
G1 X164.798 Y132.932 E0.00782
G1 X164.28 Y132.9 E0.00634
G1 X141.355 Y132.718 E0.28017
G1 X140.104 Y132.751 E0.01528
G1 X138.993 Y132.953 E0.01381
G1 X137.903 Y133.342 E0.01414
G1 X136.937 Y133.877 E0.01349
G1 X135.992 Y134.631 E0.01478
G1 X135.733 Y134.919 E0.00473
G1 X135.889 Y135.058 F7200
G1 F1800
G1 X135.401 Y135.605 E0.00896
G1 X134.789 Y136.568 E0.01394
G1 X134.38 Y137.505 E0.0125
G1 X134.207 Y138.034 E0.0068
G1 X134.028 Y138.841 E0.0101
G1 X133.924 Y139.953 E0.01365
G1 X133.919 Y146.625 E0.08154
G1 X134.004 Y147.636 E0.01239
G1 X134.189 Y148.51 E0.01093
G1 X134.353 Y149.053 E0.00693
G1 X134.695 Y149.886 E0.01099
G1 X135.29 Y150.901 E0.01438
G1 X143.694 Y162.66 E0.17663
G1 X144.299 Y163.419 E0.01186
G1 X144.941 Y164.088 E0.01133
G1 X146.027 Y165 E0.01733
G1 X147.05 Y165.662 E0.01489
G1 X147.834 Y166.071 E0.0108
G1 X148.691 Y166.425 E0.01133
G1 X149.925 Y166.795 E0.01575
G1 X151.223 Y167.013 E0.01608
G1 X152.099 Y167.074 E0.01074
G1 X153.005 Y167.057 E0.01107
G1 X154.306 Y166.902 E0.01601
G1 X155.573 Y166.587 E0.01595
G1 X156.421 Y166.285 E0.011
G1 X157.248 Y165.904 E0.01113
G1 X158.288 Y165.301 E0.01469
G1 X159.063 Y164.734 E0.01173
G1 X159.432 Y164.426 E0.00588
G1 X160.212 Y163.674 E0.01324
G1 X169.874 Y152.222 E0.1831
G1 X170.398 Y151.445 E0.01146
G1 X170.735 Y150.732 E0.00963
G1 X170.979 Y149.887 E0.01074
G1 X171.08 Y148.975 E0.01122
G1 X171.082 Y142.48 E0.07938
G1 X171.032 Y141.817 E0.00812
G1 X170.886 Y141.13 E0.00859
G1 X170.689 Y140.553 E0.00746
G1 X168.545 Y135.817 E0.06353
G1 X168.245 Y135.285 E0.00746
G1 X167.884 Y134.8 E0.00739
G1 X167.464 Y134.364 E0.00739
G1 X166.989 Y133.982 E0.00746
G1 X166.468 Y133.663 E0.00746
G1 X165.917 Y133.415 E0.00739
G1 X165.338 Y133.239 E0.00739
G1 X164.742 Y133.137 E0.00739
G1 X141.35 Y132.928 E0.28587
G1 X140.128 Y132.959 E0.01493
G1 X139.05 Y133.155 E0.01339
G1 X137.988 Y133.534 E0.01378
G1 X137.044 Y134.058 E0.0132
G1 X136.128 Y134.791 E0.01433
G1 X135.909 Y135.036 E0.00401
G1 X136.065 Y135.175 F7200
G1 F1800
G1 X135.562 Y135.742 E0.00927
G1 X134.969 Y136.676 E0.01352
G1 X134.568 Y137.601 E0.01233
G1 X134.407 Y138.099 E0.00639
G1 X134.232 Y138.893 E0.00994
G1 X134.133 Y139.974 E0.01327
G1 X134.129 Y146.625 E0.08127
G1 X134.212 Y147.607 E0.01205
G1 X134.395 Y148.468 E0.01075
G1 X134.553 Y148.988 E0.00665
G1 X134.889 Y149.806 E0.01081
G1 X135.464 Y150.783 E0.01386
G1 X143.86 Y162.532 E0.17647
G1 X144.457 Y163.28 E0.0117
G1 X145.087 Y163.936 E0.01112
G1 X146.142 Y164.825 E0.01685
G1 X147.149 Y165.477 E0.01466
G1 X147.918 Y165.878 E0.0106
G1 X148.763 Y166.228 E0.01118
G1 X149.968 Y166.589 E0.01537
G1 X151.24 Y166.803 E0.01576
G1 X152.105 Y166.864 E0.0106
G1 X152.993 Y166.847 E0.01086
G1 X154.268 Y166.696 E0.01569
G1 X155.509 Y166.387 E0.01563
G1 X156.341 Y166.091 E0.01079
G1 X157.168 Y165.71 E0.01112
G1 X158.181 Y165.119 E0.01434
G1 X158.941 Y164.563 E0.0115
