; generated by SuperSlicer 2.3.57 on 2022-02-06 at 03:44:20 UTC


;
;

;
;
; 

; external perimeters extrusion width = 0.20mm
; perimeters extrusion width = 0.23mm
; infill extrusion width = 0.36mm
; solid infill extrusion width = 0.28mm
; top infill extrusion width = 0.20mm
; first layer extrusion width = 0.24mm

; external perimeters extrusion width = 0.20mm
; perimeters extrusion width = 0.23mm
; infill extrusion width = 0.36mm
; solid infill extrusion width = 0.28mm
; top infill extrusion width = 0.20mm
; first layer extrusion width = 0.24mm

; external perimeters extrusion width = 0.20mm
; perimeters extrusion width = 0.23mm
; infill extrusion width = 0.36mm
; solid infill extrusion width = 0.28mm
; top infill extrusion width = 0.20mm
; first layer extrusion width = 0.24mm

; external perimeters extrusion width = 0.20mm
; perimeters extrusion width = 0.23mm
; infill extrusion width = 0.36mm
; solid infill extrusion width = 0.28mm
; top infill extrusion width = 0.20mm
; first layer extrusion width = 0.24mm

; external perimeters extrusion width = 0.20mm
; perimeters extrusion width = 0.23mm
; infill extrusion width = 0.36mm
; solid infill extrusion width = 0.28mm
; top infill extrusion width = 0.20mm
; first layer extrusion width = 0.24mm

; object:{"name":"Part4-red","id":"Part4-red.STL id:0 copy 0","object_center":[152.500000,150.000000,0.000000],"boundingbox_center":[152.500000,150.000000,0.630000],"boundingbox_size":[12.710616,12.706402,1.260000]}
; plater:{"center":[152.500000,150.000000,0.000000],"boundingbox_center":[152.500000,150.000000,0.630000],"boundingbox_size":[12.710616,12.706402,1.260000]}

;TYPE:Custom
START_PRINT T_BED=70 T_EXTRUDER=230
M107
G21 ; set units to millimeters
G90 ; use absolute coordinates
M83 ; use relative distances for extrusion
; Filament gcode
M104 S230 ; set temperature
M109 S230 ; set temperature and wait for it to be reached
M190 S70 ; set bed temperature and wait for it to be reached
;LAYER_CHANGE
;Z:0.14
;HEIGHT:0.14
G1 Z0.14 F7200
G1 E-1.2 F3000
G1 X142.758 Y139.979 F7200
G1 E1.2 F1800
;TYPE:Skirt
;WIDTH:0.24
G1 X141.924 Y140.86 E0.01482
G1 X141.04 Y141.995 E0.01759
G1 X140.304 Y143.168 E0.01692
G1 X139.653 Y144.49 E0.01801
G1 X139.173 Y145.781 E0.01683
G1 X138.811 Y147.167 E0.0175
G1 X138.594 Y148.569 E0.01734
G1 X138.521 Y150 E0.0175
G1 X138.594 Y151.43 E0.0175
G1 X138.811 Y152.832 E0.01734
G1 X139.172 Y154.218 E0.0175
G1 X139.653 Y155.509 E0.01683
G1 X140.307 Y156.837 E0.01809
G1 X141.039 Y158.004 E0.01683
G1 X141.923 Y159.14 E0.01759
G1 X142.757 Y160.02 E0.01482
G1 X143.951 Y161.059 E0.01934
G1 X144.973 Y161.774 E0.01524
G1 X145.638 Y162.174 E0.00948
G1 X146.9 Y162.805 E0.01725
G1 X148.03 Y163.245 E0.01482
G1 X149.436 Y163.639 E0.01784
G1 X150.8 Y163.875 E0.01692
G1 X152.339 Y163.977 E0.01884
G1 X153.647 Y163.932 E0.016
G1 X155.053 Y163.744 E0.01734
G1 X156.42 Y163.418 E0.01717
G1 X157.76 Y162.952 E0.01734
G1 X159.051 Y162.349 E0.01742
G1 X160.252 Y161.633 E0.01709
G1 X161.396 Y160.783 E0.01742
G1 X162.345 Y159.922 E0.01566
G1 X163.392 Y158.762 E0.0191
G1 X164.209 Y157.635 E0.017
G1 X164.945 Y156.367 E0.01792
G1 X165.449 Y155.256 E0.0149
G1 X165.965 Y153.752 E0.01943
G1 X166.244 Y152.53 E0.01532
G1 X166.431 Y151.109 E0.01751
G1 X166.471 Y150.321 E0.00965
G1 X166.452 Y149.145 E0.01437
G1 X166.29 Y147.714 E0.0176
G1 X166.001 Y146.374 E0.01675
G1 X165.536 Y144.954 E0.01826
G1 X164.983 Y143.707 E0.01667
G1 X164.27 Y142.457 E0.01759
G1 X163.445 Y141.303 E0.01734
G1 X162.473 Y140.204 E0.01792
G1 X161.445 Y139.257 E0.01709
G1 X160.298 Y138.398 E0.0175
G1 X159.076 Y137.664 E0.01742
G1 X157.805 Y137.067 E0.01717
G1 X156.434 Y136.586 E0.01776
G1 X155.074 Y136.26 E0.01709
G1 X153.655 Y136.069 E0.0175
G1 X152.346 Y136.023 E0.016
G1 X150.801 Y136.125 E0.01893
G1 X149.437 Y136.361 E0.01692
G1 X148.031 Y136.755 E0.01784
G1 X146.901 Y137.195 E0.01482
G1 X145.638 Y137.826 E0.01725
G1 X144.974 Y138.225 E0.00948
G1 X143.952 Y138.94 E0.01524
G1 X142.781 Y139.96 E0.01898
G1 X142.918 Y140.118 F7200
G1 F1800
G1 X142.086 Y140.993 E0.01476
G1 X141.215 Y142.111 E0.01732
G1 X140.49 Y143.266 E0.01666
G1 X139.848 Y144.568 E0.01774
G1 X139.375 Y145.839 E0.01658
G1 X139.018 Y147.204 E0.01724
G1 X138.804 Y148.585 E0.01708
G1 X138.731 Y149.994 E0.01724
G1 X138.803 Y151.41 E0.01732
G1 X139.017 Y152.791 E0.01708
G1 X139.373 Y154.156 E0.01724
G1 X139.846 Y155.428 E0.01658
G1 X140.491 Y156.736 E0.01782
G1 X141.212 Y157.885 E0.01658
G1 X142.083 Y159.003 E0.01732
G1 X142.904 Y159.87 E0.01459
G1 X144.081 Y160.894 E0.01906
G1 X145.085 Y161.597 E0.01498
G1 X145.737 Y161.989 E0.00929
G1 X146.98 Y162.61 E0.01699
G1 X148.093 Y163.044 E0.01459
G1 X149.477 Y163.433 E0.01757
G1 X150.827 Y163.667 E0.01675
G1 X152.336 Y163.767 E0.01848
G1 X153.624 Y163.723 E0.01575
G1 X155.016 Y163.537 E0.01716
G1 X156.356 Y163.218 E0.01683
G1 X157.676 Y162.759 E0.01708
G1 X158.954 Y162.163 E0.01724
G1 X160.131 Y161.461 E0.01675
G1 X161.264 Y160.62 E0.01724
G1 X162.198 Y159.772 E0.01542
G1 X163.229 Y158.629 E0.01881
G1 X164.034 Y157.52 E0.01675
G1 X164.758 Y156.27 E0.01765
G1 X165.255 Y155.176 E0.01468
G1 X165.763 Y153.695 E0.01914
G1 X166.039 Y152.484 E0.01517
G1 X166.222 Y151.085 E0.01725
G1 X166.261 Y150.321 E0.00935
G1 X166.243 Y149.163 E0.01415
G1 X166.084 Y147.753 E0.01734
G1 X165.797 Y146.427 E0.01658
G1 X165.342 Y145.035 E0.0179
G1 X164.798 Y143.807 E0.01641
G1 X164.096 Y142.575 E0.01732
G1 X163.283 Y141.438 E0.01708
G1 X162.327 Y140.355 E0.01765
G1 X161.309 Y139.418 E0.01691
G1 X160.186 Y138.575 E0.01716
G1 X158.982 Y137.852 E0.01716
G1 X157.724 Y137.26 E0.01699
G1 X156.373 Y136.787 E0.01749
G1 X155.034 Y136.466 E0.01683
G1 X153.629 Y136.277 E0.01732
G1 X152.348 Y136.233 E0.01567
G1 X150.832 Y136.333 E0.01856
G1 X149.482 Y136.566 E0.01675
G1 X148.097 Y136.954 E0.01757
G1 X146.984 Y137.388 E0.01459
G1 X145.741 Y138.009 E0.01699
G1 X145.091 Y138.399 E0.00927
G1 X144.085 Y139.103 E0.01501
G1 X142.941 Y140.098 E0.01853
G1 X143.078 Y140.256 F7200
G1 F1800
G1 X143.058 Y140.273 E0.00033
G1 X142.244 Y141.131 E0.01445
G1 X141.39 Y142.227 E0.01698
G1 X140.676 Y143.364 E0.01641
G1 X140.043 Y144.646 E0.01747
G1 X139.574 Y145.904 E0.01641
G1 X139.223 Y147.248 E0.01698
G1 X139.012 Y148.608 E0.01682
G1 X138.941 Y149.996 E0.01698
G1 X139.012 Y151.383 E0.01698
G1 X139.223 Y152.75 E0.0169
G1 X139.574 Y154.094 E0.01698
G1 X140.042 Y155.352 E0.01641
G1 X140.675 Y156.634 E0.01747
G1 X141.389 Y157.771 E0.01641
G1 X142.247 Y158.872 E0.01706
G1 X143.056 Y159.725 E0.01437
G1 X144.215 Y160.732 E0.01877
G1 X145.206 Y161.425 E0.01478
G1 X145.835 Y161.804 E0.00897
G1 X147.06 Y162.416 E0.01673
G1 X148.161 Y162.846 E0.01445
G1 X149.518 Y163.227 E0.01722
G1 X150.847 Y163.458 E0.01649
G1 X152.333 Y163.557 E0.0182
G1 X153.602 Y163.514 E0.01551
G1 X154.973 Y163.332 E0.0169
G1 X156.298 Y163.016 E0.01665
G1 X157.598 Y162.564 E0.01682
G1 X158.857 Y161.977 E0.01698
G1 X160.016 Y161.286 E0.01649
G1 X161.131 Y160.457 E0.01698
G1 X162.051 Y159.622 E0.01518
G1 X163.067 Y158.497 E0.01853
G1 X163.858 Y157.404 E0.01649
G1 X164.572 Y156.173 E0.01739
G1 X165.061 Y155.097 E0.01445
G1 X165.563 Y153.631 E0.01893
G1 X165.833 Y152.446 E0.01486
G1 X166.012 Y151.072 E0.01693
G1 X166.051 Y150.327 E0.00911
G1 X166.034 Y149.181 E0.01401
G1 X165.878 Y147.793 E0.01708
G1 X165.596 Y146.487 E0.01633
G1 X165.148 Y145.115 E0.01763
G1 X164.61 Y143.9 E0.01625
G1 X163.918 Y142.687 E0.01706
G1 X163.118 Y141.568 E0.01682
G1 X162.181 Y140.506 E0.0173
G1 X161.174 Y139.578 E0.01673
G1 X160.067 Y138.749 E0.0169
G1 X158.882 Y138.037 E0.0169
G1 X157.643 Y137.454 E0.01673
G1 X156.313 Y136.988 E0.01722
G1 X154.994 Y136.672 E0.01657
G1 X153.611 Y136.486 E0.01706
G1 X152.349 Y136.443 E0.01543
G1 X150.85 Y136.542 E0.01836
G1 X149.527 Y136.771 E0.01641
G1 X148.163 Y137.154 E0.0173
G1 X147.062 Y137.583 E0.01445
G1 X145.837 Y138.195 E0.01673
G1 X145.208 Y138.574 E0.00897
G1 X144.217 Y139.266 E0.01478
G1 X143.101 Y140.236 E0.01807
G1 X143.238 Y140.394 F7200
G1 F1800
G1 X143.207 Y140.421 E0.00049
G1 X142.406 Y141.265 E0.01422
G1 X141.561 Y142.349 E0.0168
G1 X140.858 Y143.468 E0.01615
G1 X140.235 Y144.73 E0.0172
G1 X139.774 Y145.969 E0.01615
G1 X139.428 Y147.292 E0.01672
G1 X139.221 Y148.631 E0.01656
G1 X139.151 Y149.997 E0.01672
G1 X139.221 Y151.369 E0.0168
G1 X139.428 Y152.708 E0.01656
G1 X139.774 Y154.032 E0.01672
G1 X140.235 Y155.27 E0.01615
G1 X140.858 Y156.532 E0.0172
G1 X141.562 Y157.651 E0.01615
G1 X142.406 Y158.736 E0.0168
G1 X143.203 Y159.575 E0.01414
G1 X144.344 Y160.567 E0.01848
G1 X145.32 Y161.248 E0.01454
G1 X145.934 Y161.618 E0.00877
G1 X147.139 Y162.222 E0.01647
G1 X148.217 Y162.643 E0.01414
G1 X149.559 Y163.021 E0.01704
G1 X150.868 Y163.249 E0.01623
G1 X152.337 Y163.347 E0.018
G1 X153.586 Y163.305 E0.01527
G1 X154.935 Y163.125 E0.01664
G1 X156.241 Y162.815 E0.01639
G1 X157.52 Y162.369 E0.01656
G1 X158.759 Y161.791 E0.01672
G1 X159.9 Y161.11 E0.01623
G1 X160.998 Y160.295 E0.01672
G1 X161.904 Y159.472 E0.01495
G1 X162.904 Y158.364 E0.01824
G1 X163.687 Y157.283 E0.01631
G1 X164.389 Y156.071 E0.01712
G1 X164.869 Y155.011 E0.01422
G1 X165.361 Y153.574 E0.01856
G1 X165.628 Y152.401 E0.01471
G1 X165.804 Y151.043 E0.01673
G1 X165.841 Y150.321 E0.00884
G1 X165.824 Y149.192 E0.01379
G1 X165.67 Y147.825 E0.01681
G1 X165.393 Y146.54 E0.01607
G1 X164.952 Y145.19 E0.01736
G1 X164.424 Y143.999 E0.01591
G1 X163.741 Y142.799 E0.01688
G1 X162.953 Y141.697 E0.01655
G1 X162.025 Y140.648 E0.01712
G1 X161.044 Y139.743 E0.01631
G1 X159.949 Y138.922 E0.01672
G1 X158.782 Y138.221 E0.01664
G1 X157.562 Y137.648 E0.01647
G1 X156.253 Y137.189 E0.01696
G1 X154.948 Y136.877 E0.01639
G1 X153.592 Y136.696 E0.01672
G1 X152.344 Y136.653 E0.01527
G1 X150.874 Y136.75 E0.018
G1 X149.565 Y136.978 E0.01623
G1 X148.223 Y137.355 E0.01704
G1 X147.145 Y137.776 E0.01414
G1 X145.94 Y138.379 E0.01647
G1 X145.325 Y138.748 E0.00876
G1 X144.349 Y139.429 E0.01454
G1 X143.26 Y140.375 E0.01762
G1 X143.398 Y140.533 F7200
G1 F1800
G1 X143.357 Y140.568 E0.00065
G1 X142.568 Y141.398 E0.014
G1 X141.736 Y142.465 E0.01653
G1 X141.044 Y143.566 E0.0159
G1 X140.43 Y144.808 E0.01693
G1 X139.976 Y146.027 E0.0159
G1 X139.635 Y147.329 E0.01645
G1 X139.43 Y148.653 E0.01637
G1 X139.361 Y149.998 E0.01645
G1 X139.429 Y151.343 E0.01645
G1 X139.634 Y152.667 E0.01637
G1 X139.975 Y153.969 E0.01645
G1 X140.429 Y155.188 E0.0159
G1 X141.042 Y156.43 E0.01693
G1 X141.734 Y157.532 E0.0159
G1 X142.566 Y158.599 E0.01653
G1 X143.35 Y159.425 E0.01392
G1 X144.478 Y160.405 E0.01827
G1 X145.437 Y161.074 E0.01428
G1 X146.033 Y161.433 E0.0085
G1 X147.219 Y162.028 E0.01621
G1 X148.286 Y162.445 E0.014
G1 X149.6 Y162.815 E0.01669
G1 X150.888 Y163.04 E0.01598
G1 X152.335 Y163.137 E0.01772
G1 X153.57 Y163.096 E0.01511
G1 X154.898 Y162.919 E0.01637
G1 X156.183 Y162.613 E0.01614
G1 X157.442 Y162.174 E0.01629
G1 X158.662 Y161.605 E0.01645
G1 X159.79 Y160.931 E0.01606
G1 X160.865 Y160.132 E0.01637
G1 X161.757 Y159.323 E0.01471
G1 X162.745 Y158.227 E0.01803
G1 X163.511 Y157.168 E0.01598
G1 X164.202 Y155.974 E0.01685
G1 X164.678 Y154.925 E0.01408
G1 X165.161 Y153.511 E0.01827
G1 X165.422 Y152.356 E0.01447
G1 X165.596 Y151.02 E0.01646
G1 X165.631 Y150.321 E0.00855
G1 X165.615 Y149.21 E0.01357
G1 X165.464 Y147.865 E0.01655
G1 X165.192 Y146.599 E0.01582
G1 X164.758 Y145.27 E0.01709
G1 X164.236 Y144.093 E0.01574
G1 X163.567 Y142.917 E0.01653
G1 X162.788 Y141.827 E0.01637
G1 X161.879 Y140.799 E0.01677
G1 X160.909 Y139.904 E0.01614
G1 X159.831 Y139.096 E0.01645
G1 X158.683 Y138.406 E0.01637
G1 X157.482 Y137.842 E0.01622
G1 X156.193 Y137.39 E0.01669
G1 X154.909 Y137.083 E0.01614
G1 X153.574 Y136.905 E0.01645
G1 X152.345 Y136.863 E0.01503
G1 X150.899 Y136.959 E0.01772
G1 X149.61 Y137.183 E0.01598
G1 X148.289 Y137.554 E0.01677
G1 X147.223 Y137.971 E0.014
G1 X146.037 Y138.565 E0.01621
G1 X145.442 Y138.922 E0.00847
G1 X144.482 Y139.592 E0.01431
G1 X143.42 Y140.513 E0.01717
G1 X143.558 Y140.672 F7200
G1 F1800
G1 X143.503 Y140.719 E0.00089
G1 X142.726 Y141.536 E0.01377
G1 X141.908 Y142.586 E0.01627
G1 X141.226 Y143.67 E0.01564
G1 X140.623 Y144.892 E0.01666
G1 X140.176 Y146.091 E0.01564
G1 X139.84 Y147.373 E0.01619
G1 X139.639 Y148.676 E0.01611
G1 X139.571 Y149.999 E0.01619
G1 X139.638 Y151.322 E0.01619
G1 X139.84 Y152.625 E0.01611
G1 X140.175 Y153.907 E0.01619
G1 X140.622 Y155.106 E0.01564
G1 X141.225 Y156.329 E0.01666
G1 X141.907 Y157.412 E0.01564
G1 X142.725 Y158.462 E0.01627
G1 X143.501 Y159.279 E0.01377
G1 X144.612 Y160.244 E0.01798
G1 X145.558 Y160.903 E0.01408
G1 X146.132 Y161.248 E0.00819
G1 X147.304 Y161.836 E0.01603
G1 X148.348 Y162.244 E0.01369
G1 X149.648 Y162.61 E0.0165
G1 X150.915 Y162.832 E0.01572
G1 X152.338 Y162.927 E0.01743
G1 X153.548 Y162.887 E0.01479
G1 X154.861 Y162.712 E0.01619
G1 X156.125 Y162.411 E0.01588
G1 X157.364 Y161.98 E0.01603
G1 X158.564 Y161.419 E0.01619
G1 X159.674 Y160.756 E0.0158
G1 X160.733 Y159.969 E0.01611
G1 X161.609 Y159.173 E0.01447
G1 X162.582 Y158.094 E0.01775
G1 X163.336 Y157.052 E0.01572
G1 X164.015 Y155.878 E0.01658
G1 X164.483 Y154.846 E0.01385
G1 X164.959 Y153.454 E0.01798
G1 X165.216 Y152.317 E0.01424
G1 X165.386 Y151.002 E0.0162
G1 X165.421 Y150.321 E0.00834
G1 X165.406 Y149.228 E0.01335
G1 X165.258 Y147.904 E0.01628
G1 X164.99 Y146.659 E0.01557
G1 X164.564 Y145.351 E0.01681
G1 X164.051 Y144.192 E0.01549
G1 X163.389 Y143.029 E0.01635
G1 X162.627 Y141.962 E0.01603
G1 X161.729 Y140.945 E0.01658
G1 X160.773 Y140.064 E0.01588
G1 X159.713 Y139.27 E0.01619
G1 X158.583 Y138.591 E0.01611
G1 X157.401 Y138.036 E0.01596
G1 X156.133 Y137.592 E0.01642
G1 X154.869 Y137.29 E0.01588
G1 X153.556 Y137.114 E0.01619
G1 X152.347 Y137.073 E0.01479
G1 X150.917 Y137.168 E0.01751
G1 X149.649 Y137.389 E0.01572
G1 X148.35 Y137.755 E0.0165
G1 X147.306 Y138.164 E0.01369
G1 X146.134 Y138.751 E0.01603
G1 X145.559 Y139.096 E0.00819
G1 X144.614 Y139.755 E0.01408
G1 X143.58 Y140.652 E0.01672
G1 X143.717 Y140.81 F7200
G1 F1800
G1 X143.652 Y140.866 E0.00105
G1 X142.888 Y141.67 E0.01355
G1 X142.083 Y142.702 E0.016
G1 X141.412 Y143.768 E0.01539
G1 X140.818 Y144.97 E0.01639
G1 X140.375 Y146.156 E0.01547
G1 X140.046 Y147.417 E0.01593
G1 X139.847 Y148.698 E0.01585
G1 X139.781 Y149.994 E0.01585
G1 X139.847 Y151.302 E0.016
G1 X140.046 Y152.583 E0.01585
G1 X140.375 Y153.844 E0.01593
G1 X140.815 Y155.024 E0.01539
G1 X141.409 Y156.227 E0.01639
G1 X142.083 Y157.298 E0.01547
G1 X142.888 Y158.33 E0.016
G1 X143.648 Y159.129 E0.01347
G1 X144.741 Y160.078 E0.01769
G1 X145.671 Y160.726 E0.01385
G1 X146.231 Y161.063 E0.00798
G1 X147.378 Y161.639 E0.01569
G1 X148.41 Y162.044 E0.01355
G1 X149.689 Y162.404 E0.01623
G1 X150.935 Y162.623 E0.01547
G1 X152.336 Y162.717 E0.01715
G1 X153.532 Y162.677 E0.01462
G1 X154.817 Y162.506 E0.01585
G1 X156.061 Y162.211 E0.01562
G1 X157.28 Y161.787 E0.01577
G1 X158.461 Y161.236 E0.01593
G1 X159.553 Y160.584 E0.01554
G1 X160.6 Y159.807 E0.01593
G1 X161.462 Y159.024 E0.01424
G1 X162.419 Y157.962 E0.01746
G1 X163.164 Y156.932 E0.01554
G1 X163.832 Y155.776 E0.01631
G1 X164.289 Y154.766 E0.01355
G1 X164.758 Y153.391 E0.01776
G1 X165.01 Y152.279 E0.01393
G1 X165.177 Y150.985 E0.01594
G1 X165.211 Y150.327 E0.00806
G1 X165.197 Y149.246 E0.01321
G1 X165.052 Y147.943 E0.01602
G1 X164.787 Y146.712 E0.01539
G1 X164.37 Y145.431 E0.01646
G1 X163.863 Y144.285 E0.01531
G1 X163.215 Y143.147 E0.016
G1 X162.462 Y142.091 E0.01585
G1 X161.583 Y141.096 E0.01623
G1 X160.643 Y140.229 E0.01562
G1 X159.601 Y139.447 E0.01593
G1 X158.483 Y138.776 E0.01593
G1 X157.321 Y138.23 E0.0157
G1 X156.073 Y137.793 E0.01616
G1 X154.83 Y137.496 E0.01562
G1 X153.538 Y137.323 E0.01593
G1 X152.348 Y137.283 E0.01455
G1 X150.942 Y137.377 E0.01723
G1 X149.695 Y137.594 E0.01547
G1 X148.416 Y137.954 E0.01623
G1 X147.384 Y138.359 E0.01355
G1 X146.236 Y138.934 E0.01569
G1 X145.676 Y139.271 E0.00798
G1 X144.741 Y139.922 E0.01393
G1 X143.74 Y140.79 E0.01619
G1 X143.877 Y140.949 F7200
G1 F1800
G1 X143.802 Y141.013 E0.00121
G1 X143.051 Y141.803 E0.01332
G1 X142.258 Y142.818 E0.01574
G1 X141.595 Y143.872 E0.01521
G1 X141.01 Y145.054 E0.01612
G1 X140.577 Y146.214 E0.01514
G1 X140.251 Y147.46 E0.01574
