; generated by SuperSlicer 2.3.57 on 2022-02-07 at 01:29:24 UTC


;
;

;
;
; 

; external perimeters extrusion width = 0.40mm
; perimeters extrusion width = 0.45mm
; infill extrusion width = 0.72mm
; solid infill extrusion width = 0.56mm
; top infill extrusion width = 0.40mm
; first layer extrusion width = 0.48mm

; object:{"name":"Part1-Blue- 40%","id":"Part1-Blue- 40%.STL id:0 copy 0","object_center":[165.000000,165.000000,0.000000],"boundingbox_center":[165.000000,165.000000,6.000000],"boundingbox_size":[103.538013,100.000000,12.000000]}
; plater:{"center":[165.000000,165.000000,0.000000],"boundingbox_center":[165.000000,165.000000,6.000000],"boundingbox_size":[103.538013,100.000000,12.000000]}

;TYPE:Custom
START_PRINT T_BED=70 T_EXTRUDER=230
M107
G21 ; set units to millimeters
G90 ; use absolute coordinates
M83 ; use relative distances for extrusion
; Filament gcode
M109 S230 ; set temperature and wait for it to be reached
M190 S70 ; set bed temperature and wait for it to be reached
;LAYER_CHANGE
;Z:0.24
;HEIGHT:0.24
G1 Z0.24 F7200
G1 E-1.2 F3000
G1 X128.451 Y119.797 F7200
G1 E1.2 F1800
;TYPE:Skirt
;WIDTH:0.48
G1 X127.254 Y121.372 E0.08459
G1 X126.489 Y122.84 E0.07075
G1 X116.595 Y142.792 E0.9522
G1 X114.027 Y148.459 E0.26601
G1 X111.926 Y154.193 E0.26107
G1 X110.665 Y158.924 E0.20934
G1 X109.912 Y163.804 E0.21112
G1 X109.688 Y168.694 E0.2093
G1 X109.994 Y173.636 E0.21172
G1 X110.825 Y178.489 E0.21051
G1 X112.173 Y183.225 E0.21051
G1 X114.025 Y187.797 E0.21092
G1 X116.348 Y192.128 E0.21011
G1 X119.12 Y196.182 E0.20999
G1 X122.538 Y200.241 E0.22686
G1 X126.304 Y203.952 E0.22607
G1 X130.406 Y207.304 E0.22648
G1 X134.797 Y210.258 E0.22627
G1 X139.443 Y212.793 E0.22627
G1 X144.303 Y214.886 E0.22627
G1 X149.337 Y216.519 E0.22627
G1 X154.501 Y217.679 E0.22627
G1 X159.75 Y218.356 E0.22627
G1 X165.001 Y218.543 E0.22468
G1 X170.249 Y218.356 E0.22451
G1 X175.498 Y217.679 E0.22627
G1 X180.662 Y216.52 E0.22627
G1 X185.695 Y214.886 E0.22627
G1 X190.556 Y212.793 E0.22627
G1 X195.202 Y210.259 E0.22627
G1 X199.593 Y207.304 E0.22627
G1 X203.698 Y203.949 E0.22668
G1 X207.461 Y200.242 E0.22587
G1 X210.879 Y196.184 E0.2268
G1 X213.652 Y192.127 E0.21013
G1 X215.975 Y187.797 E0.21011
G1 X217.827 Y183.225 E0.21092
G1 X219.175 Y178.489 E0.21051
G1 X220.006 Y173.636 E0.21051
G1 X220.312 Y168.693 E0.21172
G1 X220.088 Y163.803 E0.2093
G1 X219.335 Y158.923 E0.21112
G1 X218.073 Y154.191 E0.2094
G1 X215.972 Y148.456 E0.26114
G1 X213.405 Y142.791 E0.26592
G1 X203.513 Y122.843 E0.95198
G1 X202.749 Y121.376 E0.07071
G1 X201.549 Y119.797 E0.08479
G1 X200.281 Y118.601 E0.07455
G1 X198.745 Y117.566 E0.07918
G1 X197.049 Y116.798 E0.07958
G1 X195.394 Y116.353 E0.07331
G1 X167.227 Y111.649 E1.22095
G1 X165.005 Y111.458 E0.09537
G1 X162.77 Y111.65 E0.09592
G1 X134.607 Y116.352 E1.22079
G1 X132.95 Y116.798 E0.07334
G1 X131.255 Y117.566 E0.07958
G1 X129.719 Y118.601 E0.07918
G1 X128.494 Y119.756 E0.07198
G1 X128.788 Y120.067 F7200
G1 F1800
G1 X128.759 Y120.095 E0.00171
G1 X127.611 Y121.609 E0.08124
G1 X126.87 Y123.035 E0.06873
G1 X116.981 Y142.978 E0.95176
G1 X114.428 Y148.61 E0.26434
G1 X112.335 Y154.322 E0.26012
G1 X111.084 Y159.015 E0.20763
G1 X110.338 Y163.848 E0.20911
G1 X110.117 Y168.694 E0.20741
G1 X110.42 Y173.589 E0.20968
G1 X111.244 Y178.396 E0.20854
G1 X112.579 Y183.088 E0.20854
G1 X114.412 Y187.613 E0.20873
G1 X116.715 Y191.907 E0.20835
G1 X119.463 Y195.925 E0.20812
G1 X122.852 Y199.949 E0.22494
G1 X126.59 Y203.632 E0.22438
G1 X130.661 Y206.959 E0.22476
G1 X135.019 Y209.891 E0.22457
G1 X139.629 Y212.407 E0.22457
G1 X144.454 Y214.484 E0.22457
G1 X149.45 Y216.106 E0.22457
G1 X154.574 Y217.257 E0.22457
G1 X159.784 Y217.928 E0.22457
G1 X164.998 Y218.114 E0.22308
G1 X170.213 Y217.929 E0.22311
G1 X175.427 Y217.257 E0.22476
G1 X180.548 Y216.107 E0.22438
G1 X185.548 Y214.484 E0.22476
G1 X190.368 Y212.408 E0.22439
G1 X194.979 Y209.893 E0.22457
G1 X199.337 Y206.961 E0.22457
G1 X203.408 Y203.634 E0.22476
G1 X207.146 Y199.951 E0.22438
G1 X210.539 Y195.923 E0.22519
G1 X213.285 Y191.907 E0.20799
G1 X215.587 Y187.617 E0.20817
G1 X217.421 Y183.088 E0.20892
G1 X218.756 Y178.396 E0.20854
G1 X219.58 Y173.589 E0.20854
G1 X219.883 Y168.694 E0.20968
G1 X219.662 Y163.848 E0.20741
G1 X218.916 Y159.014 E0.20911
G1 X217.665 Y154.322 E0.20765
G1 X215.573 Y148.613 E0.25995
G1 X213.018 Y142.976 E0.26462
G1 X203.13 Y123.036 E0.9516
G1 X202.391 Y121.612 E0.06859
G1 X201.244 Y120.098 E0.08124
G1 X200.016 Y118.938 E0.07219
G1 X198.532 Y117.938 E0.07654
G1 X196.901 Y117.2 E0.07654
G1 X195.293 Y116.769 E0.07117
G1 X167.161 Y112.073 E1.21945
G1 X165.005 Y111.886 E0.09251
G1 X162.839 Y112.073 E0.09295
G1 X134.708 Y116.769 E1.21939
G1 X133.099 Y117.2 E0.07124
G1 X131.468 Y117.938 E0.07654
G1 X129.983 Y118.938 E0.07654
G1 X128.832 Y120.026 E0.06772
; INIT printing object Part1-Blue- 40%.STL id:0 copy 0
G1 E-1.2 F3000
; printing object Part1-Blue- 40%.STL id:0 copy 0
G1 X157.194 Y120.893 F7200
G1 E1.2 F1800
;TYPE:Internal perimeter
G1 X158.492 Y119.15 E0.09293
G1 X159.556 Y118.134 E0.0629
G1 X160.776 Y117.311 E0.0629
G1 X162.116 Y116.704 E0.0629
G1 X163.539 Y116.331 E0.0629
G1 X165 Y116.202 E0.06271
G1 X165.312 Y116.229 E0.01337
G1 X166.461 Y116.331 E0.04934
G1 X167.884 Y116.704 E0.0629
G1 X169.224 Y117.311 E0.0629
G1 X170.444 Y118.134 E0.0629
G1 X171.508 Y119.15 E0.0629
G1 X172.806 Y120.893 E0.09293
G1 X193.268 Y120.893 E0.87487
G1 X194.396 Y120.989 E0.04841
G1 X195.442 Y121.261 E0.04623
G1 X196.428 Y121.706 E0.04623
G1 X197.324 Y122.31 E0.04623
G1 X198.105 Y123.058 E0.04623
G1 X198.749 Y123.926 E0.04623
G1 X199.237 Y124.891 E0.04623
G1 X199.556 Y125.924 E0.04623
G1 X199.695 Y126.997 E0.04623
G1 X199.651 Y128.077 E0.04623
G1 X199.29 Y129.771 E0.07406
G1 X203.177 Y134.879 E0.27445
G1 X206.349 Y139.766 E0.24906
G1 X209.147 Y144.875 E0.24905
G1 X211.556 Y150.178 E0.24906
G1 X213.558 Y155.638 E0.24863
G1 X214.698 Y159.913 E0.18914
G1 X215.37 Y164.275 E0.18872
G1 X215.57 Y168.684 E0.18872
G1 X215.296 Y173.09 E0.18872
G1 X214.551 Y177.441 E0.18872
G1 X213.343 Y181.686 E0.18872
G1 X211.686 Y185.777 E0.18872
G1 X209.599 Y189.667 E0.18872
G1 X207.105 Y193.314 E0.18891
G1 X203.982 Y197.022 E0.20728
G1 X200.525 Y200.427 E0.20746
G1 X196.767 Y203.497 E0.20747
G1 X192.741 Y206.206 E0.20747
G1 X188.482 Y208.53 E0.20746
G1 X184.025 Y210.449 E0.20747
G1 X179.41 Y211.947 E0.20747
G1 X174.675 Y213.01 E0.20747
G1 X169.863 Y213.631 E0.20747
G1 X165 Y213.802 E0.20803
G1 X160.137 Y213.631 E0.20803
G1 X155.325 Y213.01 E0.20747
G1 X150.59 Y211.947 E0.20747
G1 X145.975 Y210.449 E0.20747
G1 X141.518 Y208.53 E0.20747
G1 X137.259 Y206.206 E0.20747
G1 X133.233 Y203.497 E0.20747
G1 X129.475 Y200.427 E0.20747
G1 X126.018 Y197.022 E0.20747
G1 X122.895 Y193.314 E0.20728
G1 X120.401 Y189.667 E0.18891
G1 X118.314 Y185.777 E0.18872
G1 X116.657 Y181.686 E0.18872
G1 X115.449 Y177.441 E0.18872
G1 X114.704 Y173.09 E0.18872
G1 X114.43 Y168.684 E0.18872
G1 X114.63 Y164.275 E0.18872
G1 X115.302 Y159.913 E0.18872
G1 X116.442 Y155.638 E0.18914
G1 X118.444 Y150.178 E0.24863
G1 X120.853 Y144.875 E0.24906
G1 X123.651 Y139.766 E0.24906
G1 X126.823 Y134.879 E0.24905
G1 X130.71 Y129.771 E0.27445
G1 X130.349 Y128.077 E0.07406
G1 X130.305 Y126.997 E0.04623
G1 X130.444 Y125.924 E0.04623
G1 X130.763 Y124.891 E0.04623
G1 X131.251 Y123.926 E0.04623
G1 X131.895 Y123.058 E0.04623
G1 X132.676 Y122.31 E0.04623
G1 X133.572 Y121.706 E0.04623
G1 X134.558 Y121.261 E0.04623
G1 X135.604 Y120.989 E0.04623
G1 X136.732 Y120.893 E0.04841
G1 X157.134 Y120.893 E0.87231
G1 X156.979 Y120.464 F7200
G1 F1800
G1 X158.17 Y118.865 E0.08527
G1 X159.287 Y117.799 E0.066
G1 X160.566 Y116.935 E0.066
G1 X161.972 Y116.299 E0.066
G1 X163.465 Y115.907 E0.066
G1 X165 Y115.771 E0.06587
G1 X165.349 Y115.802 E0.01499
G1 X166.535 Y115.907 E0.05088
G1 X168.028 Y116.299 E0.066
G1 X169.434 Y116.935 E0.066
G1 X170.713 Y117.799 E0.066
G1 X171.83 Y118.865 E0.066
G1 X173.021 Y120.464 E0.08527
G1 X193.286 Y120.464 E0.86645
G1 X194.468 Y120.565 E0.05074
G1 X195.585 Y120.855 E0.04934
G1 X196.637 Y121.33 E0.04934
G1 X197.594 Y121.976 E0.04934
G1 X198.428 Y122.773 E0.04934
G1 X199.115 Y123.7 E0.04934
G1 X199.636 Y124.73 E0.04934
G1 X199.976 Y125.833 E0.04934
G1 X200.125 Y126.978 E0.04934
G1 X200.078 Y128.131 E0.04934
G1 X199.75 Y129.668 E0.06721
G1 X203.528 Y134.633 E0.26673
G1 X206.717 Y139.546 E0.25042
G1 X209.53 Y144.683 E0.25042
G1 X211.952 Y150.016 E0.25042
G1 X213.967 Y155.509 E0.25015
G1 X215.118 Y159.824 E0.19097
G1 X215.797 Y164.233 E0.1907
G1 X215.999 Y168.688 E0.19069
G1 X215.722 Y173.14 E0.1907
G1 X214.969 Y177.536 E0.1907
G1 X213.748 Y181.825 E0.19069
G1 X212.074 Y185.959 E0.1907
G1 X209.966 Y189.89 E0.19069
G1 X207.446 Y193.574 E0.19082
G1 X204.296 Y197.313 E0.20905
G1 X200.811 Y200.746 E0.20917
G1 X197.023 Y203.842 E0.20917
G1 X192.964 Y206.573 E0.20917
G1 X188.67 Y208.916 E0.20917
G1 X184.176 Y210.851 E0.20917
G1 X179.523 Y212.361 E0.20917
G1 X174.75 Y213.433 E0.20917
G1 X169.898 Y214.058 E0.20917
G1 X165 Y214.231 E0.20953
G1 X160.102 Y214.058 E0.20953
G1 X155.25 Y213.433 E0.20917
G1 X150.477 Y212.361 E0.20917
G1 X145.824 Y210.851 E0.20917
G1 X141.33 Y208.916 E0.20917
G1 X137.036 Y206.573 E0.20917
G1 X132.977 Y203.842 E0.20917
G1 X129.189 Y200.746 E0.20917
G1 X125.704 Y197.313 E0.20917
G1 X122.554 Y193.574 E0.20905
G1 X120.034 Y189.89 E0.19082
G1 X117.926 Y185.959 E0.19069
G1 X116.252 Y181.825 E0.1907
G1 X115.031 Y177.536 E0.19069
G1 X114.278 Y173.14 E0.19069
G1 X114.001 Y168.688 E0.1907
G1 X114.203 Y164.233 E0.19069
G1 X114.882 Y159.824 E0.1907
G1 X116.033 Y155.509 E0.19097
G1 X118.048 Y150.016 E0.25015
G1 X120.47 Y144.683 E0.25042
G1 X123.283 Y139.546 E0.25042
G1 X126.472 Y134.633 E0.25042
G1 X130.25 Y129.668 E0.26673
G1 X129.922 Y128.131 E0.06721
G1 X129.875 Y126.978 E0.04934
G1 X130.024 Y125.833 E0.04934
G1 X130.364 Y124.73 E0.04934
G1 X130.885 Y123.7 E0.04934
G1 X131.572 Y122.773 E0.04934
G1 X132.406 Y121.976 E0.04934
G1 X133.363 Y121.33 E0.04934
G1 X134.415 Y120.855 E0.04934
G1 X135.532 Y120.565 E0.04934
G1 X136.714 Y120.464 E0.05074
G1 X156.919 Y120.464 E0.86388
G1 X156.764 Y120.036 F7200
;TYPE:External perimeter
G1 F1800
G1 X157.848 Y118.58 E0.07762
G1 X159.017 Y117.464 E0.06909
G1 X160.356 Y116.56 E0.06909
G1 X161.828 Y115.893 E0.06909
G1 X163.392 Y115.483 E0.06909
G1 X165 Y115.341 E0.06904
G1 X165.387 Y115.375 E0.0166
G1 X166.608 Y115.483 E0.05243
G1 X168.172 Y115.893 E0.06909
G1 X169.644 Y116.56 E0.06909
G1 X170.983 Y117.464 E0.06909
G1 X172.152 Y118.58 E0.06909
G1 X173.236 Y120.036 E0.07762
G1 X193.304 Y120.036 E0.85802
G1 X194.541 Y120.141 E0.05308
G1 X195.728 Y120.45 E0.05246
G1 X196.847 Y120.955 E0.05246
G1 X197.864 Y121.641 E0.05246
G1 X198.75 Y122.489 E0.05246
G1 X199.481 Y123.474 E0.05246
G1 X200.035 Y124.569 E0.05246
G1 X200.396 Y125.742 E0.05246
G1 X200.554 Y126.958 E0.05246
G1 X200.505 Y128.184 E0.05246
G1 X200.21 Y129.565 E0.06036
G1 X203.879 Y134.386 E0.25901
G1 X207.085 Y139.326 E0.25179
G1 X209.914 Y144.491 E0.25179
G1 X212.349 Y149.853 E0.25179
G1 X214.376 Y155.379 E0.25167
G1 X215.538 Y159.736 E0.19279
G1 X216.224 Y164.19 E0.19267
G1 X216.429 Y168.692 E0.19267
G1 X216.149 Y173.189 E0.19267
G1 X215.388 Y177.631 E0.19267
G1 X214.154 Y181.965 E0.19267
G1 X212.463 Y186.142 E0.19267
G1 X210.333 Y190.113 E0.19267
G1 X207.788 Y193.833 E0.19272
G1 X204.611 Y197.604 E0.21082
G1 X201.098 Y201.066 E0.21087
G1 X197.279 Y204.186 E0.21087
G1 X193.187 Y206.94 E0.21087
G1 X188.857 Y209.302 E0.21087
G1 X184.327 Y211.252 E0.21087
G1 X179.636 Y212.774 E0.21087
G1 X174.824 Y213.855 E0.21087
G1 X169.933 Y214.486 E0.21087
G1 X165 Y214.66 E0.21103
G1 X160.067 Y214.486 E0.21103
G1 X155.176 Y213.855 E0.21087
G1 X150.364 Y212.774 E0.21087
G1 X145.673 Y211.252 E0.21087
G1 X141.143 Y209.302 E0.21087
G1 X136.813 Y206.94 E0.21087
G1 X132.721 Y204.186 E0.21087
G1 X128.902 Y201.066 E0.21087
G1 X125.389 Y197.604 E0.21087
G1 X122.212 Y193.833 E0.21082
G1 X119.667 Y190.113 E0.19272
G1 X117.537 Y186.142 E0.19267
G1 X115.846 Y181.965 E0.19267
G1 X114.612 Y177.631 E0.19267
G1 X113.851 Y173.189 E0.19267
G1 X113.571 Y168.692 E0.19267
G1 X113.776 Y164.19 E0.19267
G1 X114.462 Y159.736 E0.19267
G1 X115.624 Y155.379 E0.19279
G1 X117.651 Y149.853 E0.25167
G1 X120.086 Y144.491 E0.25179
G1 X122.915 Y139.326 E0.25179
G1 X126.121 Y134.386 E0.25179
G1 X129.79 Y129.565 E0.25901
G1 X129.495 Y128.184 E0.06036
G1 X129.446 Y126.958 E0.05246
G1 X129.604 Y125.742 E0.05246
G1 X129.965 Y124.569 E0.05246
G1 X130.519 Y123.474 E0.05246
G1 X131.25 Y122.489 E0.05246
G1 X132.136 Y121.641 E0.05246
G1 X133.153 Y120.955 E0.05246
G1 X134.272 Y120.45 E0.05246
G1 X135.459 Y120.141 E0.05246
G1 X136.696 Y120.036 E0.05308
G1 X156.704 Y120.036 E0.85546
;WIPE_START
G1 X157.128 Y120.201 F7200
;WIPE_END
G1 X198.746 Y124.062
;TYPE:Solid infill
;WIDTH:0.47872
G1 F3600
G1 X197.649 Y122.965 E0.06618
G1 X197.167 Y122.505 E0.02839
G1 X196.306 Y121.924 E0.0443
G1 X195.75 Y121.673 E0.02601
G1 X198.949 Y124.871 E0.19287
G1 X199.006 Y124.984 E0.00543
G1 X199.251 Y125.779 E0.03546
G1 X194.83 Y121.359 E0.26658
G1 X194.354 Y121.235 E0.02099
G1 X194.077 Y121.211 E0.01185
G1 X199.382 Y126.516 E0.31992
G1 X199.446 Y127.008 E0.02113
G1 X199.439 Y127.179 E0.00732
G1 X193.415 Y121.155 E0.36329
G1 X193.257 Y121.141 E0.00673
G1 X192.795 Y121.141 E0.0197
G1 X199.415 Y127.762 E0.39922
G1 X199.404 Y128.046 E0.01213
G1 X199.349 Y128.302 E0.01115
G1 X192.189 Y121.141 E0.43179
G1 X191.583 Y121.141 E0.02584
G1 X199.243 Y128.801 E0.46191
G1 X199.136 Y129.301 E0.02178
G1 X190.977 Y121.141 E0.49203
G1 X190.371 Y121.141 E0.02584
G1 X199.03 Y129.8 E0.52215
G1 X199.023 Y129.831 E0.00134
G1 X200.833 Y132.21 E0.12746
G1 X189.765 Y121.141 E0.66746
G1 X189.159 Y121.141 E0.02584
G1 X202.762 Y134.744 E0.82031
G1 X202.974 Y135.023 E0.01491
G1 X203.972 Y136.56 E0.07816
G1 X188.553 Y121.141 E0.9298
G1 X187.947 Y121.141 E0.02584
G1 X205.093 Y138.287 E1.03395
G1 X206.135 Y139.893 E0.08165
G1 X206.187 Y139.987 E0.00456
G1 X187.341 Y121.141 E1.13645
G1 X186.735 Y121.141 E0.02584
G1 X206.92 Y141.326 E1.21724
G1 X207.654 Y142.666 E0.06513
G1 X186.129 Y121.141 E1.29802
G1 X185.523 Y121.141 E0.02584
G1 X208.388 Y144.006 E1.37881
G1 X208.924 Y144.986 E0.04766
G1 X209.06 Y145.284 E0.01395
G1 X184.917 Y121.141 E1.45588
G1 X184.311 Y121.141 E0.02584
G1 X209.564 Y146.394 E1.52283
G1 X210.068 Y147.504 E0.05199
G1 X183.705 Y121.141 E1.58978
G1 X183.099 Y121.141 E0.02584
G1 X210.572 Y148.614 E1.65673
G1 X211.077 Y149.724 E0.05199
G1 X182.493 Y121.141 E1.72368
G1 X181.888 Y121.141 E0.02584
G1 X211.503 Y150.757 E1.78595
G1 X211.854 Y151.714 E0.04347
G1 X181.282 Y121.141 E1.84367
G1 X180.676 Y121.141 E0.02584
G1 X212.205 Y152.671 E1.90138
G1 X212.557 Y153.628 E0.04347
G1 X180.07 Y121.141 E1.9591
G1 X179.464 Y121.141 E0.02584
G1 X212.908 Y154.585 E2.01682
G1 X213.259 Y155.543 E0.04347
G1 X178.858 Y121.141 E2.07453
G1 X178.252 Y121.141 E0.02584
G1 X213.502 Y156.392 E2.12576
G1 X213.722 Y157.218 E0.03646
G1 X177.646 Y121.141 E2.17558
G1 X177.04 Y121.141 E0.02584
G1 X213.943 Y158.044 E2.2254
G1 X214.163 Y158.871 E0.03646
G1 X176.434 Y121.141 E2.27522
G1 X175.828 Y121.141 E0.02584
G1 X214.383 Y159.697 E2.32505
G1 X214.454 Y159.964 E0.01178
G1 X214.529 Y160.449 E0.02092
G1 X175.222 Y121.141 E2.37039
G1 X174.616 Y121.141 E0.02584
G1 X214.639 Y161.165 E2.41359
G1 X214.75 Y161.881 E0.03091
G1 X174.01 Y121.141 E2.45679
G1 X173.404 Y121.141 E0.02584
G1 X214.86 Y162.598 E2.49999
G1 X214.971 Y163.314 E0.03091
G1 X169.355 Y117.699 E2.75081
G1 X169.103 Y117.528 E0.01298
G1 X168.145 Y117.095 E0.04481
G1 X215.081 Y164.031 E2.83042
G1 X215.122 Y164.3 E0.01161
G1 X215.14 Y164.696 E0.01692
G1 X167.235 Y116.79 E2.88891
G1 X166.414 Y116.576 E0.03617
G1 X215.169 Y165.331 E2.94013
G1 X215.198 Y165.966 E0.0271
G1 X165.75 Y116.517 E2.98195
G1 X165.29 Y116.477 E0.01969
G1 X165.085 Y116.459 E0.00876
G1 X215.227 Y166.6 E3.02376
G1 X215.256 Y167.235 E0.0271
G1 X164.514 Y116.494 E3.05991
G1 X163.958 Y116.543 E0.02384
G1 X215.285 Y167.87 E3.09523
G1 X215.313 Y168.505 E0.0271
G1 X163.426 Y116.617 E3.12905
G1 X162.946 Y116.743 E0.02116
G1 X215.296 Y169.093 E3.15694
