; generated by SuperSlicer 2.3.57 on 2022-02-06 at 02:34:01 UTC


;
;

;
;
; 

; external perimeters extrusion width = 0.20mm
; perimeters extrusion width = 0.23mm
; infill extrusion width = 0.36mm
; solid infill extrusion width = 0.28mm
; top infill extrusion width = 0.20mm
; first layer extrusion width = 0.24mm

; external perimeters extrusion width = 0.20mm
; perimeters extrusion width = 0.23mm
; infill extrusion width = 0.36mm
; solid infill extrusion width = 0.28mm
; top infill extrusion width = 0.20mm
; first layer extrusion width = 0.24mm

; external perimeters extrusion width = 0.20mm
; perimeters extrusion width = 0.23mm
; infill extrusion width = 0.36mm
; solid infill extrusion width = 0.28mm
; top infill extrusion width = 0.20mm
; first layer extrusion width = 0.24mm

; external perimeters extrusion width = 0.20mm
; perimeters extrusion width = 0.23mm
; infill extrusion width = 0.36mm
; solid infill extrusion width = 0.28mm
; top infill extrusion width = 0.20mm
; first layer extrusion width = 0.24mm

; external perimeters extrusion width = 0.20mm
; perimeters extrusion width = 0.23mm
; infill extrusion width = 0.36mm
; solid infill extrusion width = 0.28mm
; top infill extrusion width = 0.20mm
; first layer extrusion width = 0.24mm

; object:{"name":"Part7-white","id":"Part7-white.STL id:0 copy 0","object_center":[165.310090,163.277316,0.000000],"boundingbox_center":[165.310090,163.277316,0.615000],"boundingbox_size":[3.240052,3.240052,1.230000]}
; object:{"name":"Part8-white2x","id":"Part8-white2x.STL id:1 copy 0","object_center":[163.759772,166.665992,0.000000],"boundingbox_center":[163.759772,166.665992,0.615000],"boundingbox_size":[1.379765,2.535117,1.230000]}
; object:{"name":"Part8-white2x","id":"Part8-white2x.STL id:2 copy 0","object_center":[166.139513,167.074695,0.000000],"boundingbox_center":[166.139513,167.074695,0.615000],"boundingbox_size":[1.379765,2.535117,1.230000]}
; plater:{"center":[165.000003,164.999772,0.000000],"boundingbox_center":[165.000003,164.999772,0.615000],"boundingbox_size":[3.860227,6.684963,1.230000]}

;TYPE:Custom
START_PRINT T_BED=60 T_EXTRUDER=200
M107
G21 ; set units to millimeters
G90 ; use absolute coordinates
M83 ; use relative distances for extrusion
; Filament gcode
M104 S200 ; set temperature
M109 S200 ; set temperature and wait for it to be reached
M190 S60 ; set bed temperature and wait for it to be reached
;LAYER_CHANGE
;Z:0.14
;HEIGHT:0.14
G1 Z0.14 F7200
G1 E-0.6 F3000
G1 X157.718 Y155.721 F7200
G1 E0.6 F1800
;TYPE:Skirt
;WIDTH:0.24
G1 X156.964 Y156.564 E0.01381
G1 X156.313 Y157.465 E0.01359
G1 X155.836 Y158.279 E0.01153
G1 X155.337 Y159.372 E0.01468
G1 X155.015 Y160.314 E0.01217
G1 X154.791 Y161.278 E0.01209
G1 X154.096 Y164.819 E0.0441
G1 X153.985 Y165.999 E0.01448
G1 X153.995 Y167.113 E0.01361
G1 X154.099 Y168.096 E0.01208
G1 X154.363 Y169.409 E0.01637
G1 X154.724 Y170.524 E0.01432
G1 X155.109 Y171.41 E0.0118
G1 X155.649 Y172.388 E0.01366
G1 X156.327 Y173.345 E0.01433
G1 X157.013 Y174.118 E0.01263
G1 X157.871 Y174.899 E0.01418
G1 X158.634 Y175.453 E0.01153
G1 X159.512 Y175.966 E0.01242
G1 X160.356 Y176.352 E0.01135
G1 X161.242 Y176.653 E0.01144
G1 X162.096 Y176.852 E0.01071
G1 X165.012 Y177.346 E0.03614
G1 X165.884 Y177.425 E0.01071
G1 X166.76 Y177.422 E0.01071
G1 X167.883 Y177.294 E0.01381
G1 X168.982 Y177.029 E0.01381
G1 X170.127 Y176.6 E0.01493
G1 X171.13 Y176.08 E0.01381
G1 X172.074 Y175.432 E0.014
G1 X172.972 Y174.638 E0.01465
G1 X173.715 Y173.806 E0.01363
G1 X174.376 Y172.861 E0.01409
G1 X174.854 Y171.996 E0.01208
G1 X175.272 Y171.013 E0.01305
G1 X175.546 Y170.142 E0.01116
G1 X175.779 Y169.068 E0.01343
G1 X175.914 Y167.727 E0.01647
G1 X176.014 Y163.601 E0.05044
G1 X176.003 Y162.646 E0.01167
G1 X175.898 Y161.656 E0.01217
G1 X175.661 Y160.524 E0.01414
G1 X175.383 Y159.63 E0.01144
G1 X174.991 Y158.703 E0.01231
G1 X174.59 Y157.924 E0.01071
G1 X174.117 Y157.186 E0.01071
G1 X173.471 Y156.337 E0.01304
G1 X172.795 Y155.617 E0.01208
G1 X171.986 Y154.9 E0.0132
G1 X171.229 Y154.349 E0.01144
G1 X170.342 Y153.82 E0.01263
G1 X169.312 Y153.344 E0.01386
G1 X168.352 Y153.005 E0.01244
G1 X167.285 Y152.753 E0.0134
G1 X166.389 Y152.618 E0.01107
G1 X165.476 Y152.572 E0.01116
G1 X164.171 Y152.624 E0.01596
G1 X162.863 Y152.853 E0.01624
G1 X161.776 Y153.164 E0.01381
G1 X160.649 Y153.636 E0.01493
G1 X159.695 Y154.154 E0.01327
G1 X158.7 Y154.848 E0.01483
G1 X157.74 Y155.701 E0.01569
G1 X157.88 Y155.858 F7200
G1 F1800
G1 X157.857 Y155.88 E0.00039
G1 X157.118 Y156.708 E0.01357
G1 X156.485 Y157.585 E0.01321
G1 X156.018 Y158.383 E0.01131
G1 X155.527 Y159.461 E0.01447
G1 X155.213 Y160.386 E0.01194
G1 X154.995 Y161.327 E0.0118
G1 X154.304 Y164.851 E0.04388
G1 X154.195 Y166.016 E0.0143
G1 X154.205 Y167.111 E0.01338
G1 X154.307 Y168.068 E0.01176
G1 X154.567 Y169.362 E0.01613
G1 X154.922 Y170.453 E0.01403
G1 X155.299 Y171.322 E0.01158
G1 X155.831 Y172.284 E0.01343
G1 X156.497 Y173.221 E0.01405
G1 X157.171 Y173.979 E0.01239
G1 X158.014 Y174.745 E0.01392
G1 X158.763 Y175.287 E0.01131
G1 X159.62 Y175.785 E0.01211
G1 X160.455 Y176.165 E0.01122
G1 X161.318 Y176.456 E0.01113
G1 X162.14 Y176.647 E0.01031
G1 X165.047 Y177.138 E0.03603
G1 X165.902 Y177.216 E0.01049
G1 X166.753 Y177.212 E0.0104
G1 X167.856 Y177.085 E0.01357
G1 X168.935 Y176.824 E0.01357
G1 X170.051 Y176.404 E0.01458
G1 X171.043 Y175.888 E0.01366
G1 X171.968 Y175.248 E0.01375
G1 X172.846 Y174.467 E0.01437
G1 X173.568 Y173.653 E0.01329
G1 X174.216 Y172.72 E0.01389
G1 X174.676 Y171.883 E0.01167
G1 X175.084 Y170.916 E0.01282
G1 X175.349 Y170.068 E0.01085
G1 X175.575 Y169.017 E0.01314
G1 X175.704 Y167.713 E0.01601
G1 X175.804 Y163.592 E0.05039
G1 X175.793 Y162.651 E0.01149
G1 X175.689 Y161.68 E0.01194
G1 X175.457 Y160.572 E0.01384
G1 X175.186 Y159.702 E0.01113
G1 X174.8 Y158.788 E0.01212
G1 X174.41 Y158.032 E0.0104
G1 X173.946 Y157.309 E0.01049
G1 X173.315 Y156.478 E0.01276
G1 X172.652 Y155.771 E0.01185
G1 X171.857 Y155.066 E0.01298
G1 X171.115 Y154.525 E0.01122
G1 X170.244 Y154.006 E0.0124
G1 X169.236 Y153.54 E0.01357
G1 X168.294 Y153.207 E0.01221
G1 X167.242 Y152.959 E0.01321
G1 X166.363 Y152.827 E0.01085
G1 X165.476 Y152.782 E0.01085
G1 X164.19 Y152.834 E0.01574
G1 X162.907 Y153.059 E0.01592
G1 X161.84 Y153.364 E0.01357
G1 X160.731 Y153.83 E0.0147
G1 X159.795 Y154.339 E0.01302
G1 X158.818 Y155.022 E0.01457
G1 X157.903 Y155.838 E0.01498
G1 X158.043 Y155.995 F7200
G1 F1800
G1 X158.001 Y156.032 E0.00068
G1 X157.276 Y156.846 E0.01332
G1 X156.658 Y157.704 E0.01292
G1 X156.2 Y158.487 E0.01108
G1 X155.721 Y159.543 E0.01417
G1 X155.413 Y160.451 E0.01171
G1 X155.201 Y161.369 E0.01152
G1 X154.511 Y164.882 E0.04376
G1 X154.404 Y166.025 E0.01403
G1 X154.415 Y167.101 E0.01315
G1 X154.514 Y168.032 E0.01144
G1 X154.77 Y169.306 E0.01589
G1 X155.117 Y170.375 E0.01373
G1 X155.487 Y171.227 E0.01135
G1 X156.006 Y172.167 E0.01312
G1 X156.662 Y173.092 E0.01385
G1 X157.323 Y173.835 E0.01216
G1 X158.15 Y174.585 E0.01365
G1 X158.88 Y175.112 E0.01099
G1 X159.72 Y175.601 E0.01188
G1 X160.533 Y175.97 E0.01091
G1 X161.378 Y176.255 E0.01091
G1 X162.176 Y176.44 E0.01001
G1 X165.074 Y176.93 E0.03591
G1 X165.904 Y177.006 E0.01019
G1 X166.745 Y177.002 E0.01028
G1 X167.821 Y176.878 E0.01323
G1 X168.879 Y176.621 E0.01332
G1 X169.982 Y176.205 E0.01441
G1 X170.948 Y175.7 E0.01332
G1 X171.855 Y175.07 E0.01349
G1 X172.714 Y174.302 E0.01408
G1 X173.42 Y173.501 E0.01305
G1 X174.052 Y172.586 E0.01359
G1 X174.5 Y171.764 E0.01144
G1 X174.896 Y170.82 E0.0125
G1 X175.151 Y169.995 E0.01055
G1 X175.371 Y168.959 E0.01294
G1 X175.494 Y167.7 E0.01546
G1 X175.594 Y163.59 E0.05024
G1 X175.583 Y162.657 E0.0114
G1 X175.482 Y161.711 E0.01162
G1 X175.25 Y160.612 E0.01373
G1 X174.983 Y159.761 E0.01091
G1 X174.605 Y158.868 E0.01185
G1 X174.223 Y158.127 E0.01019
G1 X173.771 Y157.426 E0.01019
G1 X173.149 Y156.607 E0.01256
G1 X172.503 Y155.919 E0.01153
G1 X171.727 Y155.231 E0.01268
G1 X171 Y154.701 E0.01099
G1 X170.146 Y154.191 E0.01216
G1 X169.153 Y153.732 E0.01337
G1 X168.228 Y153.407 E0.01198
G1 X167.199 Y153.164 E0.01292
G1 X166.338 Y153.035 E0.01064
G1 X165.476 Y152.992 E0.01055
G1 X164.216 Y153.042 E0.01542
G1 X162.951 Y153.264 E0.01569
G1 X161.911 Y153.562 E0.01323
G1 X160.82 Y154.02 E0.01446
G1 X159.908 Y154.516 E0.01269
G1 X158.948 Y155.187 E0.01431
G1 X158.065 Y155.975 E0.01446
G1 X158.205 Y156.132 F7200
G1 F1800
G1 X158.14 Y156.19 E0.00107
G1 X157.431 Y156.99 E0.01307
G1 X156.827 Y157.829 E0.01264
G1 X156.383 Y158.591 E0.01077
G1 X155.914 Y159.625 E0.01387
G1 X155.614 Y160.515 E0.01148
G1 X155.407 Y161.41 E0.01123
G1 X154.719 Y164.914 E0.04363
G1 X154.614 Y166.034 E0.01375
G1 X154.625 Y167.098 E0.013
G1 X154.723 Y168.01 E0.01122
G1 X154.976 Y169.265 E0.01565
G1 X155.319 Y170.318 E0.01353
G1 X155.681 Y171.146 E0.01104
G1 X156.192 Y172.068 E0.01289
G1 X156.836 Y172.973 E0.01357
G1 X157.48 Y173.695 E0.01183
G1 X158.298 Y174.435 E0.01347
G1 X159.008 Y174.945 E0.01069
G1 X159.833 Y175.423 E0.01165
G1 X160.623 Y175.78 E0.0106
G1 X161.452 Y176.058 E0.01069
G1 X162.22 Y176.235 E0.00963
G1 X165.107 Y176.723 E0.03578
G1 X165.928 Y176.797 E0.01007
G1 X166.744 Y176.792 E0.00998
G1 X167.799 Y176.669 E0.01298
G1 X168.838 Y176.414 E0.01307
G1 X169.913 Y176.006 E0.01405
G1 X170.859 Y175.508 E0.01307
G1 X171.742 Y174.892 E0.01316
G1 X172.581 Y174.137 E0.01379
G1 X173.268 Y173.355 E0.01271
G1 X173.891 Y172.446 E0.01347
G1 X174.321 Y171.652 E0.01104
G1 X174.707 Y170.724 E0.01228
G1 X174.952 Y169.923 E0.01024
G1 X175.167 Y168.91 E0.01265
G1 X175.285 Y167.687 E0.01501
G1 X175.384 Y163.588 E0.0501
G1 X175.373 Y162.655 E0.0114
G1 X175.272 Y161.729 E0.01139
G1 X175.044 Y160.654 E0.01343
G1 X174.784 Y159.826 E0.0106
G1 X174.411 Y158.948 E0.01166
G1 X174.039 Y158.229 E0.00989
G1 X173.597 Y157.542 E0.00998
G1 X172.989 Y156.742 E0.01228
G1 X172.355 Y156.068 E0.0113
G1 X171.593 Y155.392 E0.01246
G1 X170.886 Y154.877 E0.01069
G1 X170.048 Y154.377 E0.01193
G1 X169.076 Y153.928 E0.01308
G1 X168.17 Y153.608 E0.01174
G1 X167.164 Y153.371 E0.01263
G1 X166.328 Y153.245 E0.01033
G1 X165.476 Y153.202 E0.01042
G1 X164.234 Y153.251 E0.01519
G1 X162.996 Y153.469 E0.01537
G1 X161.975 Y153.762 E0.01298
G1 X160.902 Y154.213 E0.01422
G1 X160.008 Y154.701 E0.01245
G1 X159.067 Y155.361 E0.01405
G1 X158.228 Y156.112 E0.01376
G1 X158.368 Y156.268 F7200
G1 F1800
G1 X158.28 Y156.347 E0.00145
G1 X157.585 Y157.133 E0.01282
G1 X156.996 Y157.954 E0.01235
G1 X156.563 Y158.701 E0.01055
G1 X156.105 Y159.713 E0.01357
G1 X155.812 Y160.585 E0.01125
G1 X154.927 Y164.945 E0.05437
G1 X154.824 Y166.05 E0.01356
G1 X154.835 Y167.094 E0.01276
G1 X154.931 Y167.981 E0.0109
G1 X155.18 Y169.217 E0.0154
G1 X155.517 Y170.247 E0.01324
G1 X155.871 Y171.057 E0.01082
G1 X156.37 Y171.957 E0.01257
G1 X157.005 Y172.848 E0.01337
G1 X157.638 Y173.555 E0.0116
G1 X158.44 Y174.279 E0.0132
G1 X159.136 Y174.778 E0.01047
G1 X159.939 Y175.241 E0.01133
G1 X160.713 Y175.59 E0.01038
G1 X161.519 Y175.859 E0.01038
G1 X162.264 Y176.029 E0.00933
G1 X165.14 Y176.516 E0.03565
G1 X165.936 Y176.587 E0.00977
G1 X166.736 Y176.582 E0.00977
G1 X167.77 Y176.461 E0.01273
G1 X168.782 Y176.212 E0.01273
G1 X169.836 Y175.81 E0.01378
G1 X170.763 Y175.321 E0.01282
G1 X171.622 Y174.719 E0.01282
G1 X172.448 Y173.974 E0.01359
G1 X173.119 Y173.205 E0.01247
G1 X173.726 Y172.314 E0.01318
G1 X174.141 Y171.54 E0.01073
G1 X174.518 Y170.629 E0.01204
G1 X174.803 Y169.656 E0.0124
G1 X174.963 Y168.853 E0.01
G1 X175.075 Y167.681 E0.01439
G1 X175.174 Y163.586 E0.05005
G1 X175.163 Y162.669 E0.01121
G1 X175.066 Y161.768 E0.01108
G1 X174.842 Y160.709 E0.01322
G1 X174.587 Y159.899 E0.01038
G1 X174.223 Y159.041 E0.01139
G1 X173.859 Y158.337 E0.00968
G1 X173.426 Y157.665 E0.00977
G1 X172.833 Y156.883 E0.012
G1 X172.213 Y156.222 E0.01108
G1 X171.463 Y155.558 E0.01224
G1 X170.771 Y155.053 E0.01047
G1 X169.95 Y154.563 E0.01169
G1 X168.994 Y154.121 E0.01287
G1 X168.112 Y153.81 E0.01143
G1 X167.122 Y153.577 E0.01243
G1 X166.303 Y153.454 E0.01012
G1 X165.476 Y153.412 E0.01012
G1 X164.253 Y153.46 E0.01496
G1 X163.034 Y153.676 E0.01513
G1 X162.032 Y153.964 E0.01273
G1 X160.985 Y154.406 E0.01389
G1 X160.115 Y154.882 E0.01212
G1 X159.191 Y155.53 E0.01378
G1 X158.39 Y156.248 E0.01315
G1 X158.531 Y156.404 F7200
G1 F1800
G1 X158.42 Y156.504 E0.00182
G1 X157.74 Y157.276 E0.01257
G1 X157.166 Y158.079 E0.01206
G1 X156.746 Y158.804 E0.01025
G1 X156.296 Y159.8 E0.01335
G1 X156.012 Y160.649 E0.01094
G1 X155.134 Y164.976 E0.05396
G1 X155.033 Y166.066 E0.01337
G1 X155.045 Y167.091 E0.01253
G1 X155.139 Y167.952 E0.01059
G1 X155.385 Y169.168 E0.01516
G1 X155.714 Y170.175 E0.01295
G1 X156.062 Y170.969 E0.01059
G1 X156.552 Y171.852 E0.01234
G1 X157.173 Y172.723 E0.01308
G1 X157.795 Y173.415 E0.01137
G1 X158.581 Y174.123 E0.01293
G1 X159.258 Y174.606 E0.01016
G1 X160.051 Y175.062 E0.01117
G1 X160.81 Y175.402 E0.01016
G1 X161.592 Y175.661 E0.01008
G1 X162.307 Y175.824 E0.00896
G1 X165.165 Y176.307 E0.03542
G1 X165.951 Y176.377 E0.00965
G1 X166.733 Y176.372 E0.00956
G1 X167.741 Y176.253 E0.0124
G1 X168.733 Y176.007 E0.01248
G1 X169.764 Y175.612 E0.0135
G1 X170.673 Y175.13 E0.01257
G1 X171.514 Y174.537 E0.01257
G1 X172.324 Y173.8 E0.01339
G1 X172.974 Y173.049 E0.01214
G1 X173.568 Y172.17 E0.01296
G1 X173.964 Y171.423 E0.01033
G1 X174.329 Y170.535 E0.01173
G1 X174.606 Y169.579 E0.01217
G1 X174.759 Y168.797 E0.00973
G1 X174.865 Y167.668 E0.01387
G1 X174.964 Y163.577 E0.05
G1 X174.953 Y162.668 E0.01111
G1 X174.856 Y161.785 E0.01085
G1 X174.636 Y160.751 E0.01292
G1 X174.387 Y159.965 E0.01008
G1 X174.029 Y159.122 E0.0112
G1 X173.676 Y158.44 E0.00939
G1 X173.256 Y157.788 E0.00947
G1 X172.672 Y157.019 E0.0118
G1 X172.065 Y156.371 E0.01085
G1 X171.334 Y155.723 E0.01193
G1 X170.657 Y155.229 E0.01025
G1 X169.852 Y154.749 E0.01145
G1 X168.918 Y154.317 E0.01258
G1 X168.054 Y154.012 E0.01119
G1 X167.08 Y153.783 E0.01223
G1 X166.278 Y153.662 E0.0099
G1 X165.476 Y153.622 E0.00982
G1 X164.279 Y153.669 E0.01464
G1 X163.079 Y153.881 E0.0149
G1 X162.104 Y154.162 E0.0124
G1 X161.075 Y154.596 E0.01365
G1 X160.222 Y155.063 E0.01188
G1 X159.316 Y155.699 E0.01352
G1 X158.553 Y156.384 E0.01254
G1 X158.693 Y156.541 F7200
G1 F1800
G1 X158.56 Y156.66 E0.00219
G1 X157.895 Y157.419 E0.01232
G1 X157.34 Y158.197 E0.01169
G1 X156.929 Y158.907 E0.01003
G1 X156.488 Y159.887 E0.01313
G1 X156.211 Y160.719 E0.01071
G1 X155.342 Y165.007 E0.05348
G1 X155.243 Y166.074 E0.01309
G1 X155.255 Y167.087 E0.01237
G1 X155.347 Y167.923 E0.01029
G1 X155.589 Y169.119 E0.01491
G1 X155.914 Y170.11 E0.01274
G1 X156.252 Y170.88 E0.01029
G1 X156.73 Y171.741 E0.01203
G1 X157.342 Y172.598 E0.01287
G1 X157.947 Y173.27 E0.01105
G1 X158.722 Y173.967 E0.01274
G1 X159.385 Y174.439 E0.00995
G1 X160.155 Y174.88 E0.01084
G1 X160.892 Y175.209 E0.00986
G1 X161.658 Y175.462 E0.00986
G1 X162.35 Y175.618 E0.00867
G1 X165.196 Y176.099 E0.03527
G1 X165.959 Y176.168 E0.00935
G1 X166.731 Y176.162 E0.00944
G1 X167.718 Y176.044 E0.01215
G1 X168.683 Y175.803 E0.01215
G1 X169.692 Y175.414 E0.01322
G1 X170.582 Y174.939 E0.01232
G1 X171.399 Y174.36 E0.01224
G1 X172.19 Y173.638 E0.01309
G1 X172.82 Y172.904 E0.01181
G1 X173.402 Y172.039 E0.01275
G1 X173.784 Y171.313 E0.01003
G1 X174.139 Y170.442 E0.01149
G1 X174.405 Y169.514 E0.01179
G1 X174.554 Y168.749 E0.00952
G1 X174.656 Y167.655 E0.01343
G1 X174.754 Y163.575 E0.04987
G1 X174.743 Y162.675 E0.01101
G1 X174.648 Y161.818 E0.01054
G1 X174.431 Y160.801 E0.01271
G1 X174.19 Y160.038 E0.00978
G1 X173.838 Y159.209 E0.01101
G1 X173.492 Y158.542 E0.00918
G1 X173.082 Y157.905 E0.00927
G1 X172.512 Y157.154 E0.01151
G1 X171.917 Y156.52 E0.01062
G1 X171.2 Y155.885 E0.01171
G1 X170.536 Y155.401 E0.01003
G1 X169.754 Y154.934 E0.01113
G1 X168.836 Y154.51 E0.01237
G1 X167.989 Y154.212 E0.01096
G1 X167.038 Y153.989 E0.01194
G1 X166.261 Y153.871 E0.00961
G1 X165.476 Y153.832 E0.00961
G1 X164.298 Y153.878 E0.0144
G1 X163.124 Y154.086 E0.01457
G1 X162.169 Y154.361 E0.01215
G1 X161.158 Y154.789 E0.01341
G1 X160.329 Y155.243 E0.01156
G1 X159.436 Y155.872 E0.01334
G1 X158.716 Y156.52 E0.01185
G1 X158.856 Y156.676 F7200
G1 F1800
G1 X158.706 Y156.812 E0.00247
