; generated by SuperSlicer 2.3.57 on 2022-02-08 at 23:48:32 UTC


;
;

;
;
; 

; external perimeters extrusion width = 0.20mm
; perimeters extrusion width = 0.20mm
; infill extrusion width = 0.36mm
; solid infill extrusion width = 0.20mm
; top infill extrusion width = 0.20mm
; first layer extrusion width = 0.24mm


;TYPE:Custom
START_PRINT T_BED=60 T_EXTRUDER=200
M107
G21 ; set units to millimeters
G90 ; use absolute coordinates
M83 ; use relative distances for extrusion
; Filament gcode
M104 S200 ; set temperature
M109 S200 ; set temperature and wait for it to be reached
M190 S60 ; set bed temperature and wait for it to be reached
;LAYER_CHANGE
;Z:0.1
;HEIGHT:0.1
G1 Z0.1 F9000
G1 E-0.6 F3000
G1 X142.396 Y140.454 F9000
G1 E0.6 F1800
;TYPE:Skirt
;WIDTH:0.24
G1 F600
G1 X141.931 Y141.031 E0.00672
G1 X141.526 Y141.657 E0.00678
G1 X141.177 Y142.348 E0.00704
G1 X140.898 Y143.095 E0.00724
G1 X140.708 Y143.851 E0.00709
G1 X140.597 Y144.692 E0.00771
G1 X140.592 Y154.826 E0.09207
G1 X140.651 Y155.706 E0.00801
G1 X140.785 Y156.438 E0.00677
G1 X141.028 Y157.244 E0.00765
G1 X141.42 Y158.126 E0.00877
G1 X141.831 Y158.808 E0.00723
G1 X142.349 Y159.479 E0.0077
G1 X142.892 Y160.037 E0.00708
G1 X143.508 Y160.542 E0.00723
G1 X144.161 Y160.967 E0.00708
G1 X144.851 Y161.316 E0.00703
G1 X145.597 Y161.595 E0.00723
G1 X146.347 Y161.784 E0.00703
G1 X147.187 Y161.895 E0.0077
G1 X157.307 Y161.916 E0.09194
G1 X158.192 Y161.858 E0.00806
G1 X158.925 Y161.725 E0.00677
G1 X159.731 Y161.482 E0.00765
G1 X160.613 Y161.09 E0.00877
G1 X161.295 Y160.68 E0.00723
G1 X161.967 Y160.163 E0.0077
G1 X162.525 Y159.62 E0.00708
G1 X163.031 Y159.005 E0.00723
G1 X163.46 Y158.347 E0.00713
G1 X163.824 Y157.62 E0.00739
G1 X164.117 Y156.807 E0.00786
G1 X164.302 Y156.009 E0.00744
G1 X164.403 Y155.023 E0.009
G1 X164.422 Y145.079 E0.09035
G1 X164.317 Y143.992 E0.00992
G1 X164.106 Y143.106 E0.00828
G1 X163.713 Y142.111 E0.00972
G1 X163.44 Y141.598 E0.00528
G1 X163.093 Y141.064 E0.00579
G1 X162.425 Y140.264 E0.00946
G1 X162.015 Y139.87 E0.00517
G1 X161.519 Y139.469 E0.00579
G1 X160.636 Y138.916 E0.00946
G1 X160.118 Y138.667 E0.00522
G1 X159.516 Y138.439 E0.00585
G1 X158.516 Y138.191 E0.00936
G1 X157.952 Y138.115 E0.00517
G1 X157.304 Y138.084 E0.0059
G1 X147.623 Y138.085 E0.08796
G1 X146.901 Y138.13 E0.00657
G1 X146.154 Y138.255 E0.00688
G1 X145.463 Y138.446 E0.00652
G1 X144.773 Y138.714 E0.00672
G1 X144.12 Y139.05 E0.00667
G1 X143.491 Y139.462 E0.00683
G1 X142.922 Y139.926 E0.00667
G1 X142.417 Y140.433 E0.0065
G1 X142.571 Y140.587 F9000
G1 F600
G1 X142.118 Y141.145 E0.00653
G1 X141.729 Y141.742 E0.00647
G1 X141.383 Y142.421 E0.00692
G1 X141.11 Y143.15 E0.00708
G1 X140.924 Y143.883 E0.00687
G1 X140.815 Y144.705 E0.00753
G1 X140.811 Y154.82 E0.0919
G1 X140.865 Y155.657 E0.00763
G1 X140.994 Y156.373 E0.00661
G1 X141.228 Y157.156 E0.00742
G1 X141.61 Y158.016 E0.00855
G1 X142.001 Y158.669 E0.00691
G1 X142.505 Y159.326 E0.00752
G1 X143.027 Y159.864 E0.00681
G1 X143.623 Y160.356 E0.00702
G1 X144.246 Y160.764 E0.00676
G1 X144.924 Y161.109 E0.00692
G1 X145.647 Y161.381 E0.00702
G1 X146.379 Y161.567 E0.00686
G1 X147.2 Y161.677 E0.00752
G1 X157.306 Y161.697 E0.09182
G1 X158.144 Y161.644 E0.00763
G1 X158.86 Y161.516 E0.00661
G1 X159.643 Y161.282 E0.00742
G1 X160.508 Y160.898 E0.0086
G1 X161.161 Y160.507 E0.00691
G1 X161.818 Y160.003 E0.00752
G1 X162.356 Y159.481 E0.00681
G1 X162.848 Y158.885 E0.00702
G1 X163.256 Y158.262 E0.00676
G1 X163.617 Y157.548 E0.00727
G1 X163.905 Y156.754 E0.00768
G1 X164.085 Y155.98 E0.00722
G1 X164.184 Y155.018 E0.00879
G1 X164.203 Y145.088 E0.09023
G1 X164.132 Y144.223 E0.00788
G1 X163.904 Y143.193 E0.00958
G1 X163.523 Y142.219 E0.0095
G1 X163.257 Y141.718 E0.00515
G1 X162.922 Y141.201 E0.00561
G1 X162.274 Y140.422 E0.0092
G1 X161.874 Y140.037 E0.00505
G1 X161.394 Y139.649 E0.00561
G1 X160.536 Y139.111 E0.0092
G1 X160.036 Y138.869 E0.00505
G1 X159.449 Y138.646 E0.00571
G1 X158.482 Y138.407 E0.00905
G1 X157.937 Y138.333 E0.005
G1 X157.303 Y138.303 E0.00576
G1 X147.63 Y138.303 E0.08789
G1 X146.942 Y138.345 E0.00626
G1 X146.228 Y138.462 E0.00657
G1 X145.547 Y138.648 E0.00642
G1 X144.878 Y138.907 E0.00652
G1 X144.239 Y139.234 E0.00652
G1 X143.634 Y139.628 E0.00657
G1 X143.077 Y140.08 E0.00652
G1 X142.592 Y140.566 E0.00623
G1 E-0.6 F3000
G1 X158.111 Y146.419 F9000
G1 E0.6 F1800
;TYPE:Internal perimeter
G1 F600
G1 X158.027 Y146.473 E0.0009
G1 X157.891 Y146.543 E0.00139
G1 X157.749 Y146.598 E0.00139
G1 X157.601 Y146.637 E0.00139
G1 X157.45 Y146.661 E0.00139
G1 X157.298 Y146.669 E0.00139
G1 X157.145 Y146.661 E0.00139
G1 X156.995 Y146.637 E0.00139
G1 X156.847 Y146.598 E0.00139
G1 X156.704 Y146.543 E0.00139
G1 X156.568 Y146.473 E0.00139
G1 X156.44 Y146.39 E0.00139
G1 X156.322 Y146.294 E0.00139
G1 X156.214 Y146.186 E0.00139
G1 X156.118 Y146.068 E0.00139
G1 X156.034 Y145.939 E0.00139
G1 X155.965 Y145.803 E0.00139
G1 X155.91 Y145.661 E0.00139
G1 X155.871 Y145.513 E0.00139
G1 X155.847 Y145.363 E0.00139
G1 X155.839 Y145.21 E0.00139
G1 X155.847 Y145.058 E0.00139
G1 X155.871 Y144.907 E0.00139
G1 X155.91 Y144.759 E0.00139
G1 X155.965 Y144.617 E0.00139
G1 X156.034 Y144.481 E0.00139
G1 X156.118 Y144.353 E0.00139
G1 X156.214 Y144.234 E0.00139
G1 X156.322 Y144.126 E0.00139
G1 X156.44 Y144.03 E0.00139
G1 X156.568 Y143.947 E0.00139
G1 X156.704 Y143.877 E0.00139
G1 X156.847 Y143.823 E0.00139
G1 X156.995 Y143.783 E0.00139
G1 X157.145 Y143.759 E0.00139
G1 X157.298 Y143.751 E0.00139
G1 X157.45 Y143.759 E0.00139
G1 X157.601 Y143.783 E0.00139
G1 X157.749 Y143.823 E0.00139
G1 X157.891 Y143.877 E0.00139
G1 X158.027 Y143.947 E0.00139
G1 X158.155 Y144.03 E0.00139
G1 X158.274 Y144.126 E0.00139
G1 X158.382 Y144.234 E0.00139
G1 X158.478 Y144.353 E0.00139
G1 X158.561 Y144.481 E0.00139
G1 X158.631 Y144.617 E0.00139
G1 X158.685 Y144.759 E0.00139
G1 X158.725 Y144.907 E0.00139
G1 X158.749 Y145.058 E0.00139
G1 X158.757 Y145.21 E0.00139
G1 X158.749 Y145.363 E0.00139
G1 X158.725 Y145.513 E0.00139
G1 X158.685 Y145.661 E0.00139
G1 X158.631 Y145.803 E0.00139
G1 X158.561 Y145.939 E0.00139
G1 X158.478 Y146.068 E0.00139
G1 X158.382 Y146.186 E0.00139
G1 X158.274 Y146.294 E0.00139
G1 X158.155 Y146.39 E0.00139
G1 X158.136 Y146.403 E0.00021
G1 X158.255 Y146.586 F9000
;TYPE:External perimeter
G1 F600
G1 X158.137 Y146.663 E0.00128
G1 X157.98 Y146.743 E0.0016
G1 X157.816 Y146.806 E0.0016
G1 X157.647 Y146.851 E0.0016
G1 X157.473 Y146.879 E0.0016
G1 X157.298 Y146.888 E0.0016
G1 X157.122 Y146.879 E0.0016
G1 X156.949 Y146.851 E0.0016
G1 X156.779 Y146.806 E0.0016
G1 X156.615 Y146.743 E0.0016
G1 X156.459 Y146.663 E0.0016
G1 X156.312 Y146.567 E0.0016
G1 X156.175 Y146.457 E0.0016
G1 X156.051 Y146.333 E0.0016
G1 X155.941 Y146.196 E0.0016
G1 X155.845 Y146.049 E0.0016
G1 X155.765 Y145.892 E0.0016
G1 X155.702 Y145.728 E0.0016
G1 X155.657 Y145.559 E0.0016
G1 X155.629 Y145.385 E0.0016
G1 X155.62 Y145.21 E0.0016
G1 X155.629 Y145.035 E0.0016
G1 X155.657 Y144.861 E0.0016
G1 X155.702 Y144.692 E0.0016
G1 X155.765 Y144.528 E0.0016
G1 X155.845 Y144.371 E0.0016
G1 X155.941 Y144.224 E0.0016
G1 X156.051 Y144.087 E0.0016
G1 X156.175 Y143.963 E0.0016
G1 X156.312 Y143.853 E0.0016
G1 X156.459 Y143.757 E0.0016
G1 X156.615 Y143.677 E0.0016
G1 X156.779 Y143.615 E0.0016
G1 X156.949 Y143.569 E0.0016
G1 X157.122 Y143.542 E0.0016
G1 X157.298 Y143.532 E0.0016
G1 X157.473 Y143.542 E0.0016
G1 X157.647 Y143.569 E0.0016
G1 X157.816 Y143.615 E0.0016
G1 X157.98 Y143.677 E0.0016
G1 X158.137 Y143.757 E0.0016
G1 X158.284 Y143.853 E0.0016
G1 X158.42 Y143.963 E0.0016
G1 X158.545 Y144.087 E0.0016
G1 X158.655 Y144.224 E0.0016
G1 X158.751 Y144.371 E0.0016
G1 X158.83 Y144.528 E0.0016
G1 X158.893 Y144.692 E0.0016
G1 X158.939 Y144.861 E0.0016
G1 X158.966 Y145.035 E0.0016
G1 X158.976 Y145.21 E0.0016
G1 X158.966 Y145.385 E0.0016
G1 X158.939 Y145.559 E0.0016
G1 X158.893 Y145.728 E0.0016
G1 X158.83 Y145.892 E0.0016
G1 X158.751 Y146.049 E0.0016
G1 X158.655 Y146.196 E0.0016
G1 X158.545 Y146.333 E0.0016
G1 X158.42 Y146.457 E0.0016
G1 X158.28 Y146.57 E0.00164
;WIPE_START
G1 X158.129 Y146.522 F9000
;WIPE_END
G1 E-0.6 F3000
G1 X157.853 Y143.953 F9000
G1 E0.6 F1800
;TYPE:Solid infill
;WIDTH:0.264697
G1 X158.27 Y144.369 E0.0059
G1 X158.413 Y144.566 E0.00244
G1 X158.522 Y144.812 E0.0027
G1 X158.554 Y144.963 E0.00154
G1 X157.545 Y143.954 E0.01431
G1 X157.432 Y143.93 E0.00115
G1 X157.212 Y143.93 E0.00221
G1 X158.578 Y145.296 E0.01936
G1 X158.578 Y145.345 E0.00049
G1 X158.533 Y145.559 E0.0022
G1 X156.948 Y143.975 E0.02245
G1 X156.9 Y143.986 E0.0005
G1 X156.727 Y144.063 E0.0019
G1 X158.445 Y145.781 E0.02435
G1 X158.413 Y145.854 E0.0008
G1 X158.327 Y145.972 E0.00146
G1 X156.532 Y144.177 E0.02544
G1 X156.369 Y144.323 E0.00219
G1 X158.182 Y146.136 E0.0257
G1 X158.055 Y146.252 E0.00172
G1 X158.013 Y146.276 E0.00048
G1 X156.234 Y144.497 E0.02521
G1 X156.183 Y144.566 E0.00086
G1 X156.125 Y144.697 E0.00143
G1 X157.817 Y146.389 E0.02398
G1 X157.7 Y146.434 E0.00125
G1 X157.578 Y146.459 E0.00125
G1 X156.048 Y144.93 E0.02168
G1 X156.017 Y145.075 E0.00149
G1 X156.017 Y145.208 E0.00132
G1 X157.3 Y146.49 E0.01818
G1 X157.163 Y146.49 E0.00137
G1 X156.945 Y146.444 E0.00224
G1 X155.942 Y145.441 E0.01421
G1 X156.666 Y146.371 F9000
;TYPE:Gap fill
;WIDTH:0.0803473
G1 F600
G1 X156.534 Y146.263 E0.00042
;WIDTH:0.124498
G1 X156.43 Y146.174 E0.00059
G1 X156.336 Y146.075 E0.00058
;WIDTH:0.110258
G1 X156.243 Y145.977 E0.0005
;WIDTH:0.0898592
G1 X156.147 Y145.853 E0.00044
G1 E-0.6 F3000
G1 X155.854 Y154.993 F9000
G1 E0.6 F1800
;TYPE:Internal perimeter
;WIDTH:0.24
G1 F600
G1 X155.847 Y154.949 E0.0004
G1 X155.839 Y154.798 E0.00138
G1 X155.847 Y154.646 E0.00138
G1 X155.871 Y154.496 E0.00138
G1 X155.91 Y154.349 E0.00138
G1 X155.964 Y154.208 E0.00138
G1 X156.033 Y154.072 E0.00138
G1 X156.116 Y153.945 E0.00138
G1 X156.212 Y153.827 E0.00138
G1 X156.319 Y153.72 E0.00138
G1 X156.437 Y153.624 E0.00138
G1 X156.564 Y153.541 E0.00138
G1 X156.7 Y153.472 E0.00138
G1 X156.842 Y153.418 E0.00138
G1 X156.988 Y153.379 E0.00138
G1 X157.138 Y153.355 E0.00138
G1 X157.29 Y153.347 E0.00138
G1 X157.442 Y153.355 E0.00138
G1 X157.592 Y153.379 E0.00138
G1 X157.738 Y153.418 E0.00138
G1 X157.88 Y153.472 E0.00138
G1 X158.015 Y153.541 E0.00138
G1 X158.143 Y153.624 E0.00138
G1 X158.261 Y153.72 E0.00138
G1 X158.368 Y153.827 E0.00138
G1 X158.464 Y153.945 E0.00138
G1 X158.546 Y154.072 E0.00138
G1 X158.615 Y154.208 E0.00138
G1 X158.67 Y154.349 E0.00138
G1 X158.709 Y154.496 E0.00138
G1 X158.733 Y154.646 E0.00138
G1 X158.741 Y154.798 E0.00138
G1 X158.733 Y154.949 E0.00138
G1 X158.709 Y155.099 E0.00138
G1 X158.67 Y155.246 E0.00138
G1 X158.615 Y155.388 E0.00138
G1 X158.546 Y155.523 E0.00138
G1 X158.464 Y155.651 E0.00138
G1 X158.368 Y155.769 E0.00138
G1 X158.261 Y155.876 E0.00138
G1 X158.143 Y155.972 E0.00138
G1 X158.015 Y156.054 E0.00138
G1 X157.88 Y156.123 E0.00138
G1 X157.738 Y156.178 E0.00138
G1 X157.592 Y156.217 E0.00138
G1 X157.442 Y156.241 E0.00138
G1 X157.29 Y156.249 E0.00138
G1 X157.138 Y156.241 E0.00138
G1 X156.988 Y156.217 E0.00138
G1 X156.842 Y156.178 E0.00138
G1 X156.7 Y156.123 E0.00138
G1 X156.564 Y156.054 E0.00138
G1 X156.437 Y155.972 E0.00138
G1 X156.319 Y155.876 E0.00138
G1 X156.212 Y155.769 E0.00138
G1 X156.116 Y155.651 E0.00138
G1 X156.033 Y155.523 E0.00138
G1 X155.964 Y155.388 E0.00138
G1 X155.91 Y155.246 E0.00138
G1 X155.871 Y155.099 E0.00138
G1 X155.859 Y155.023 E0.00071
G1 X155.643 Y155.057 F9000
;TYPE:External perimeter
G1 F600
G1 X155.629 Y154.972 E0.00078
G1 X155.62 Y154.798 E0.00159
G1 X155.629 Y154.623 E0.00159
G1 X155.657 Y154.451 E0.00159
G1 X155.702 Y154.282 E0.00159
G1 X155.765 Y154.119 E0.00159
G1 X155.844 Y153.963 E0.00159
G1 X155.939 Y153.816 E0.00159
G1 X156.049 Y153.681 E0.00159
G1 X156.173 Y153.557 E0.00159
G1 X156.308 Y153.447 E0.00159
G1 X156.455 Y153.352 E0.00159
G1 X156.611 Y153.272 E0.00159
G1 X156.774 Y153.21 E0.00159
G1 X156.943 Y153.165 E0.00159
G1 X157.115 Y153.137 E0.00159
G1 X157.29 Y153.128 E0.00159
G1 X157.464 Y153.137 E0.00159
G1 X157.637 Y153.165 E0.00159
G1 X157.806 Y153.21 E0.00159
G1 X157.969 Y153.272 E0.00159
G1 X158.125 Y153.352 E0.00159
G1 X158.271 Y153.447 E0.00159
G1 X158.407 Y153.557 E0.00159
G1 X158.531 Y153.681 E0.00159
G1 X158.641 Y153.816 E0.00159
G1 X158.736 Y153.963 E0.00159
G1 X158.815 Y154.119 E0.00159
G1 X158.878 Y154.282 E0.00159
G1 X158.923 Y154.451 E0.00159
G1 X158.951 Y154.623 E0.00159
G1 X158.96 Y154.798 E0.00159
G1 X158.951 Y154.972 E0.00159
G1 X158.923 Y155.145 E0.00159
G1 X158.878 Y155.314 E0.00159
G1 X158.815 Y155.477 E0.00159
G1 X158.736 Y155.633 E0.00159
G1 X158.641 Y155.779 E0.00159
G1 X158.531 Y155.915 E0.00159
G1 X158.407 Y156.039 E0.00159
G1 X158.271 Y156.149 E0.00159
G1 X158.125 Y156.244 E0.00159
G1 X157.969 Y156.323 E0.00159
G1 X157.806 Y156.386 E0.00159
G1 X157.637 Y156.431 E0.00159
G1 X157.464 Y156.458 E0.00159
G1 X157.29 Y156.468 E0.00159
G1 X157.115 Y156.458 E0.00159
G1 X156.943 Y156.431 E0.00159
G1 X156.774 Y156.386 E0.00159
G1 X156.611 Y156.323 E0.00159
G1 X156.455 Y156.244 E0.00159
G1 X156.308 Y156.149 E0.00159
G1 X156.173 Y156.039 E0.00159
G1 X156.049 Y155.915 E0.00159
G1 X155.939 Y155.779 E0.00159
G1 X155.844 Y155.633 E0.00159
G1 X155.765 Y155.477 E0.00159
G1 X155.702 Y155.314 E0.00159
G1 X155.657 Y155.145 E0.00159
G1 X155.647 Y155.087 E0.00054
;WIPE_START
G1 X155.709 Y155.003 F9000
;WIPE_END
G1 E-0.6 F3000
G1 X158.554 Y154.26 F9000
G1 E0.6 F1800
;TYPE:Solid infill
;WIDTH:0.263777
G1 X158.125 Y153.832 E0.00605
G1 X157.93 Y153.69 E0.00242
G1 X157.685 Y153.581 E0.00267
G1 X157.533 Y153.549 E0.00156
G1 X158.539 Y154.555 E0.01421
G1 X158.562 Y154.664 E0.00112
G1 X158.562 Y154.887 E0.00223
G1 X157.201 Y153.525 E0.01923
G1 X157.156 Y153.525 E0.00044
G1 X156.938 Y153.572 E0.00223
G1 X158.516 Y155.15 E0.02229
G1 X158.507 Y155.193 E0.00044
G1 X158.428 Y155.371 E0.00194
G1 X156.717 Y153.659 E0.02417
G1 X156.538 Y153.763 E0.00206
G1 X156.524 Y153.775 E0.00019
G1 X158.309 Y155.561 E0.02521
G1 X158.241 Y155.654 E0.00115
G1 X158.163 Y155.724 E0.00104
G1 X156.361 Y153.922 E0.02545
G1 X156.339 Y153.942 E0.0003
G1 X156.227 Y154.096 E0.00191
G1 X157.992 Y155.862 E0.02493
G1 X157.795 Y155.974 E0.00226
G1 X156.119 Y154.298 E0.02366
G1 X156.073 Y154.402 E0.00114
G1 X156.045 Y154.533 E0.00134
G1 X157.555 Y156.043 E0.02132
G1 X157.424 Y156.07 E0.00134
G1 X157.273 Y156.07 E0.0015
G1 X156.017 Y154.814 E0.01774
G1 X156.017 Y154.932 E0.00117
G1 X156.069 Y155.175 E0.00249
G1 X157.034 Y156.141 E0.01363
G1 E-0.6 F3000
G1 X147.704 Y153.347 F9000
G1 E0.6 F1800
;TYPE:Internal perimeter
;WIDTH:0.24
G1 F600
G1 X147.862 Y153.355 E0.00143
G1 X148.012 Y153.379 E0.00138
G1 X148.158 Y153.418 E0.00138
G1 X148.3 Y153.472 E0.00138
G1 X148.436 Y153.541 E0.00138
G1 X148.563 Y153.624 E0.00138
G1 X148.681 Y153.72 E0.00138
G1 X148.788 Y153.827 E0.00138
G1 X148.884 Y153.945 E0.00138
G1 X148.967 Y154.072 E0.00138
G1 X149.036 Y154.208 E0.00138
G1 X149.09 Y154.349 E0.00138
G1 X149.129 Y154.496 E0.00138
G1 X149.153 Y154.646 E0.00138
G1 X149.161 Y154.798 E0.00138
G1 X149.153 Y154.949 E0.00138
G1 X149.129 Y155.099 E0.00138
G1 X149.09 Y155.246 E0.00138
G1 X149.036 Y155.388 E0.00138
G1 X148.967 Y155.523 E0.00138
G1 X148.884 Y155.651 E0.00138
G1 X148.788 Y155.769 E0.00138
G1 X148.681 Y155.876 E0.00138
G1 X148.563 Y155.972 E0.00138
G1 X148.436 Y156.054 E0.00138
G1 X148.3 Y156.123 E0.00138
G1 X148.158 Y156.178 E0.00138
G1 X148.012 Y156.217 E0.00138
G1 X147.862 Y156.241 E0.00138
G1 X147.71 Y156.249 E0.00138
G1 X147.558 Y156.241 E0.00138
G1 X147.408 Y156.217 E0.00138
G1 X147.262 Y156.178 E0.00138
G1 X147.12 Y156.123 E0.00138
G1 X146.985 Y156.054 E0.00138
G1 X146.857 Y155.972 E0.00138
G1 X146.739 Y155.876 E0.00138
G1 X146.632 Y155.769 E0.00138
G1 X146.536 Y155.651 E0.00138
G1 X146.454 Y155.523 E0.00138
G1 X146.385 Y155.388 E0.00138
G1 X146.33 Y155.246 E0.00138
G1 X146.291 Y155.099 E0.00138
G1 X146.267 Y154.949 E0.00138
G1 X146.259 Y154.798 E0.00138
G1 X146.267 Y154.646 E0.00138
G1 X146.291 Y154.496 E0.00138
G1 X146.33 Y154.349 E0.00138
G1 X146.385 Y154.208 E0.00138
G1 X146.454 Y154.072 E0.00138
G1 X146.536 Y153.945 E0.00138
G1 X146.632 Y153.827 E0.00138
G1 X146.739 Y153.72 E0.00138
