; generated by SuperSlicer 2.3.57 on 2022-02-09 at 00:28:35 UTC


;
;

;
;
; 

; external perimeters extrusion width = 0.40mm
; perimeters extrusion width = 0.40mm
; infill extrusion width = 0.72mm
; solid infill extrusion width = 0.40mm
; top infill extrusion width = 0.40mm
; first layer extrusion width = 0.48mm


;TYPE:Custom
START_PRINT T_BED=70 T_EXTRUDER=230
M107
G21 ; set units to millimeters
G90 ; use absolute coordinates
M83 ; use relative distances for extrusion
; Filament gcode
M104 S230 ; set temperature
M109 S230 ; set temperature and wait for it to be reached
M190 S70 ; set bed temperature and wait for it to be reached
;LAYER_CHANGE
;Z:0.24
;HEIGHT:0.24
G1 Z0.24 F9000
G1 E-1 F3000
G1 X136.236 Y138.061 F9000
G1 E1 F1800
;TYPE:Skirt
;WIDTH:0.48
G1 F600
G1 X135.248 Y139.11 E0.06163
G1 X134.546 Y140.186 E0.05491
G1 X133.983 Y141.483 E0.06047
G1 X133.684 Y142.651 E0.05152
G1 X133.536 Y144.211 E0.06699
G1 X133.425 Y155.381 E0.47763
G1 X133.506 Y156.537 E0.04952
G1 X133.815 Y157.943 E0.06158
G1 X134.335 Y159.241 E0.05976
G1 X135.041 Y160.399 E0.05801
G1 X136.028 Y161.513 E0.06362
G1 X136.921 Y162.236 E0.04915
G1 X138.11 Y162.911 E0.05844
G1 X139.286 Y163.337 E0.05349
G1 X140.781 Y163.59 E0.0648
G1 X165.367 Y163.848 E1.05125
G1 X166.591 Y163.726 E0.05261
G1 X167.8 Y163.333 E0.05434
G1 X168.931 Y162.672 E0.05601
G1 X169.859 Y161.832 E0.05352
G1 X170.461 Y161.043 E0.04244
G1 X170.927 Y160.179 E0.04197
G1 X171.256 Y159.242 E0.04246
G1 X171.431 Y158.298 E0.04105
G1 X171.552 Y145.999 E0.52587
G1 X171.414 Y145.137 E0.03732
G1 X171.152 Y144.296 E0.03766
G1 X169.036 Y139.581 E0.22095
G1 X168.457 Y138.61 E0.04835
G1 X167.7 Y137.778 E0.0481
G1 X166.943 Y137.204 E0.0406
G1 X166.107 Y136.768 E0.04035
G1 X165.209 Y136.477 E0.04035
G1 X164.275 Y136.34 E0.04035
G1 X141.344 Y136.15 E0.98045
G1 X139.698 Y136.324 E0.07077
G1 X138.461 Y136.697 E0.05522
G1 X137.201 Y137.335 E0.06039
G1 X136.284 Y138.025 E0.04907
G1 X136.542 Y138.367 F9000
G1 F600
G1 X136.504 Y138.395 E0.00204
G1 X135.571 Y139.392 E0.05837
G1 X134.908 Y140.416 E0.05214
G1 X134.379 Y141.649 E0.05739
G1 X134.097 Y142.77 E0.0494
G1 X133.964 Y144.221 E0.06232
G1 X133.853 Y155.381 E0.47717
G1 X133.93 Y156.473 E0.04681
G1 X134.224 Y157.818 E0.05885
G1 X134.724 Y159.061 E0.05729
G1 X135.399 Y160.163 E0.05524
G1 X136.355 Y161.23 E0.06128
G1 X137.182 Y161.895 E0.04536
G1 X138.305 Y162.528 E0.05509
G1 X139.686 Y162.996 E0.06236
G1 X140.834 Y163.164 E0.0496
G1 X165.38 Y163.419 E1.04952
G1 X166.522 Y163.302 E0.04911
G1 X167.652 Y162.929 E0.05088
G1 X168.709 Y162.304 E0.05248
G1 X169.576 Y161.505 E0.05043
G1 X170.124 Y160.775 E0.03903
G1 X170.552 Y159.967 E0.03909
G1 X170.852 Y159.096 E0.03938
G1 X171.008 Y158.215 E0.03825
G1 X171.124 Y146.021 E0.5214
G1 X170.994 Y145.223 E0.03457
G1 X170.746 Y144.436 E0.03527
G1 X168.643 Y139.752 E0.21952
G1 X168.097 Y138.845 E0.04527
G1 X167.376 Y138.063 E0.04551
G1 X166.679 Y137.544 E0.0371
G1 X165.907 Y137.149 E0.0371
G1 X165.08 Y136.887 E0.0371
G1 X164.22 Y136.766 E0.0371
G1 X141.348 Y136.579 E0.97794
G1 X139.778 Y136.745 E0.0675
G1 X138.606 Y137.1 E0.05237
G1 X137.417 Y137.706 E0.05707
G1 X136.59 Y138.33 E0.0443
G1 E-1 F3000
G1 X150.892 Y142.537 F9000
G1 E1 F1800
;TYPE:Internal perimeter
G1 F600
G1 X163.389 Y142.636 E0.53434
G1 X163.414 Y142.859 E0.00959
G1 X163.407 Y143.058 E0.00852
G1 X163.384 Y143.182 E0.00536
G1 X163.338 Y143.309 E0.00581
G1 X163.187 Y143.633 E0.01527
G1 X163.105 Y143.882 E0.01119
G1 X163.058 Y144.134 E0.01099
G1 X163.053 Y144.377 E0.01036
G1 X163.08 Y144.569 E0.0083
G1 X163.131 Y144.738 E0.00755
G1 X163.205 Y144.891 E0.00728
G1 X163.305 Y145.035 E0.00748
G1 X163.445 Y145.179 E0.00859
G1 X163.628 Y145.316 E0.00977
G1 X163.711 Y145.368 E0.0042
G1 X164.246 Y145.667 E0.0262
G1 X164.458 Y145.828 E0.01137
G1 X165.091 Y146.423 E0.03718
G1 X141.375 Y146.188 E1.01407
G1 X141.181 Y146.17 E0.0083
G1 X141 Y146.124 E0.00799
G1 X140.789 Y146.035 E0.00979
G1 X140.579 Y145.905 E0.01056
G1 X140.4 Y145.747 E0.01022
G1 X140.227 Y145.536 E0.01167
G1 X140.082 Y145.287 E0.01229
G1 X139.959 Y144.979 E0.0142
G1 X139.878 Y144.63 E0.01533
G1 X139.848 Y144.277 E0.01514
G1 X139.872 Y143.899 E0.01616
G1 X139.95 Y143.545 E0.01553
G1 X140.076 Y143.23 E0.01451
G1 X140.205 Y143.019 E0.01055
G1 X140.358 Y142.842 E0.01002
G1 X140.532 Y142.698 E0.00966
G1 X140.721 Y142.59 E0.00928
G1 X140.928 Y142.515 E0.00944
G1 X141.166 Y142.47 E0.01037
G1 X141.353 Y142.461 E0.00799
G1 X150.832 Y142.537 E0.40527
G1 X150.835 Y142.108 F9000
;TYPE:External perimeter
G1 F600
G1 X163.737 Y142.211 E0.55164
G1 X163.802 Y142.477 E0.01171
G1 X163.843 Y142.842 E0.01573
G1 X163.834 Y143.104 E0.01121
G1 X163.799 Y143.294 E0.00824
G1 X163.735 Y143.473 E0.00815
G1 X163.586 Y143.791 E0.01502
G1 X163.521 Y143.988 E0.00885
G1 X163.486 Y144.179 E0.00828
G1 X163.482 Y144.352 E0.0074
G1 X163.499 Y144.476 E0.00538
G1 X163.531 Y144.582 E0.0047
G1 X163.576 Y144.674 E0.00438
G1 X163.637 Y144.761 E0.00456
G1 X163.729 Y144.856 E0.00566
G1 X163.87 Y144.962 E0.00754
G1 X163.929 Y144.999 E0.00298
G1 X164.481 Y145.307 E0.02704
G1 X164.735 Y145.5 E0.01362
G1 X165.313 Y146.044 E0.03394
G1 X165.455 Y146.17 E0.00812
G1 X165.597 Y146.318 E0.00878
G1 X165.649 Y146.392 E0.00384
G1 X165.673 Y146.442 E0.00239
G1 X165.686 Y146.482 E0.0018
G1 X165.692 Y146.52 E0.00165
G1 X165.691 Y146.565 E0.00189
G1 X165.682 Y146.618 E0.0023
G1 X165.661 Y146.68 E0.00278
G1 X165.629 Y146.742 E0.00301
G1 X165.595 Y146.787 E0.0024
G1 X165.563 Y146.819 E0.00196
G1 X165.533 Y146.84 E0.00154
G1 X165.498 Y146.856 E0.00164
G1 X141.352 Y146.616 E1.03242
G1 X141.108 Y146.593 E0.01048
G1 X140.864 Y146.531 E0.01077
G1 X140.592 Y146.417 E0.01263
G1 X140.323 Y146.25 E0.01355
G1 X140.09 Y146.045 E0.01324
G1 X139.874 Y145.781 E0.0146
G1 X139.695 Y145.476 E0.01512
G1 X139.549 Y145.107 E0.01696
G1 X139.454 Y144.696 E0.01803
G1 X139.419 Y144.281 E0.0178
G1 X139.446 Y143.84 E0.01892
G1 X139.539 Y143.418 E0.01848
G1 X139.692 Y143.037 E0.01754
G1 X139.857 Y142.766 E0.01355
G1 X140.057 Y142.534 E0.01308
G1 X140.288 Y142.344 E0.01281
G1 X140.54 Y142.2 E0.0124
G1 X140.814 Y142.1 E0.01251
G1 X141.117 Y142.044 E0.01315
G1 X141.345 Y142.033 E0.00975
G1 X150.775 Y142.108 E0.40321
;WIPE_START
G1 X151.032 Y142.456 F9000
;WIPE_END
G1 E-1 F3000
G1 X163.133 Y143.381 F9000
G1 E1 F1800
;TYPE:Solid infill
;WIDTH:0.48842
G1 X162.718 Y142.965 E0.02558
G1 X162.107 Y142.961 E0.02656
G1 X162.821 Y143.675 E0.04394
G1 X162.78 Y143.799 E0.00566
G1 X162.725 Y144.1 E0.01333
G1 X162.723 Y144.183 E0.0036
G1 X161.497 Y142.956 E0.07545
G1 X160.886 Y142.952 E0.02656
G1 X163.698 Y145.764 E0.17302
G1 X163.616 Y146.074 E0.01398
G1 X163.4 Y146.072 E0.00936
G1 X160.275 Y142.947 E0.19227
G1 X159.665 Y142.943 E0.02656
G1 X162.788 Y146.066 E0.19218
G1 X162.176 Y146.06 E0.02663
G1 X159.054 Y142.938 E0.19208
G1 X158.444 Y142.934 E0.02656
G1 X161.564 Y146.054 E0.19199
G1 X160.952 Y146.048 E0.02663
G1 X157.833 Y142.929 E0.1919
G1 X157.223 Y142.924 E0.02656
G1 X160.34 Y146.042 E0.1918
G1 X159.728 Y146.036 E0.02663
G1 X156.612 Y142.92 E0.19171
G1 X156.002 Y142.915 E0.02656
G1 X159.116 Y146.03 E0.19162
G1 X158.504 Y146.024 E0.02663
G1 X155.391 Y142.911 E0.19152
G1 X154.781 Y142.906 E0.02656
G1 X157.892 Y146.017 E0.19143
G1 X157.28 Y146.011 E0.02663
G1 X154.17 Y142.902 E0.19134
G1 X153.559 Y142.897 E0.02656
G1 X156.668 Y146.005 E0.19124
G1 X156.056 Y145.999 E0.02663
G1 X152.949 Y142.892 E0.19115
G1 X152.338 Y142.888 E0.02656
G1 X155.444 Y145.993 E0.19106
G1 X154.832 Y145.987 E0.02663
G1 X151.728 Y142.883 E0.19096
G1 X151.117 Y142.879 E0.02656
G1 X154.219 Y145.981 E0.19087
G1 X153.607 Y145.975 E0.02663
G1 X150.507 Y142.874 E0.19078
G1 X149.896 Y142.87 E0.02656
G1 X152.995 Y145.969 E0.19068
G1 X152.383 Y145.963 E0.02663
G1 X149.286 Y142.865 E0.19059
G1 X148.675 Y142.861 E0.02656
G1 X151.771 Y145.957 E0.1905
G1 X151.159 Y145.951 E0.02663
G1 X148.065 Y142.856 E0.1904
G1 X147.454 Y142.851 E0.02656
G1 X150.547 Y145.945 E0.19031
G1 X149.935 Y145.938 E0.02663
G1 X146.843 Y142.847 E0.19022
G1 X146.233 Y142.842 E0.02656
G1 X149.323 Y145.932 E0.19012
G1 X148.711 Y145.926 E0.02663
G1 X145.622 Y142.838 E0.19003
G1 X145.012 Y142.833 E0.02656
G1 X148.099 Y145.92 E0.18994
G1 X147.487 Y145.914 E0.02663
G1 X144.401 Y142.829 E0.18984
G1 X143.791 Y142.824 E0.02656
G1 X146.875 Y145.908 E0.18975
G1 X146.263 Y145.902 E0.02663
G1 X143.18 Y142.819 E0.18966
G1 X142.57 Y142.815 E0.02656
G1 X145.651 Y145.896 E0.18956
G1 X145.039 Y145.89 E0.02663
G1 X141.959 Y142.81 E0.18947
G1 X141.348 Y142.806 E0.02656
G1 X144.426 Y145.884 E0.18938
G1 X143.814 Y145.878 E0.02663
G1 X140.842 Y142.906 E0.18286
G1 X140.722 Y142.974 E0.006
G1 X140.592 Y143.081 E0.00733
G1 X140.509 Y143.178 E0.00556
G1 X143.202 Y145.872 E0.16571
G1 X142.59 Y145.866 E0.02663
G1 X140.298 Y143.574 E0.14101
G1 X140.27 Y143.644 E0.00329
G1 X140.203 Y143.946 E0.01346
G1 X140.195 Y144.077 E0.00569
G1 X141.978 Y145.859 E0.10969
G1 X141.392 Y145.854 E0.02551
G1 X141.364 Y145.851 E0.00123
G1 X140.018 Y144.505 E0.0828
G1 E-1 F3000
G1 X142.617 Y153.581 F9000
G1 E1 F1800
;TYPE:Internal perimeter
;WIDTH:0.48
G1 F600
G1 X163.278 Y153.745 E0.8834
G1 X163.303 Y153.968 E0.00959
G1 X163.297 Y154.167 E0.00852
G1 X163.274 Y154.291 E0.00536
G1 X163.228 Y154.419 E0.00581
G1 X163.077 Y154.742 E0.01527
G1 X162.995 Y154.991 E0.01119
G1 X162.948 Y155.244 E0.01099
G1 X162.942 Y155.486 E0.01036
G1 X162.969 Y155.678 E0.0083
G1 X163.02 Y155.847 E0.00755
G1 X163.095 Y156 E0.00728
G1 X163.195 Y156.144 E0.00748
G1 X163.334 Y156.288 E0.00859
G1 X163.517 Y156.425 E0.00977
G1 X163.601 Y156.477 E0.0042
G1 X164.136 Y156.776 E0.0262
G1 X164.347 Y156.937 E0.01137
G1 X164.981 Y157.532 E0.03718
G1 X141.264 Y157.297 E1.01407
G1 X141.071 Y157.279 E0.0083
G1 X140.89 Y157.233 E0.00799
G1 X140.679 Y157.144 E0.00979
G1 X140.469 Y157.014 E0.01056
G1 X140.289 Y156.856 E0.01022
G1 X140.117 Y156.645 E0.01167
G1 X139.971 Y156.397 E0.01229
G1 X139.849 Y156.088 E0.0142
G1 X139.768 Y155.739 E0.01533
G1 X139.738 Y155.386 E0.01514
G1 X139.761 Y155.009 E0.01616
G1 X139.839 Y154.654 E0.01553
G1 X139.966 Y154.339 E0.01451
G1 X140.095 Y154.128 E0.01055
G1 X140.247 Y153.951 E0.01002
G1 X140.422 Y153.807 E0.00966
G1 X140.61 Y153.7 E0.00928
G1 X140.818 Y153.624 E0.00944
G1 X141.056 Y153.579 E0.01037
G1 X141.243 Y153.571 E0.00799
G1 X142.557 Y153.581 E0.05621
G1 X142.561 Y153.152 F9000
;TYPE:External perimeter
G1 F600
G1 X163.626 Y153.32 E0.90069
G1 X163.692 Y153.586 E0.01171
G1 X163.733 Y153.951 E0.01573
G1 X163.724 Y154.213 E0.01121
G1 X163.689 Y154.403 E0.00824
G1 X163.624 Y154.582 E0.00815
G1 X163.476 Y154.901 E0.01502
G1 X163.411 Y155.097 E0.00885
G1 X163.376 Y155.288 E0.00828
G1 X163.371 Y155.461 E0.0074
G1 X163.389 Y155.586 E0.00538
G1 X163.421 Y155.691 E0.0047
G1 X163.465 Y155.783 E0.00438
G1 X163.526 Y155.87 E0.00456
G1 X163.619 Y155.965 E0.00566
G1 X163.76 Y156.071 E0.00754
G1 X163.819 Y156.108 E0.00298
G1 X164.371 Y156.416 E0.02704
G1 X164.625 Y156.609 E0.01362
G1 X165.203 Y157.153 E0.03394
G1 X165.345 Y157.279 E0.00812
G1 X165.487 Y157.427 E0.00878
G1 X165.538 Y157.501 E0.00384
G1 X165.563 Y157.551 E0.00239
G1 X165.576 Y157.591 E0.0018
G1 X165.581 Y157.629 E0.00165
G1 X165.58 Y157.674 E0.00189
G1 X165.571 Y157.727 E0.0023
G1 X165.551 Y157.789 E0.00278
G1 X165.519 Y157.851 E0.00301
G1 X165.485 Y157.896 E0.0024
G1 X165.452 Y157.928 E0.00196
G1 X165.423 Y157.949 E0.00154
G1 X165.388 Y157.965 E0.00164
G1 X141.242 Y157.725 E1.03242
G1 X140.998 Y157.702 E0.01048
G1 X140.754 Y157.641 E0.01077
G1 X140.481 Y157.526 E0.01263
G1 X140.212 Y157.359 E0.01355
G1 X139.98 Y157.154 E0.01324
G1 X139.764 Y156.89 E0.0146
G1 X139.585 Y156.585 E0.01512
G1 X139.439 Y156.216 E0.01696
G1 X139.343 Y155.805 E0.01803
G1 X139.308 Y155.391 E0.0178
G1 X139.336 Y154.949 E0.01892
G1 X139.429 Y154.527 E0.01848
G1 X139.582 Y154.146 E0.01754
G1 X139.747 Y153.876 E0.01355
G1 X139.946 Y153.644 E0.01308
G1 X140.177 Y153.453 E0.01281
G1 X140.429 Y153.309 E0.0124
G1 X140.704 Y153.209 E0.01251
G1 X141.007 Y153.153 E0.01315
G1 X141.234 Y153.142 E0.00975
G1 X142.501 Y153.152 E0.05415
;WIPE_START
G1 X142.758 Y153.5 F9000
;WIPE_END
G1 E-1 F3000
G1 X163.023 Y154.49 F9000
G1 E1 F1800
;TYPE:Solid infill
;WIDTH:0.48842
G1 X162.607 Y154.075 E0.02558
G1 X161.997 Y154.07 E0.02656
G1 X162.711 Y154.784 E0.04394
G1 X162.67 Y154.908 E0.00566
G1 X162.615 Y155.209 E0.01333
G1 X162.613 Y155.292 E0.0036
G1 X161.386 Y154.065 E0.07545
G1 X160.776 Y154.061 E0.02656
G1 X163.588 Y156.873 E0.17302
G1 X163.505 Y157.183 E0.01398
G1 X163.29 Y157.181 E0.00936
G1 X160.165 Y154.056 E0.19227
G1 X159.555 Y154.052 E0.02656
G1 X162.678 Y157.175 E0.19218
G1 X162.066 Y157.169 E0.02663
G1 X158.944 Y154.047 E0.19208
G1 X158.333 Y154.043 E0.02656
G1 X161.454 Y157.163 E0.19199
G1 X160.842 Y157.157 E0.02663
G1 X157.723 Y154.038 E0.1919
G1 X157.112 Y154.034 E0.02656
G1 X160.23 Y157.151 E0.1918
G1 X159.618 Y157.145 E0.02663
G1 X156.502 Y154.029 E0.19171
G1 X155.891 Y154.024 E0.02656
G1 X159.006 Y157.139 E0.19162
G1 X158.394 Y157.133 E0.02663
G1 X155.281 Y154.02 E0.19152
G1 X154.67 Y154.015 E0.02656
G1 X157.782 Y157.127 E0.19143
G1 X157.169 Y157.121 E0.02663
G1 X154.06 Y154.011 E0.19134
G1 X153.449 Y154.006 E0.02656
G1 X156.557 Y157.114 E0.19124
G1 X155.945 Y157.108 E0.02663
G1 X152.839 Y154.002 E0.19115
G1 X152.228 Y153.997 E0.02656
G1 X155.333 Y157.102 E0.19106
G1 X154.721 Y157.096 E0.02663
G1 X151.617 Y153.992 E0.19096
G1 X151.007 Y153.988 E0.02656
G1 X154.109 Y157.09 E0.19087
G1 X153.497 Y157.084 E0.02663
G1 X150.396 Y153.983 E0.19078
G1 X149.786 Y153.979 E0.02656
G1 X152.885 Y157.078 E0.19068
G1 X152.273 Y157.072 E0.02663
G1 X149.175 Y153.974 E0.19059
G1 X148.565 Y153.97 E0.02656
G1 X151.661 Y157.066 E0.1905
G1 X151.049 Y157.06 E0.02663
G1 X147.954 Y153.965 E0.1904
G1 X147.344 Y153.961 E0.02656
G1 X150.437 Y157.054 E0.19031
G1 X149.825 Y157.048 E0.02663
G1 X146.733 Y153.956 E0.19022
G1 X146.123 Y153.951 E0.02656
G1 X149.213 Y157.042 E0.19012
G1 X148.601 Y157.035 E0.02663
G1 X145.512 Y153.947 E0.19003
G1 X144.901 Y153.942 E0.02656
G1 X147.989 Y157.029 E0.18994
G1 X147.376 Y157.023 E0.02663
G1 X144.291 Y153.938 E0.18984
G1 X143.68 Y153.933 E0.02656
G1 X146.764 Y157.017 E0.18975
G1 X146.152 Y157.011 E0.02663
G1 X143.07 Y153.929 E0.18966
G1 X142.459 Y153.924 E0.02656
G1 X145.54 Y157.005 E0.18956
G1 X144.928 Y156.999 E0.02663
G1 X141.849 Y153.919 E0.18947
G1 X141.238 Y153.915 E0.02656
G1 X144.316 Y156.993 E0.18938
G1 X143.704 Y156.987 E0.02663
G1 X140.732 Y154.015 E0.18286
G1 X140.612 Y154.083 E0.006
G1 X140.482 Y154.19 E0.00733
G1 X140.399 Y154.287 E0.00556
G1 X143.092 Y156.981 E0.16571
G1 X142.48 Y156.975 E0.02663
G1 X140.188 Y154.683 E0.14101
G1 X140.16 Y154.753 E0.00329
G1 X140.093 Y155.055 E0.01346
G1 X140.085 Y155.186 E0.00569
G1 X141.868 Y156.969 E0.10969
G1 X141.282 Y156.963 E0.02551
G1 X141.253 Y156.96 E0.00123
G1 X139.908 Y155.614 E0.0828
;LAYER_CHANGE
;Z:0.44
;HEIGHT:0.2
G1 Z0.44 F9000
G1 E-1 F3000
G1 X154.544 Y146.43 F9000
G1 E1 F1800
;TYPE:Internal perimeter
;WIDTH:0.4
G1 F5400
G1 X141.369 Y146.299 E0.3912
G1 X141.162 Y146.28 E0.00616
G1 X140.965 Y146.23 E0.00605
G1 X140.738 Y146.135 E0.00731
G1 X140.512 Y145.995 E0.00787
G1 X140.319 Y145.824 E0.00764
G1 X140.135 Y145.6 E0.00863
G1 X139.981 Y145.336 E0.00905
G1 X139.853 Y145.012 E0.01036
G1 X139.768 Y144.647 E0.01113
G1 X139.737 Y144.278 E0.01099
G1 X139.761 Y143.884 E0.01172
G1 X139.843 Y143.512 E0.01132
G1 X139.977 Y143.18 E0.01062
G1 X140.115 Y142.954 E0.00787
G1 X140.279 Y142.762 E0.00751
G1 X140.469 Y142.606 E0.00728
G1 X140.673 Y142.489 E0.00701
G1 X140.898 Y142.407 E0.00711
G1 X141.154 Y142.359 E0.0077
G1 X141.351 Y142.35 E0.00587
G1 X163.488 Y142.526 E0.65731
G1 X163.525 Y142.855 E0.00983
G1 X163.518 Y143.07 E0.0064
G1 X163.492 Y143.211 E0.00424
G1 X163.441 Y143.352 E0.00446
G1 X163.291 Y143.674 E0.01056
G1 X163.213 Y143.909 E0.00735
G1 X163.169 Y144.146 E0.00714
G1 X163.164 Y144.37 E0.00666
G1 X163.189 Y144.545 E0.00524
G1 X163.235 Y144.697 E0.00473
G1 X163.301 Y144.835 E0.00453
G1 X163.391 Y144.964 E0.00467
G1 X163.519 Y145.095 E0.00543
G1 X163.691 Y145.224 E0.00638
G1 X163.768 Y145.272 E0.00269
