; generated by SuperSlicer 2.3.57 on 2022-02-07 at 22:39:22 UTC


;
;

;
;
; 

; external perimeters extrusion width = 0.40mm
; perimeters extrusion width = 0.40mm
; infill extrusion width = 0.40mm
; solid infill extrusion width = 0.40mm
; top infill extrusion width = 0.40mm
; first layer extrusion width = 0.52mm


;TYPE:Custom
START_PRINT T_BED=60 T_EXTRUDER=200
M107
G21 ; set units to millimeters
G90 ; use absolute coordinates
M83 ; use relative distances for extrusion
; Filament gcode
M104 S200 ; set temperature
M109 S200 ; set temperature and wait for it to be reached
M190 S60 ; set bed temperature and wait for it to be reached
;LAYER_CHANGE
;Z:0.24
;HEIGHT:0.24
G1 Z0.24 F9000
G1 E-0.6 F3000
G1 X140.53 Y142.764 F9000
G1 E0.6 F1800
;TYPE:Skirt
;WIDTH:0.52
G1 F600
G1 X139.748 Y143.725 E0.05792
G1 X138.962 Y145.034 E0.07138
G1 X138.387 Y146.427 E0.07045
G1 X138.073 Y147.582 E0.05596
G1 X137.853 Y149.148 E0.07393
G1 X137.854 Y150.655 E0.07041
G1 X138.074 Y152.198 E0.07286
G1 X138.507 Y153.658 E0.07123
G1 X138.993 Y154.743 E0.05555
G1 X139.788 Y156.007 E0.06979
G1 X140.64 Y156.989 E0.06079
G1 X141.713 Y157.895 E0.06566
G1 X142.689 Y158.495 E0.05356
G1 X143.781 Y158.966 E0.05555
G1 X144.965 Y159.275 E0.0572
G1 X145.902 Y159.389 E0.04416
G1 X158.351 Y159.993 E0.5826
G1 X159.905 Y159.837 E0.07302
G1 X161.619 Y159.293 E0.08407
G1 X163.157 Y158.404 E0.08306
G1 X164.432 Y157.276 E0.07957
G1 X165.584 Y155.776 E0.08841
G1 X166.413 Y154.125 E0.08637
G1 X166.711 Y153.262 E0.04268
G1 X167.004 Y152.03 E0.05919
G1 X167.173 Y150.155 E0.08802
G1 X167.137 Y149.238 E0.04287
G1 X166.963 Y147.981 E0.05932
G1 X166.446 Y146.216 E0.08599
G1 X165.602 Y144.557 E0.08701
G1 X165.072 Y143.81 E0.0428
G1 X164.373 Y143.025 E0.04916
G1 X163.319 Y142.127 E0.06469
G1 X162.342 Y141.521 E0.05377
G1 X161.254 Y141.046 E0.0555
G1 X160.055 Y140.728 E0.058
G1 X159.117 Y140.612 E0.04419
G1 X146.572 Y140.007 E0.58711
G1 X145.304 Y140.121 E0.05952
G1 X144.073 Y140.437 E0.05939
G1 X142.705 Y141.047 E0.07
G1 X141.626 Y141.758 E0.06042
G1 X140.574 Y142.723 E0.06675
G1 X140.893 Y143.068 F9000
G1 F600
G1 X140.847 Y143.11 E0.00292
G1 X140.103 Y144.035 E0.05548
G1 X139.36 Y145.286 E0.06803
G1 X138.789 Y146.7 E0.07129
G1 X138.431 Y148.203 E0.0722
G1 X138.3 Y149.634 E0.06718
G1 X138.333 Y150.766 E0.05293
G1 X138.563 Y152.238 E0.06966
G1 X139.01 Y153.662 E0.06977
G1 X139.654 Y154.964 E0.06789
G1 X140.335 Y155.948 E0.05597
G1 X141.267 Y156.937 E0.06352
G1 X142.142 Y157.624 E0.05198
G1 X143.058 Y158.157 E0.04954
G1 X144.023 Y158.553 E0.04875
G1 X145.138 Y158.828 E0.05371
G1 X158.432 Y159.525 E0.6223
G1 X159.858 Y159.368 E0.06706
G1 X161.484 Y158.839 E0.07991
G1 X162.926 Y157.992 E0.07821
G1 X164.16 Y156.883 E0.07757
G1 X165.278 Y155.378 E0.08764
G1 X165.696 Y154.595 E0.04147
G1 X166.163 Y153.443 E0.05813
G1 X166.587 Y151.678 E0.08484
G1 X166.692 Y149.628 E0.09597
G1 X166.44 Y147.778 E0.08726
G1 X166.209 Y146.945 E0.04042
G1 X165.765 Y145.824 E0.05636
G1 X164.845 Y144.283 E0.08392
G1 X163.747 Y143.075 E0.07628
G1 X162.857 Y142.374 E0.05298
G1 X161.88 Y141.813 E0.05264
G1 X160.886 Y141.419 E0.05001
G1 X159.593 Y141.13 E0.06193
G1 X146.568 Y140.475 E0.60962
G1 X145.37 Y140.585 E0.05623
G1 X144.213 Y140.885 E0.0559
G1 X142.908 Y141.47 E0.06686
G1 X141.877 Y142.157 E0.05791
G1 X140.937 Y143.027 E0.05988
G1 E-0.6 F3000
G1 X145.691 Y147.802 F9000
G1 E0.6 F1800
;TYPE:Internal perimeter
G1 F600
G1 X145.515 Y147.978 E0.01166
G1 X145.34 Y148.219 E0.01394
G1 X145.199 Y148.482 E0.01395
G1 X145.089 Y148.763 E0.01407
G1 X145.008 Y149.056 E0.01423
G1 X144.954 Y149.359 E0.01437
G1 X144.929 Y149.667 E0.01445
G1 X144.932 Y149.976 E0.01443
G1 X144.963 Y150.281 E0.01434
G1 X145.023 Y150.578 E0.01419
G1 X145.113 Y150.865 E0.01403
G1 X145.236 Y151.136 E0.01394
G1 X145.397 Y151.387 E0.01391
G1 X145.587 Y151.598 E0.01327
G1 X145.787 Y151.754 E0.01185
G1 X145.992 Y151.862 E0.01086
G1 X146.201 Y151.93 E0.01029
G1 X146.398 Y151.957 E0.00926
G1 X146.535 Y151.957 E0.00644
G1 X146.734 Y151.932 E0.00936
G1 X146.949 Y151.866 E0.01052
G1 X147.164 Y151.755 E0.01128
G1 X147.376 Y151.593 E0.0125
G1 X147.578 Y151.375 E0.01388
G1 X147.744 Y151.127 E0.01394
G1 X147.877 Y150.86 E0.01397
G1 X147.98 Y150.576 E0.01411
G1 X148.055 Y150.28 E0.01427
G1 X148.101 Y149.975 E0.0144
G1 X148.119 Y149.667 E0.01445
G1 X148.11 Y149.358 E0.01442
G1 X148.072 Y149.055 E0.01431
G1 X148.005 Y148.759 E0.01415
G1 X147.907 Y148.476 E0.014
G1 X147.774 Y148.209 E0.01393
G1 X147.605 Y147.965 E0.01389
G1 X147.412 Y147.769 E0.01288
G1 X147.211 Y147.625 E0.01156
G1 X147.004 Y147.527 E0.01069
G1 X146.794 Y147.469 E0.0102
G1 X146.581 Y147.449 E0.01001
G1 X146.366 Y147.466 E0.01007
G1 X146.151 Y147.523 E0.0104
G1 X145.936 Y147.622 E0.01105
G1 X145.736 Y147.762 E0.01143
G1 E-0.6 F3000
G1 X145.498 Y150.529 F9000
G1 E0.6 F1800
;TYPE:External perimeter
G1 F600
G1 X145.551 Y150.696 E0.00821
G1 X145.649 Y150.912 E0.01105
G1 X145.771 Y151.102 E0.01055
G1 X145.907 Y151.254 E0.00955
G1 X146.042 Y151.359 E0.008
G1 X146.175 Y151.429 E0.00701
G1 X146.306 Y151.471 E0.00644
G1 X146.431 Y151.488 E0.0059
G1 X146.507 Y151.489 E0.00357
G1 X146.635 Y151.473 E0.006
G1 X146.771 Y151.43 E0.00667
G1 X146.912 Y151.357 E0.00743
G1 X147.06 Y151.245 E0.00868
G1 X147.209 Y151.083 E0.01029
G1 X147.338 Y150.891 E0.01081
G1 X147.446 Y150.675 E0.0113
G1 X147.532 Y150.439 E0.01175
G1 X147.595 Y150.187 E0.01212
G1 X147.635 Y149.926 E0.01236
G1 X147.65 Y149.66 E0.01246
G1 X147.642 Y149.395 E0.0124
G1 X147.61 Y149.136 E0.01219
G1 X147.554 Y148.889 E0.01185
G1 X147.474 Y148.658 E0.01142
G1 X147.37 Y148.448 E0.01094
G1 X147.243 Y148.265 E0.01042
G1 X147.106 Y148.126 E0.00911
G1 X146.972 Y148.03 E0.00771
G1 X146.84 Y147.967 E0.00683
G1 X146.709 Y147.931 E0.00635
G1 X146.578 Y147.919 E0.00615
G1 X146.445 Y147.93 E0.00621
G1 X146.31 Y147.965 E0.00654
G1 X146.17 Y148.03 E0.0072
G1 X146.024 Y148.132 E0.00833
G1 X145.872 Y148.283 E0.01004
G1 X145.738 Y148.468 E0.01069
G1 X145.625 Y148.679 E0.01118
G1 X145.534 Y148.911 E0.01164
G1 X145.465 Y149.159 E0.01204
G1 X145.42 Y149.419 E0.01231
G1 X145.398 Y149.684 E0.01245
G1 X145.4 Y149.95 E0.01243
G1 X145.426 Y150.211 E0.01226
G1 X145.48 Y150.472 E0.01245
;WIPE_START
G1 X145.38 Y150.658 F9000
;WIPE_END
G1 E-0.6 F3000
G1 X148.664 Y148.486 F9000
G1 E0.6 F1800
;TYPE:Internal perimeter
G1 F600
G1 X148.689 Y148.583 E0.00465
G1 X148.746 Y148.906 E0.01532
G1 X148.779 Y149.238 E0.01561
G1 X148.787 Y149.576 E0.0158
G1 X148.771 Y149.915 E0.01589
G1 X148.729 Y150.252 E0.01588
G1 X148.663 Y150.583 E0.01577
G1 X148.574 Y150.904 E0.01556
G1 X148.463 Y151.211 E0.01526
G1 X148.331 Y151.5 E0.01487
G1 X148.181 Y151.769 E0.0144
G1 X148.015 Y152.015 E0.01386
G1 X147.836 Y152.235 E0.01326
G1 X147.647 Y152.427 E0.01262
G1 X147.449 Y152.59 E0.01197
G1 X147.248 Y152.724 E0.01131
G1 X147.044 Y152.828 E0.0107
G1 X146.84 Y152.903 E0.01015
G1 X146.638 Y152.95 E0.00971
G1 X146.435 Y152.971 E0.00955
G1 X146.268 Y152.967 E0.00779
G1 X146.069 Y152.938 E0.00941
G1 X145.875 Y152.883 E0.00943
G1 X145.683 Y152.801 E0.00976
G1 X145.494 Y152.691 E0.01022
G1 X145.31 Y152.553 E0.01078
G1 X145.132 Y152.385 E0.0114
G1 X144.965 Y152.19 E0.01205
G1 X144.809 Y151.967 E0.0127
G1 X144.669 Y151.718 E0.01334
G1 X144.546 Y151.447 E0.01393
G1 X144.443 Y151.155 E0.01446
G1 X144.362 Y150.846 E0.01492
G1 X144.303 Y150.524 E0.0153
G1 X144.269 Y150.192 E0.01559
G1 X144.259 Y149.855 E0.01579
G1 X144.274 Y149.515 E0.01588
G1 X144.314 Y149.178 E0.01588
G1 X144.378 Y148.847 E0.01578
G1 X144.466 Y148.525 E0.01558
G1 X144.576 Y148.217 E0.01528
G1 X144.706 Y147.927 E0.0149
G1 X144.855 Y147.656 E0.01443
G1 X145.02 Y147.409 E0.01389
G1 X145.199 Y147.187 E0.0133
G1 X145.388 Y146.993 E0.01266
G1 X145.584 Y146.828 E0.01201
G1 X145.786 Y146.693 E0.01136
G1 X145.99 Y146.587 E0.01074
G1 X146.194 Y146.51 E0.01019
G1 X146.396 Y146.461 E0.00974
G1 X146.596 Y146.439 E0.00942
G1 X146.794 Y146.443 E0.00926
G1 X146.99 Y146.473 E0.00927
G1 X147.184 Y146.53 E0.00945
G1 X147.376 Y146.614 E0.00979
G1 X147.565 Y146.725 E0.01025
G1 X147.749 Y146.866 E0.01081
G1 X147.925 Y147.035 E0.01144
G1 X148.092 Y147.233 E0.01209
G1 X148.247 Y147.457 E0.01275
G1 X148.386 Y147.707 E0.01338
G1 X148.507 Y147.98 E0.01396
G1 X148.609 Y148.273 E0.01449
G1 X148.649 Y148.428 E0.00749
G1 X149.103 Y148.311 F9000
;TYPE:External perimeter
G1 F600
G1 X149.147 Y148.483 E0.00831
G1 X149.211 Y148.842 E0.01701
G1 X149.247 Y149.209 E0.01726
G1 X149.256 Y149.581 E0.01742
G1 X149.238 Y149.955 E0.0175
G1 X149.192 Y150.327 E0.01749
G1 X149.119 Y150.692 E0.0174
G1 X149.021 Y151.047 E0.01722
G1 X148.897 Y151.388 E0.01696
G1 X148.75 Y151.711 E0.01663
G1 X148.581 Y152.015 E0.01623
G1 X148.392 Y152.294 E0.01578
G1 X148.185 Y152.548 E0.01528
G1 X147.963 Y152.773 E0.01476
G1 X147.729 Y152.967 E0.01423
G1 X147.484 Y153.129 E0.01372
G1 X147.232 Y153.258 E0.01324
G1 X146.975 Y153.353 E0.01282
G1 X146.715 Y153.413 E0.01248
G1 X146.453 Y153.44 E0.0123
G1 X146.229 Y153.435 E0.01049
G1 X145.971 Y153.398 E0.01219
G1 X145.718 Y153.326 E0.01227
G1 X145.472 Y153.221 E0.01252
G1 X145.234 Y153.082 E0.01287
G1 X145.007 Y152.911 E0.0133
G1 X144.793 Y152.709 E0.01378
G1 X144.594 Y152.477 E0.0143
G1 X144.412 Y152.216 E0.01483
G1 X144.251 Y151.93 E0.01535
G1 X144.111 Y151.622 E0.01584
G1 X143.995 Y151.293 E0.01628
G1 X143.904 Y150.948 E0.01667
G1 X143.839 Y150.59 E0.017
G1 X143.801 Y150.224 E0.01725
G1 X143.79 Y149.851 E0.01741
G1 X143.807 Y149.477 E0.0175
G1 X143.851 Y149.106 E0.01749
G1 X143.922 Y148.74 E0.0174
G1 X144.019 Y148.385 E0.01723
G1 X144.141 Y148.043 E0.01698
G1 X144.287 Y147.718 E0.01665
G1 X144.454 Y147.413 E0.01626
G1 X144.642 Y147.132 E0.01581
G1 X144.848 Y146.876 E0.01532
G1 X145.069 Y146.65 E0.0148
G1 X145.302 Y146.453 E0.01427
G1 X145.546 Y146.289 E0.01375
G1 X145.798 Y146.158 E0.01327
G1 X146.055 Y146.061 E0.01284
G1 X146.315 Y145.998 E0.0125
G1 X146.576 Y145.97 E0.01226
G1 X146.835 Y145.975 E0.01214
G1 X147.092 Y146.015 E0.01215
G1 X147.344 Y146.088 E0.01228
G1 X147.59 Y146.196 E0.01254
G1 X147.827 Y146.336 E0.01289
G1 X148.054 Y146.509 E0.01333
G1 X148.267 Y146.714 E0.01382
G1 X148.465 Y146.948 E0.01434
G1 X148.645 Y147.21 E0.01486
G1 X148.805 Y147.498 E0.01538
G1 X148.943 Y147.808 E0.01587
G1 X149.058 Y148.137 E0.01631
G1 X149.088 Y148.253 E0.00558
;WIPE_START
G1 X148.976 Y148.436 F9000
;WIPE_END
G1 X148.335 Y148.629
;TYPE:Gap fill
;WIDTH:0.30743
G1 F600
G1 X148.301 Y148.517 E0.003
;WIDTH:0.351078
G1 X148.24 Y148.326 E0.00598
G1 X148.197 Y148.223 E0.00334
;WIDTH:0.3801
G1 X148.154 Y148.12 E0.00367
G1 X148.098 Y148.004 E0.00423
G1 X148.031 Y147.885 E0.00448
;WIDTH:0.422548
G1 X147.928 Y147.719 E0.00724
G1 X147.896 Y147.675 E0.00201
G1 X147.822 Y147.585 E0.00431
;WIDTH:0.485215
G1 X147.709 Y147.451 E0.00759
G1 X147.596 Y147.345 E0.00672
;WIDTH:0.538189
G1 X147.445 Y147.221 E0.00949
;WIDTH:0.571235
G1 X147.293 Y147.128 E0.00921
;WIDTH:0.597768
G1 X147.15 Y147.054 E0.00875
G1 X147.012 Y147.005 E0.00801
;WIDTH:0.632075
G1 X146.86 Y146.966 E0.00908
G1 X146.75 Y146.952 E0.00645
G1 X146.559 Y146.947 E0.01106
G1 X146.483 Y146.955 E0.00443
G1 X146.308 Y146.985 E0.01028
;WIDTH:0.580049
G1 X146.184 Y147.022 E0.00679
;WIDTH:0.552535
G1 X146.017 Y147.087 E0.00898
;WIDTH:0.513779
G1 X145.849 Y147.179 E0.00886
;WIDTH:0.476987
G1 X145.713 Y147.267 E0.00687
G1 X145.671 Y147.299 E0.00221
G1 X145.583 Y147.374 E0.00493
;WIDTH:0.40804
G1 X145.461 Y147.482 E0.00576
G1 X145.393 Y147.557 E0.00362
;WIDTH:0.376715
G1 X145.325 Y147.633 E0.0033
G1 X145.23 Y147.75 E0.0049
;WIDTH:0.346349
G1 X145.165 Y147.844 E0.00337
G1 X145.107 Y147.935 E0.00318
;WIDTH:0.317167
G1 X145.018 Y148.082 E0.00454
G1 X144.956 Y148.208 E0.00372
G1 X144.889 Y148.347 E0.0041
G1 X144.837 Y148.486 E0.00394
;WIDTH:0.287034
G1 X144.772 Y148.663 E0.00443
G1 X144.737 Y148.793 E0.00315
G1 X144.688 Y148.978 E0.00451
G1 X144.663 Y149.109 E0.00313
G1 X144.641 Y149.229 E0.00287
G1 X144.628 Y149.322 E0.00221
G1 X144.617 Y149.432 E0.0026
G1 X144.606 Y149.542 E0.0026
G1 X144.598 Y149.66 E0.00276
G1 X144.595 Y149.858 E0.00465
G1 X144.598 Y149.999 E0.00333
G1 X144.609 Y150.17 E0.00402
G1 X144.626 Y150.338 E0.00397
G1 X144.647 Y150.475 E0.00327
;WIDTH:0.317206
G1 X144.683 Y150.659 E0.00495
G1 X144.709 Y150.769 E0.00301
G1 X144.741 Y150.877 E0.003
;WIDTH:0.344998
G1 X144.794 Y151.047 E0.0052
G1 X144.846 Y151.176 E0.00408
;WIDTH:0.377712
G1 X144.909 Y151.327 E0.00533
G1 X144.966 Y151.433 E0.00391
;WIDTH:0.413794
G1 X145.023 Y151.539 E0.00434
G1 X145.087 Y151.642 E0.00439
G1 X145.161 Y151.745 E0.00461
;WIDTH:0.462973
G1 X145.282 Y151.898 E0.00797
G1 X145.307 Y151.926 E0.00155
G1 X145.384 Y152 E0.00437
;WIDTH:0.52739
G1 X145.521 Y152.125 E0.00884
G1 X145.613 Y152.193 E0.00545
;WIDTH:0.57601
G1 X145.782 Y152.299 E0.01043
G1 X145.906 Y152.357 E0.00715
;WIDTH:0.622066
G1 X146.065 Y152.414 E0.00964
G1 X146.175 Y152.44 E0.00643
G1 X146.343 Y152.461 E0.00962
G1 X146.414 Y152.464 E0.00408
G1 X146.584 Y152.452 E0.00966
G1 X146.699 Y152.432 E0.00665
;WIDTH:0.585058
G1 X146.857 Y152.391 E0.00869
;WIDTH:0.554631
G1 X147.015 Y152.326 E0.0086
;WIDTH:0.515952
G1 X147.187 Y152.237 E0.00898
G1 X147.276 Y152.178 E0.00493
;WIDTH:0.452173
G1 X147.398 Y152.093 E0.00594
G1 X147.54 Y151.969 E0.00754
;WIDTH:0.399735
G1 X147.644 Y151.866 E0.00509
G1 X147.711 Y151.789 E0.00354
G1 X147.783 Y151.698 E0.00401
;WIDTH:0.342897
G1 X147.874 Y151.58 E0.00434
G1 X147.947 Y151.462 E0.00405
G1 X148.047 Y151.293 E0.00569
;WIDTH:0.309882
G1 X148.097 Y151.188 E0.00302
G1 X148.147 Y151.082 E0.00302
G1 X148.188 Y150.985 E0.00271
G1 X148.255 Y150.802 E0.00504
G1 X148.298 Y150.667 E0.00365
;WIDTH:0.28252
G1 X148.34 Y150.506 E0.00383
;WIDTH:0.280451
G1 X148.377 Y150.339 E0.00391
G1 X148.402 Y150.199 E0.00324
G1 X148.428 Y150.005 E0.00449
G1 X148.439 Y149.886 E0.00271
G1 X148.445 Y149.782 E0.0024
G1 X148.451 Y149.666 E0.00264
G1 X148.452 Y149.571 E0.00217
G1 X148.449 Y149.455 E0.00267
G1 X148.44 Y149.259 E0.00448
G1 X148.425 Y149.13 E0.00296
;WIDTH:0.30743
G1 X148.403 Y148.953 E0.00456
G1 X148.375 Y148.811 E0.00369
G1 X148.349 Y148.688 E0.00322
G1 E-0.6 F3000
G1 X156.908 Y149.949 F9000
G1 E0.6 F1800
;TYPE:Internal perimeter
;WIDTH:0.52
G1 F600
G1 X156.883 Y150.257 E0.01445
G1 X156.885 Y150.566 E0.01443
G1 X156.916 Y150.871 E0.01434
G1 X156.976 Y151.169 E0.01419
G1 X157.067 Y151.455 E0.01403
G1 X157.19 Y151.727 E0.01394
G1 X157.35 Y151.977 E0.01391
G1 X157.54 Y152.188 E0.01327
G1 X157.74 Y152.344 E0.01185
G1 X157.946 Y152.453 E0.01086
G1 X158.155 Y152.52 E0.01029
G1 X158.351 Y152.547 E0.00926
G1 X158.489 Y152.548 E0.00644
G1 X158.688 Y152.523 E0.00936
G1 X158.903 Y152.456 E0.01052
G1 X159.117 Y152.345 E0.01128
G1 X159.33 Y152.183 E0.0125
G1 X159.531 Y151.965 E0.01388
G1 X159.698 Y151.718 E0.01394
G1 X159.831 Y151.45 E0.01397
G1 X159.934 Y151.166 E0.01411
G1 X160.008 Y150.87 E0.01427
G1 X160.055 Y150.566 E0.0144
G1 X160.073 Y150.257 E0.01445
G1 X160.064 Y149.949 E0.01442
G1 X160.026 Y149.645 E0.01431
G1 X159.958 Y149.35 E0.01415
G1 X159.86 Y149.067 E0.014
G1 X159.728 Y148.8 E0.01393
G1 X159.558 Y148.556 E0.01389
G1 X159.366 Y148.359 E0.01288
G1 X159.164 Y148.215 E0.01156
G1 X158.958 Y148.117 E0.01069
G1 X158.747 Y148.059 E0.0102
G1 X158.534 Y148.039 E0.01001
G1 X158.32 Y148.057 E0.01007
G1 X158.105 Y148.113 E0.0104
G1 X157.89 Y148.212 E0.01105
G1 X157.676 Y148.361 E0.01218
G1 X157.468 Y148.568 E0.01372
G1 X157.293 Y148.81 E0.01394
G1 X157.152 Y149.073 E0.01395
G1 X157.042 Y149.353 E0.01407
G1 X156.961 Y149.646 E0.01423
G1 X156.918 Y149.89 E0.01157
G1 E-0.6 F3000
G1 X159.596 Y149.984 F9000
G1 E0.6 F1800
;TYPE:External perimeter
G1 F600
G1 X159.564 Y149.726 E0.01215
G1 X159.507 Y149.479 E0.01185
G1 X159.427 Y149.248 E0.01142
G1 X159.323 Y149.039 E0.01094
G1 X159.196 Y148.856 E0.01042
G1 X159.06 Y148.717 E0.00911
G1 X158.926 Y148.621 E0.00771
G1 X158.794 Y148.558 E0.00683
G1 X158.663 Y148.522 E0.00635
G1 X158.532 Y148.509 E0.00615
G1 X158.399 Y148.52 E0.00621
G1 X158.264 Y148.556 E0.00654
G1 X158.124 Y148.62 E0.0072
G1 X157.978 Y148.722 E0.00833
G1 X157.826 Y148.874 E0.01004
G1 X157.691 Y149.059 E0.01069
G1 X157.578 Y149.27 E0.01118
