; generated by SuperSlicer 2.3.57 on 2022-02-15 at 04:33:34 UTC


;
;

;
;
; 

; external perimeters extrusion width = 0.40mm
; perimeters extrusion width = 0.45mm
; infill extrusion width = 0.72mm
; solid infill extrusion width = 0.56mm
; top infill extrusion width = 0.40mm
; support material extrusion width = 0.42mm
; first layer extrusion width = 0.48mm

; object:{"name":"Part3","id":"Part3.STL id:0 copy 0","object_center":[165.000000,165.000000,0.000000],"boundingbox_center":[165.000000,165.000000,12.000000],"boundingbox_size":[175.633529,67.904163,24.000000]}
; plater:{"center":[165.000000,165.000000,0.000000],"boundingbox_center":[165.000000,165.000000,12.000000],"boundingbox_size":[175.633529,67.904163,24.000000]}

;TYPE:Custom
START_PRINT T_BED=60 T_EXTRUDER=200
M107
G21 ; set units to millimeters
G90 ; use absolute coordinates
M83 ; use relative distances for extrusion
; Filament gcode
M104 S200 ; set temperature
M109 S200 ; set temperature and wait for it to be reached
M190 S60 ; set bed temperature and wait for it to be reached
M107
;LAYER_CHANGE
;Z:0.24
;HEIGHT:0.24
G1 Z0.24 F9000
G1 E-0.6 F3000
G1 X75.368 Y128.64 F9000
G1 E0.6 F1800
; External perimeter
;Skirt
SET_VELOCITY_LIMIT ACCEL=3000 ACCEL_TO_DECEL=3000 SQUARE_CORNER_VELOCITY=8

; Support material

;TYPE:Skirt
;WIDTH:0.48
G1 X74.597 Y129.472 E0.04851
G1 X74.123 Y130.427 E0.0456
G1 X73.91 Y131.584 E0.05027
G1 X73.908 Y198.323 E2.85346
G1 X73.992 Y199.104 E0.03357
G1 X74.191 Y199.771 E0.02979
G1 X74.778 Y200.772 E0.04959
G1 X75.627 Y201.551 E0.04928
G1 X76.599 Y202.022 E0.0462
G1 X77.777 Y202.223 E0.05109
G1 X252.186 Y202.224 E7.45692
G1 X252.955 Y202.145 E0.03308
G1 X253.633 Y201.944 E0.03019
G1 X254.598 Y201.388 E0.04765
G1 X255.381 Y200.561 E0.04871
G1 X255.892 Y199.546 E0.04857
G1 X256.09 Y198.435 E0.04822
G1 X256.091 Y131.625 E2.85651
G1 X255.998 Y130.85 E0.03337
G1 X255.789 Y130.181 E0.02999
G1 X255.417 Y129.494 E0.03338
G1 X254.957 Y128.934 E0.031
G1 X254.37 Y128.447 E0.03262
G1 X253.734 Y128.099 E0.031
G1 X252.984 Y127.86 E0.03366
G1 X252.23 Y127.781 E0.0324
G1 X77.813 Y127.776 E7.45729
G1 X77.033 Y127.859 E0.03355
G1 X76.36 Y128.058 E0.02999
G1 X75.419 Y128.609 E0.04661
G1 X75.637 Y128.972 F9000
G1 F1800
G1 X74.948 Y129.718 E0.04344
G1 X74.528 Y130.565 E0.04038
G1 X74.338 Y131.604 E0.04516
G1 X74.337 Y198.318 E2.8524
G1 X74.411 Y199.012 E0.02983
G1 X74.584 Y199.601 E0.02628
G1 X75.109 Y200.5 E0.0445
G1 X75.865 Y201.195 E0.04392
G1 X76.727 Y201.613 E0.04094
G1 X77.784 Y201.795 E0.04587
G1 X252.184 Y201.795 E7.45655
G1 X252.873 Y201.724 E0.02959
G1 X253.467 Y201.549 E0.02647
G1 X254.33 Y201.054 E0.04256
G1 X255.031 Y200.314 E0.04358
G1 X255.487 Y199.406 E0.04343
G1 X255.662 Y198.41 E0.04324
G1 X255.663 Y131.638 E2.85489
G1 X255.58 Y130.945 E0.02983
G1 X255.397 Y130.353 E0.02647
G1 X255.063 Y129.736 E0.03002
G1 X254.657 Y129.24 E0.02741
G1 X254.134 Y128.804 E0.02909
G1 X253.572 Y128.496 E0.02741
G1 X252.903 Y128.28 E0.03005
G1 X252.23 Y128.209 E0.02892
G1 X77.814 Y128.205 E7.45726
G1 X77.118 Y128.279 E0.02993
G1 X76.528 Y128.452 E0.02628
G1 X75.689 Y128.942 E0.04153
; INIT printing object Part3.STL id:0 copy 0
G1 E-0.6 F3000
; printing object Part3.STL id:0 copy 0
G1 X78.648 Y132.516 F9000
G1 E0.6 F1800
; External perimeter
;Perimeter
SET_VELOCITY_LIMIT ACCEL=2000 ACCEL_TO_DECEL=2000 SQUARE_CORNER_VELOCITY=8

; Overhang perimeter

;TYPE:Internal perimeter
G1 X251.352 Y132.52 E7.38405
G1 X251.352 Y197.484 E2.77755
G1 X78.648 Y197.484 E7.38405
G1 X78.648 Y132.576 E2.77517
G1 X78.219 Y132.088 F9000
G1 F1800
G1 X251.781 Y132.092 E7.42069
G1 X251.781 Y197.913 E2.81419
G1 X78.219 Y197.913 E7.42069
G1 X78.219 Y132.148 E2.81181
G1 X252.204 Y198.322 F9000
; External perimeter
;ExternalPerimeter
SET_VELOCITY_LIMIT ACCEL=1000 ACCEL_TO_DECEL=1000 SQUARE_CORNER_VELOCITY=8

; Perimeter

;TYPE:External perimeter
G1 F1800
G1 X252.19 Y198.337 E0.00087
G1 X252.162 Y198.341 E0.00123
G1 X77.851 Y198.341 E7.45275
G1 X77.8 Y198.327 E0.00227
G1 X77.791 Y198.287 E0.00017
G1 X77.791 Y131.723 E2.846
G1 X77.805 Y131.667 E0.00248
G1 X77.84 Y131.659 E0.00015
G1 X252.193 Y131.666 E7.45454
G1 X252.203 Y131.678 E0.00067
G1 X252.209 Y131.713 E0.00151
G1 X252.209 Y198.262 E2.84535
;WIPE_START
G1 X252.196 Y198.323 F9000
;WIPE_END
G1 X250.422 Y132.585
; External perimeter
;SolidInfill
SET_VELOCITY_LIMIT ACCEL=2000 ACCEL_TO_DECEL=2000 SQUARE_CORNER_VELOCITY=8

; Bridge infill

;TYPE:Solid infill
;WIDTH:0.478536
G1 F2400
G1 X251.104 Y133.267 E0.04111
G1 X251.104 Y133.873 E0.02583
G1 X250 Y132.769 E0.06653
G1 X249.394 Y132.769 E0.02583
G1 X251.104 Y134.479 E0.10306
G1 X251.104 Y135.085 E0.02583
G1 X248.788 Y132.769 E0.13959
G1 X248.182 Y132.769 E0.02583
G1 X251.104 Y135.691 E0.17612
G1 X251.104 Y136.297 E0.02583
G1 X247.576 Y132.769 E0.21265
G1 X246.97 Y132.769 E0.02583
G1 X251.104 Y136.902 E0.24918
G1 X251.104 Y137.508 E0.02583
G1 X246.364 Y132.769 E0.28571
G1 X245.758 Y132.769 E0.02583
G1 X251.104 Y138.114 E0.32224
G1 X251.104 Y138.72 E0.02583
G1 X245.152 Y132.769 E0.35877
G1 X244.546 Y132.769 E0.02583
G1 X251.104 Y139.326 E0.3953
G1 X251.104 Y139.932 E0.02583
G1 X243.94 Y132.769 E0.43183
G1 X243.334 Y132.769 E0.02583
G1 X251.104 Y140.538 E0.46836
G1 X251.104 Y141.144 E0.02583
G1 X242.728 Y132.769 E0.50489
G1 X242.122 Y132.769 E0.02583
G1 X251.104 Y141.75 E0.54142
G1 X251.104 Y142.356 E0.02583
G1 X241.516 Y132.769 E0.57795
G1 X240.91 Y132.769 E0.02583
G1 X251.104 Y142.962 E0.61448
G1 X251.104 Y143.568 E0.02583
G1 X240.304 Y132.769 E0.65101
G1 X239.698 Y132.769 E0.02583
G1 X251.104 Y144.174 E0.68754
G1 X251.104 Y144.78 E0.02583
G1 X239.092 Y132.769 E0.72407
G1 X238.486 Y132.769 E0.02583
G1 X251.104 Y145.386 E0.76061
G1 X251.104 Y145.992 E0.02583
G1 X237.88 Y132.769 E0.79714
G1 X237.274 Y132.769 E0.02583
G1 X251.104 Y146.598 E0.83367
G1 X251.104 Y147.204 E0.02583
G1 X236.668 Y132.769 E0.8702
G1 X236.062 Y132.769 E0.02583
G1 X251.104 Y147.81 E0.90673
G1 X251.104 Y148.416 E0.02583
G1 X235.456 Y132.769 E0.94326
G1 X234.85 Y132.768 E0.02583
G1 X251.104 Y149.022 E0.97979
G1 X251.104 Y149.628 E0.02583
G1 X234.244 Y132.768 E1.01632
G1 X233.638 Y132.768 E0.02583
G1 X251.104 Y150.234 E1.05285
G1 X251.104 Y150.84 E0.02583
G1 X233.032 Y132.768 E1.08938
G1 X232.426 Y132.768 E0.02583
G1 X251.104 Y151.446 E1.12591
G1 X251.104 Y152.052 E0.02583
G1 X231.82 Y132.768 E1.16244
G1 X231.214 Y132.768 E0.02583
G1 X251.104 Y152.658 E1.19897
G1 X251.104 Y153.264 E0.02583
G1 X230.608 Y132.768 E1.2355
G1 X230.002 Y132.768 E0.02583
G1 X251.104 Y153.87 E1.27203
G1 X251.104 Y154.476 E0.02583
G1 X229.396 Y132.768 E1.30856
G1 X228.79 Y132.768 E0.02583
G1 X251.104 Y155.082 E1.34509
G1 X251.104 Y155.688 E0.02583
G1 X228.184 Y132.768 E1.38162
G1 X227.578 Y132.768 E0.02583
G1 X251.104 Y156.294 E1.41815
G1 X251.104 Y156.9 E0.02583
G1 X226.972 Y132.768 E1.45468
G1 X226.366 Y132.768 E0.02583
G1 X251.104 Y157.506 E1.49121
G1 X251.104 Y158.112 E0.02583
G1 X225.76 Y132.768 E1.52774
G1 X225.154 Y132.768 E0.02583
G1 X251.104 Y158.718 E1.56427
G1 X251.104 Y159.324 E0.02583
G1 X224.548 Y132.768 E1.6008
G1 X223.942 Y132.768 E0.02583
G1 X251.104 Y159.93 E1.63733
G1 X251.104 Y160.536 E0.02583
G1 X223.336 Y132.768 E1.67386
G1 X222.73 Y132.768 E0.02583
G1 X251.104 Y161.142 E1.71039
G1 X251.104 Y161.748 E0.02583
G1 X222.124 Y132.768 E1.74692
G1 X221.518 Y132.768 E0.02583
G1 X251.104 Y162.354 E1.78345
G1 X251.104 Y162.96 E0.02583
G1 X220.912 Y132.768 E1.81998
G1 X220.306 Y132.768 E0.02583
G1 X251.104 Y163.566 E1.85651
G1 X251.104 Y164.172 E0.02583
G1 X219.7 Y132.768 E1.89304
G1 X219.094 Y132.768 E0.02583
G1 X251.104 Y164.778 E1.92957
G1 X251.104 Y165.384 E0.02583
G1 X218.488 Y132.768 E1.9661
G1 X217.882 Y132.768 E0.02583
G1 X251.104 Y165.99 E2.00263
G1 X251.104 Y166.596 E0.02583
G1 X217.276 Y132.768 E2.03916
G1 X216.67 Y132.768 E0.02583
G1 X251.104 Y167.202 E2.07569
G1 X251.104 Y167.808 E0.02583
G1 X216.064 Y132.768 E2.11222
G1 X215.458 Y132.768 E0.02583
G1 X251.104 Y168.414 E2.14875
G1 X251.104 Y169.02 E0.02583
G1 X214.852 Y132.768 E2.18528
G1 X214.246 Y132.768 E0.02583
G1 X251.104 Y169.626 E2.22181
G1 X251.104 Y170.232 E0.02583
G1 X213.64 Y132.768 E2.25834
G1 X213.034 Y132.768 E0.02583
G1 X251.104 Y170.838 E2.29487
G1 X251.104 Y171.444 E0.02583
G1 X212.428 Y132.768 E2.3314
G1 X211.822 Y132.768 E0.02583
G1 X251.104 Y172.05 E2.36793
G1 X251.104 Y172.656 E0.02583
G1 X211.216 Y132.768 E2.40446
G1 X210.61 Y132.768 E0.02583
G1 X251.104 Y173.262 E2.44099
G1 X251.104 Y173.867 E0.02583
G1 X210.004 Y132.768 E2.47752
G1 X209.398 Y132.768 E0.02583
G1 X251.104 Y174.473 E2.51405
G1 X251.104 Y175.079 E0.02583
G1 X208.792 Y132.768 E2.55058
G1 X208.186 Y132.768 E0.02583
G1 X251.104 Y175.685 E2.58711
G1 X251.104 Y176.291 E0.02583
G1 X207.58 Y132.768 E2.62364
G1 X206.974 Y132.768 E0.02583
G1 X251.104 Y176.897 E2.66017
G1 X251.104 Y177.503 E0.02583
G1 X206.368 Y132.768 E2.6967
G1 X205.762 Y132.768 E0.02583
G1 X251.104 Y178.109 E2.73323
G1 X251.104 Y178.715 E0.02583
G1 X205.156 Y132.768 E2.76976
G1 X204.55 Y132.768 E0.02583
G1 X251.104 Y179.321 E2.80629
G1 X251.104 Y179.927 E0.02583
G1 X203.944 Y132.768 E2.84282
G1 X203.338 Y132.768 E0.02583
G1 X251.104 Y180.533 E2.87935
G1 X251.104 Y181.139 E0.02583
G1 X202.732 Y132.768 E2.91588
G1 X202.126 Y132.768 E0.02583
G1 X251.104 Y181.745 E2.95241
G1 X251.104 Y182.351 E0.02583
G1 X201.52 Y132.768 E2.98894
G1 X200.914 Y132.768 E0.02583
G1 X251.104 Y182.957 E3.02547
G1 X251.104 Y183.563 E0.02583
G1 X200.308 Y132.768 E3.062
G1 X199.702 Y132.768 E0.02583
G1 X251.104 Y184.169 E3.09853
G1 X251.104 Y184.775 E0.02583
G1 X199.096 Y132.768 E3.13506
G1 X198.49 Y132.768 E0.02583
G1 X251.104 Y185.381 E3.17159
G1 X251.104 Y185.987 E0.02583
G1 X197.884 Y132.768 E3.20812
G1 X197.278 Y132.768 E0.02583
G1 X251.104 Y186.593 E3.24465
G1 X251.104 Y187.199 E0.02583
G1 X196.672 Y132.768 E3.28118
G1 X196.066 Y132.768 E0.02583
G1 X251.104 Y187.805 E3.31771
G1 X251.104 Y188.411 E0.02583
G1 X195.46 Y132.767 E3.35425
G1 X194.854 Y132.767 E0.02583
G1 X251.104 Y189.017 E3.39078
G1 X251.104 Y189.623 E0.02583
G1 X194.248 Y132.767 E3.42731
G1 X193.642 Y132.767 E0.02583
G1 X251.104 Y190.229 E3.46384
G1 X251.104 Y190.835 E0.02583
G1 X193.036 Y132.767 E3.50037
G1 X192.43 Y132.767 E0.02583
G1 X251.104 Y191.441 E3.5369
G1 X251.104 Y192.047 E0.02583
G1 X191.824 Y132.767 E3.57343
G1 X191.218 Y132.767 E0.02583
G1 X251.104 Y192.653 E3.60996
G1 X251.104 Y193.259 E0.02583
G1 X190.612 Y132.767 E3.64649
G1 X190.006 Y132.767 E0.02583
G1 X251.104 Y193.865 E3.68302
G1 X251.104 Y194.471 E0.02583
G1 X189.4 Y132.767 E3.71955
G1 X188.794 Y132.767 E0.02583
G1 X251.104 Y195.077 E3.75608
G1 X251.104 Y195.683 E0.02583
G1 X188.188 Y132.767 E3.79261
G1 X187.582 Y132.767 E0.02583
G1 X251.104 Y196.289 E3.82914
G1 X251.104 Y196.895 E0.02583
G1 X186.976 Y132.767 E3.86567
G1 X186.37 Y132.767 E0.02583
G1 X250.838 Y197.236 E3.8862
G1 X250.232 Y197.236 E0.02583
G1 X185.764 Y132.767 E3.8862
G1 X185.158 Y132.767 E0.02583
G1 X249.626 Y197.236 E3.8862
G1 X249.02 Y197.236 E0.02583
G1 X184.552 Y132.767 E3.88621
G1 X183.946 Y132.767 E0.02583
G1 X248.414 Y197.236 E3.88621
G1 X247.808 Y197.236 E0.02583
G1 X183.34 Y132.767 E3.88621
G1 X182.734 Y132.767 E0.02583
G1 X247.202 Y197.236 E3.88621
G1 X246.596 Y197.236 E0.02583
G1 X182.128 Y132.767 E3.88621
G1 X181.522 Y132.767 E0.02583
G1 X245.99 Y197.236 E3.88621
G1 X245.384 Y197.236 E0.02583
G1 X180.916 Y132.767 E3.88621
G1 X180.31 Y132.767 E0.02583
G1 X244.778 Y197.236 E3.88621
G1 X244.172 Y197.236 E0.02583
G1 X179.704 Y132.767 E3.88621
G1 X179.098 Y132.767 E0.02583
G1 X243.566 Y197.236 E3.88621
G1 X242.96 Y197.236 E0.02583
G1 X178.492 Y132.767 E3.88621
G1 X177.886 Y132.767 E0.02583
G1 X242.354 Y197.236 E3.88622
G1 X241.748 Y197.236 E0.02583
G1 X177.28 Y132.767 E3.88622
G1 X176.674 Y132.767 E0.02583
G1 X241.143 Y197.236 E3.88622
G1 X240.537 Y197.236 E0.02583
G1 X176.068 Y132.767 E3.88622
G1 X175.462 Y132.767 E0.02583
G1 X239.931 Y197.236 E3.88622
G1 X239.325 Y197.236 E0.02583
G1 X174.856 Y132.767 E3.88622
G1 X174.25 Y132.767 E0.02583
G1 X238.719 Y197.236 E3.88622
G1 X238.113 Y197.236 E0.02583
G1 X173.644 Y132.767 E3.88622
G1 X173.038 Y132.767 E0.02583
G1 X237.507 Y197.236 E3.88622
G1 X236.901 Y197.236 E0.02583
G1 X172.432 Y132.767 E3.88622
G1 X171.826 Y132.767 E0.02583
G1 X236.295 Y197.236 E3.88622
G1 X235.689 Y197.236 E0.02583
G1 X171.22 Y132.767 E3.88623
G1 X170.614 Y132.767 E0.02583
G1 X235.083 Y197.236 E3.88623
G1 X234.477 Y197.236 E0.02583
G1 X170.008 Y132.767 E3.88623
G1 X169.402 Y132.767 E0.02583
G1 X233.871 Y197.236 E3.88623
G1 X233.265 Y197.236 E0.02583
G1 X168.796 Y132.767 E3.88623
G1 X168.19 Y132.767 E0.02583
G1 X232.659 Y197.236 E3.88623
G1 X232.053 Y197.236 E0.02583
G1 X167.584 Y132.767 E3.88623
G1 X166.978 Y132.767 E0.02583
G1 X231.447 Y197.236 E3.88623
G1 X230.841 Y197.236 E0.02583
G1 X166.372 Y132.767 E3.88623
G1 X165.766 Y132.767 E0.02583
G1 X230.235 Y197.236 E3.88623
G1 X229.629 Y197.236 E0.02583
G1 X165.16 Y132.767 E3.88624
G1 X164.554 Y132.767 E0.02583
G1 X229.023 Y197.236 E3.88624
G1 X228.417 Y197.236 E0.02583
G1 X163.948 Y132.767 E3.88624
G1 X163.342 Y132.767 E0.02583
G1 X227.811 Y197.236 E3.88624
G1 X227.205 Y197.236 E0.02583
G1 X162.736 Y132.767 E3.88624
G1 X162.13 Y132.767 E0.02583
G1 X226.599 Y197.236 E3.88624
G1 X225.993 Y197.236 E0.02583
G1 X161.524 Y132.767 E3.88624
G1 X160.918 Y132.767 E0.02583
G1 X225.387 Y197.236 E3.88624
G1 X224.781 Y197.236 E0.02583
G1 X160.312 Y132.767 E3.88624
G1 X159.706 Y132.767 E0.02583
G1 X224.175 Y197.236 E3.88624
G1 X223.569 Y197.236 E0.02583
G1 X159.1 Y132.767 E3.88624
G1 X158.494 Y132.767 E0.02583
G1 X222.963 Y197.236 E3.88625
G1 X222.357 Y197.236 E0.02583
G1 X157.888 Y132.767 E3.88625
G1 X157.282 Y132.767 E0.02583
G1 X221.751 Y197.236 E3.88625
G1 X221.145 Y197.236 E0.02583
G1 X156.676 Y132.767 E3.88625
G1 X156.07 Y132.766 E0.02583
G1 X220.539 Y197.236 E3.88625
G1 X219.933 Y197.236 E0.02583
G1 X155.464 Y132.766 E3.88625
G1 X154.858 Y132.766 E0.02583
G1 X219.327 Y197.236 E3.88625
G1 X218.721 Y197.236 E0.02583
G1 X154.252 Y132.766 E3.88625
G1 X153.646 Y132.766 E0.02583
G1 X218.115 Y197.236 E3.88625
G1 X217.509 Y197.236 E0.02583
G1 X153.04 Y132.766 E3.88625
G1 X152.434 Y132.766 E0.02583
G1 X216.903 Y197.236 E3.88625
G1 X216.297 Y197.236 E0.02583
G1 X151.828 Y132.766 E3.88626
G1 X151.222 Y132.766 E0.02583
G1 X215.691 Y197.236 E3.88626
G1 X215.085 Y197.236 E0.02583
G1 X150.616 Y132.766 E3.88626
G1 X150.01 Y132.766 E0.02583
G1 X214.479 Y197.236 E3.88626
G1 X213.873 Y197.236 E0.02583
G1 X149.404 Y132.766 E3.88626
G1 X148.798 Y132.766 E0.02583
G1 X213.267 Y197.236 E3.88626
G1 X212.661 Y197.236 E0.02583
G1 X148.192 Y132.766 E3.88626
G1 X147.586 Y132.766 E0.02583
G1 X212.055 Y197.236 E3.88626
G1 X211.449 Y197.236 E0.02583
G1 X146.98 Y132.766 E3.88626
G1 X146.374 Y132.766 E0.02583
G1 X210.843 Y197.236 E3.88626
G1 X210.237 Y197.236 E0.02583
G1 X145.768 Y132.766 E3.88626
G1 X145.162 Y132.766 E0.02583
G1 X209.631 Y197.236 E3.88627
G1 X209.025 Y197.236 E0.02583
G1 X144.556 Y132.766 E3.88627
G1 X143.95 Y132.766 E0.02583
G1 X208.419 Y197.236 E3.88627
G1 X207.813 Y197.236 E0.02583
G1 X143.344 Y132.766 E3.88627
G1 X142.738 Y132.766 E0.02583
G1 X207.207 Y197.236 E3.88627
G1 X206.601 Y197.236 E0.02583
G1 X142.132 Y132.766 E3.88627
G1 X141.526 Y132.766 E0.02583
G1 X205.995 Y197.236 E3.88627
G1 X205.389 Y197.236 E0.02583
G1 X140.92 Y132.766 E3.88627
G1 X140.314 Y132.766 E0.02583
G1 X204.784 Y197.236 E3.88627
G1 X204.178 Y197.236 E0.02583
G1 X139.708 Y132.766 E3.88627
G1 X139.102 Y132.766 E0.02583
G1 X203.572 Y197.236 E3.88628
G1 X202.966 Y197.236 E0.02583
G1 X138.496 Y132.766 E3.88628
G1 X137.89 Y132.766 E0.02583
G1 X202.36 Y197.236 E3.88628
G1 X201.754 Y197.236 E0.02583
G1 X137.284 Y132.766 E3.88628
G1 X136.678 Y132.766 E0.02583
G1 X201.148 Y197.236 E3.88628
G1 X200.542 Y197.236 E0.02583
G1 X136.072 Y132.766 E3.88628
G1 X135.466 Y132.766 E0.02583
G1 X199.936 Y197.236 E3.88628
G1 X199.33 Y197.236 E0.02583
G1 X134.86 Y132.766 E3.88628
G1 X134.254 Y132.766 E0.02583
G1 X198.724 Y197.236 E3.88628
G1 X198.118 Y197.236 E0.02583
G1 X133.648 Y132.766 E3.88628
