; generated by SuperSlicer 2.3.57 on 2022-02-09 at 00:41:41 UTC


;
;

;
;
; 

; external perimeters extrusion width = 0.40mm
; perimeters extrusion width = 0.40mm
; infill extrusion width = 0.72mm
; solid infill extrusion width = 0.40mm
; top infill extrusion width = 0.40mm
; first layer extrusion width = 0.48mm


;TYPE:Custom
START_PRINT T_BED=60 T_EXTRUDER=200
M107
G21 ; set units to millimeters
G90 ; use absolute coordinates
M83 ; use relative distances for extrusion
; Filament gcode
M104 S200 ; set temperature
M109 S200 ; set temperature and wait for it to be reached
M190 S60 ; set bed temperature and wait for it to be reached
;LAYER_CHANGE
;Z:0.24
;HEIGHT:0.24
G1 Z0.24 F9000
G1 E-0.6 F3000
G1 X139.49 Y128.297 F9000
G1 E0.6 F1800
;TYPE:Skirt
;WIDTH:0.48
G1 F600
G1 X138.559 Y129.4 E0.0617
G1 X137.956 Y130.321 E0.04705
G1 X137.46 Y131.286 E0.04642
G1 X137.082 Y132.238 E0.04379
G1 X136.703 Y133.621 E0.06128
G1 X136.114 Y137.274 E0.15822
G1 X136.141 Y138.359 E0.0464
G1 X136.33 Y139.353 E0.04328
G1 X147.444 Y168.493 E1.33341
G1 X148.109 Y169.767 E0.06147
G1 X148.707 Y170.506 E0.04062
G1 X149.42 Y171.147 E0.04101
G1 X152.055 Y173.118 E0.14069
G1 X153.454 Y173.85 E0.06753
G1 X155.317 Y174.515 E0.08457
G1 X157.037 Y174.848 E0.07488
G1 X158.732 Y174.864 E0.0725
G1 X160.484 Y174.551 E0.07608
G1 X162.62 Y173.792 E0.09692
G1 X163.8 Y173.168 E0.05707
G1 X166.816 Y170.896 E0.16144
G1 X167.462 Y170.238 E0.03943
G1 X168.012 Y169.47 E0.04041
G1 X168.384 Y168.748 E0.03473
G1 X168.662 Y167.964 E0.03555
G1 X168.835 Y167.135 E0.03621
G1 X168.896 Y166.33 E0.03452
G1 X168.81 Y165.162 E0.05007
G1 X168.182 Y161.701 E0.15042
G1 X167.735 Y160.327 E0.06175
G1 X156.796 Y131.723 E1.30939
G1 X156.016 Y130.161 E0.07463
G1 X155.292 Y129.11 E0.05456
G1 X154.289 Y128.01 E0.06365
G1 X153.383 Y127.24 E0.05082
G1 X152.401 Y126.588 E0.05042
G1 X151.087 Y125.93 E0.06285
G1 X149.945 Y125.529 E0.05174
G1 X148.348 Y125.198 E0.06973
G1 X147.04 Y125.1 E0.05607
G1 X145.512 Y125.229 E0.06559
G1 X144.438 Y125.444 E0.04682
G1 X143.372 Y125.777 E0.04777
G1 X142.073 Y126.361 E0.06089
G1 X141.106 Y126.941 E0.04818
G1 X140.235 Y127.601 E0.04673
G1 X139.533 Y128.256 E0.04105
G1 X139.846 Y128.577 F9000
G1 F600
G1 X139.511 Y128.903 E0.01996
G1 X138.897 Y129.662 E0.04178
G1 X138.323 Y130.543 E0.04493
G1 X137.849 Y131.465 E0.04435
G1 X137.49 Y132.37 E0.0416
G1 X137.121 Y133.715 E0.05963
G1 X136.543 Y137.292 E0.15495
G1 X136.567 Y138.318 E0.04387
G1 X136.747 Y139.253 E0.04071
G1 X147.843 Y168.337 E1.33093
G1 X148.445 Y169.498 E0.0559
G1 X149.007 Y170.199 E0.03844
G1 X149.675 Y170.802 E0.03844
G1 X152.283 Y172.754 E0.1393
G1 X153.598 Y173.446 E0.06355
G1 X155.426 Y174.101 E0.08299
G1 X157.072 Y174.421 E0.0717
G1 X158.696 Y174.437 E0.06947
G1 X160.387 Y174.133 E0.07343
G1 X162.45 Y173.399 E0.09363
G1 X163.558 Y172.814 E0.05356
G1 X166.519 Y170.587 E0.15844
G1 X167.128 Y169.97 E0.03704
G1 X167.646 Y169.247 E0.03802
G1 X167.994 Y168.569 E0.03259
G1 X168.254 Y167.833 E0.0334
G1 X168.415 Y167.052 E0.03409
G1 X168.468 Y166.288 E0.03273
G1 X168.384 Y165.214 E0.04605
G1 X167.766 Y161.804 E0.14819
G1 X167.335 Y160.48 E0.05953
G1 X156.399 Y131.885 E1.30893
G1 X155.87 Y130.766 E0.05291
G1 X155.118 Y129.588 E0.05977
G1 X154.392 Y128.718 E0.04846
G1 X153.271 Y127.696 E0.06483
G1 X152.294 Y127.021 E0.0508
G1 X150.952 Y126.338 E0.06437
G1 X149.863 Y125.951 E0.04942
G1 X148.294 Y125.624 E0.0685
G1 X147.042 Y125.529 E0.05368
G1 X145.562 Y125.655 E0.06353
G1 X144.536 Y125.861 E0.04473
G1 X143.518 Y126.18 E0.04562
G1 X142.262 Y126.746 E0.05888
G1 X141.34 Y127.3 E0.046
G1 X140.509 Y127.93 E0.04458
G1 X139.889 Y128.535 E0.03705
G1 E-0.6 F3000
G1 X161.857 Y162.626 F9000
G1 E0.6 F1800
;TYPE:Internal perimeter
G1 F600
G1 X161.98 Y162.957 E0.01509
G1 X162.086 Y163.337 E0.01691
G1 X162.162 Y163.728 E0.01701
G1 X162.204 Y164.123 E0.01697
G1 X162.212 Y164.514 E0.01675
G1 X162.197 Y164.746 E0.0099
G1 X161.572 Y164.88 E0.02735
G1 X161.572 Y166.427 E0.06611
G1 X161.058 Y166.543 E0.02252
G1 X160.777 Y166.587 E0.01215
G1 X159.844 Y166.646 E0.03997
G1 X159.844 Y168.097 E0.06206
G1 X159.194 Y168.348 E0.02982
G1 X158.834 Y168.459 E0.01609
G1 X158.496 Y168.534 E0.01481
G1 X158.182 Y168.576 E0.01353
G1 X157.969 Y168.587 E0.00912
G1 X157.669 Y168.568 E0.01287
G1 X157.355 Y168.519 E0.01357
G1 X157.015 Y168.436 E0.01498
G1 X156.648 Y168.317 E0.01648
G1 X156.086 Y168.097 E0.02581
G1 X156.086 Y166.644 E0.06209
G1 X155.164 Y166.588 E0.0395
G1 X154.89 Y166.546 E0.01184
G1 X154.359 Y166.426 E0.02329
G1 X154.359 Y164.884 E0.06593
G1 X153.728 Y164.743 E0.02764
G1 X153.718 Y164.336 E0.01742
G1 X153.741 Y163.949 E0.01657
G1 X153.797 Y163.558 E0.01689
G1 X153.887 Y163.169 E0.01707
G1 X154.009 Y162.789 E0.01708
G1 X154.161 Y162.424 E0.01693
G1 X154.341 Y162.078 E0.01665
G1 X154.547 Y161.757 E0.01629
G1 X154.769 Y161.469 E0.01555
G1 X155.015 Y161.205 E0.01544
G1 X155.279 Y160.969 E0.01517
G1 X155.568 Y160.753 E0.0154
G1 X155.881 Y160.559 E0.01574
G1 X156.214 Y160.391 E0.01595
G1 X156.562 Y160.252 E0.01603
G1 X156.921 Y160.143 E0.01603
G1 X157.292 Y160.064 E0.01621
G1 X157.689 Y160.012 E0.01714
G1 X157.961 Y159.995 E0.01165
G1 X158.373 Y160.026 E0.01765
G1 X158.79 Y160.093 E0.01804
G1 X159.176 Y160.189 E0.01704
G1 X159.538 Y160.315 E0.01638
G1 X159.881 Y160.47 E0.01609
G1 X160.21 Y160.654 E0.01613
G1 X160.519 Y160.865 E0.016
G1 X160.803 Y161.1 E0.01574
G1 X161.059 Y161.353 E0.0154
G1 X161.289 Y161.627 E0.01528
G1 X161.495 Y161.923 E0.01543
G1 X161.681 Y162.245 E0.01591
G1 X161.834 Y162.57 E0.01535
G1 X162.222 Y162.388 F9000
;TYPE:External perimeter
G1 F600
G1 X162.239 Y162.425 E0.00174
G1 X162.387 Y162.824 E0.0182
G1 X162.504 Y163.239 E0.01843
G1 X162.586 Y163.665 E0.01854
G1 X162.632 Y164.095 E0.01852
G1 X162.641 Y164.524 E0.01833
G1 X162.613 Y164.947 E0.01812
G1 X162.601 Y165.04 E0.004
G1 X162.529 Y165.083 E0.00362
G1 X162.365 Y165.148 E0.0075
G1 X162 Y165.226 E0.01598
G1 X162 Y165.931 E0.03013
G1 X162.496 Y165.833 E0.02159
G1 X162.665 Y165.825 E0.00723
G1 X162.773 Y165.836 E0.00466
G1 X162.841 Y165.853 E0.00299
G1 X162.883 Y165.871 E0.00194
G1 X162.923 Y165.899 E0.00212
G1 X162.954 Y165.942 E0.00226
G1 X162.978 Y165.999 E0.00264
G1 X162.996 Y166.066 E0.00299
G1 X163.014 Y166.216 E0.00642
G1 X163.01 Y166.309 E0.00402
G1 X162.998 Y166.373 E0.00278
G1 X162.984 Y166.412 E0.00175
G1 X162.958 Y166.453 E0.00208
G1 X162.941 Y166.469 E0.00103
G1 X162.895 Y166.501 E0.00238
G1 X162.84 Y166.529 E0.00263
G1 X162.623 Y166.611 E0.0099
G1 X162.298 Y166.696 E0.01439
G1 X161.605 Y166.858 E0.03041
G1 X161.139 Y166.964 E0.02045
G1 X160.824 Y167.013 E0.01361
G1 X160.273 Y167.048 E0.02362
G1 X160.273 Y167.704 E0.02806
G1 X160.525 Y167.763 E0.01107
G1 X160.58 Y167.785 E0.00253
G1 X160.637 Y167.82 E0.00284
G1 X160.673 Y167.85 E0.00202
G1 X160.696 Y167.878 E0.00155
G1 X160.715 Y167.908 E0.00152
G1 X160.726 Y167.961 E0.00231
G1 X160.726 Y167.997 E0.00153
G1 X160.717 Y168.049 E0.00227
G1 X160.7 Y168.1 E0.00227
G1 X160.674 Y168.148 E0.00234
G1 X160.643 Y168.189 E0.0022
G1 X160.603 Y168.227 E0.00235
G1 X160.524 Y168.282 E0.00411
G1 X160.356 Y168.363 E0.00801
G1 X159.885 Y168.541 E0.0215
G1 X159.334 Y168.754 E0.02528
G1 X158.943 Y168.873 E0.01745
G1 X158.571 Y168.956 E0.0163
G1 X158.222 Y169.003 E0.01506
G1 X157.967 Y169.017 E0.01093
G1 X157.622 Y168.995 E0.01477
G1 X157.271 Y168.939 E0.01518
G1 X156.898 Y168.849 E0.01643
G1 X156.504 Y168.72 E0.01772
G1 X155.927 Y168.495 E0.02648
G1 X155.58 Y168.365 E0.01582
G1 X155.418 Y168.288 E0.0077
G1 X155.342 Y168.239 E0.00384
G1 X155.294 Y168.196 E0.00279
G1 X155.263 Y168.159 E0.00204
G1 X155.239 Y168.117 E0.00206
G1 X155.218 Y168.066 E0.00237
G1 X155.207 Y168.018 E0.00208
G1 X155.204 Y167.975 E0.00188
G1 X155.207 Y167.942 E0.0014
G1 X155.221 Y167.899 E0.00193
G1 X155.256 Y167.852 E0.00251
G1 X155.289 Y167.823 E0.00189
G1 X155.335 Y167.793 E0.00234
G1 X155.392 Y167.768 E0.00268
G1 X155.658 Y167.695 E0.01176
G1 X155.658 Y167.048 E0.02769
G1 X155.118 Y167.015 E0.02311
G1 X154.81 Y166.967 E0.01331
G1 X154.312 Y166.855 E0.02183
G1 X153.857 Y166.746 E0.02004
G1 X153.642 Y166.698 E0.00939
G1 X153.408 Y166.641 E0.0103
G1 X153.199 Y166.573 E0.0094
G1 X153.047 Y166.506 E0.0071
G1 X152.991 Y166.471 E0.00283
G1 X152.974 Y166.455 E0.001
G1 X152.948 Y166.416 E0.00199
G1 X152.936 Y166.384 E0.00148
G1 X152.922 Y166.324 E0.00261
G1 X152.916 Y166.228 E0.00413
G1 X152.931 Y166.085 E0.00616
G1 X152.954 Y165.992 E0.00406
G1 X152.975 Y165.945 E0.00222
G1 X153.007 Y165.9 E0.00236
G1 X153.045 Y165.872 E0.00202
G1 X153.091 Y165.853 E0.00213
G1 X153.168 Y165.834 E0.00341
G1 X153.299 Y165.825 E0.0056
G1 X153.489 Y165.841 E0.00814
G1 X153.93 Y165.937 E0.01932
G1 X153.93 Y165.228 E0.03034
G1 X153.55 Y165.143 E0.01668
G1 X153.388 Y165.077 E0.00745
G1 X153.332 Y165.042 E0.00281
G1 X153.299 Y164.742 E0.01292
G1 X153.289 Y164.329 E0.01768
G1 X153.314 Y163.906 E0.0181
G1 X153.376 Y163.48 E0.01841
G1 X153.474 Y163.056 E0.0186
G1 X153.606 Y162.641 E0.01862
G1 X153.773 Y162.242 E0.0185
G1 X153.97 Y161.863 E0.01825
G1 X154.196 Y161.51 E0.01791
G1 X154.442 Y161.192 E0.01721
G1 X154.715 Y160.899 E0.01712
G1 X155.008 Y160.637 E0.01682
G1 X155.327 Y160.399 E0.01701
G1 X155.671 Y160.185 E0.01733
G1 X156.038 Y160 E0.01754
G1 X156.42 Y159.847 E0.01762
G1 X156.814 Y159.728 E0.0176
G1 X157.219 Y159.642 E0.01771
G1 X157.648 Y159.585 E0.01847
G1 X157.964 Y159.565 E0.01355
G1 X158.423 Y159.6 E0.0197
G1 X158.876 Y159.672 E0.01959
G1 X159.299 Y159.778 E0.01866
G1 X159.697 Y159.917 E0.018
G1 X160.074 Y160.087 E0.0177
G1 X160.436 Y160.29 E0.01774
G1 X160.777 Y160.523 E0.01764
G1 X161.091 Y160.781 E0.01741
G1 X161.375 Y161.063 E0.01709
G1 X161.629 Y161.366 E0.01693
G1 X161.857 Y161.693 E0.01703
G1 X162.061 Y162.047 E0.01747
G1 X162.196 Y162.334 E0.01355
;WIPE_START
G1 X162.198 Y162.422 F9000
;WIPE_END
G1 X161.559 Y162.338
;TYPE:Solid infill
;WIDTH:0.485595
G1 F1800
G1 X160.521 Y161.3 E0.06353
G1 X160.318 Y161.133 E0.01134
G1 X160.034 Y160.939 E0.0149
G1 X159.73 Y160.769 E0.01504
G1 X159.414 Y160.626 E0.01501
G1 X159.149 Y160.534 E0.01216
G1 X161.654 Y163.039 E0.15323
G1 X161.662 Y163.06 E0.00099
G1 X161.761 Y163.414 E0.01591
G1 X161.831 Y163.778 E0.01601
G1 X161.836 Y163.827 E0.00216
G1 X158.373 Y160.365 E0.21181
G1 X158.334 Y160.358 E0.00174
G1 X157.959 Y160.33 E0.01624
G1 X157.746 Y160.343 E0.00924
G1 X161.876 Y164.473 E0.2526
G1 X161.377 Y164.58 E0.02206
G1 X157.218 Y160.422 E0.25439
G1 X157.004 Y160.467 E0.00946
G1 X156.739 Y160.548 E0.01202
G1 X161.237 Y165.046 E0.2752
G1 X161.237 Y165.652 E0.02621
G1 X156.305 Y160.72 E0.30173
G1 X156.045 Y160.851 E0.0126
G1 X155.912 Y160.933 E0.00674
G1 X161.15 Y166.171 E0.32038
G1 X160.734 Y166.255 E0.01837
G1 X160.634 Y166.261 E0.00431
G1 X155.554 Y161.181 E0.31076
G1 X155.491 Y161.228 E0.00338
G1 X155.249 Y161.444 E0.01404
G1 X155.231 Y161.464 E0.00117
G1 X160.064 Y166.297 E0.29565
G1 X159.51 Y166.332 E0.02401
G1 X159.51 Y166.349 E0.00074
G1 X154.947 Y161.786 E0.27914
G1 X154.82 Y161.95 E0.00897
G1 X154.697 Y162.142 E0.00987
G1 X159.51 Y166.955 E0.29441
G1 X159.51 Y167.561 E0.02621
G1 X154.481 Y162.532 E0.30761
G1 X154.464 Y162.565 E0.00161
G1 X154.323 Y162.905 E0.01589
G1 X154.305 Y162.962 E0.00259
G1 X159.294 Y167.951 E0.30522
G1 X159.084 Y168.032 E0.00973
G1 X158.843 Y168.106 E0.01091
G1 X154.169 Y163.432 E0.2859
G1 X154.126 Y163.62 E0.00832
G1 X154.079 Y163.948 E0.01433
G1 X158.345 Y168.213 E0.26093
G1 X157.963 Y168.252 E0.01659
G1 X157.765 Y168.239 E0.0086
G1 X156.42 Y166.895 E0.08223
G1 X156.42 Y166.33 E0.02445
G1 X155.818 Y166.293 E0.02608
G1 X154.693 Y165.168 E0.06884
G1 X154.693 Y165.774 E0.02621
G1 X155.37 Y166.451 E0.04139
G1 X156.236 Y167.317 F9000
G1 F1800
G1 X157.261 Y168.342 E0.06268
G1 E-0.6 F3000
G1 X154.162 Y166.401 F9000
G1 E0.6 F1800
;TYPE:Gap fill
;WIDTH:0.457068
G1 F600
G1 X153.956 Y166.355 E0.00854
G1 X153.839 Y166.33 E0.00482
G1 X153.734 Y166.306 E0.00438
G1 X153.626 Y166.281 E0.00449
G1 X153.518 Y166.256 E0.00449
;WIDTH:0.432449
G1 X153.43 Y166.232 E0.00345
G1 X153.299 Y166.204 E0.00511
;WIDTH:0.341407
G1 X153.12 Y166.174 E0.00525
G1 E-0.6 F3000
G1 X161.769 Y166.397 F9000
G1 E0.6 F1800
;WIDTH:0.466781
G1 F600
G1 X161.98 Y166.351 E0.00896
G1 X162.2 Y166.304 E0.00933
G1 X162.351 Y166.269 E0.00643
;WIDTH:0.431491
G1 X162.503 Y166.234 E0.00589
G1 X162.633 Y166.204 E0.00508
;WIDTH:0.362079
G1 X162.81 Y166.167 E0.00559
G1 E-0.6 F3000
G1 X143.569 Y133.25 F9000
G1 E0.6 F1800
;TYPE:Internal perimeter
;WIDTH:0.48
G1 F600
G1 X143.616 Y133.176 E0.00376
G1 X143.838 Y132.888 E0.01555
G1 X144.084 Y132.624 E0.01544
G1 X144.349 Y132.387 E0.01517
G1 X144.638 Y132.172 E0.0154
G1 X144.951 Y131.978 E0.01574
G1 X145.284 Y131.81 E0.01595
G1 X145.632 Y131.67 E0.01603
G1 X145.991 Y131.562 E0.01603
G1 X146.361 Y131.483 E0.01621
G1 X146.759 Y131.431 E0.01714
G1 X147.031 Y131.413 E0.01165
G1 X147.442 Y131.445 E0.01765
G1 X147.859 Y131.511 E0.01804
G1 X148.246 Y131.608 E0.01704
G1 X148.607 Y131.734 E0.01638
G1 X148.951 Y131.889 E0.01609
G1 X149.28 Y132.073 E0.01613
G1 X149.589 Y132.284 E0.016
G1 X149.873 Y132.518 E0.01574
G1 X150.128 Y132.772 E0.0154
G1 X150.358 Y133.046 E0.01528
G1 X150.565 Y133.342 E0.01543
G1 X150.751 Y133.664 E0.01591
G1 X150.913 Y134.01 E0.01633
G1 X151.049 Y134.375 E0.01667
G1 X151.156 Y134.756 E0.01691
G1 X151.231 Y135.147 E0.01701
G1 X151.273 Y135.541 E0.01697
G1 X151.282 Y135.933 E0.01675
G1 X151.267 Y136.164 E0.0099
G1 X150.641 Y136.299 E0.02735
G1 X150.641 Y137.845 E0.06611
G1 X150.127 Y137.961 E0.02252
G1 X149.847 Y138.006 E0.01215
G1 X148.914 Y138.064 E0.03997
G1 X148.914 Y139.516 E0.06206
G1 X148.263 Y139.767 E0.02982
G1 X147.903 Y139.877 E0.01609
G1 X147.565 Y139.953 E0.01481
G1 X147.252 Y139.995 E0.01353
G1 X147.039 Y140.006 E0.00912
G1 X146.738 Y139.987 E0.01287
G1 X146.425 Y139.938 E0.01357
G1 X146.084 Y139.855 E0.01498
G1 X145.718 Y139.736 E0.01648
G1 X145.156 Y139.515 E0.02581
G1 X145.156 Y138.063 E0.06209
G1 X144.233 Y138.007 E0.0395
G1 X143.96 Y137.965 E0.01184
G1 X143.428 Y137.845 E0.02329
G1 X143.428 Y136.303 E0.06593
G1 X142.797 Y136.162 E0.02764
G1 X142.787 Y135.755 E0.01742
G1 X142.811 Y135.368 E0.01657
G1 X142.867 Y134.977 E0.01689
G1 X142.956 Y134.588 E0.01707
G1 X143.078 Y134.208 E0.01708
G1 X143.231 Y133.842 E0.01693
G1 X143.411 Y133.497 E0.01665
G1 X143.536 Y133.301 E0.00996
G1 X143.175 Y133.07 F9000
;TYPE:External perimeter
G1 F600
G1 X143.265 Y132.929 E0.00715
G1 X143.511 Y132.611 E0.01721
G1 X143.784 Y132.317 E0.01712
G1 X144.077 Y132.055 E0.01682
G1 X144.396 Y131.817 E0.01701
G1 X144.741 Y131.604 E0.01733
G1 X145.107 Y131.419 E0.01754
G1 X145.49 Y131.266 E0.01762
G1 X145.884 Y131.147 E0.0176
G1 X146.289 Y131.06 E0.01771
G1 X146.717 Y131.004 E0.01847
G1 X147.033 Y130.984 E0.01355
G1 X147.493 Y131.019 E0.0197
G1 X147.945 Y131.091 E0.01959
G1 X148.368 Y131.197 E0.01866
G1 X148.766 Y131.336 E0.018
G1 X149.144 Y131.506 E0.0177
G1 X149.506 Y131.709 E0.01774
G1 X149.846 Y131.941 E0.01764
G1 X150.16 Y132.2 E0.01741
G1 X150.444 Y132.482 E0.01709
G1 X150.699 Y132.785 E0.01693
G1 X150.926 Y133.112 E0.01703
G1 X151.131 Y133.466 E0.01747
G1 X151.309 Y133.844 E0.01786
G1 X151.457 Y134.243 E0.0182
G1 X151.573 Y134.658 E0.01843
G1 X151.655 Y135.083 E0.01854
G1 X151.701 Y135.514 E0.01852
G1 X151.71 Y135.943 E0.01833
G1 X151.683 Y136.366 E0.01812
G1 X151.67 Y136.458 E0.004
G1 X151.598 Y136.502 E0.00362
G1 X151.435 Y136.566 E0.0075
G1 X151.07 Y136.645 E0.01598
G1 X151.07 Y137.35 E0.03013
G1 X151.565 Y137.252 E0.02159
G1 X151.734 Y137.244 E0.00723
G1 X151.842 Y137.255 E0.00466
G1 X151.91 Y137.272 E0.00299
G1 X151.952 Y137.289 E0.00194
G1 X151.993 Y137.318 E0.00212
G1 X152.024 Y137.361 E0.00226
G1 X152.048 Y137.417 E0.00264
G1 X152.066 Y137.485 E0.00299
G1 X152.083 Y137.634 E0.00642
G1 X152.08 Y137.728 E0.00402
G1 X152.068 Y137.792 E0.00278
G1 X152.054 Y137.831 E0.00175
G1 X152.04 Y137.855 E0.00121
G1 X152.01 Y137.888 E0.0019
G1 X151.964 Y137.919 E0.00238
G1 X151.909 Y137.947 E0.00263
G1 X151.693 Y138.029 E0.0099
G1 X151.367 Y138.115 E0.01439
G1 X150.675 Y138.277 E0.03041
G1 X150.208 Y138.382 E0.02045
G1 X149.894 Y138.432 E0.01361
G1 X149.342 Y138.467 E0.02362
