; generated by SuperSlicer 2.3.57 on 2022-02-08 at 23:58:17 UTC


;
;

;
;
; 

; external perimeters extrusion width = 0.40mm
; perimeters extrusion width = 0.40mm
; infill extrusion width = 0.72mm
; solid infill extrusion width = 0.40mm
; top infill extrusion width = 0.40mm
; first layer extrusion width = 0.48mm


;TYPE:Custom
START_PRINT T_BED=60 T_EXTRUDER=200
M107
G21 ; set units to millimeters
G90 ; use absolute coordinates
M83 ; use relative distances for extrusion
; Filament gcode
M104 S200 ; set temperature
M109 S200 ; set temperature and wait for it to be reached
M190 S60 ; set bed temperature and wait for it to be reached
;LAYER_CHANGE
;Z:0.24
;HEIGHT:0.24
G1 Z0.24 F9000
G1 E-0.6 F3000
G1 X154.61 Y155.223 F9000
G1 E0.6 F1800
;TYPE:Skirt
;WIDTH:0.48
G1 F600
G1 X153.694 Y156.5 E0.06718
G1 X153.055 Y157.98 E0.06893
G1 X152.744 Y159.633 E0.07192
G1 X152.722 Y169.837 E0.4363
G1 X152.788 Y170.797 E0.04115
G1 X153.186 Y172.401 E0.07066
G1 X153.596 Y173.318 E0.04292
G1 X154.03 Y174.036 E0.03589
G1 X154.57 Y174.732 E0.03764
G1 X155.144 Y175.32 E0.03514
G1 X156.495 Y176.303 E0.07142
G1 X157.98 Y176.945 E0.06918
G1 X159.633 Y177.256 E0.07192
G1 X169.843 Y177.278 E0.43655
G1 X170.797 Y177.212 E0.0409
G1 X171.622 Y177.055 E0.03589
G1 X172.579 Y176.746 E0.043
G1 X174.041 Y175.966 E0.07084
G1 X174.736 Y175.426 E0.03764
G1 X175.324 Y174.851 E0.03514
G1 X176.306 Y173.5 E0.07142
G1 X176.678 Y172.748 E0.03589
G1 X176.98 Y171.902 E0.03839
G1 X177.198 Y170.89 E0.04426
G1 X177.273 Y170.046 E0.03622
G1 X177.276 Y160.022 E0.4286
G1 X177.163 Y158.889 E0.04869
G1 X176.934 Y157.942 E0.04165
G1 X176.524 Y156.918 E0.04715
G1 X175.876 Y155.829 E0.05419
G1 X175.175 Y154.993 E0.04666
G1 X174.225 Y154.163 E0.05394
G1 X173.299 Y153.586 E0.04665
G1 X172.132 Y153.09 E0.05419
G1 X171.084 Y152.832 E0.04616
G1 X169.823 Y152.722 E0.0541
G1 X160.086 Y152.723 E0.41631
G1 X158.515 Y152.911 E0.06768
G1 X157.082 Y153.397 E0.06468
G1 X155.744 Y154.186 E0.06644
G1 X154.654 Y155.182 E0.06312
G1 X154.951 Y155.483 F9000
G1 F600
G1 X154.094 Y156.664 E0.06237
G1 X153.47 Y158.087 E0.06645
G1 X153.171 Y159.663 E0.0686
G1 X153.151 Y169.837 E0.43498
G1 X153.206 Y170.695 E0.03677
G1 X153.576 Y172.222 E0.06716
G1 X153.964 Y173.098 E0.04098
G1 X154.366 Y173.767 E0.03339
G1 X155.412 Y174.984 E0.0686
G1 X156.664 Y175.906 E0.06645
G1 X158.087 Y176.53 E0.06645
G1 X159.663 Y176.829 E0.0686
G1 X169.831 Y176.849 E0.43473
G1 X170.695 Y176.794 E0.03701
G1 X172.221 Y176.424 E0.06716
G1 X173.103 Y176.033 E0.04122
G1 X173.767 Y175.634 E0.03315
G1 X174.984 Y174.588 E0.0686
G1 X175.906 Y173.336 E0.06645
G1 X176.272 Y172.608 E0.03484
G1 X176.562 Y171.805 E0.03652
G1 X176.745 Y171.017 E0.0346
G1 X176.845 Y170.032 E0.04233
G1 X176.848 Y160.05 E0.42676
G1 X176.745 Y158.984 E0.04579
G1 X176.538 Y158.115 E0.03821
G1 X176.152 Y157.131 E0.04518
G1 X175.541 Y156.098 E0.05132
G1 X174.883 Y155.307 E0.04399
G1 X173.985 Y154.519 E0.05108
G1 X173.114 Y153.973 E0.04398
G1 X172.01 Y153.501 E0.05132
G1 X171.022 Y153.256 E0.0435
G1 X169.823 Y153.151 E0.05147
G1 X160.107 Y153.151 E0.41543
G1 X158.669 Y153.316 E0.06189
G1 X157.3 Y153.769 E0.06165
G1 X156.034 Y154.505 E0.06262
G1 X154.996 Y155.443 E0.05981
G1 E-0.6 F3000
G1 X170.965 Y160.198 F9000
G1 E0.6 F1800
;TYPE:Internal perimeter
G1 F600
G1 X170.959 Y160.302 E0.00447
G1 X170.941 Y160.421 E0.00514
G1 X170.91 Y160.537 E0.00514
G1 X170.867 Y160.649 E0.00514
G1 X170.812 Y160.757 E0.00514
G1 X170.746 Y160.857 E0.00514
G1 X170.671 Y160.951 E0.00514
G1 X170.586 Y161.036 E0.00514
G1 X170.492 Y161.111 E0.00514
G1 X170.392 Y161.177 E0.00514
G1 X170.285 Y161.231 E0.00514
G1 X170.172 Y161.274 E0.00514
G1 X170.056 Y161.305 E0.00514
G1 X169.938 Y161.324 E0.00514
G1 X169.818 Y161.331 E0.00514
G1 X169.698 Y161.324 E0.00514
G1 X169.579 Y161.305 E0.00514
G1 X169.463 Y161.274 E0.00514
G1 X169.351 Y161.231 E0.00514
G1 X169.244 Y161.177 E0.00514
G1 X169.143 Y161.111 E0.00514
G1 X169.049 Y161.036 E0.00514
G1 X168.964 Y160.951 E0.00514
G1 X168.889 Y160.857 E0.00514
G1 X168.823 Y160.757 E0.00514
G1 X168.769 Y160.649 E0.00514
G1 X168.726 Y160.537 E0.00514
G1 X168.695 Y160.421 E0.00514
G1 X168.676 Y160.302 E0.00514
G1 X168.669 Y160.182 E0.00514
G1 X168.676 Y160.062 E0.00514
G1 X168.695 Y159.944 E0.00514
G1 X168.726 Y159.828 E0.00514
G1 X168.769 Y159.715 E0.00514
G1 X168.823 Y159.608 E0.00514
G1 X168.889 Y159.508 E0.00514
G1 X168.964 Y159.414 E0.00514
G1 X169.049 Y159.329 E0.00514
G1 X169.143 Y159.254 E0.00514
G1 X169.243 Y159.188 E0.00514
G1 X169.351 Y159.133 E0.00514
G1 X169.463 Y159.09 E0.00514
G1 X169.579 Y159.059 E0.00514
G1 X169.698 Y159.041 E0.00514
G1 X169.818 Y159.034 E0.00514
G1 X169.938 Y159.041 E0.00514
G1 X170.056 Y159.059 E0.00514
G1 X170.172 Y159.09 E0.00514
G1 X170.285 Y159.133 E0.00514
G1 X170.392 Y159.188 E0.00514
G1 X170.492 Y159.254 E0.00514
G1 X170.586 Y159.329 E0.00514
G1 X170.671 Y159.414 E0.00514
G1 X170.746 Y159.508 E0.00514
G1 X170.812 Y159.608 E0.00514
G1 X170.867 Y159.715 E0.00514
G1 X170.91 Y159.828 E0.00514
G1 X170.941 Y159.944 E0.00514
G1 X170.959 Y160.062 E0.00514
G1 X170.963 Y160.138 E0.00324
G1 X171.391 Y160.116 F9000
;TYPE:External perimeter
G1 F600
G1 X171.395 Y160.182 E0.00285
G1 X171.386 Y160.347 E0.00706
G1 X171.36 Y160.51 E0.00706
G1 X171.318 Y160.67 E0.00706
G1 X171.258 Y160.824 E0.00706
G1 X171.184 Y160.971 E0.00706
G1 X171.094 Y161.11 E0.00706
G1 X170.99 Y161.238 E0.00706
G1 X170.873 Y161.355 E0.00706
G1 X170.745 Y161.458 E0.00706
G1 X170.606 Y161.548 E0.00706
G1 X170.459 Y161.623 E0.00706
G1 X170.305 Y161.682 E0.00706
G1 X170.146 Y161.725 E0.00706
G1 X169.982 Y161.751 E0.00706
G1 X169.818 Y161.76 E0.00706
G1 X169.653 Y161.751 E0.00706
G1 X169.49 Y161.725 E0.00706
G1 X169.33 Y161.682 E0.00706
G1 X169.176 Y161.623 E0.00706
G1 X169.029 Y161.548 E0.00706
G1 X168.89 Y161.458 E0.00706
G1 X168.762 Y161.355 E0.00706
G1 X168.645 Y161.238 E0.00706
G1 X168.542 Y161.11 E0.00706
G1 X168.452 Y160.971 E0.00706
G1 X168.377 Y160.824 E0.00706
G1 X168.318 Y160.67 E0.00706
G1 X168.275 Y160.51 E0.00706
G1 X168.249 Y160.347 E0.00706
G1 X168.24 Y160.182 E0.00706
G1 X168.249 Y160.018 E0.00706
G1 X168.275 Y159.854 E0.00706
G1 X168.318 Y159.695 E0.00706
G1 X168.377 Y159.541 E0.00706
G1 X168.452 Y159.394 E0.00706
G1 X168.542 Y159.255 E0.00706
G1 X168.645 Y159.127 E0.00706
G1 X168.762 Y159.01 E0.00706
G1 X168.891 Y158.906 E0.00706
G1 X169.029 Y158.816 E0.00706
G1 X169.176 Y158.742 E0.00706
G1 X169.33 Y158.682 E0.00706
G1 X169.49 Y158.64 E0.00706
G1 X169.653 Y158.614 E0.00706
G1 X169.818 Y158.605 E0.00706
G1 X169.982 Y158.614 E0.00706
G1 X170.146 Y158.64 E0.00706
G1 X170.305 Y158.682 E0.00706
G1 X170.459 Y158.742 E0.00706
G1 X170.606 Y158.816 E0.00706
G1 X170.745 Y158.906 E0.00706
G1 X170.873 Y159.01 E0.00706
G1 X170.99 Y159.127 E0.00706
G1 X171.094 Y159.255 E0.00706
G1 X171.184 Y159.394 E0.00706
G1 X171.258 Y159.541 E0.00706
G1 X171.318 Y159.695 E0.00706
G1 X171.36 Y159.854 E0.00706
G1 X171.386 Y160.018 E0.00706
G1 X171.388 Y160.056 E0.00164
;WIPE_START
G1 X171.335 Y160.152 F9000
;WIPE_END
G1 E-0.6 F3000
G1 X169.972 Y159.201 F9000
G1 E0.6 F1800
;TYPE:Solid infill
;WIDTH:0.538722
G1 X170.46 Y159.689 E0.03312
G1 X170.475 Y159.705 E0.00102
G1 X170.56 Y159.852 E0.00815
G1 X170.615 Y160.022 E0.00857
G1 X170.625 Y160.089 E0.00324
G1 X170.625 Y160.267 E0.00857
G1 X170.591 Y160.426 E0.0078
G1 X169.577 Y159.411 E0.06887
G1 X169.487 Y159.44 E0.00451
G1 X169.34 Y159.525 E0.00815
G1 X169.207 Y159.648 E0.00868
G1 X170.352 Y160.793 E0.07766
G1 X170.224 Y160.886 E0.0076
G1 X170.069 Y160.955 E0.00815
G1 X169.936 Y160.983 E0.0065
G1 X168.862 Y159.909 E0.07291
G1 E-0.6 F3000
G1 X170.782 Y170.438 F9000
G1 E0.6 F1800
;TYPE:Internal perimeter
;WIDTH:0.48
G1 F600
G1 X170.746 Y170.492 E0.0028
G1 X170.671 Y170.586 E0.00514
G1 X170.586 Y170.671 E0.00514
G1 X170.492 Y170.746 E0.00514
G1 X170.392 Y170.812 E0.00514
G1 X170.285 Y170.867 E0.00514
G1 X170.172 Y170.91 E0.00514
G1 X170.056 Y170.941 E0.00514
G1 X169.938 Y170.959 E0.00514
G1 X169.818 Y170.966 E0.00514
G1 X169.698 Y170.959 E0.00514
G1 X169.579 Y170.941 E0.00514
G1 X169.463 Y170.91 E0.00514
G1 X169.351 Y170.867 E0.00514
G1 X169.244 Y170.812 E0.00514
G1 X169.143 Y170.746 E0.00514
G1 X169.049 Y170.671 E0.00514
G1 X168.964 Y170.586 E0.00514
G1 X168.889 Y170.492 E0.00514
G1 X168.823 Y170.392 E0.00514
G1 X168.769 Y170.285 E0.00514
G1 X168.726 Y170.172 E0.00514
G1 X168.695 Y170.056 E0.00514
G1 X168.676 Y169.938 E0.00514
G1 X168.669 Y169.818 E0.00514
G1 X168.676 Y169.698 E0.00514
G1 X168.695 Y169.579 E0.00514
G1 X168.726 Y169.463 E0.00514
G1 X168.769 Y169.351 E0.00514
G1 X168.823 Y169.244 E0.00514
G1 X168.889 Y169.143 E0.00514
G1 X168.964 Y169.049 E0.00514
G1 X169.049 Y168.964 E0.00514
G1 X169.143 Y168.889 E0.00514
G1 X169.243 Y168.823 E0.00514
G1 X169.351 Y168.769 E0.00514
G1 X169.463 Y168.726 E0.00514
G1 X169.579 Y168.695 E0.00514
G1 X169.698 Y168.676 E0.00514
G1 X169.818 Y168.669 E0.00514
G1 X169.938 Y168.676 E0.00514
G1 X170.056 Y168.695 E0.00514
G1 X170.172 Y168.726 E0.00514
G1 X170.285 Y168.769 E0.00514
G1 X170.392 Y168.823 E0.00514
G1 X170.492 Y168.889 E0.00514
G1 X170.586 Y168.964 E0.00514
G1 X170.671 Y169.049 E0.00514
G1 X170.746 Y169.143 E0.00514
G1 X170.812 Y169.244 E0.00514
G1 X170.867 Y169.351 E0.00514
G1 X170.91 Y169.463 E0.00514
G1 X170.941 Y169.579 E0.00514
G1 X170.959 Y169.698 E0.00514
G1 X170.966 Y169.818 E0.00514
G1 X170.959 Y169.938 E0.00514
G1 X170.941 Y170.056 E0.00514
G1 X170.91 Y170.172 E0.00514
G1 X170.867 Y170.285 E0.00514
G1 X170.814 Y170.387 E0.00491
G1 X171.196 Y170.582 F9000
;TYPE:External perimeter
G1 F600
G1 X171.184 Y170.606 E0.00118
G1 X171.094 Y170.745 E0.00706
G1 X170.99 Y170.873 E0.00706
G1 X170.873 Y170.99 E0.00706
G1 X170.745 Y171.094 E0.00706
G1 X170.606 Y171.184 E0.00706
G1 X170.459 Y171.258 E0.00706
G1 X170.305 Y171.318 E0.00706
G1 X170.146 Y171.36 E0.00706
G1 X169.982 Y171.386 E0.00706
G1 X169.818 Y171.395 E0.00706
G1 X169.653 Y171.386 E0.00706
G1 X169.49 Y171.36 E0.00706
G1 X169.33 Y171.318 E0.00706
G1 X169.176 Y171.258 E0.00706
G1 X169.029 Y171.184 E0.00706
G1 X168.89 Y171.094 E0.00706
G1 X168.762 Y170.99 E0.00706
G1 X168.645 Y170.873 E0.00706
G1 X168.542 Y170.745 E0.00706
G1 X168.452 Y170.606 E0.00706
G1 X168.377 Y170.459 E0.00706
G1 X168.318 Y170.305 E0.00706
G1 X168.275 Y170.146 E0.00706
G1 X168.249 Y169.982 E0.00706
G1 X168.24 Y169.818 E0.00706
G1 X168.249 Y169.653 E0.00706
G1 X168.275 Y169.49 E0.00706
G1 X168.318 Y169.33 E0.00706
G1 X168.377 Y169.176 E0.00706
G1 X168.452 Y169.029 E0.00706
G1 X168.542 Y168.891 E0.00706
G1 X168.645 Y168.762 E0.00706
G1 X168.762 Y168.645 E0.00706
G1 X168.891 Y168.542 E0.00706
G1 X169.029 Y168.452 E0.00706
G1 X169.176 Y168.377 E0.00706
G1 X169.33 Y168.318 E0.00706
G1 X169.49 Y168.275 E0.00706
G1 X169.653 Y168.249 E0.00706
G1 X169.818 Y168.24 E0.00706
G1 X169.982 Y168.249 E0.00706
G1 X170.146 Y168.275 E0.00706
G1 X170.305 Y168.318 E0.00706
G1 X170.459 Y168.377 E0.00706
G1 X170.606 Y168.452 E0.00706
G1 X170.745 Y168.542 E0.00706
G1 X170.873 Y168.645 E0.00706
G1 X170.99 Y168.762 E0.00706
G1 X171.094 Y168.891 E0.00706
G1 X171.184 Y169.029 E0.00706
G1 X171.258 Y169.176 E0.00706
G1 X171.318 Y169.33 E0.00706
G1 X171.36 Y169.49 E0.00706
G1 X171.386 Y169.653 E0.00706
G1 X171.395 Y169.818 E0.00706
G1 X171.386 Y169.982 E0.00706
G1 X171.36 Y170.146 E0.00706
G1 X171.318 Y170.305 E0.00706
G1 X171.258 Y170.459 E0.00706
G1 X171.223 Y170.528 E0.00331
;WIPE_START
G1 X171.168 Y170.583 F9000
;WIPE_END
G1 E-0.6 F3000
G1 X169.972 Y168.836 F9000
G1 E0.6 F1800
;TYPE:Solid infill
;WIDTH:0.538722
G1 X170.46 Y169.324 E0.03312
G1 X170.475 Y169.34 E0.00102
G1 X170.56 Y169.487 E0.00815
G1 X170.615 Y169.657 E0.00857
G1 X170.625 Y169.724 E0.00324
G1 X170.625 Y169.902 E0.00857
G1 X170.591 Y170.061 E0.0078
G1 X169.577 Y169.047 E0.06887
G1 X169.487 Y169.076 E0.00451
G1 X169.34 Y169.161 E0.00815
G1 X169.207 Y169.283 E0.00868
G1 X170.352 Y170.428 E0.07766
G1 X170.224 Y170.521 E0.0076
G1 X170.069 Y170.59 E0.00815
G1 X169.936 Y170.618 E0.0065
G1 X168.862 Y169.544 E0.07291
G1 E-0.6 F3000
G1 X161.043 Y170.576 F9000
G1 E0.6 F1800
;TYPE:Internal perimeter
;WIDTH:0.48
G1 F600
G1 X160.951 Y170.671 E0.00567
G1 X160.857 Y170.746 E0.00514
G1 X160.756 Y170.812 E0.00514
G1 X160.649 Y170.867 E0.00514
G1 X160.537 Y170.91 E0.00514
G1 X160.421 Y170.941 E0.00514
G1 X160.302 Y170.959 E0.00514
G1 X160.182 Y170.966 E0.00514
G1 X160.062 Y170.959 E0.00514
G1 X159.944 Y170.941 E0.00514
G1 X159.828 Y170.91 E0.00514
G1 X159.715 Y170.867 E0.00514
G1 X159.608 Y170.812 E0.00514
G1 X159.508 Y170.746 E0.00514
G1 X159.414 Y170.671 E0.00514
G1 X159.329 Y170.586 E0.00514
G1 X159.254 Y170.492 E0.00514
G1 X159.188 Y170.392 E0.00514
G1 X159.133 Y170.285 E0.00514
G1 X159.09 Y170.172 E0.00514
G1 X159.059 Y170.056 E0.00514
G1 X159.041 Y169.938 E0.00514
G1 X159.034 Y169.818 E0.00514
G1 X159.041 Y169.698 E0.00514
G1 X159.059 Y169.579 E0.00514
G1 X159.09 Y169.463 E0.00514
G1 X159.133 Y169.351 E0.00514
G1 X159.188 Y169.244 E0.00514
G1 X159.254 Y169.143 E0.00514
G1 X159.329 Y169.049 E0.00514
G1 X159.414 Y168.964 E0.00514
G1 X159.508 Y168.889 E0.00514
G1 X159.608 Y168.823 E0.00514
G1 X159.715 Y168.769 E0.00514
G1 X159.828 Y168.726 E0.00514
G1 X159.944 Y168.695 E0.00514
G1 X160.062 Y168.676 E0.00514
G1 X160.182 Y168.669 E0.00514
G1 X160.302 Y168.676 E0.00514
G1 X160.421 Y168.695 E0.00514
G1 X160.537 Y168.726 E0.00514
G1 X160.649 Y168.769 E0.00514
G1 X160.757 Y168.823 E0.00514
G1 X160.857 Y168.889 E0.00514
G1 X160.951 Y168.964 E0.00514
G1 X161.036 Y169.049 E0.00514
G1 X161.111 Y169.143 E0.00514
G1 X161.177 Y169.244 E0.00514
G1 X161.231 Y169.351 E0.00514
G1 X161.274 Y169.463 E0.00514
G1 X161.305 Y169.579 E0.00514
G1 X161.324 Y169.698 E0.00514
G1 X161.331 Y169.818 E0.00514
G1 X161.324 Y169.938 E0.00514
G1 X161.305 Y170.056 E0.00514
G1 X161.274 Y170.172 E0.00514
G1 X161.231 Y170.285 E0.00514
G1 X161.177 Y170.392 E0.00514
G1 X161.111 Y170.492 E0.00514
G1 X161.081 Y170.53 E0.00204
G1 X161.414 Y170.799 F9000
;TYPE:External perimeter
G1 F600
G1 X161.355 Y170.873 E0.00406
G1 X161.238 Y170.99 E0.00706
G1 X161.11 Y171.094 E0.00706
G1 X160.971 Y171.184 E0.00706
G1 X160.824 Y171.258 E0.00706
G1 X160.67 Y171.318 E0.00706
G1 X160.51 Y171.36 E0.00706
G1 X160.347 Y171.386 E0.00706
G1 X160.182 Y171.395 E0.00706
G1 X160.018 Y171.386 E0.00706
G1 X159.854 Y171.36 E0.00706
G1 X159.695 Y171.318 E0.00706
G1 X159.541 Y171.258 E0.00706
G1 X159.394 Y171.184 E0.00706
G1 X159.255 Y171.094 E0.00706
G1 X159.127 Y170.99 E0.00706
G1 X159.01 Y170.873 E0.00706
G1 X158.906 Y170.745 E0.00706
G1 X158.816 Y170.606 E0.00706
G1 X158.742 Y170.459 E0.00706
G1 X158.682 Y170.305 E0.00706
G1 X158.64 Y170.146 E0.00706
G1 X158.614 Y169.982 E0.00706
G1 X158.605 Y169.818 E0.00706
G1 X158.614 Y169.653 E0.00706
G1 X158.64 Y169.49 E0.00706
G1 X158.682 Y169.33 E0.00706
G1 X158.742 Y169.176 E0.00706
G1 X158.816 Y169.029 E0.00706
G1 X158.906 Y168.891 E0.00706
G1 X159.01 Y168.762 E0.00706
G1 X159.127 Y168.645 E0.00706
G1 X159.255 Y168.542 E0.00706
G1 X159.394 Y168.452 E0.00706
G1 X159.541 Y168.377 E0.00706
G1 X159.695 Y168.318 E0.00706
G1 X159.854 Y168.275 E0.00706
G1 X160.018 Y168.249 E0.00706
G1 X160.182 Y168.24 E0.00706
G1 X160.347 Y168.249 E0.00706
G1 X160.51 Y168.275 E0.00706
G1 X160.67 Y168.318 E0.00706
G1 X160.824 Y168.377 E0.00706
G1 X160.971 Y168.452 E0.00706
G1 X161.109 Y168.542 E0.00706
G1 X161.238 Y168.645 E0.00706
G1 X161.355 Y168.762 E0.00706
G1 X161.458 Y168.891 E0.00706
G1 X161.548 Y169.029 E0.00706
G1 X161.623 Y169.176 E0.00706
G1 X161.682 Y169.33 E0.00706
G1 X161.725 Y169.49 E0.00706
G1 X161.751 Y169.653 E0.00706
G1 X161.76 Y169.818 E0.00706
G1 X161.751 Y169.982 E0.00706
G1 X161.725 Y170.146 E0.00706
G1 X161.682 Y170.305 E0.00706
G1 X161.623 Y170.459 E0.00706
G1 X161.548 Y170.606 E0.00706
G1 X161.452 Y170.753 E0.00749
;WIPE_START
G1 X161.321 Y170.784 F9000
;WIPE_END
G1 E-0.6 F3000
G1 X160.337 Y168.836 F9000
G1 E0.6 F1800
;TYPE:Solid infill
;WIDTH:0.538722
G1 X160.825 Y169.324 E0.03312
G1 X160.839 Y169.34 E0.00102
G1 X160.924 Y169.487 E0.00815
G1 X160.98 Y169.657 E0.00857
G1 X160.99 Y169.724 E0.00324
G1 X160.99 Y169.902 E0.00857
