; generated by SuperSlicer 2.3.57 on 2022-02-07 at 05:45:34 UTC


;
;

;
;
; 

; external perimeters extrusion width = 0.40mm
; perimeters extrusion width = 0.45mm
; infill extrusion width = 0.72mm
; solid infill extrusion width = 0.56mm
; top infill extrusion width = 0.40mm
; first layer extrusion width = 0.48mm

; object:{"name":"Part2-White42","id":"Part2-White42.STL id:0 copy 0","object_center":[165.000000,165.000000,0.000000],"boundingbox_center":[165.000000,165.000000,0.622500],"boundingbox_size":[87.201517,80.105113,1.245000]}
; plater:{"center":[165.000000,165.000000,0.000000],"boundingbox_center":[165.000000,165.000000,0.622500],"boundingbox_size":[87.201517,80.105113,1.245000]}

;TYPE:Custom
START_PRINT T_BED=60 T_EXTRUDER=200
M107
G21 ; set units to millimeters
G90 ; use absolute coordinates
M83 ; use relative distances for extrusion
; Filament gcode
M104 S200 ; set temperature
M109 S200 ; set temperature and wait for it to be reached
M190 S60 ; set bed temperature and wait for it to be reached
;LAYER_CHANGE
;Z:0.24
;HEIGHT:0.24
G1 Z0.24 F7200
G1 E-0.6 F3000
G1 X133.876 Y122.352 F7200
G1 E0.6 F1800
;TYPE:Skirt
;WIDTH:0.48
G1 X130.76 Y125.824 E0.19947
G1 X128.233 Y129.149 E0.17857
G1 X126.058 Y132.548 E0.17254
G1 X123.443 Y137.302 E0.23198
G1 X121.856 Y140.56 E0.1549
G1 X120.58 Y143.762 E0.14738
G1 X119.472 Y147.383 E0.16191
G1 X118.596 Y151.422 E0.1767
G1 X118.071 Y155.387 E0.17099
G1 X117.857 Y159.491 E0.17575
G1 X117.986 Y163.767 E0.18289
G1 X118.34 Y166.789 E0.1301
G1 X118.947 Y169.642 E0.12472
G1 X120.019 Y172.928 E0.14777
G1 X121.287 Y175.753 E0.13238
G1 X122.908 Y178.711 E0.1442
G1 X124.826 Y181.726 E0.1528
G1 X125.615 Y182.756 E0.05545
G1 X127.318 Y184.69 E0.1102
G1 X147.912 Y205.308 E1.24595
G1 X149.712 Y206.651 E0.09603
G1 X151.584 Y207.62 E0.0901
G1 X153.596 Y208.292 E0.0907
G1 X155.664 Y208.592 E0.08932
G1 X174.291 Y208.594 E0.79642
G1 X176.658 Y208.222 E0.10243
G1 X178.241 Y207.699 E0.0713
G1 X180.122 Y206.749 E0.09011
G1 X182.133 Y205.264 E0.10686
G1 X202.669 Y184.704 E1.24246
G1 X204.409 Y182.727 E0.11261
G1 X205.487 Y181.279 E0.07715
G1 X207.143 Y178.625 E0.13376
G1 X208.727 Y175.724 E0.14131
G1 X209.996 Y172.889 E0.1328
G1 X211.012 Y169.808 E0.13873
G1 X211.661 Y166.788 E0.13204
G1 X212.028 Y163.601 E0.13717
G1 X212.143 Y159.487 E0.17597
G1 X211.93 Y155.405 E0.17479
G1 X211.404 Y151.422 E0.17176
G1 X210.547 Y147.448 E0.17381
G1 X209.469 Y143.893 E0.15882
G1 X208.1 Y140.464 E0.15788
G1 X206.51 Y137.209 E0.15489
G1 X204.051 Y132.729 E0.21847
G1 X201.837 Y129.254 E0.17618
G1 X199.155 Y125.717 E0.18978
G1 X196.2 Y122.423 E0.18921
G1 X195.654 Y121.99 E0.02979
G1 X195.035 Y121.669 E0.02979
G1 X194.367 Y121.471 E0.02979
G1 X193.678 Y121.405 E0.02959
G1 X136.322 Y121.405 E2.45229
G1 X135.522 Y121.495 E0.0344
G1 X134.644 Y121.817 E0.04001
G1 X133.925 Y122.318 E0.03744
G1 X134.205 Y122.672 F7200
G1 F1800
G1 X133.987 Y122.843 E0.01183
G1 X131.175 Y125.99 E0.18045
G1 X128.657 Y129.295 E0.17763
G1 X126.361 Y132.873 E0.18176
G1 X123.832 Y137.482 E0.22481
G1 X122.248 Y140.734 E0.15464
G1 X120.979 Y143.92 E0.14661
G1 X119.882 Y147.507 E0.16037
G1 X119.018 Y151.496 E0.17451
G1 X118.498 Y155.427 E0.16957
G1 X118.285 Y159.497 E0.17423
G1 X118.412 Y163.723 E0.18079
G1 X118.762 Y166.719 E0.12894
G1 X119.365 Y169.547 E0.12361
G1 X120.417 Y172.769 E0.14495
G1 X121.671 Y175.563 E0.1309
G1 X123.272 Y178.484 E0.14245
G1 X125.171 Y181.473 E0.1514
G1 X125.943 Y182.48 E0.05422
G1 X127.635 Y184.401 E0.10947
G1 X148.204 Y204.994 E1.24444
G1 X149.943 Y206.29 E0.09275
G1 X151.769 Y207.233 E0.08786
G1 X153.695 Y207.875 E0.08679
G1 X155.686 Y208.164 E0.08603
G1 X174.28 Y208.165 E0.795
G1 X176.536 Y207.811 E0.09763
G1 X178.073 Y207.305 E0.06916
G1 X179.918 Y206.372 E0.08842
G1 X181.835 Y204.957 E0.10187
G1 X202.354 Y184.414 E1.24141
G1 X204.079 Y182.454 E0.11165
G1 X205.133 Y181.039 E0.07543
G1 X206.772 Y178.411 E0.13244
G1 X208.339 Y175.542 E0.13973
G1 X209.598 Y172.732 E0.13165
G1 X210.598 Y169.698 E0.13662
G1 X211.237 Y166.72 E0.13021
G1 X211.601 Y163.572 E0.13547
G1 X211.715 Y159.492 E0.17454
G1 X211.504 Y155.443 E0.17334
G1 X210.983 Y151.499 E0.17009
G1 X210.138 Y147.576 E0.17159
G1 X209.064 Y144.035 E0.15821
G1 X207.714 Y140.65 E0.1558
G1 X206.13 Y137.407 E0.1543
G1 X203.676 Y132.938 E0.21802
G1 X201.49 Y129.506 E0.17398
G1 X198.827 Y125.993 E0.18846
G1 X195.924 Y122.753 E0.18598
G1 X195.439 Y122.362 E0.02666
G1 X194.891 Y122.073 E0.02647
G1 X194.298 Y121.895 E0.02647
G1 X193.678 Y121.833 E0.02666
G1 X136.324 Y121.833 E2.45219
G1 X135.621 Y121.912 E0.03024
G1 X134.733 Y122.256 E0.04075
G1 X134.252 Y122.635 E0.02617
; INIT printing object Part2-White42.STL id:0 copy 0
G1 E-0.6 F3000
; printing object Part2-White42.STL id:0 copy 0
G1 X163.725 Y186.644 F7200
G1 E0.6 F1800
;TYPE:Internal perimeter
G1 X163.284 Y186.789 E0.01982
G1 X162.802 Y186.097 E0.03606
G1 X163.716 Y186.341 E0.04044
G1 X163.723 Y186.584 E0.01042
G1 X166.275 Y186.644 F7200
G1 F1800
G1 X166.284 Y186.341 E0.01298
G1 X167.198 Y186.097 E0.04044
G1 X166.716 Y186.789 E0.03606
G1 X166.332 Y186.663 E0.01725
G1 X165.255 Y186.76 F7200
G1 F1800
G1 X165 Y187.233 E0.02297
G1 X164.745 Y186.76 E0.02297
G1 X163.445 Y187.187 E0.05853
G1 X163.457 Y187.275 E0.00378
G1 X163.12 Y187.375 E0.01502
G1 X163.02 Y187.159 E0.01016
G1 X162.522 Y186.445 E0.03723
G1 X161.969 Y185.891 E0.03347
G1 X161.376 Y185.474 E0.03098
G1 X161.562 Y185.152 E0.01592
G1 X162.437 Y185.557 E0.0412
G1 X163.699 Y185.893 E0.05584
G1 X165 Y186.006 E0.05584
G1 X166.301 Y185.893 E0.05584
G1 X167.563 Y185.557 E0.05584
G1 X168.438 Y185.152 E0.0412
G1 X168.624 Y185.474 E0.01592
G1 X168.031 Y185.891 E0.03098
G1 X167.478 Y186.445 E0.03347
G1 X166.98 Y187.159 E0.03723
G1 X166.88 Y187.375 E0.01016
G1 X166.543 Y187.275 E0.01502
G1 X166.555 Y187.187 E0.00378
G1 X165.312 Y186.778 E0.05596
G1 E-0.6 F3000
G1 X152.302 Y164.96 F7200
G1 E0.6 F1800
G1 X150.547 Y165.051 E0.07514
G1 X131.182 Y166.053 E0.82904
G1 X132.55 Y160.92 E0.22709
G1 X133.183 Y159.212 E0.07788
G1 X134.268 Y157.215 E0.09717
G1 X135.991 Y154.603 E0.13381
G1 X137.91 Y152.261 E0.12944
G1 X139.982 Y150.204 E0.12483
G1 X142.285 Y148.312 E0.12743
G1 X145.071 Y146.403 E0.14439
G1 X148.064 Y144.659 E0.14812
G1 X151.628 Y142.895 E0.17002
G1 X154.482 Y141.757 E0.13134
G1 X157.154 Y140.954 E0.11932
G1 X159.683 Y140.451 E0.11024
G1 X162.114 Y140.222 E0.10439
G1 X163.68 Y140.251 E0.06699
G1 X163.68 Y170.628 E1.29879
G1 X163.482 Y170.649 E0.00851
G1 X162.155 Y171.029 E0.05903
G1 X160.913 Y171.632 E0.05903
G1 X159.794 Y172.44 E0.05903
G1 X158.831 Y173.429 E0.05903
G1 X158.053 Y174.57 E0.05903
G1 X157.484 Y175.828 E0.05903
G1 X157.141 Y177.166 E0.05903
G1 X157.034 Y178.542 E0.05903
G1 X157.166 Y179.916 E0.05903
G1 X157.534 Y181.247 E0.05903
G1 X158.125 Y182.495 E0.05903
G1 X158.923 Y183.621 E0.05903
G1 X159.846 Y184.535 E0.05551
G1 X158.904 Y184.618 E0.0404
G1 X158.229 Y184.799 E0.02989
G1 X157.565 Y185.11 E0.03135
G1 X156.922 Y185.562 E0.03362
G1 X156.316 Y186.17 E0.03668
G1 X155.775 Y186.945 E0.04043
G1 X155.337 Y187.889 E0.04448
G1 X155.047 Y188.975 E0.04807
G1 X154.945 Y190.146 E0.05024
G1 X155.047 Y191.316 E0.05024
G1 X155.337 Y192.403 E0.04807
G1 X155.775 Y193.346 E0.04448
G1 X156.316 Y194.122 E0.04043
G1 X156.922 Y194.73 E0.03668
G1 X157.565 Y195.182 E0.03361
G1 X158.229 Y195.493 E0.03135
G1 X158.904 Y195.674 E0.02989
G1 X159.584 Y195.734 E0.02918
G1 X160.264 Y195.674 E0.02919
G1 X160.94 Y195.492 E0.02989
G1 X161.604 Y195.182 E0.03136
G1 X162.247 Y194.73 E0.03362
G1 X162.853 Y194.122 E0.03668
G1 X163.379 Y193.367 E0.03936
G1 X163.673 Y193.474 E0.01339
G1 X163.508 Y195.295 E0.07819
G1 X163.183 Y197.198 E0.08254
G1 X163.053 Y197.702 E0.02225
G1 X162.321 Y199.731 E0.09222
G1 X161.542 Y201.245 E0.0728
G1 X160.837 Y202.217 E0.05131
G1 X160.216 Y202.836 E0.0375
G1 X159.715 Y203.198 E0.02644
G1 X159.198 Y203.456 E0.02471
G1 X158.522 Y203.673 E0.03034
G1 X157.556 Y203.832 E0.04185
G1 X155.892 Y203.854 E0.07115
G1 X154.688 Y203.676 E0.05206
G1 X153.602 Y203.329 E0.04873
G1 X152.228 Y202.63 E0.06593
G1 X151.133 Y201.827 E0.05806
G1 X150.12 Y200.803 E0.06158
G1 X149.011 Y199.266 E0.08102
G1 X148.233 Y197.793 E0.07125
G1 X147.658 Y196.167 E0.07373
G1 X147.179 Y194.211 E0.08609
G1 X146.955 Y192.47 E0.07506
G1 X146.974 Y190.734 E0.07423
G1 X147.145 Y189.472 E0.05446
G1 X147.511 Y188.261 E0.05407
G1 X148.101 Y187.039 E0.05804
G1 X148.928 Y185.85 E0.06191
G1 X149.999 Y184.743 E0.06588
G1 X151.248 Y183.815 E0.06652
G1 X152.664 Y183.086 E0.06812
G1 X154.066 Y182.631 E0.06301
G1 X155.353 Y182.336 E0.05645
G1 X154.661 Y179.186 E0.13787
G1 X153.229 Y179.515 E0.06283
G1 X151.42 Y180.104 E0.08134
G1 X149.563 Y181.056 E0.08921
G1 X147.9 Y182.284 E0.08836
G1 X146.46 Y183.762 E0.08824
G1 X145.332 Y185.373 E0.0841
G1 X144.518 Y187.041 E0.07934
G1 X143.996 Y188.744 E0.07618
G1 X143.944 Y189.119 E0.01619
G1 X142.53 Y188.718 E0.06283
G1 X140.019 Y187.762 E0.11487
G1 X137.386 Y186.466 E0.12549
G1 X134.911 Y184.932 E0.1245
G1 X132.642 Y183.187 E0.12237
G1 X130.8 Y181.472 E0.10762
G1 X130.289 Y180.892 E0.03306
G1 X153.136 Y172.566 E1.03967
G1 X152.144 Y169.765 E0.12705
G1 X128.202 Y178.243 E1.08592
G1 X126.951 Y176.237 E0.10106
G1 X125.529 Y173.637 E0.12669
G1 X124.425 Y171.178 E0.11526
G1 X123.883 Y169.533 E0.07408
G1 X152.302 Y168.063 E1.2167
G1 X152.302 Y165.02 E0.13012
G1 E-0.6 F3000
G1 X177.698 Y164.96 F7200
G1 E0.6 F1800
G1 X177.698 Y168.063 E0.13268
G1 X206.117 Y169.533 E1.2167
G1 X205.575 Y171.178 E0.07408
G1 X204.471 Y173.637 E0.11526
G1 X203.049 Y176.237 E0.12669
G1 X201.798 Y178.243 E0.10106
G1 X177.856 Y169.765 E1.08592
G1 X176.864 Y172.566 E0.12705
G1 X199.711 Y180.892 E1.03967
G1 X199.202 Y181.47 E0.03293
G1 X197.362 Y183.185 E0.10755
G1 X195.085 Y184.936 E0.12279
G1 X192.633 Y186.45 E0.12322
G1 X190.019 Y187.752 E0.12487
G1 X187.743 Y188.651 E0.1046
G1 X186.062 Y189.12 E0.07463
G1 X186.009 Y188.73 E0.0168
G1 X185.492 Y187.031 E0.07595
G1 X184.681 Y185.36 E0.07943
G1 X183.56 Y183.757 E0.08363
G1 X182.144 Y182.303 E0.08679
G1 X180.499 Y181.087 E0.08744
G1 X178.654 Y180.134 E0.08879
G1 X176.824 Y179.529 E0.08239
G1 X175.34 Y179.182 E0.06517
G1 X174.647 Y182.336 E0.13807
G1 X175.934 Y182.631 E0.05645
G1 X177.336 Y183.086 E0.06301
G1 X178.752 Y183.815 E0.06812
G1 X180.001 Y184.743 E0.06652
G1 X181.072 Y185.85 E0.06588
G1 X181.899 Y187.039 E0.06191
G1 X182.489 Y188.261 E0.05804
G1 X182.855 Y189.472 E0.05407
G1 X183.026 Y190.734 E0.05446
G1 X183.045 Y192.47 E0.07423
G1 X182.821 Y194.211 E0.07506
G1 X182.342 Y196.167 E0.08609
G1 X181.767 Y197.793 E0.07373
G1 X180.989 Y199.266 E0.07125
G1 X179.88 Y200.803 E0.08102
G1 X178.867 Y201.827 E0.06158
G1 X177.772 Y202.63 E0.05806
G1 X176.398 Y203.329 E0.06593
G1 X175.312 Y203.676 E0.04873
G1 X174.108 Y203.854 E0.05206
G1 X172.444 Y203.832 E0.07115
G1 X171.478 Y203.673 E0.04185
G1 X170.802 Y203.456 E0.03034
G1 X170.285 Y203.198 E0.02471
G1 X169.784 Y202.836 E0.02644
G1 X169.163 Y202.217 E0.0375
G1 X168.458 Y201.245 E0.05131
G1 X167.679 Y199.731 E0.0728
G1 X166.947 Y197.702 E0.09222
G1 X166.817 Y197.198 E0.02225
G1 X166.492 Y195.295 E0.08254
G1 X166.327 Y193.474 E0.07819
G1 X166.621 Y193.367 E0.01339
G1 X167.147 Y194.122 E0.03936
G1 X167.753 Y194.73 E0.03668
G1 X168.396 Y195.182 E0.03362
G1 X169.06 Y195.492 E0.03136
G1 X169.736 Y195.674 E0.02989
G1 X170.415 Y195.734 E0.02918
G1 X171.096 Y195.674 E0.02919
G1 X171.771 Y195.493 E0.02989
G1 X172.435 Y195.182 E0.03135
G1 X173.078 Y194.73 E0.03361
G1 X173.684 Y194.122 E0.03668
G1 X174.225 Y193.346 E0.04043
G1 X174.663 Y192.403 E0.04448
G1 X174.953 Y191.316 E0.04807
G1 X175.055 Y190.146 E0.05024
G1 X174.953 Y188.975 E0.05024
G1 X174.663 Y187.889 E0.04807
G1 X174.225 Y186.945 E0.04448
G1 X173.684 Y186.17 E0.04043
G1 X173.078 Y185.562 E0.03668
G1 X172.435 Y185.11 E0.03362
G1 X171.771 Y184.799 E0.03135
G1 X171.096 Y184.618 E0.02989
G1 X170.154 Y184.535 E0.0404
G1 X171.077 Y183.621 E0.05551
G1 X171.875 Y182.495 E0.05903
G1 X172.466 Y181.247 E0.05903
G1 X172.834 Y179.916 E0.05903
G1 X172.966 Y178.542 E0.05903
G1 X172.859 Y177.166 E0.05903
G1 X172.516 Y175.828 E0.05903
G1 X171.947 Y174.57 E0.05903
G1 X171.169 Y173.429 E0.05903
G1 X170.206 Y172.44 E0.05903
G1 X169.087 Y171.632 E0.05903
G1 X167.845 Y171.029 E0.05903
G1 X166.518 Y170.649 E0.05903
G1 X166.32 Y170.628 E0.00851
G1 X166.32 Y140.293 E1.297
G1 X167.87 Y140.312 E0.06628
G1 X170.901 Y140.658 E0.13044
G1 X174.019 Y141.346 E0.13653
G1 X176.904 Y142.271 E0.12954
G1 X179.862 Y143.504 E0.13705
G1 X183.037 Y145.142 E0.15273
G1 X186.244 Y147.158 E0.16196
G1 X188.848 Y149.122 E0.13945
G1 X191.049 Y151.081 E0.126
G1 X192.973 Y153.124 E0.11994
G1 X194.578 Y155.21 E0.11256
G1 X196.281 Y157.952 E0.13798
G1 X197.182 Y159.773 E0.08687
G1 X197.786 Y161.57 E0.08109
G1 X198.758 Y166.049 E0.19596
G1 X177.758 Y164.963 E0.89905
G1 E-0.6 F3000
G1 X128.039 Y165.342 F7200
G1 E0.6 F1800
G1 X130.136 Y165.748 E0.09135
G1 X130.111 Y166.108 E0.01541
G1 X123.114 Y166.47 E0.29956
G1 X123.018 Y166.023 E0.01954
G1 X122.702 Y163.289 E0.11769
G1 X122.597 Y159.544 E0.16017
G1 X122.791 Y155.837 E0.15872
G1 X123.266 Y152.235 E0.15533
G1 X124.026 Y148.696 E0.15476
G1 X125.006 Y145.46 E0.14458
G1 X126.19 Y142.479 E0.13712
G1 X127.691 Y139.405 E0.14627
G1 X130.074 Y135.065 E0.2117
G1 X132.119 Y131.865 E0.16236
G1 X134.5 Y128.737 E0.16808
G1 X136.817 Y126.144 E0.14866
G1 X193.183 Y126.144 E2.40994
G1 X194.028 Y127.09 E0.05425
G1 X195.5 Y128.737 E0.09441
G1 X197.881 Y131.865 E0.16808
G1 X199.926 Y135.065 E0.16236
G1 X202.309 Y139.405 E0.2117
G1 X203.81 Y142.479 E0.14627
G1 X204.994 Y145.46 E0.13712
G1 X205.974 Y148.696 E0.14458
G1 X206.734 Y152.235 E0.15476
G1 X207.209 Y155.837 E0.15533
G1 X207.403 Y159.544 E0.15872
G1 X207.298 Y163.289 E0.16017
G1 X206.982 Y166.023 E0.11769
G1 X206.886 Y166.47 E0.01954
G1 X199.889 Y166.108 E0.29956
G1 X199.864 Y165.748 E0.01541
G1 X201.961 Y165.342 E0.09135
G1 X200.568 Y160.092 E0.23225
G1 X199.884 Y158.159 E0.08765
G1 X198.908 Y156.255 E0.09149
G1 X197.014 Y153.256 E0.15165
G1 X195.17 Y150.875 E0.12874
G1 X192.995 Y148.568 E0.13555
G1 X190.576 Y146.446 E0.13761
G1 X187.865 Y144.464 E0.14357
G1 X184.661 Y142.486 E0.16099
G1 X181.177 Y140.643 E0.16853
G1 X178.004 Y139.242 E0.14827
G1 X175.022 Y138.206 E0.135
G1 X172.172 Y137.497 E0.12557
G1 X169.415 Y137.092 E0.11915
G1 X166.731 Y136.979 E0.11484
G1 X166.244 Y137.002 E0.02086
G1 X165 Y137.061 E0.05324
G1 X163.269 Y136.979 E0.0741
G1 X160.585 Y137.092 E0.11484
G1 X157.828 Y137.497 E0.11915
G1 X154.978 Y138.206 E0.12557
G1 X151.996 Y139.242 E0.135
G1 X148.823 Y140.643 E0.14827
G1 X145.338 Y142.486 E0.16855
G1 X142.081 Y144.5 E0.16373
G1 X139.424 Y146.446 E0.14084
G1 X137.005 Y148.568 E0.1376
G1 X134.83 Y150.875 E0.13555
G1 X132.986 Y153.256 E0.12874
G1 X131.092 Y156.255 E0.15165
G1 X130.116 Y158.159 E0.09149
G1 X129.432 Y160.092 E0.08765
G1 X128.054 Y165.284 E0.22968
G1 X128.57 Y165.009 F7200
G1 F1800
G1 X130.897 Y165.459 E0.10132
G1 X132.141 Y160.79 E0.20659
G1 X132.792 Y159.035 E0.08006
G1 X133.9 Y156.994 E0.09927
G1 X135.645 Y154.348 E0.13555
G1 X137.593 Y151.973 E0.13133
G1 X139.694 Y149.886 E0.12663
G1 X142.027 Y147.969 E0.12909
G1 X144.841 Y146.041 E0.14586
G1 X147.861 Y144.282 E0.14942
G1 X151.454 Y142.504 E0.17138
G1 X154.34 Y141.352 E0.13288
G1 X157.051 Y140.537 E0.121
G1 X159.621 Y140.026 E0.11206
G1 X162.098 Y139.793 E0.10636
G1 X164.109 Y139.831 E0.086
G1 X164.109 Y171.014 E1.33326
G1 X163.564 Y171.072 E0.0234
G1 X162.309 Y171.431 E0.05584
G1 X161.134 Y172.001 E0.05584
G1 X160.075 Y172.766 E0.05584
G1 X159.164 Y173.702 E0.05584
G1 X158.428 Y174.781 E0.05584
G1 X157.89 Y175.971 E0.05584
G1 X157.565 Y177.236 E0.05584
G1 X157.464 Y178.538 E0.05584
G1 X157.589 Y179.838 E0.05584
G1 X157.937 Y181.097 E0.05584
G1 X158.496 Y182.277 E0.05584
G1 X159.251 Y183.343 E0.05584
G1 X160.179 Y184.262 E0.05584
G1 X161.249 Y185.006 E0.05571
G1 X161.062 Y185.33 E0.01599
G1 X160.791 Y185.203 E0.0128
G1 X160.189 Y185.041 E0.02668
G1 X159.584 Y184.988 E0.02596
G1 X158.979 Y185.041 E0.02596
G1 X158.377 Y185.203 E0.02668
G1 X157.78 Y185.482 E0.02814
G1 X157.199 Y185.891 E0.0304
