; generated by SuperSlicer 2.3.57 on 2022-02-06 at 03:32:56 UTC


;
;

;
;
; 

; external perimeters extrusion width = 0.20mm
; perimeters extrusion width = 0.23mm
; infill extrusion width = 0.36mm
; solid infill extrusion width = 0.28mm
; top infill extrusion width = 0.20mm
; first layer extrusion width = 0.24mm

; external perimeters extrusion width = 0.20mm
; perimeters extrusion width = 0.23mm
; infill extrusion width = 0.36mm
; solid infill extrusion width = 0.28mm
; top infill extrusion width = 0.20mm
; first layer extrusion width = 0.24mm

; external perimeters extrusion width = 0.20mm
; perimeters extrusion width = 0.23mm
; infill extrusion width = 0.36mm
; solid infill extrusion width = 0.28mm
; top infill extrusion width = 0.20mm
; first layer extrusion width = 0.24mm

; external perimeters extrusion width = 0.20mm
; perimeters extrusion width = 0.23mm
; infill extrusion width = 0.36mm
; solid infill extrusion width = 0.28mm
; top infill extrusion width = 0.20mm
; first layer extrusion width = 0.24mm

; external perimeters extrusion width = 0.20mm
; perimeters extrusion width = 0.23mm
; infill extrusion width = 0.36mm
; solid infill extrusion width = 0.28mm
; top infill extrusion width = 0.20mm
; first layer extrusion width = 0.24mm

; object:{"name":"Part5-black2x","id":"Part5-black2x.STL id:0 copy 0","object_center":[144.987982,149.629058,0.000000],"boundingbox_center":[144.987982,149.629058,0.630000],"boundingbox_size":[5.916040,7.897004,1.260000]}
; object:{"name":"Part5-black2x","id":"Part5-black2x.STL id:1 copy 0","object_center":[160.012000,150.370964,0.000000],"boundingbox_center":[160.012000,150.370964,0.630000],"boundingbox_size":[5.916040,7.897004,1.260000]}
; plater:{"center":[152.499991,150.000011,0.000000],"boundingbox_center":[152.499991,150.000011,0.630000],"boundingbox_size":[20.940058,8.638910,1.260000]}

;TYPE:Custom
START_PRINT T_BED=60 T_EXTRUDER=220
M107
G21 ; set units to millimeters
G90 ; use absolute coordinates
M83 ; use relative distances for extrusion
; Filament gcode
M104 S220 ; set temperature
M109 S220 ; set temperature and wait for it to be reached
M190 S60 ; set bed temperature and wait for it to be reached
;LAYER_CHANGE
;Z:0.14
;HEIGHT:0.14
G1 Z0.14 F7200
G1 E-0.6 F3000
G1 X138.641 Y141.273 F7200
G1 E0.6 F1800
;TYPE:Skirt
;WIDTH:0.24
G1 X138.065 Y141.85 E0.00996
G1 X137.149 Y142.985 E0.01783
G1 X136.708 Y143.662 E0.00987
G1 X136.276 Y144.455 E0.01103
G1 X135.91 Y145.272 E0.01095
G1 X135.612 Y146.1 E0.01075
G1 X135.364 Y146.992 E0.01131
G1 X135.195 Y147.845 E0.01063
G1 X135.083 Y148.74 E0.01102
G1 X135.04 Y149.518 E0.00952
G1 X135.055 Y150.493 E0.01191
G1 X135.125 Y151.275 E0.0096
G1 X135.374 Y152.653 E0.01712
G1 X135.586 Y153.415 E0.00966
G1 X135.896 Y154.275 E0.01117
G1 X136.264 Y155.085 E0.01087
G1 X136.679 Y155.833 E0.01046
G1 X137.167 Y156.564 E0.01074
G1 X137.529 Y157.032 E0.00724
G1 X138.072 Y157.645 E0.01
G1 X138.724 Y158.263 E0.01098
G1 X139.773 Y159.054 E0.01605
G1 X140.966 Y159.713 E0.01666
G1 X141.622 Y159.988 E0.00869
G1 X142.177 Y160.173 E0.00715
G1 X142.925 Y160.369 E0.00945
G1 X143.679 Y160.495 E0.00935
G1 X144.328 Y160.557 E0.00796
G1 X160.028 Y161.313 E0.19209
G1 X161.051 Y161.237 E0.01253
G1 X161.828 Y161.102 E0.00964
G1 X162.761 Y160.852 E0.01181
G1 X163.82 Y160.434 E0.01391
G1 X164.692 Y159.973 E0.01205
G1 X165.569 Y159.385 E0.01291
G1 X166.365 Y158.721 E0.01267
G1 X167.118 Y157.948 E0.01319
G1 X167.744 Y157.166 E0.01224
G1 X168.35 Y156.235 E0.01358
G1 X168.972 Y155.005 E0.01684
G1 X169.356 Y153.998 E0.01316
G1 X169.638 Y153 E0.01268
G1 X169.838 Y151.938 E0.0132
G1 X169.957 Y150.565 E0.01684
G1 X169.946 Y149.512 E0.01287
G1 X169.843 Y148.469 E0.01281
G1 X169.635 Y147.385 E0.0135
G1 X169.239 Y146.077 E0.0167
G1 X168.828 Y145.101 E0.01294
G1 X168.3 Y144.131 E0.01349
G1 X167.714 Y143.272 E0.01272
G1 X167.035 Y142.466 E0.01287
G1 X166.291 Y141.748 E0.01264
G1 X165.256 Y140.964 E0.01586
G1 X164.589 Y140.565 E0.00949
G1 X164.066 Y140.302 E0.00715
G1 X163.425 Y140.029 E0.00852
G1 X162.865 Y139.839 E0.00724
G1 X162.125 Y139.641 E0.00936
G1 X161.345 Y139.507 E0.00967
G1 X160.691 Y139.443 E0.00804
G1 X145.04 Y138.687 E0.19148
G1 X144.403 Y138.715 E0.0078
G1 X143.55 Y138.82 E0.0105
G1 X142.711 Y139.008 E0.0105
G1 X142.113 Y139.19 E0.00764
G1 X141.318 Y139.501 E0.01043
G1 X140.563 Y139.881 E0.01033
G1 X140.033 Y140.199 E0.00756
G1 X139.3 Y140.715 E0.01095
G1 X138.664 Y141.254 E0.01019
G1 X138.8 Y141.414 F7200
G1 F1800
G1 X138.783 Y141.428 E0.00027
G1 X138.215 Y141.997 E0.00983
G1 X137.315 Y143.114 E0.01752
G1 X136.887 Y143.772 E0.0096
G1 X136.461 Y144.556 E0.0109
G1 X136.101 Y145.359 E0.01075
G1 X135.805 Y146.184 E0.01072
G1 X135.567 Y147.049 E0.01096
G1 X135.4 Y147.887 E0.01045
G1 X135.291 Y148.767 E0.01083
G1 X135.25 Y149.532 E0.00936
G1 X135.265 Y150.49 E0.01171
G1 X135.335 Y151.264 E0.0095
G1 X135.583 Y152.619 E0.01683
G1 X135.787 Y153.354 E0.00932
G1 X136.094 Y154.204 E0.01104
G1 X136.455 Y154.998 E0.01066
G1 X136.869 Y155.742 E0.0104
G1 X137.352 Y156.461 E0.01059
G1 X137.706 Y156.916 E0.00705
G1 X138.242 Y157.519 E0.00986
G1 X138.9 Y158.138 E0.01105
G1 X139.915 Y158.896 E0.01547
G1 X141.074 Y159.531 E0.01615
G1 X142.247 Y159.975 E0.01533
G1 X142.975 Y160.165 E0.00919
G1 X143.725 Y160.289 E0.00929
G1 X144.345 Y160.348 E0.0076
G1 X160.036 Y161.103 E0.19198
G1 X161.04 Y161.027 E0.01231
G1 X161.793 Y160.895 E0.00934
G1 X162.704 Y160.65 E0.01153
G1 X163.745 Y160.237 E0.01369
G1 X164.591 Y159.789 E0.0117
G1 X165.459 Y159.204 E0.01279
G1 X166.238 Y158.552 E0.01241
G1 X166.992 Y157.773 E0.01325
G1 X167.587 Y157.025 E0.01168
G1 X168.18 Y156.109 E0.01333
G1 X168.788 Y154.902 E0.01652
G1 X169.166 Y153.906 E0.01302
G1 X169.437 Y152.936 E0.01231
G1 X169.632 Y151.892 E0.01298
G1 X169.748 Y150.544 E0.01654
G1 X169.734 Y149.489 E0.01289
G1 X169.633 Y148.484 E0.01235
G1 X169.427 Y147.418 E0.01326
G1 X169.035 Y146.13 E0.01645
G1 X168.624 Y145.162 E0.01286
G1 X168.111 Y144.223 E0.01307
G1 X167.53 Y143.377 E0.01254
G1 X166.864 Y142.59 E0.0126
G1 X166.114 Y141.872 E0.01268
G1 X165.118 Y141.125 E0.01521
G1 X163.957 Y140.483 E0.01621
G1 X163.243 Y140.184 E0.00946
G1 X162.526 Y139.959 E0.00918
G1 X161.966 Y139.822 E0.00705
G1 X161.299 Y139.712 E0.00825
G1 X160.68 Y139.653 E0.0076
G1 X145.039 Y138.897 E0.19137
G1 X144.417 Y138.924 E0.0076
G1 X143.586 Y139.027 E0.01023
G1 X142.762 Y139.211 E0.01032
G1 X142.179 Y139.389 E0.00744
G1 X141.398 Y139.696 E0.01026
G1 X140.655 Y140.07 E0.01017
G1 X140.144 Y140.377 E0.00729
G1 X139.422 Y140.886 E0.01079
G1 X138.822 Y141.395 E0.00961
G1 X138.958 Y141.555 F7200
G1 F1800
G1 X138.92 Y141.588 E0.00062
G1 X138.36 Y142.15 E0.00969
G1 X137.482 Y143.242 E0.01712
G1 X137.066 Y143.882 E0.00933
G1 X136.645 Y144.657 E0.01078
G1 X136.293 Y145.445 E0.01055
G1 X135.999 Y146.268 E0.01068
G1 X135.769 Y147.106 E0.01061
G1 X135.606 Y147.929 E0.01026
G1 X135.5 Y148.788 E0.01057
G1 X135.459 Y149.551 E0.00935
G1 X135.475 Y150.486 E0.01143
G1 X135.545 Y151.247 E0.00933
G1 X135.789 Y152.578 E0.01654
G1 X135.99 Y153.299 E0.00915
G1 X136.291 Y154.132 E0.01083
G1 X136.646 Y154.91 E0.01045
G1 X137.059 Y155.649 E0.01034
G1 X137.528 Y156.347 E0.01028
G1 X137.878 Y156.795 E0.00694
G1 X138.402 Y157.383 E0.00963
G1 X139.071 Y158.008 E0.01118
G1 X140.046 Y158.73 E0.01483
G1 X141.181 Y159.349 E0.0158
G1 X142.323 Y159.778 E0.01491
G1 X143.031 Y159.962 E0.00893
G1 X143.777 Y160.084 E0.00924
G1 X144.355 Y160.138 E0.0071
G1 X160.049 Y160.893 E0.19202
G1 X161.131 Y160.804 E0.01326
G1 X162.039 Y160.622 E0.01132
G1 X162.749 Y160.412 E0.00904
G1 X163.681 Y160.035 E0.01229
G1 X164.501 Y159.598 E0.01135
G1 X165.354 Y159.02 E0.0126
G1 X166.115 Y158.38 E0.01215
G1 X166.864 Y157.6 E0.01322
G1 X167.429 Y156.884 E0.01114
G1 X168.006 Y155.99 E0.013
G1 X168.599 Y154.812 E0.01612
G1 X168.973 Y153.821 E0.01295
G1 X169.235 Y152.879 E0.01194
G1 X169.425 Y151.853 E0.01276
G1 X169.538 Y150.529 E0.01624
G1 X169.523 Y149.48 E0.01283
G1 X169.424 Y148.505 E0.01198
G1 X169.22 Y147.458 E0.01303
G1 X168.836 Y146.196 E0.01612
G1 X168.426 Y145.235 E0.01277
G1 X167.924 Y144.321 E0.01274
G1 X167.347 Y143.483 E0.01244
G1 X166.692 Y142.715 E0.01234
G1 X165.942 Y142.002 E0.01264
G1 X164.986 Y141.29 E0.01457
G1 X163.849 Y140.665 E0.01586
G1 X163.159 Y140.377 E0.00913
G1 X162.45 Y140.156 E0.00908
G1 X161.248 Y139.917 E0.01498
G1 X160.67 Y139.863 E0.0071
G1 X145.037 Y139.106 E0.19126
G1 X144.432 Y139.134 E0.00741
G1 X143.616 Y139.235 E0.01004
G1 X142.807 Y139.417 E0.01013
G1 X142.24 Y139.591 E0.00725
G1 X141.483 Y139.888 E0.00993
G1 X140.752 Y140.256 E0.01
G1 X140.25 Y140.559 E0.00717
G1 X139.54 Y141.061 E0.01062
G1 X138.981 Y141.535 E0.00896
G1 X139.117 Y141.695 F7200
G1 F1800
G1 X139.057 Y141.747 E0.00097
G1 X138.509 Y142.297 E0.00948
G1 X137.653 Y143.364 E0.01672
G1 X137.246 Y143.991 E0.00914
G1 X136.829 Y144.757 E0.01065
G1 X136.485 Y145.531 E0.01036
G1 X136.193 Y146.351 E0.01064
G1 X135.97 Y147.168 E0.01034
G1 X135.807 Y148.002 E0.01039
G1 X135.706 Y148.846 E0.01038
G1 X135.667 Y149.671 E0.0101
G1 X135.689 Y150.546 E0.01069
G1 X135.771 Y151.367 E0.01008
G1 X135.919 Y152.213 E0.0105
G1 X136.091 Y152.901 E0.00866
G1 X136.546 Y154.194 E0.01675
G1 X136.871 Y154.89 E0.00939
G1 X137.307 Y155.652 E0.01074
G1 X137.798 Y156.36 E0.01052
G1 X138.285 Y156.947 E0.00933
G1 X139.245 Y157.88 E0.01636
G1 X140.182 Y158.568 E0.0142
G1 X141.294 Y159.169 E0.01545
G1 X141.974 Y159.446 E0.00897
G1 X142.659 Y159.655 E0.00876
G1 X143.821 Y159.879 E0.01446
G1 X160.056 Y160.683 E0.19864
G1 X161.111 Y160.595 E0.01294
G1 X162.003 Y160.415 E0.01112
G1 X162.695 Y160.208 E0.00882
G1 X163.61 Y159.836 E0.01207
G1 X164.404 Y159.411 E0.01101
G1 X165.244 Y158.841 E0.0124
G1 X165.991 Y158.208 E0.01197
G1 X166.735 Y157.427 E0.01318
G1 X167.328 Y156.662 E0.01184
G1 X168.006 Y155.559 E0.01581
G1 X168.454 Y154.618 E0.01274
G1 X168.779 Y153.736 E0.01149
G1 X169.032 Y152.823 E0.01157
G1 X169.219 Y151.808 E0.01261
G1 X169.329 Y150.508 E0.01594
G1 X169.312 Y149.465 E0.01275
G1 X169.199 Y148.427 E0.01276
G1 X168.923 Y147.148 E0.01599
G1 X168.598 Y146.156 E0.01275
G1 X168.229 Y145.309 E0.01129
G1 X167.739 Y144.42 E0.01241
G1 X167.168 Y143.595 E0.01226
G1 X166.522 Y142.84 E0.01214
G1 X165.767 Y142.13 E0.01266
G1 X164.849 Y141.452 E0.01395
G1 X163.742 Y140.847 E0.01543
G1 X163.076 Y140.571 E0.0088
G1 X162.38 Y140.354 E0.0089
G1 X161.203 Y140.123 E0.01466
G1 X145.042 Y139.316 E0.19774
G1 X144.452 Y139.343 E0.00721
G1 X143.659 Y139.441 E0.00977
G1 X142.864 Y139.619 E0.00995
G1 X142.312 Y139.788 E0.00706
G1 X141.569 Y140.079 E0.00975
G1 X140.85 Y140.442 E0.00984
G1 X140.361 Y140.737 E0.00698
G1 X139.663 Y141.231 E0.01046
G1 X139.14 Y141.676 E0.00838
G1 X139.276 Y141.836 F7200
G1 F1800
G1 X139.194 Y141.906 E0.00132
G1 X138.655 Y142.449 E0.00935
G1 X137.813 Y143.502 E0.01648
G1 X137.422 Y144.106 E0.0088
G1 X137.011 Y144.863 E0.01052
G1 X136.674 Y145.623 E0.01016
G1 X136.38 Y146.458 E0.01082
G1 X136.17 Y147.236 E0.00985
G1 X136.011 Y148.056 E0.0102
G1 X135.914 Y148.878 E0.01012
G1 X135.876 Y149.701 E0.01007
G1 X135.899 Y150.547 E0.01034
G1 X135.982 Y151.365 E0.01005
G1 X136.129 Y152.195 E0.01031
G1 X136.308 Y152.898 E0.00887
G1 X136.755 Y154.147 E0.01621
G1 X137.073 Y154.822 E0.00912
G1 X137.522 Y155.599 E0.01096
G1 X137.992 Y156.267 E0.00998
G1 X138.494 Y156.867 E0.00956
G1 X139.491 Y157.81 E0.01677
G1 X140.444 Y158.481 E0.01425
G1 X141.064 Y158.829 E0.00869
G1 X141.692 Y159.111 E0.00842
G1 X142.852 Y159.489 E0.01491
G1 X143.883 Y159.675 E0.01281
G1 X159.407 Y160.461 E0.18995
G1 X160.155 Y160.47 E0.00915
G1 X161.195 Y160.37 E0.01277
G1 X162.164 Y160.157 E0.01212
G1 X163.144 Y159.815 E0.01269
G1 X163.964 Y159.42 E0.01112
G1 X164.883 Y158.845 E0.01325
G1 X165.614 Y158.265 E0.0114
G1 X166.331 Y157.566 E0.01223
G1 X166.876 Y156.922 E0.01031
G1 X167.459 Y156.088 E0.01243
G1 X167.917 Y155.28 E0.01136
G1 X168.308 Y154.421 E0.01153
G1 X168.636 Y153.486 E0.01211
G1 X168.939 Y152.228 E0.01582
G1 X169.069 Y151.304 E0.0114
G1 X169.124 Y150.309 E0.01218
G1 X169.089 Y149.297 E0.01238
G1 X168.915 Y148.028 E0.01565
G1 X168.7 Y147.125 E0.01135
G1 X168.381 Y146.178 E0.0122
G1 X167.996 Y145.311 E0.01159
G1 X167.53 Y144.482 E0.01162
G1 X166.951 Y143.659 E0.0123
G1 X166.317 Y142.931 E0.0118
G1 X165.521 Y142.2 E0.0132
G1 X164.587 Y141.537 E0.014
G1 X163.981 Y141.192 E0.00852
G1 X163.338 Y140.9 E0.00863
G1 X162.186 Y140.519 E0.01483
G1 X161.141 Y140.327 E0.01299
G1 X145.041 Y139.526 E0.19699
G1 X144.473 Y139.551 E0.00694
G1 X143.689 Y139.648 E0.00966
G1 X142.91 Y139.824 E0.00976
G1 X142.373 Y139.989 E0.00687
G1 X141.649 Y140.274 E0.0095
G1 X140.943 Y140.63 E0.00967
G1 X140.473 Y140.915 E0.00672
G1 X139.781 Y141.406 E0.01036
G1 X139.299 Y141.816 E0.00774
G1 X139.435 Y141.976 F7200
G1 F1800
G1 X139.332 Y142.064 E0.00166
G1 X138.801 Y142.6 E0.00921
G1 X137.981 Y143.629 E0.01608
G1 X137.601 Y144.215 E0.00854
G1 X137.196 Y144.963 E0.01038
G1 X136.866 Y145.708 E0.00996
G1 X136.574 Y146.539 E0.01077
G1 X136.372 Y147.292 E0.00952
G1 X136.218 Y148.096 E0.01001
G1 X136.122 Y148.903 E0.00993
G1 X136.086 Y149.717 E0.00996
G1 X136.109 Y150.542 E0.01008
G1 X136.191 Y151.344 E0.00986
G1 X136.336 Y152.158 E0.01011
G1 X136.515 Y152.859 E0.00884
G1 X136.951 Y154.072 E0.01575
G1 X137.263 Y154.732 E0.00892
G1 X137.707 Y155.497 E0.0108
G1 X138.166 Y156.15 E0.00975
G1 X138.661 Y156.738 E0.0094
G1 X139.657 Y157.674 E0.0167
G1 X140.571 Y158.313 E0.01362
G1 X141.169 Y158.647 E0.00837
G1 X141.796 Y158.927 E0.00839
G1 X142.917 Y159.289 E0.0144
G1 X143.926 Y159.469 E0.01252
G1 X159.414 Y160.251 E0.18951
G1 X160.153 Y160.26 E0.00903
G1 X161.167 Y160.162 E0.01245
G1 X162.123 Y159.95 E0.01196
G1 X163.079 Y159.614 E0.01238
G1 X163.884 Y159.225 E0.01093
G1 X164.776 Y158.664 E0.01288
G1 X165.494 Y158.091 E0.01122
G1 X166.194 Y157.406 E0.01197
G1 X166.74 Y156.754 E0.01039
G1 X167.295 Y155.955 E0.01189
G1 X167.739 Y155.167 E0.01106
G1 X168.116 Y154.335 E0.01116
G1 X168.44 Y153.412 E0.01196
G1 X168.734 Y152.182 E0.01545
G1 X168.862 Y151.269 E0.01127
G1 X168.914 Y150.298 E0.01188
G1 X168.877 Y149.293 E0.0123
G1 X168.707 Y148.055 E0.01527
G1 X168.494 Y147.169 E0.01113
G1 X168.181 Y146.242 E0.01196
G1 X167.8 Y145.388 E0.01143
G1 X167.345 Y144.582 E0.0113
G1 X166.774 Y143.773 E0.01211
G1 X166.148 Y143.058 E0.01161
G1 X165.354 Y142.335 E0.01312
G1 X164.787 Y141.913 E0.00864
G1 X164.21 Y141.558 E0.00828
G1 X163.234 Y141.083 E0.01327
G1 X162.12 Y140.719 E0.01432
G1 X161.104 Y140.533 E0.01262
G1 X145.04 Y139.736 E0.19655
G1 X144.488 Y139.761 E0.00675
G1 X143.72 Y139.856 E0.00946
G1 X142.962 Y140.027 E0.0095
G1 X142.439 Y140.188 E0.00668
G1 X141.729 Y140.468 E0.00932
G1 X141.036 Y140.819 E0.0095
G1 X139.9 Y141.579 E0.01671
G1 X139.458 Y141.956 E0.0071
G1 X139.595 Y142.116 F7200
G1 F1800
G1 X139.47 Y142.223 E0.00201
G1 X138.952 Y142.746 E0.009
G1 X138.152 Y143.75 E0.01568
G1 X137.777 Y144.33 E0.00843
G1 X137.382 Y145.062 E0.01017
G1 X137.058 Y145.793 E0.00977
G1 X136.769 Y146.62 E0.0107
G1 X136.576 Y147.341 E0.00912
G1 X136.425 Y148.13 E0.00982
G1 X136.332 Y148.922 E0.00975
G1 X136.296 Y149.727 E0.00984
G1 X136.319 Y150.536 E0.00989
G1 X136.4 Y151.323 E0.00967
G1 X136.542 Y152.116 E0.00984
G1 X136.722 Y152.819 E0.00887
G1 X137.007 Y153.661 E0.01086
G1 X137.289 Y154.31 E0.00865
G1 X137.894 Y155.4 E0.01522
G1 X138.34 Y156.031 E0.00945
G1 X138.832 Y156.614 E0.00932
G1 X139.414 Y157.189 E0.01
G1 X139.823 Y157.537 E0.00656
G1 X140.384 Y157.948 E0.00849
G1 X140.948 Y158.289 E0.00806
G1 X141.899 Y158.743 E0.01288
G1 X142.987 Y159.091 E0.01397
G1 X143.968 Y159.263 E0.01217
G1 X159.427 Y160.042 E0.18916
G1 X160.157 Y160.05 E0.00892
G1 X161.145 Y159.953 E0.01213
G1 X162.075 Y159.745 E0.01165
G1 X163.008 Y159.417 E0.01208
G1 X163.803 Y159.03 E0.0108
G1 X164.668 Y158.483 E0.01251
G1 X165.373 Y157.918 E0.01104
G1 X166.056 Y157.246 E0.01171
G1 X166.604 Y156.588 E0.01046
G1 X167.152 Y155.787 E0.01187
G1 X167.621 Y154.931 E0.01193
G1 X167.986 Y154.087 E0.01123
G1 X168.372 Y152.871 E0.0156
G1 X168.564 Y151.944 E0.01157
G1 X168.673 Y151.009 E0.0115
G1 X168.703 Y150.127 E0.01079
G1 X168.629 Y148.912 E0.01487
