; generated by SuperSlicer 2.4 on 2022-11-12 at 23:39:37 UTC


;
;

;
;
; 

; external perimeters extrusion width = 0.40mm
; perimeters extrusion width = 0.46mm
; infill extrusion width = 0.64mm
; solid infill extrusion width = 0.56mm
; top infill extrusion width = 0.40mm
; first layer extrusion width = 0.50mm

; object:{"name":"patch-panel-8x","id":"patch-panel-8x.stl id:0 copy 0","object_center":[152.500000,150.000000,0.000000],"boundingbox_center":[152.500000,150.000000,17.500000],"boundingbox_size":[236.220000,41.000000,35.000000]}
; plater:{"center":[152.500000,150.000000,0.000000],"boundingbox_center":[152.500000,150.000000,17.500000],"boundingbox_size":[236.220000,41.000000,35.000000]}

M73 P0 R183
;TYPE:Custom
START_PRINT T_BED=70 T_EXTRUDER=235
M107
G21 ; set units to millimeters
G90 ; use absolute coordinates
M83 ; use relative distances for extrusion
; Filament gcode
;_TOOLCHANGE 0
M104 S235 ; set temperature
M109 S235 ; set temperature and wait for it to be reached
M190 S70 ; set bed temperature and wait for it to be reached
M107
;LAYER_CHANGE
;Z:0.2
;HEIGHT:0.2
G1 Z0.2 F9000
G92 E0
G1 E-1 F3000
M204 S1000
G1 X34.49 Y125.884 F9000
G1 E1 F1800
;TYPE:Skirt
;WIDTH:0.52
G1 X32.269 Y126.621 E0.09283
G1 X31.169 Y127.934 E0.06793
G1 X30.774 Y129.6 E0.06793
G1 X30.774 Y170.4 E1.61851
G1 X31.511 Y172.621 E0.09283
G1 X32.824 Y173.721 E0.06793
G1 X34.49 Y174.116 E0.06793
G1 X270.51 Y174.116 E9.36276
G1 X272.731 Y173.379 E0.09283
G1 X273.831 Y172.066 E0.06793
G1 X274.226 Y170.4 E0.06793
G1 X274.226 Y129.6 E1.61851
G1 X273.489 Y127.379 E0.09283
G1 X272.176 Y126.279 E0.06793
G1 X270.51 Y125.884 E0.06793
G1 X34.49 Y125.884 E9.36276
M73 P0 R182
G1 X34.49 Y126.361 F9000
G1 F1800
G1 X32.731 Y126.881 E0.07276
G1 X31.645 Y128.052 E0.06336
G1 X31.251 Y129.6 E0.06336
G1 X31.251 Y170.4 E1.61851
G1 X31.771 Y172.159 E0.07276
G1 X32.942 Y173.245 E0.06336
G1 X34.49 Y173.639 E0.06336
G1 X270.51 Y173.639 E9.36276
G1 X272.269 Y173.119 E0.07276
G1 X273.355 Y171.948 E0.06336
G1 X273.749 Y170.4 E0.06336
G1 X273.749 Y129.6 E1.61851
G1 X273.229 Y127.841 E0.07276
G1 X272.058 Y126.755 E0.06336
G1 X270.51 Y126.361 E0.06336
G1 X34.49 Y126.361 E9.36276
G1 E-1 F3000
; printing object patch-panel-8x.stl id:0 copy 0
G1 X173.844 Y140.461 F9000
G1 E1 F1800
;TYPE:Internal perimeter
;WIDTH:0.5
G1 X156.036 Y140.461 E0.6768
G1 X156.036 Y159.539 E0.7251
G1 X173.844 Y159.539 E0.6768
G1 X173.844 Y140.461 E0.7251
G1 X173.387 Y140.918 F9000
G1 F1800
G1 X156.493 Y140.918 E0.64206
G1 X156.493 Y159.082 E0.69035
G1 X173.387 Y159.082 E0.64206
G1 X173.387 Y140.918 E0.69035
G1 X172.93 Y141.375 F9000
;TYPE:External perimeter
G1 F1800
G1 X156.95 Y141.375 E0.60732
G1 X156.95 Y158.625 E0.65561
G1 X172.93 Y158.625 E0.60732
G1 X172.93 Y141.375 E0.65561
;WIPE_START
M204 S3000
G1 X172.93 Y140.975 F9000
;WIPE_END
G1 E-1 F3000
M204 S1000
G1 X197.602 Y140.461 F9000
G1 E1 F1800
;TYPE:Internal perimeter
G1 X179.794 Y140.461 E0.6768
G1 X179.794 Y159.539 E0.7251
G1 X197.602 Y159.539 E0.6768
G1 X197.602 Y140.461 E0.7251
G1 X197.145 Y140.918 F9000
G1 F1800
G1 X180.252 Y140.918 E0.64206
G1 X180.252 Y159.082 E0.69035
G1 X197.145 Y159.082 E0.64206
G1 X197.145 Y140.918 E0.69035
G1 X196.688 Y141.375 F9000
;TYPE:External perimeter
G1 F1800
G1 X180.709 Y141.375 E0.60732
G1 X180.709 Y158.625 E0.65561
G1 X196.688 Y158.625 E0.60732
G1 X196.688 Y141.375 E0.65561
;WIPE_START
M204 S3000
G1 X196.688 Y140.975 F9000
;WIPE_END
G1 E-1 F3000
M204 S1000
G1 X221.361 Y140.461 F9000
G1 E1 F1800
;TYPE:Internal perimeter
G1 X203.553 Y140.461 E0.6768
G1 X203.553 Y159.539 E0.7251
G1 X221.361 Y159.539 E0.6768
G1 X221.361 Y140.461 E0.7251
G1 X220.904 Y140.918 F9000
G1 F1800
G1 X204.01 Y140.918 E0.64206
G1 X204.01 Y159.082 E0.69035
G1 X220.904 Y159.082 E0.64206
G1 X220.904 Y140.918 E0.69035
G1 X220.447 Y141.375 F9000
;TYPE:External perimeter
G1 F1800
G1 X204.467 Y141.375 E0.60732
G1 X204.467 Y158.625 E0.65561
G1 X220.447 Y158.625 E0.60732
G1 X220.447 Y141.375 E0.65561
;WIPE_START
M204 S3000
G1 X220.447 Y140.975 F9000
;WIPE_END
G1 E-1 F3000
M204 S1000
G1 X245.119 Y140.461 F9000
G1 E1 F1800
;TYPE:Internal perimeter
G1 X227.312 Y140.461 E0.6768
G1 X227.312 Y159.539 E0.7251
G1 X245.119 Y159.539 E0.6768
G1 X245.119 Y140.461 E0.7251
G1 X244.662 Y140.918 F9000
G1 F1800
G1 X227.769 Y140.918 E0.64206
G1 X227.769 Y159.082 E0.69035
G1 X244.662 Y159.082 E0.64206
G1 X244.662 Y140.918 E0.69035
G1 X244.205 Y141.375 F9000
;TYPE:External perimeter
G1 F1800
G1 X228.226 Y141.375 E0.60732
G1 X228.226 Y158.625 E0.65561
G1 X244.205 Y158.625 E0.60732
G1 X244.205 Y141.375 E0.65561
;WIPE_START
M204 S3000
G1 X244.205 Y140.975 F9000
;WIPE_END
G1 E-1 F3000
M204 S1000
G1 X148.964 Y140.461 F9000
G1 E1 F1800
;TYPE:Internal perimeter
G1 X131.156 Y140.461 E0.6768
G1 X131.156 Y159.539 E0.7251
G1 X148.964 Y159.539 E0.6768
G1 X148.964 Y140.461 E0.7251
G1 X148.507 Y140.918 F9000
G1 F1800
G1 X131.613 Y140.918 E0.64206
G1 X131.613 Y159.082 E0.69035
G1 X148.507 Y159.082 E0.64206
G1 X148.507 Y140.918 E0.69035
G1 X148.05 Y141.375 F9000
;TYPE:External perimeter
G1 F1800
G1 X132.07 Y141.375 E0.60732
G1 X132.07 Y158.625 E0.65561
M73 P1 R181
G1 X148.05 Y158.625 E0.60732
G1 X148.05 Y141.375 E0.65561
;WIPE_START
M204 S3000
G1 X148.05 Y140.975 F9000
;WIPE_END
G1 E-1 F3000
M204 S1000
G1 X125.206 Y140.461 F9000
G1 E1 F1800
;TYPE:Internal perimeter
G1 X107.398 Y140.461 E0.6768
G1 X107.398 Y159.539 E0.7251
G1 X125.206 Y159.539 E0.6768
G1 X125.206 Y140.461 E0.7251
G1 X124.748 Y140.918 F9000
G1 F1800
G1 X107.855 Y140.918 E0.64206
G1 X107.855 Y159.082 E0.69035
G1 X124.748 Y159.082 E0.64206
G1 X124.748 Y140.918 E0.69035
G1 X124.291 Y141.375 F9000
;TYPE:External perimeter
G1 F1800
G1 X108.312 Y141.375 E0.60732
G1 X108.312 Y158.625 E0.65561
G1 X124.291 Y158.625 E0.60732
G1 X124.291 Y141.375 E0.65561
;WIPE_START
M204 S3000
G1 X124.291 Y140.975 F9000
;WIPE_END
G1 E-1 F3000
M204 S1000
G1 X101.447 Y140.461 F9000
G1 E1 F1800
;TYPE:Internal perimeter
G1 X83.639 Y140.461 E0.6768
G1 X83.639 Y159.539 E0.7251
G1 X101.447 Y159.539 E0.6768
G1 X101.447 Y140.461 E0.7251
G1 X100.99 Y140.918 F9000
G1 F1800
G1 X84.096 Y140.918 E0.64206
M73 P1 R181
G1 X84.096 Y159.082 E0.69035
G1 X100.99 Y159.082 E0.64206
G1 X100.99 Y140.918 E0.69035
G1 X100.533 Y141.375 F9000
;TYPE:External perimeter
G1 F1800
G1 X84.553 Y141.375 E0.60732
G1 X84.553 Y158.625 E0.65561
G1 X100.533 Y158.625 E0.60732
G1 X100.533 Y141.375 E0.65561
;WIPE_START
M204 S3000
G1 X100.533 Y140.975 F9000
;WIPE_END
G1 E-1 F3000
M204 S1000
G1 X77.688 Y140.461 F9000
G1 E1 F1800
;TYPE:Internal perimeter
G1 X59.881 Y140.461 E0.6768
G1 X59.881 Y159.539 E0.7251
G1 X77.688 Y159.539 E0.6768
G1 X77.688 Y140.461 E0.7251
G1 X77.231 Y140.918 F9000
G1 F1800
G1 X60.338 Y140.918 E0.64206
G1 X60.338 Y159.082 E0.69035
G1 X77.231 Y159.082 E0.64206
G1 X77.231 Y140.918 E0.69035
G1 X76.774 Y141.375 F9000
;TYPE:External perimeter
G1 F1800
G1 X60.795 Y141.375 E0.60732
G1 X60.795 Y158.625 E0.65561
G1 X76.774 Y158.625 E0.60732
G1 X76.774 Y141.375 E0.65561
;WIPE_START
M204 S3000
G1 X76.774 Y140.975 F9000
;WIPE_END
G1 E-1 F3000
M204 S1000
G1 X269.346 Y169.236 F9000
G1 E1 F1800
;TYPE:Internal perimeter
G1 X35.654 Y169.236 E8.88176
G1 X35.654 Y130.764 E1.46217
G1 X269.346 Y130.764 E8.88176
G1 X269.346 Y169.236 E1.46217
G1 X269.803 Y169.693 F9000
G1 F1800
G1 X35.197 Y169.693 E8.91651
G1 X35.197 Y130.307 E1.49691
G1 X269.803 Y130.307 E8.91651
M73 P1 R180
G1 X269.803 Y169.693 E1.49691
G1 X270.26 Y170.15 F9000
;TYPE:External perimeter
G1 F1800
G1 X34.74 Y170.15 E8.95125
G1 X34.74 Y129.85 E1.53165
G1 X270.26 Y129.85 E8.95125
G1 X270.26 Y170.15 E1.53165
;WIPE_START
M204 S3000
G1 X269.914 Y169.95 F9000
;WIPE_END
G1 E-1 F3000
M204 S1000
G1 X269.277 Y131.757 F9000
G1 E1 F1800
;TYPE:Solid infill
;WIDTH:0.495195
G1 F2400
G1 X268.353 Y130.833 E0.04919
G1 X267.707 Y130.833 F9000
G1 F2400
G1 X269.277 Y132.403 E0.0836
G1 X269.277 Y133.049 F9000
G1 F2400
G1 X267.061 Y130.833 E0.11801
G1 X266.414 Y130.833 F9000
G1 F2400
G1 X269.277 Y133.696 E0.15242
G1 X269.277 Y134.342 F9000
G1 F2400
G1 X265.768 Y130.833 E0.18683
G1 X265.121 Y130.833 F9000
G1 F2400
G1 X269.277 Y134.989 E0.22124
G1 X269.277 Y135.635 F9000
G1 F2400
G1 X264.475 Y130.833 E0.25564
G1 X263.828 Y130.833 F9000
G1 F2400
G1 X269.277 Y136.282 E0.29005
G1 X269.277 Y136.928 F9000
G1 F2400
G1 X263.182 Y130.833 E0.32446
G1 X262.536 Y130.833 F9000
G1 F2400
G1 X269.277 Y137.574 E0.35887
G1 X269.277 Y138.221 F9000
G1 F2400
G1 X261.889 Y130.833 E0.39328
G1 X261.243 Y130.833 F9000
G1 F2400
G1 X269.277 Y138.867 E0.42769
G1 X269.277 Y139.514 F9000
G1 F2400
G1 X260.596 Y130.833 E0.4621
G1 X259.95 Y130.833 F9000
G1 F2400
G1 X269.277 Y140.16 E0.49651
G1 X269.277 Y140.806 F9000
G1 F2400
G1 X259.304 Y130.833 E0.53092
G1 X258.657 Y130.833 F9000
G1 F2400
G1 X269.277 Y141.453 E0.56533
G1 X269.277 Y142.099 F9000
G1 F2400
G1 X258.011 Y130.833 E0.59974
G1 X257.364 Y130.833 F9000
G1 F2400
G1 X269.277 Y142.746 E0.63415
G1 X269.277 Y143.392 F9000
G1 F2400
G1 X256.718 Y130.833 E0.66856
G1 X256.072 Y130.833 F9000
G1 F2400
G1 X269.277 Y144.038 E0.70297
G1 X269.277 Y144.685 F9000
G1 F2400
G1 X255.425 Y130.833 E0.73738
G1 X254.779 Y130.833 F9000
G1 F2400
G1 X269.277 Y145.331 E0.77179
G1 X269.277 Y145.978 F9000
G1 F2400
G1 X254.132 Y130.833 E0.8062
G1 X253.486 Y130.833 F9000
G1 F2400
G1 X269.277 Y146.624 E0.84061
G1 X269.277 Y147.27 F9000
G1 F2400
G1 X252.84 Y130.833 E0.87502
G1 X252.193 Y130.833 F9000
G1 F2400
G1 X269.277 Y147.917 E0.90943
G1 X269.277 Y148.563 F9000
G1 F2400
G1 X251.547 Y130.833 E0.94384
G1 X250.9 Y130.833 F9000
G1 F2400
G1 X269.277 Y149.21 E0.97825
G1 X269.277 Y149.856 F9000
G1 F2400
G1 X250.254 Y130.833 E1.01266
G1 X249.608 Y130.833 F9000
G1 F2400
G1 X269.277 Y150.502 E1.04707
G1 X269.277 Y151.149 F9000
G1 F2400
G1 X248.961 Y130.833 E1.08148
G1 X248.315 Y130.833 F9000
G1 F2400
G1 X269.277 Y151.795 E1.11589
G1 X269.277 Y152.442 F9000
G1 F2400
G1 X247.668 Y130.833 E1.1503
G1 X247.022 Y130.833 F9000
G1 F2400
G1 X269.277 Y153.088 E1.18471
G1 X269.277 Y153.735 F9000
G1 F2400
G1 X246.375 Y130.833 E1.21912
G1 X245.729 Y130.833 F9000
G1 F2400
G1 X269.277 Y154.381 E1.25353
G1 X269.277 Y155.027 F9000
G1 F2400
G1 X245.083 Y130.833 E1.28794
G1 X244.436 Y130.833 F9000
G1 F2400
G1 X269.277 Y155.674 E1.32235
G1 X269.277 Y156.32 F9000
G1 F2400
G1 X243.79 Y130.833 E1.35676
G1 X243.143 Y130.833 F9000
G1 F2400
G1 X269.277 Y156.967 E1.39117
G1 X269.277 Y157.613 F9000
G1 F2400
G1 X242.497 Y130.833 E1.42558
G1 X241.851 Y130.833 F9000
G1 F2400
G1 X269.277 Y158.259 E1.45999
G1 X269.277 Y158.906 F9000
G1 F2400
G1 X241.204 Y130.833 E1.4944
G1 X240.558 Y130.833 F9000
G1 F2400
G1 X269.277 Y159.552 E1.52881
G1 X269.277 Y160.199 F9000
G1 F2400
G1 X239.911 Y130.833 E1.56322
G1 X239.265 Y130.833 F9000
G1 F2400
G1 X269.277 Y160.845 E1.59763
G1 X269.277 Y161.491 F9000
G1 F2400
G1 X238.619 Y130.833 E1.63204
G1 X237.972 Y130.833 F9000
G1 F2400
G1 X269.277 Y162.138 E1.66645
G1 X269.277 Y162.784 F9000
G1 F2400
G1 X237.326 Y130.833 E1.70086
G1 X236.679 Y130.833 F9000
G1 F2400
G1 X269.277 Y163.431 E1.73527
G1 X269.277 Y164.077 F9000
G1 F2400
G1 X236.033 Y130.833 E1.76968
G1 X235.387 Y130.833 F9000
G1 F2400
G1 X244.946 Y140.392 E0.50888
G1 X244.3 Y140.392 F9000
G1 F2400
G1 X234.74 Y130.833 E0.50888
G1 X234.094 Y130.833 F9000
G1 F2400
G1 X243.653 Y140.392 E0.50888
G1 X243.007 Y140.392 F9000
G1 F2400
G1 X233.447 Y130.833 E0.50888
G1 X232.801 Y130.833 F9000
G1 F2400
G1 X242.361 Y140.392 E0.50888
G1 X241.714 Y140.392 F9000
G1 F2400
G1 X232.155 Y130.833 E0.50888
G1 X231.508 Y130.833 F9000
G1 F2400
G1 X241.068 Y140.392 E0.50888
G1 X240.421 Y140.392 F9000
G1 F2400
G1 X230.862 Y130.833 E0.50888
G1 X230.215 Y130.833 F9000
G1 F2400
G1 X239.775 Y140.392 E0.50888
G1 X239.128 Y140.392 F9000
G1 F2400
G1 X229.569 Y130.833 E0.50888
G1 X228.922 Y130.833 F9000
G1 F2400
G1 X238.482 Y140.392 E0.50888
G1 X237.836 Y140.392 F9000
G1 F2400
G1 X228.276 Y130.833 E0.50888
M73 P2 R179
G1 X227.63 Y130.833 F9000
G1 F2400
G1 X237.189 Y140.392 E0.50888
G1 X236.543 Y140.392 F9000
G1 F2400
G1 X226.983 Y130.833 E0.50888
G1 X226.337 Y130.833 F9000
G1 F2400
G1 X235.896 Y140.392 E0.50888
G1 X235.25 Y140.392 F9000
G1 F2400
G1 X225.69 Y130.833 E0.50888
G1 X225.044 Y130.833 F9000
G1 F2400
G1 X234.604 Y140.392 E0.50888
M73 P2 R179
G1 X233.957 Y140.392 F9000
G1 F2400
G1 X224.398 Y130.833 E0.50888
G1 X223.751 Y130.833 F9000
G1 F2400
G1 X233.311 Y140.392 E0.50888
G1 X232.664 Y140.392 F9000
G1 F2400
G1 X223.105 Y130.833 E0.50888
G1 X222.458 Y130.833 F9000
G1 F2400
G1 X232.018 Y140.392 E0.50888
G1 X231.372 Y140.392 F9000
G1 F2400
G1 X221.812 Y130.833 E0.50888
G1 X221.166 Y130.833 F9000
G1 F2400
G1 X230.725 Y140.392 E0.50888
G1 X230.079 Y140.392 F9000
G1 F2400
G1 X220.519 Y130.833 E0.50888
G1 X219.873 Y130.833 F9000
G1 F2400
G1 X229.432 Y140.392 E0.50888
G1 X228.786 Y140.392 F9000
G1 F2400
G1 X219.226 Y130.833 E0.50888
G1 X218.58 Y130.833 F9000
G1 F2400
G1 X228.14 Y140.392 E0.50888
G1 X227.493 Y140.392 F9000
G1 F2400
G1 X217.934 Y130.833 E0.50888
G1 X217.287 Y130.833 F9000
G1 F2400
G1 X227.243 Y140.789 E0.52998
G1 X227.243 Y141.435 F9000
G1 F2400
G1 X216.641 Y130.833 E0.56439
G1 X215.994 Y130.833 F9000
G1 F2400
G1 X227.243 Y142.082 E0.5988
G1 X227.243 Y142.728 F9000
G1 F2400
G1 X215.348 Y130.833 E0.63321
G1 X214.702 Y130.833 F9000
G1 F2400
G1 X227.243 Y143.374 E0.66762
G1 X227.243 Y144.021 F9000
G1 F2400
G1 X214.055 Y130.833 E0.70203
G1 X213.409 Y130.833 F9000
G1 F2400
G1 X227.243 Y144.667 E0.73644
G1 X227.243 Y145.314 F9000
G1 F2400
G1 X212.762 Y130.833 E0.77085
G1 X212.116 Y130.833 F9000
G1 F2400
G1 X227.243 Y145.96 E0.80526
G1 X227.243 Y146.606 F9000
G1 F2400
G1 X221.429 Y140.792 E0.30949
G1 X221.429 Y141.439 F9000
G1 F2400
G1 X227.243 Y147.253 E0.30949
G1 X227.243 Y147.899 F9000
G1 F2400
G1 X221.429 Y142.085 E0.30949
G1 X221.429 Y142.732 F9000
G1 F2400
G1 X227.243 Y148.546 E0.30949
G1 X227.243 Y149.192 F9000
G1 F2400
G1 X221.429 Y143.378 E0.30949
G1 X221.429 Y144.025 F9000
G1 F2400
G1 X227.243 Y149.838 E0.30949
G1 X227.243 Y150.485 F9000
G1 F2400
G1 X221.429 Y144.671 E0.30949
G1 X221.429 Y145.317 F9000
G1 F2400
G1 X227.243 Y151.131 E0.30949
G1 X227.243 Y151.778 F9000
G1 F2400
G1 X221.429 Y145.964 E0.30949
G1 X221.429 Y146.61 F9000
G1 F2400
G1 X227.243 Y152.424 E0.30949
G1 X227.243 Y153.07 F9000
G1 F2400
G1 X221.429 Y147.257 E0.30949
G1 X221.429 Y147.903 F9000
G1 F2400
G1 X227.243 Y153.717 E0.30949
G1 X227.243 Y154.363 F9000
G1 F2400
G1 X221.429 Y148.549 E0.30949
G1 X221.429 Y149.196 F9000
G1 F2400
G1 X227.243 Y155.01 E0.30949
G1 X227.243 Y155.656 F9000
G1 F2400
G1 X221.429 Y149.842 E0.30949
G1 X221.429 Y150.489 F9000
G1 F2400
G1 X227.243 Y156.302 E0.30949
G1 X227.243 Y156.949 F9000
G1 F2400
G1 X221.429 Y151.135 E0.30949
G1 X221.429 Y151.781 F9000
G1 F2400
G1 X227.243 Y157.595 E0.30949
G1 X227.243 Y158.242 F9000
G1 F2400
G1 X221.429 Y152.428 E0.30949
G1 X221.429 Y153.074 F9000
G1 F2400
G1 X227.243 Y158.888 E0.30949
G1 X227.243 Y159.535 F9000
G1 F2400
G1 X221.429 Y153.721 E0.30949
G1 E-1 F3000
G1 X245.188 Y140.634 F9000
G1 E1 F1800
G1 F2400
G1 X269.277 Y164.723 E1.28234
G1 X269.277 Y165.37 F9000
G1 F2400
G1 X245.188 Y141.28 E1.28234
G1 X245.188 Y141.927 F9000
G1 F2400
G1 X269.277 Y166.016 E1.28234
G1 X269.277 Y166.663 F9000
G1 F2400
G1 X245.188 Y142.573 E1.28234
G1 X245.188 Y143.22 F9000
G1 F2400
G1 X269.277 Y167.309 E1.28234
G1 X269.277 Y167.955 F9000
G1 F2400
G1 X245.188 Y143.866 E1.28234
G1 X245.188 Y144.512 F9000
G1 F2400
G1 X269.277 Y168.602 E1.28234
G1 X269.196 Y169.167 F9000
G1 F2400
G1 X245.188 Y145.159 E1.27803
G1 X245.188 Y145.805 F9000
G1 F2400
G1 X268.55 Y169.167 E1.24362
G1 X267.903 Y169.167 F9000
G1 F2400
G1 X245.188 Y146.452 E1.20921
G1 X245.188 Y147.098 F9000
G1 F2400
G1 X267.257 Y169.167 E1.1748
G1 X266.611 Y169.167 F9000
G1 F2400
G1 X245.188 Y147.745 E1.14039
G1 X245.188 Y148.391 F9000
G1 F2400
G1 X265.964 Y169.167 E1.10598
G1 X265.318 Y169.167 F9000
G1 F2400
G1 X245.188 Y149.037 E1.07157
G1 X245.188 Y149.684 F9000
G1 F2400
G1 X264.671 Y169.167 E1.03716
G1 X264.025 Y169.167 F9000
G1 F2400
G1 X245.188 Y150.33 E1.00275
G1 X245.188 Y150.977 F9000
G1 F2400
