; generated by SuperSlicer 2.4 on 2022-08-23 at 16:37:52 UTC


;
;

;
;
; 

; external perimeters extrusion width = 0.40mm
; perimeters extrusion width = 0.45mm
; infill extrusion width = 0.72mm
; solid infill extrusion width = 0.56mm
; top infill extrusion width = 0.40mm
; support material extrusion width = 0.42mm
; first layer extrusion width = 0.48mm

; object:{"name":"PDock","id":"PDock.stl id:0 copy 0","object_center":[152.500001,150.000000,0.000000],"boundingbox_center":[152.500001,150.000000,22.500000],"boundingbox_size":[67.067265,58.612720,45.000000]}
; plater:{"center":[152.500001,150.000000,0.000000],"boundingbox_center":[152.500001,150.000000,22.500000],"boundingbox_size":[67.067265,58.612720,45.000000]}

M73 P0 R106
;TYPE:Custom
START_PRINT T_BED=60 T_EXTRUDER=200
M107
G21 ; set units to millimeters
G90 ; use absolute coordinates
M83 ; use relative distances for extrusion
; Filament gcode
M104 S200 ; set temperature
M109 S200 ; set temperature and wait for it to be reached
M190 S60 ; set bed temperature and wait for it to be reached
M107
;LAYER_CHANGE
;Z:0.2
;HEIGHT:0.2
G1 Z0.2 F9000
G92 E0
G1 E-0.8 F3000
M204 S1000
G1 X116.609 Y119.159 F9000
G1 E0.8 F1800
;TYPE:Skirt
;WIDTH:0.52
G1 X116.018 Y120.047 E0.04146
G1 X115.725 Y120.689 E0.02746
G1 X115.44 Y121.717 E0.04146
G1 X115.372 Y123.141 E0.05541
G1 X115.683 Y124.602 E0.05807
G1 X132.776 Y170.902 E1.91871
G1 X133.634 Y172.243 E0.06188
G1 X147.143 Y185.751 E0.74267
G1 X148.104 Y186.444 E0.04607
G1 X149.77 Y186.839 E0.06657
G1 X158.607 Y186.839 E0.34354
G1 X159.777 Y186.65 E0.04607
G1 X161.234 Y185.751 E0.06657
G1 X164.611 Y182.374 E0.18567
G1 X165.307 Y181.408 E0.04628
G1 X168.796 Y174.408 E0.30407
G1 X189.266 Y124.73 E2.08878
G1 X189.527 Y123.84 E0.03607
G1 X189.645 Y122.78 E0.04146
G1 X189.611 Y122.074 E0.02746
G1 X189.393 Y121.031 E0.04146
G1 X188.982 Y120.047 E0.04146
G1 X188.155 Y118.886 E0.05541
G1 X187.36 Y118.175 E0.04146
G1 X186.444 Y117.628 E0.04146
G1 X185.151 Y117.19 E0.05309
G1 X166.116 Y113.238 E0.75576
G1 X165.361 Y113.161 E0.02952
G1 X139.639 Y113.161 E0.99998
G1 X138.883 Y113.238 E0.02952
G1 X119.211 Y117.365 E0.78142
G1 X118.235 Y117.793 E0.04146
G1 X117.64 Y118.175 E0.02746
G1 X116.609 Y119.159 E0.05541
G1 X116.969 Y119.471 F9000
G1 F1800
G1 X116.432 Y120.285 E0.03793
G1 X116.176 Y120.845 E0.02394
G1 X115.913 Y121.785 E0.03793
G1 X115.849 Y123.118 E0.05188
G1 X116.131 Y124.437 E0.05241
G1 X133.224 Y170.737 E1.91871
G1 X133.972 Y171.905 E0.05394
G1 X147.48 Y185.413 E0.74267
G1 X148.222 Y185.968 E0.03602
G1 X149.77 Y186.362 E0.06209
G1 X158.607 Y186.362 E0.34354
G1 X159.524 Y186.229 E0.03602
G1 X160.897 Y185.413 E0.06209
G1 X164.274 Y182.036 E0.18567
G1 X164.881 Y181.195 E0.04033
G1 X168.355 Y174.226 E0.30272
G1 X188.825 Y124.549 E2.08878
G1 X189.063 Y123.728 E0.03324
G1 X189.168 Y122.757 E0.03793
G1 X189.139 Y122.142 E0.02394
G1 X188.942 Y121.187 E0.03793
G1 X188.568 Y120.285 E0.03794
G1 X187.794 Y119.198 E0.05189
G1 X187.065 Y118.55 E0.03794
G1 X186.226 Y118.052 E0.03793
G1 X185.054 Y117.658 E0.04807
G1 X166.019 Y113.705 E0.75576
G1 X165.361 Y113.638 E0.02573
G1 X139.639 Y113.638 E0.99998
G1 X138.98 Y113.705 E0.02573
G1 X119.346 Y117.823 E0.77992
G1 X118.453 Y118.217 E0.03793
G1 X117.935 Y118.55 E0.02394
G1 X116.969 Y119.471 E0.05189
G1 E-0.8 F3000
; printing object PDock.stl id:0 copy 0
G1 X146.113 Y166.915 F9000
G1 E0.8 F1800
;TYPE:Support material interface
;WIDTH:0.48

G1 X148.81 Y166.915 E0.09607
G1 X146.031 Y171.716 E0.19758
G1 X146.372 Y172.307 E0.02431
G1 X146.509 Y172.545 E0.00976
G1 X146.539 Y172.527 E0.00122
G1 X146.754 Y172.899 E0.01529
G1 X147.164 Y173.61 E0.02921
G1 X145.776 Y173.61 E0.04943
G1 X145.776 Y167.499 E0.21763
G1 X146.072 Y166.986 E0.02108
G1 X146.113 Y166.915 E0.00292
G1 E-0.8 F3000
G1 X146.585 Y172.825 F9000
G1 E0.8 F1800

G1 X146.073 Y172.825 E0.01822
G1 X146.073 Y173.311 E0.0173
G1 X146.865 Y173.311 E0.02821
G1 E-0.8 F3000
G1 X148.355 Y167.483 F9000
G1 E0.8 F1800

G1 X146.128 Y167.483 E0.07932
G1 X146.073 Y167.579 E0.00393
G1 X146.073 Y167.969 E0.01389
G1 X147.857 Y167.969 E0.06354
G1 X147.576 Y168.454 E0.01999
G1 X146.073 Y168.454 E0.05352
G1 X146.073 Y168.94 E0.0173
G1 X147.295 Y168.94 E0.04351
G1 X147.013 Y169.426 E0.01999
G1 X146.073 Y169.426 E0.0335
G1 X146.073 Y169.911 E0.0173
G1 X146.732 Y169.911 E0.02348
G1 X146.451 Y170.397 E0.01999
G1 X146.073 Y170.397 E0.01347
G1 X146.073 Y170.883 E0.0173
G1 X146.387 Y170.883 E0.01119
G1 E-0.8 F3000
G1 X151.607 Y172.448 F9000
G1 E0.8 F1800

G1 X152.039 Y171.701 E0.03073
G1 X152.47 Y170.954 E0.03073
G1 X152.47 Y172.947 E0.07097
G1 X151.607 Y172.448 E0.03548
G1 X152.361 Y172.34 F9000
G1 F1800
G1 X151.796 Y172.34 E0.02011
G1 E-0.8 F3000
G1 X152.887 Y170.232 F9000
G1 E0.8 F1800

G1 X153.839 Y168.583 E0.06782
G1 X154.091 Y168.729 E0.01038
G1 X154.517 Y168.975 E0.01751
G1 X155.368 Y169.466 E0.03501
G1 X155.794 Y169.712 E0.01751
G1 X155.847 Y169.743 E0.00219
G1 X155.847 Y170.232 E0.01743
G1 X152.887 Y170.232 E0.10544
G1 E-0.8 F3000
G1 X155.079 Y169.426 F9000
G1 E0.8 F1800

G1 X153.696 Y169.426 E0.04928
G1 X153.415 Y169.911 E0.01997
G1 X155.738 Y169.911 E0.08272
G1 X156.524 Y170.353 F9000
;TYPE:Support material
G1 F1800
G1 X156.635 Y170.417 E0.00455
G1 X157.039 Y170.651 E0.01664
G1 X157.444 Y170.884 E0.01664
G1 X158.546 Y171.521 E0.04533
G1 X159.393 Y171.294 E0.03123
G1 X159.81 Y170.571 E0.02972
G1 X160.058 Y170.141 E0.01767
G1 X160.306 Y169.712 E0.01767
G1 X160.554 Y169.282 E0.01767
G1 X160.802 Y168.852 E0.01767
G1 X161.05 Y168.423 E0.01767
G1 X161.298 Y167.993 E0.01767
G1 X161.546 Y167.564 E0.01767
G1 X161.794 Y167.134 E0.01767
G1 X162.043 Y166.704 E0.01767
G1 X162.291 Y166.275 E0.01767
G1 X162.539 Y165.845 E0.01767
G1 X162.787 Y165.416 E0.01767
G1 X163.035 Y164.986 E0.01767
G1 X163.283 Y164.556 E0.01767
G1 X163.514 Y164.155 E0.01649
G1 X165.361 Y164.155 E0.06578
G1 X165.361 Y172.992 E0.31474
G1 X161.984 Y172.992 E0.12028
G1 X161.984 Y179.746 E0.24056
G1 X158.607 Y179.746 E0.12028
G1 X158.607 Y183.123 E0.12028
G1 X149.77 Y183.123 E0.31474
G1 X149.77 Y178.567 E0.1623
G1 X150.231 Y179.214 E0.02833
G1 X150.297 Y179.291 E0.00359
G1 X150.632 Y179.609 E0.01645
G1 X150.711 Y179.672 E0.00359
G1 X151.1 Y179.922 E0.01645
G1 X151.146 Y179.945 E0.00185
G1 X151.189 Y179.968 E0.00174
G1 X151.447 Y180.071 E0.00988
G1 X151.618 Y180.139 E0.00657
G1 X151.715 Y180.168 E0.00359
G1 X152.169 Y180.255 E0.01645
G1 X152.269 Y180.265 E0.00359
G1 X152.731 Y180.265 E0.01645
G1 X152.831 Y180.255 E0.00359
G1 X153.285 Y180.168 E0.01645
G1 X153.382 Y180.139 E0.00359
G1 X153.467 Y180.105 E0.00328
G1 X153.811 Y179.968 E0.01317
G1 X153.9 Y179.922 E0.00359
G1 X154.289 Y179.672 E0.01645
G1 X154.368 Y179.609 E0.00359
G1 X154.703 Y179.291 E0.01645
G1 X154.769 Y179.214 E0.00359
G1 X155.025 Y178.855 E0.01573
G1 X155.052 Y178.812 E0.00179
G1 X155.312 Y178.362 E0.01854
G1 X155.562 Y177.929 E0.01781
G1 X155.812 Y177.496 E0.01781
G1 X156.062 Y177.063 E0.01781
G1 X156.312 Y176.63 E0.01781
G1 X156.731 Y175.903 E0.02986
G1 X156.504 Y175.056 E0.03123
G1 X155.807 Y174.654 E0.02869
G1 X155.402 Y174.42 E0.01664
G1 X154.998 Y174.187 E0.01664
G1 X153.784 Y173.486 E0.04991
G1 X153.38 Y173.252 E0.01664
G1 X153.147 Y173.118 E0.00957
G1 X153.147 Y170.91 E0.07866
G1 X156.524 Y170.91 E0.12028
G1 X156.524 Y170.353 E0.01981
G1 E-0.8 F3000
G1 X164.641 Y172.883 F9000
G1 E0.8 F1800
G1 X164.641 Y164.453 E0.30026
G1 X164.155 Y164.453 E0.0173
G1 X164.155 Y172.695 E0.29357
G1 X163.67 Y172.695 E0.0173
G1 X163.67 Y164.48 E0.29258
G1 X163.54 Y164.705 E0.00924
G1 X163.292 Y165.135 E0.01767
G1 X163.184 Y165.321 E0.00769
G1 X163.184 Y172.695 E0.26262
G1 X162.699 Y172.695 E0.0173
G1 X162.699 Y166.163 E0.23266
G1 X162.548 Y166.423 E0.01073
G1 X162.3 Y166.853 E0.01767
G1 X162.213 Y167.004 E0.0062
G1 X162.213 Y172.695 E0.20271
G1 X161.727 Y172.695 E0.0173
G1 X161.727 Y167.845 E0.17275
G1 X161.556 Y168.142 E0.01221
G1 X161.308 Y168.571 E0.01767
G1 X161.242 Y168.686 E0.00471
G1 X161.242 Y179.449 E0.38335
G1 X160.756 Y179.449 E0.0173
G1 X160.756 Y169.527 E0.35339
G1 X160.564 Y169.86 E0.0137
G1 X160.316 Y170.29 E0.01767
G1 X160.27 Y170.368 E0.00323
G1 X160.27 Y179.449 E0.32343
G1 X159.785 Y179.449 E0.0173
G1 X159.785 Y171.21 E0.29347
G1 X159.589 Y171.549 E0.01395
G1 X159.299 Y171.626 E0.01068
G1 X159.299 Y179.449 E0.27862
G1 X158.813 Y179.449 E0.0173
G1 X158.813 Y171.757 E0.27398
G1 X158.504 Y171.839 E0.01141
G1 X158.328 Y171.738 E0.00725
G1 X158.328 Y179.449 E0.27465
G1 X158.31 Y179.449 E0.00064
G1 X158.31 Y182.826 E0.12028
G1 X157.842 Y182.826 E0.01666
G1 X157.842 Y171.457 E0.40492
G1 X157.356 Y171.177 E0.01997
G1 X157.356 Y182.826 E0.41491
G1 X156.871 Y182.826 E0.0173
G1 X156.871 Y170.897 E0.42489
G1 X156.821 Y170.868 E0.00203
G1 X156.821 Y171.207 E0.01206
G1 X156.385 Y171.207 E0.01554
G1 X156.385 Y174.644 E0.12243
G1 X155.955 Y174.396 E0.01767
G1 X155.9 Y174.364 E0.0023
G1 X155.9 Y171.207 E0.11245
G1 X155.414 Y171.207 E0.0173
G1 X155.414 Y174.084 E0.10246
G1 X155.146 Y173.929 E0.011
G1 X154.928 Y173.803 E0.00898
G1 X154.928 Y171.207 E0.09247
G1 X154.443 Y171.207 E0.0173
G1 X154.443 Y173.523 E0.08249
G1 X153.957 Y173.242 E0.01997
G1 X153.957 Y171.207 E0.0725
G1 X153.471 Y171.207 E0.0173
G1 X153.471 Y173.179 E0.07024
G1 E-0.8 F3000
G1 X156.385 Y183.014 F9000
G1 E0.8 F1800
G1 X156.385 Y177.098 E0.21073
G1 X156.32 Y177.211 E0.00467
G1 X156.07 Y177.644 E0.01781
G1 X155.9 Y177.939 E0.01211
G1 X155.9 Y182.826 E0.17407
G1 X155.414 Y182.826 E0.0173
G1 X155.414 Y178.78 E0.14411
G1 X155.306 Y178.967 E0.0077
G1 X155.271 Y179.021 E0.0023
G1 X155.002 Y179.398 E0.01648
G1 X154.928 Y179.484 E0.00404
G1 X154.928 Y182.826 E0.11904
G1 X154.443 Y182.826 E0.0173
G1 X154.443 Y179.926 E0.10328
G1 X154.049 Y180.179 E0.01666
G1 X153.957 Y180.227 E0.00369
G1 X153.957 Y182.826 E0.09259
G1 X153.471 Y182.826 E0.0173
G1 X153.471 Y180.423 E0.0856
G1 X153.355 Y180.457 E0.00431
G1 X152.986 Y180.528 E0.0134
G1 X152.986 Y182.826 E0.08185
G1 X152.5 Y182.826 E0.0173
G1 X152.5 Y180.562 E0.08064
G1 X152.255 Y180.562 E0.00873
G1 X152.126 Y180.55 E0.0046
G1 X152.014 Y180.528 E0.00406
G1 X152.014 Y182.826 E0.08185
G1 X151.529 Y182.826 E0.0173
G1 X151.529 Y180.423 E0.0856
G1 X151.337 Y180.347 E0.00736
G1 X151.066 Y180.238 E0.01039
G1 X151.043 Y180.227 E0.00091
G1 X151.043 Y182.826 E0.09259
G1 X150.557 Y182.826 E0.0173
G1 X150.557 Y179.926 E0.10328
G1 X150.538 Y179.914 E0.0008
G1 X150.437 Y179.834 E0.0046
G1 X150.072 Y179.486 E0.01797
G1 X150.072 Y183.014 E0.12566
G1 E-0.8 F3000
G1 X148.099 Y176.369 F9000
G1 E0.8 F1800
G1 X143.016 Y176.369 E0.18103
G1 X143.016 Y172.992 E0.12028
G1 X139.639 Y172.992 E0.12028
G1 X139.639 Y169.615 E0.12028
G1 X136.262 Y169.615 E0.12028
G1 X136.262 Y157.401 E0.43502
G1 X148.476 Y157.401 E0.43502
G1 X148.476 Y159.697 E0.08175
G1 X143.147 Y159.697 E0.18978
G1 X143.132 Y159.697 E0.00056
G1 X143.092 Y159.7 E0.00141
G1 X142.821 Y159.728 E0.00969
G1 X142.713 Y159.739 E0.00388
G1 X142.605 Y159.762 E0.00395
G1 X142.342 Y159.848 E0.00984
G1 X142.221 Y159.887 E0.00454
G1 X142.161 Y159.914 E0.00232
G1 X142.119 Y159.932 E0.00164
G1 X141.986 Y160.009 E0.00547
G1 X141.769 Y160.135 E0.00893
G1 X141.679 Y160.2 E0.00395
G1 X141.38 Y160.469 E0.01434
G1 X141.306 Y160.552 E0.00395
G1 X141.069 Y160.878 E0.01437
G1 X141.013 Y160.974 E0.00395
G1 X140.849 Y161.343 E0.01437
G1 X140.815 Y161.448 E0.00395
G1 X140.731 Y161.843 E0.01437
G1 X140.72 Y161.953 E0.00395
G1 X140.72 Y162.357 E0.01437
G1 X140.731 Y162.467 E0.00395
G1 X140.815 Y162.862 E0.01437
G1 X140.849 Y162.967 E0.00395
G1 X141.004 Y163.316 E0.01357
G1 X141.029 Y163.365 E0.00197
G1 X141.277 Y163.794 E0.01763
G1 X141.749 Y164.612 E0.03366
G1 X141.986 Y165.021 E0.01683
G1 X142.222 Y165.43 E0.01683
G1 X142.694 Y166.249 E0.03366
G1 X142.931 Y166.658 E0.01683
G1 X143.167 Y167.067 E0.01683
G1 X143.639 Y167.885 E0.03366
G1 X144.095 Y168.674 E0.03243
G1 X145.099 Y168.674 E0.03576
G1 X145.099 Y174.287 E0.19991
G1 X147.335 Y174.287 E0.07966
G1 X147.691 Y174.902 E0.02532
G1 X147.94 Y175.335 E0.01779
G1 X148.099 Y175.609 E0.01128
G1 X148.099 Y176.369 E0.02708
G1 E-0.8 F3000
G1 X148.129 Y159.587 F9000
G1 E0.8 F1800
G1 X148.129 Y157.698 E0.06728
G1 X147.644 Y157.698 E0.0173
G1 X147.644 Y159.399 E0.06058
G1 X147.158 Y159.399 E0.0173
G1 X147.158 Y157.698 E0.06058
G1 X146.672 Y157.698 E0.0173
G1 X146.672 Y159.399 E0.06058
G1 X146.187 Y159.399 E0.0173
G1 X146.187 Y157.698 E0.06058
G1 X145.701 Y157.698 E0.0173
G1 X145.701 Y159.399 E0.06058
G1 X145.215 Y159.399 E0.0173
G1 X145.215 Y157.698 E0.06058
M73 P1 R105
G1 X144.73 Y157.698 E0.0173
G1 X144.73 Y159.399 E0.06058
G1 X144.244 Y159.399 E0.0173
G1 X144.244 Y157.698 E0.06058
G1 X143.758 Y157.698 E0.0173
G1 X143.758 Y159.399 E0.06058
G1 X143.273 Y159.399 E0.0173
G1 X143.273 Y157.698 E0.06058
G1 X142.787 Y157.698 E0.0173
G1 X142.787 Y159.433 E0.06177
G1 X142.667 Y159.445 E0.00432
G1 X142.528 Y159.475 E0.00506
G1 X142.301 Y159.548 E0.00847
G1 X142.301 Y157.698 E0.06589
G1 X141.816 Y157.698 E0.0173
G1 X141.816 Y159.764 E0.07358
G1 X141.607 Y159.885 E0.00859
G1 X141.492 Y159.969 E0.00506
G1 X141.33 Y160.114 E0.00776
G1 X141.33 Y157.698 E0.08605
G1 X140.845 Y157.698 E0.0173
G1 X140.845 Y160.681 E0.10624
G1 X140.819 Y160.716 E0.00153
G1 X140.748 Y160.839 E0.00506
G1 X140.571 Y161.236 E0.01548
G1 X140.528 Y161.371 E0.00506
G1 X140.437 Y161.797 E0.01548
G1 X140.422 Y161.938 E0.00506
G1 X140.422 Y162.373 E0.01548
G1 X140.437 Y162.514 E0.00506
G1 X140.528 Y162.939 E0.01548
G1 X140.571 Y163.074 E0.00506
G1 X140.736 Y163.444 E0.0144
G1 X140.768 Y163.507 E0.00253
G1 X140.845 Y163.639 E0.00544
G1 X140.845 Y172.695 E0.32254
G1 X141.33 Y172.695 E0.0173
G1 X141.33 Y164.48 E0.29258
G1 X141.492 Y164.761 E0.01153
G1 X141.728 Y165.17 E0.01683
G1 X141.816 Y165.321 E0.00624
G1 X141.816 Y172.695 E0.26262
G1 X142.301 Y172.695 E0.0173
G1 X142.301 Y166.163 E0.23266
G1 X142.437 Y166.397 E0.00966
G1 X142.673 Y166.807 E0.01683
G1 X142.787 Y167.004 E0.00811
G1 X142.787 Y172.695 E0.2027
G1 X143.273 Y172.695 E0.0173
G1 X143.273 Y167.845 E0.17275
G1 X143.382 Y168.034 E0.00778
G1 X143.758 Y168.686 E0.02681
G1 X143.758 Y176.072 E0.26307
G1 X144.244 Y176.072 E0.0173
G1 X144.244 Y168.971 E0.25291
M73 P1 R105
G1 X144.73 Y168.971 E0.0173
G1 X144.73 Y176.072 E0.25291
G1 X145.215 Y176.072 E0.0173
G1 X145.215 Y174.584 E0.053
G1 X145.701 Y174.584 E0.0173
G1 X145.701 Y176.072 E0.053
G1 X146.187 Y176.072 E0.0173
G1 X146.187 Y174.584 E0.053
G1 X146.672 Y174.584 E0.0173
G1 X146.672 Y176.072 E0.053
G1 X147.158 Y176.072 E0.0173
G1 X147.158 Y174.584 E0.053
G1 X147.164 Y174.584 E0.0002
G1 X147.433 Y175.051 E0.0192
G1 X147.644 Y175.415 E0.01499
G1 X147.644 Y176.26 E0.03009
G1 E-0.8 F3000
G1 X140.359 Y172.883 F9000
G1 E0.8 F1800
G1 X140.359 Y157.698 E0.54082
G1 X139.873 Y157.698 E0.0173
G1 X139.873 Y169.318 E0.41385
G1 X139.388 Y169.318 E0.0173
G1 X139.388 Y157.698 E0.41385
G1 X138.902 Y157.698 E0.0173
G1 X138.902 Y169.318 E0.41385
G1 X138.416 Y169.318 E0.0173
G1 X138.416 Y157.698 E0.41385
G1 X137.931 Y157.698 E0.0173
G1 X137.931 Y169.318 E0.41385
G1 X137.445 Y169.318 E0.0173
G1 X137.445 Y157.698 E0.41385
G1 X136.959 Y157.698 E0.0173
G1 X136.959 Y169.506 E0.42054
G1 E-0.8 F3000
G1 X146.723 Y166.238 F9000
G1 E0.8 F1800
G1 X146.937 Y165.868 E0.01522
G1 X147.17 Y165.464 E0.01663
G1 X147.243 Y165.337 E0.0052
G1 X147.392 Y165.081 E0.01055
G1 X147.836 Y165.337 E0.01828
G1 X148.261 Y165.583 E0.01747
G1 X148.476 Y165.707 E0.00883
G1 X148.476 Y166.238 E0.01894
G1 X146.723 Y166.238 E0.06242
G1 X148.129 Y166.129 F9000
G1 F1800
G1 X148.129 Y165.85 E0.00995
G1 X148.112 Y165.84 E0.00069
G1 X147.687 Y165.595 E0.01747
G1 X147.644 Y165.569 E0.0018
G1 X147.644 Y166.129 E0.01993
G1 E-0.8 F3000
G1 X147.644 Y119.735 F9000
G1 E0.8 F1800
G1 X139.639 Y119.735 E0.2851
G1 X139.639 Y116.876 E0.10182
G1 X165.361 Y116.876 E0.91613
G1 X165.361 Y119.735 E0.10182
G1 X147.644 Y119.735 E0.63104
G1 X164.641 Y119.626 F9000
G1 F1800
G1 X164.641 Y117.174 E0.08734
G1 X164.155 Y117.174 E0.0173
G1 X164.155 Y119.438 E0.08065
G1 X163.67 Y119.438 E0.0173
G1 X163.67 Y117.174 E0.08065
G1 X163.184 Y117.174 E0.0173
G1 X163.184 Y119.438 E0.08065
G1 X162.699 Y119.438 E0.0173
