; generated by SuperSlicer 2.3.57 on 2022-03-24 at 14:14:48 UTC


;
;

;
;
; 

; external perimeters extrusion width = 0.40mm
; perimeters extrusion width = 0.45mm
; infill extrusion width = 0.72mm
; solid infill extrusion width = 0.56mm
; top infill extrusion width = 0.40mm
; support material extrusion width = 0.42mm
; first layer extrusion width = 0.48mm

; external perimeters extrusion width = 0.40mm
; perimeters extrusion width = 0.45mm
; infill extrusion width = 0.72mm
; solid infill extrusion width = 0.56mm
; top infill extrusion width = 0.40mm
; support material extrusion width = 0.42mm
; first layer extrusion width = 0.48mm

; external perimeters extrusion width = 0.16mm
; perimeters extrusion width = 0.16mm
; infill extrusion width = 0.72mm
; solid infill extrusion width = 0.56mm
; top infill extrusion width = 0.40mm
; support material extrusion width = 0.42mm
; first layer extrusion width = 0.48mm

; object:{"name":"AVA_Barrel_Band2","id":"AVA_Barrel_Band2.stl id:0 copy 0","object_center":[152.500000,150.000000,0.000000],"boundingbox_center":[152.500000,150.000000,8.998000],"boundingbox_size":[30.000000,62.994003,17.996000]}
; plater:{"center":[152.500000,150.000000,0.000000],"boundingbox_center":[152.500000,150.000000,8.998000],"boundingbox_size":[30.000000,62.994003,17.996000]}

;TYPE:Custom
START_PRINT T_BED=70 T_EXTRUDER=230
M107
G21 ; set units to millimeters
G90 ; use absolute coordinates
M83 ; use relative distances for extrusion
; Filament gcode
M104 S230 ; set temperature
M109 S230 ; set temperature and wait for it to be reached
M190 S70 ; set bed temperature and wait for it to be reached
;LAYER_CHANGE
;Z:0.24
;HEIGHT:0.24
G1 Z0.24 F9000
G1 E-1 F3000
G1 X144.283 Y117.571 F9000
G1 E1 F1800
; External perimeter
;Skirt
SET_VELOCITY_LIMIT ACCEL=300 ACCEL_TO_DECEL=3000 SQUARE_CORNER_VELOCITY=5

; Support material

;TYPE:Skirt
;WIDTH:0.48
G1 X137.87 Y126.51 E0.47036
G1 X136.784 Y128.242 E0.08741
G1 X135.847 Y130.161 E0.09133
G1 X135.201 Y132.068 E0.08608
G1 X134.642 Y134.81 E0.11963
G1 X134.497 Y136.985 E0.09321
G1 X134.497 Y163.03 E1.11358
G1 X134.577 Y164.632 E0.06856
G1 X134.912 Y166.763 E0.09225
G1 X135.591 Y169.149 E0.10604
G1 X136.795 Y171.775 E0.12351
G1 X137.856 Y173.47 E0.08553
G1 X144.307 Y182.458 E0.47302
G1 X145.182 Y183.348 E0.05338
G1 X145.81 Y183.798 E0.033
G1 X146.473 Y184.091 E0.031
G1 X147.856 Y184.468 E0.0613
G1 X156.989 Y184.484 E0.39048
G1 X157.601 Y184.375 E0.02658
G1 X158.745 Y184.012 E0.05132
G1 X159.305 Y183.732 E0.02678
G1 X159.805 Y183.362 E0.02658
G1 X160.726 Y182.417 E0.05641
G1 X167.147 Y173.466 E0.471
G1 X168.253 Y171.693 E0.08935
G1 X169.443 Y169.038 E0.12438
G1 X170.147 Y166.502 E0.11255
G1 X170.429 Y164.577 E0.08317
G1 X170.503 Y163.007 E0.06717
G1 X170.502 Y136.935 E1.11472
G1 X170.351 Y134.762 E0.09315
G1 X169.827 Y132.157 E0.11361
G1 X169.083 Y130.003 E0.09743
G1 X168.27 Y128.338 E0.0792
G1 X167.254 Y126.695 E0.08263
G1 X160.631 Y117.457 E0.48598
G1 X160.032 Y116.858 E0.03621
G1 X158.751 Y115.971 E0.06663
G1 X157.944 Y115.686 E0.03661
G1 X156.659 Y115.5 E0.05549
G1 X147.896 Y115.528 E0.37467
G1 X146.938 Y115.715 E0.04171
G1 X146.305 Y115.944 E0.02879
G1 X145.772 Y116.254 E0.02638
G1 X144.822 Y116.98 E0.05112
G1 X144.323 Y117.527 E0.03164
G1 X144.638 Y117.814 F9000
G1 F1800
G1 X138.218 Y126.759 E0.47074
G1 X137.156 Y128.454 E0.08553
G1 X136.242 Y130.328 E0.08916
G1 X135.608 Y132.202 E0.08459
G1 X135.067 Y134.865 E0.11617
G1 X134.926 Y136.986 E0.09089
G1 X134.926 Y163.023 E1.11322
G1 X135.002 Y164.577 E0.06652
G1 X135.322 Y166.638 E0.08916
G1 X135.991 Y168.994 E0.10471
G1 X137.163 Y171.555 E0.12044
G1 X138.205 Y173.222 E0.08406
G1 X144.643 Y182.192 E0.47204
G1 X145.105 Y182.704 E0.02949
G1 X146.022 Y183.426 E0.04991
G1 X146.604 Y183.683 E0.02723
G1 X147.906 Y184.043 E0.05775
G1 X156.933 Y184.059 E0.38595
G1 X157.487 Y183.962 E0.02402
G1 X158.578 Y183.618 E0.04894
G1 X159.077 Y183.369 E0.02383
G1 X159.525 Y183.037 E0.02383
G1 X160.378 Y182.167 E0.05211
G1 X166.795 Y173.222 E0.47066
G1 X167.877 Y171.486 E0.08747
G1 X169.034 Y168.909 E0.12077
G1 X169.728 Y166.412 E0.11081
G1 X170.004 Y164.523 E0.08162
G1 X170.074 Y163.007 E0.06489
G1 X170.074 Y136.945 E1.1143
G1 X169.927 Y134.825 E0.09085
G1 X169.42 Y132.291 E0.11046
G1 X168.694 Y130.184 E0.09531
G1 X167.894 Y128.543 E0.07804
G1 X166.89 Y126.922 E0.08154
G1 X160.308 Y117.74 E0.48301
G1 X159.773 Y117.2 E0.0325
G1 X158.57 Y116.36 E0.06273
G1 X157.85 Y116.104 E0.03268
G1 X156.659 Y115.929 E0.0515
G1 X147.968 Y115.951 E0.37158
G1 X147.057 Y116.127 E0.03967
G1 X146.487 Y116.333 E0.02591
G1 X145.107 Y117.3 E0.07205
G1 X144.678 Y117.77 E0.02719
; INIT printing object AVA_Barrel_Band2.stl id:0 copy 0
G1 E-1 F3000
; printing object AVA_Barrel_Band2.stl id:0 copy 0
G1 X139.963 Y143.871 F9000
G1 E1 F1800
; External perimeter
;Perimeter
SET_VELOCITY_LIMIT ACCEL=2000 ACCEL_TO_DECEL=2000 SQUARE_CORNER_VELOCITY=5

; Overhang perimeter

;TYPE:Internal perimeter
G1 X140.799 Y145.246 E0.06881
G1 X141.388 Y146.003 E0.04098
G1 X141.791 Y146.488 E0.02699
G1 X143.085 Y147.766 E0.07776
G1 X143.593 Y148.197 E0.02849
G1 X145.089 Y149.233 E0.07777
G1 X145.664 Y149.567 E0.02847
G1 X146.599 Y150 E0.04404
G1 X145.664 Y150.433 E0.04404
G1 X145.089 Y150.767 E0.02847
G1 X143.593 Y151.803 E0.07777
G1 X143.085 Y152.234 E0.02849
G1 X141.808 Y153.495 E0.07674
G1 X141.477 Y153.87 E0.02139
G1 X140.889 Y154.626 E0.04096
G1 X140.616 Y155.046 E0.02137
G1 X139.966 Y156.152 E0.05488
G1 X139.665 Y156.07 E0.0133
G1 X139.665 Y143.954 E0.51802
G1 X139.905 Y143.887 E0.01063
G1 X139.571 Y158.038 F9000
G1 F1800
G1 X139.237 Y157.977 E0.01453
G1 X139.237 Y142.072 E0.68005
G1 X139.558 Y142.003 E0.01406
G1 X140.219 Y143.468 E0.06874
G1 X141.152 Y145.003 E0.07677
G1 X141.721 Y145.734 E0.03963
G1 X142.107 Y146.198 E0.0258
G1 X143.374 Y147.45 E0.07615
G1 X143.854 Y147.856 E0.0269
G1 X145.319 Y148.871 E0.07616
G1 X145.862 Y149.187 E0.02689
G1 X147.619 Y150 E0.08277
G1 X145.862 Y150.813 E0.08277
G1 X145.319 Y151.129 E0.02689
G1 X143.854 Y152.144 E0.07616
G1 X143.374 Y152.55 E0.0269
G1 X142.119 Y153.79 E0.0754
G1 X141.807 Y154.144 E0.0202
G1 X141.238 Y154.875 E0.03962
G1 X140.981 Y155.271 E0.02018
G1 X140.087 Y156.791 E0.0754
G1 X139.825 Y157.363 E0.0269
G1 X139.593 Y157.982 E0.02826
G1 X138.808 Y161.176 F9000
G1 F1800
G1 X138.808 Y138.797 E0.95685
G1 X139.178 Y138.763 E0.01586
G1 X139.46 Y140.267 E0.06542
G1 X139.604 Y140.823 E0.0246
G1 X139.884 Y141.683 E0.03866
G1 X140.599 Y143.268 E0.07435
G1 X141.505 Y144.759 E0.07459
G1 X142.055 Y145.465 E0.03828
G1 X142.423 Y145.908 E0.0246
G1 X143.663 Y147.133 E0.07455
G1 X144.115 Y147.516 E0.02531
G1 X145.549 Y148.509 E0.07455
G1 X146.06 Y148.806 E0.02531
G1 X147.643 Y149.539 E0.07453
G1 X148.2 Y149.743 E0.02537
G1 X148.582 Y149.843 E0.01691
G1 X148.582 Y150.157 E0.01343
G1 X148.2 Y150.257 E0.01691
G1 X147.643 Y150.461 E0.02537
G1 X146.06 Y151.194 E0.07453
G1 X145.549 Y151.491 E0.02531
G1 X144.115 Y152.484 E0.07455
G1 X143.663 Y152.867 E0.02531
G1 X142.431 Y154.084 E0.07407
G1 X142.137 Y154.417 E0.019
G1 X141.587 Y155.124 E0.03827
G1 X141.345 Y155.496 E0.01899
G1 X140.467 Y156.989 E0.07406
G1 X140.22 Y157.528 E0.02531
G1 X139.608 Y159.16 E0.07456
G1 X139.464 Y159.717 E0.0246
G1 X139.261 Y160.587 E0.0382
G1 X139.193 Y161.198 E0.02626
G1 X138.868 Y161.18 E0.01389
G1 E-1 F3000
G1 X146.317 Y124.125 F9000
G1 E1 F1800
G1 X146.115 Y123.883 E0.01349
G1 X148.092 Y121.127 E0.14505
G1 X148.375 Y121.218 E0.01269
G1 X148.375 Y123.341 E0.0908
G1 X147.305 Y123.655 E0.04763
G1 X146.371 Y124.1 E0.04424
G1 X148.803 Y120.24 F9000
G1 F1800
G1 X148.803 Y123.662 E0.14633
G1 X147.459 Y124.056 E0.05989
G1 X145.819 Y124.837 E0.07764
G1 X144.891 Y125.417 E0.04678
G1 X144.662 Y125.173 E0.0143
G1 X148.02 Y120.492 E0.24628
G1 X148.319 Y120.266 E0.01602
G1 X148.453 Y120.24 E0.00584
G1 X148.743 Y120.24 E0.01239
G1 X149.232 Y119.811 F9000
G1 F1800
G1 X149.232 Y123.983 E0.17837
G1 X147.612 Y124.458 E0.07215
G1 X146.025 Y125.213 E0.07513
G1 X144.91 Y125.91 E0.05623
G1 X144.438 Y126.23 E0.02437
G1 X143.724 Y126.8 E0.03906
G1 X142.82 Y127.711 E0.05487
G1 X142.653 Y127.864 E0.00969
G1 X142.379 Y127.621 E0.0157
G1 X147.71 Y120.189 E0.39103
G1 X148.139 Y119.865 E0.02302
G1 X148.411 Y119.811 E0.01184
G1 X149.172 Y119.811 E0.03251
G1 E-1 F3000
G1 X158.683 Y124.125 F9000
G1 E1 F1800
G1 X157.695 Y123.655 E0.0468
G1 X156.625 Y123.341 E0.04763
G1 X156.625 Y121.218 E0.0908
G1 X156.908 Y121.127 E0.01269
G1 X158.885 Y123.883 E0.14505
G1 X158.721 Y124.079 E0.01093
G1 X156.197 Y120.24 F9000
G1 F1800
G1 X156.547 Y120.24 E0.01496
G1 X156.681 Y120.266 E0.00584
G1 X156.98 Y120.492 E0.01602
G1 X160.338 Y125.173 E0.24628
G1 X160.109 Y125.417 E0.0143
G1 X159.181 Y124.837 E0.04678
G1 X157.541 Y124.056 E0.07764
G1 X156.197 Y123.662 E0.05989
G1 X156.197 Y120.3 E0.14376
G1 X155.768 Y119.811 F9000
G1 F1800
G1 X156.589 Y119.811 E0.03507
G1 X156.861 Y119.865 E0.01184
G1 X157.29 Y120.189 E0.02302
G1 X162.621 Y127.621 E0.39103
G1 X162.347 Y127.864 E0.0157
G1 X162.18 Y127.711 E0.00969
G1 X161.276 Y126.8 E0.05487
G1 X160.562 Y126.23 E0.03906
G1 X160.09 Y125.91 E0.02437
G1 X158.975 Y125.213 E0.05623
G1 X157.388 Y124.458 E0.07513
G1 X155.768 Y123.983 E0.07215
G1 X155.768 Y119.871 E0.17581
G1 E-1 F3000
G1 X165.026 Y143.915 F9000
G1 E1 F1800
G1 X165.335 Y143.992 E0.0136
G1 X165.335 Y156.046 E0.51535
G1 X165.037 Y156.129 E0.0132
G1 X164.191 Y154.737 E0.06962
G1 X163.014 Y153.294 E0.07964
G1 X161.681 Y152.016 E0.07897
G1 X160.566 Y151.174 E0.05973
G1 X159.753 Y150.661 E0.04108
G1 X159.314 Y150.423 E0.02137
G1 X158.401 Y150 E0.04303
G1 X159.336 Y149.567 E0.04404
G1 X159.911 Y149.233 E0.02847
G1 X161.407 Y148.197 E0.07777
G1 X161.915 Y147.766 E0.02849
G1 X163.209 Y146.488 E0.07776
G1 X163.635 Y145.976 E0.02849
G1 X164.675 Y144.513 E0.07674
G1 X164.935 Y144.086 E0.02138
G1 X164.998 Y143.968 E0.00569
G1 X165.429 Y141.962 F9000
G1 F1800
G1 X165.763 Y142.023 E0.01453
G1 X165.763 Y157.928 E0.68005
G1 X165.442 Y157.997 E0.01406
G1 X164.781 Y156.532 E0.06874
G1 X163.841 Y154.985 E0.07737
G1 X162.699 Y153.585 E0.07725
G1 X161.402 Y152.343 E0.07678
G1 X160.322 Y151.526 E0.05789
G1 X159.537 Y151.031 E0.03971
G1 X159.122 Y150.806 E0.02018
G1 X157.381 Y150 E0.08203
G1 X159.138 Y149.187 E0.08277
G1 X159.681 Y148.871 E0.02689
G1 X161.146 Y147.856 E0.07616
G1 X161.626 Y147.45 E0.0269
G1 X162.893 Y146.198 E0.07615
G1 X163.295 Y145.714 E0.0269
G1 X164.317 Y144.277 E0.0754
G1 X164.563 Y143.874 E0.02019
G1 X164.998 Y143.055 E0.03962
G1 X165.182 Y142.621 E0.02018
G1 X165.407 Y142.018 E0.02751
G1 X166.192 Y161.176 F9000
G1 F1800
G1 X165.807 Y161.198 E0.01646
G1 X165.738 Y160.584 E0.0264
G1 X165.397 Y159.182 E0.06172
G1 X165.116 Y158.317 E0.03888
G1 X164.401 Y156.732 E0.07435
G1 X163.49 Y155.233 E0.07498
G1 X162.383 Y153.877 E0.07486
G1 X161.124 Y152.67 E0.07458
G1 X160.078 Y151.879 E0.05604
G1 X159.32 Y151.401 E0.03833
G1 X158.929 Y151.189 E0.019
G1 X157.357 Y150.461 E0.07405
G1 X156.8 Y150.257 E0.02537
G1 X156.418 Y150.157 E0.01691
G1 X156.418 Y149.843 E0.01343
G1 X156.8 Y149.743 E0.01691
G1 X157.357 Y149.539 E0.02537
G1 X158.94 Y148.806 E0.07453
G1 X159.451 Y148.509 E0.02531
G1 X160.885 Y147.516 E0.07455
G1 X161.337 Y147.133 E0.02531
G1 X162.577 Y145.908 E0.07455
G1 X162.955 Y145.453 E0.02531
G1 X163.959 Y144.041 E0.07406
G1 X164.19 Y143.662 E0.019
G1 X164.61 Y142.871 E0.03828
G1 X164.784 Y142.462 E0.01899
G1 X165.392 Y140.84 E0.07407
G1 X165.54 Y140.267 E0.02532
G1 X165.822 Y138.763 E0.06542
G1 X166.192 Y138.797 E0.01586
G1 X166.192 Y161.116 E0.95428
G1 E-1 F3000
G1 X158.65 Y175.918 F9000
G1 E1 F1800
G1 X158.854 Y176.161 E0.01353
G1 X156.908 Y178.873 E0.14274
G1 X156.625 Y178.782 E0.01269
G1 X156.625 Y176.67 E0.09032
G1 X157.904 Y176.174 E0.05862
G1 X158.47 Y176.005 E0.02526
G1 X158.596 Y175.945 E0.00599
G1 X156.197 Y179.76 F9000
G1 F1800
G1 X156.197 Y176.377 E0.14466
G1 X157.765 Y175.768 E0.07191
G1 X158.315 Y175.605 E0.02453
G1 X158.808 Y175.366 E0.0234
G1 X160.12 Y174.573 E0.06556
G1 X160.345 Y174.817 E0.0142
G1 X156.949 Y179.551 E0.2491
G1 X156.839 Y179.652 E0.00641
G1 X156.489 Y179.76 E0.01563
G1 X156.257 Y179.76 E0.00993
G1 X155.768 Y180.189 F9000
G1 F1800
G1 X155.768 Y176.044 E0.17722
G1 X156.046 Y175.975 E0.01223
G1 X157.626 Y175.362 E0.07246
G1 X158.16 Y175.204 E0.0238
G1 X158.603 Y174.989 E0.02106
G1 X160.086 Y174.093 E0.07406
G1 X160.562 Y173.77 E0.02461
G1 X161.276 Y173.2 E0.03906
G1 X162.18 Y172.289 E0.05487
G1 X162.347 Y172.136 E0.00969
G1 X162.621 Y172.379 E0.0157
G1 X157.271 Y179.837 E0.3924
G1 X157.057 Y180.033 E0.01243
G1 X156.554 Y180.189 E0.02252
G1 X155.828 Y180.189 E0.03101
G1 E-1 F3000
G1 X146.137 Y176.145 F9000
G1 E1 F1800
G1 X146.335 Y175.903 E0.01336
G1 X147.321 Y176.35 E0.04627
G1 X148.375 Y176.659 E0.04694
G1 X148.375 Y178.778 E0.09062
G1 X148.092 Y178.869 E0.01268
G1 X146.172 Y176.194 E0.1408
G1 X148.803 Y179.759 F9000
G1 F1800
G1 X148.488 Y179.758 E0.01347
G1 X148.162 Y179.655 E0.0146
G1 X148.068 Y179.57 E0.00541
G1 X144.657 Y174.819 E0.25008
G1 X144.883 Y174.575 E0.0142
G1 X146.204 Y175.373 E0.066
G1 X147.47 Y175.947 E0.05944
G1 X148.803 Y176.338 E0.05938
G1 X148.803 Y179.699 E0.1437
G1 X149.232 Y180.188 F9000
G1 F1800
G1 X148.421 Y180.186 E0.03464
G1 X147.945 Y180.035 E0.02135
G1 X147.747 Y179.858 E0.01135
G1 X142.38 Y172.381 E0.39354
G1 X142.655 Y172.137 E0.0157
G1 X142.82 Y172.289 E0.0096
G1 X143.724 Y173.2 E0.05487
G1 X144.438 Y173.77 E0.03906
G1 X144.914 Y174.093 E0.02461
G1 X146.404 Y174.994 E0.07441
G1 X147.62 Y175.545 E0.05707
G1 X149.232 Y176.017 E0.07181
G1 X149.232 Y180.128 E0.17577
G1 X149.66 Y180.617 F9000
; External perimeter
;ExternalPerimeter
SET_VELOCITY_LIMIT ACCEL=1000 ACCEL_TO_DECEL=1000 SQUARE_CORNER_VELOCITY=5

; Perimeter

;TYPE:External perimeter
G1 F1800
G1 X148.355 Y180.615 E0.05581
G1 X147.728 Y180.416 E0.02811
G1 X147.427 Y180.147 E0.01728
G1 X141.034 Y171.24 E0.46875
G1 X140.132 Y169.79 E0.07302
G1 X139.228 Y167.786 E0.09398
G1 X138.667 Y165.776 E0.08923
G1 X138.436 Y164.205 E0.06787
G1 X138.38 Y162.992 E0.05192
G1 X138.38 Y137.012 E1.11081
G1 X138.494 Y135.304 E0.07317
G1 X138.897 Y133.258 E0.0892
G1 X139.436 Y131.645 E0.07268
G1 X140.156 Y130.166 E0.07035
G1 X141.034 Y128.76 E0.07085
G1 X147.4 Y119.887 E0.46692
G1 X147.96 Y119.464 E0.03001
G1 X148.369 Y119.383 E0.01784
G1 X149.66 Y119.383 E0.05518
G1 X149.66 Y119.503 E0.00458
G1 X149.66 Y119.743 E0.00971
G1 X149.66 Y124.304 E0.19502
G1 X149.545 Y124.338 E0.00487
G1 X149.315 Y124.406 E0.01
G1 X147.765 Y124.859 E0.06902
G1 X146.232 Y125.59 E0.07263
G1 X145.144 Y126.269 E0.05484
G1 X144.693 Y126.575 E0.02331
G1 X144.011 Y127.119 E0.03729
G1 X143.118 Y128.02 E0.05424
G1 X142.813 Y128.299 E0.01765
G1 X141.755 Y129.635 E0.07286
G1 X141.119 Y130.74 E0.05452
G1 X140.899 Y131.088 E0.01763
G1 X140.727 Y131.473 E0.01802
G1 X140.221 Y132.649 E0.05473
G1 X139.827 Y134 E0.06014
G1 X139.553 Y135.685 E0.07301
G1 X139.5 Y136.237 E0.02373
G1 X139.52 Y137.943 E0.07293
G1 X139.564 Y138.496 E0.02373
G1 X139.878 Y140.173 E0.07295
G1 X140.016 Y140.703 E0.02341
G1 X140.285 Y141.528 E0.0371
G1 X140.979 Y143.068 E0.07223
G1 X141.859 Y144.515 E0.07241
G1 X142.389 Y145.197 E0.03694
G1 X142.739 Y145.618 E0.02341
G1 X143.953 Y146.817 E0.07294
G1 X144.376 Y147.175 E0.02372
G1 X145.779 Y148.147 E0.07294
G1 X146.259 Y148.426 E0.02373
G1 X147.806 Y149.142 E0.07292
G1 X148.328 Y149.333 E0.02375
G1 X149.565 Y149.657 E0.05466
G1 X150.001 Y149.752 E0.01911
G1 X150.968 Y149.806 E0.04139
G1 X152.227 Y149.916 E0.05403
G1 X152.773 Y149.916 E0.02336
G1 X154.032 Y149.806 E0.05403
G1 X154.999 Y149.752 E0.04139
G1 X155.435 Y149.657 E0.01911
G1 X156.672 Y149.333 E0.05466
G1 X157.194 Y149.142 E0.02375
G1 X158.741 Y148.426 E0.07292
G1 X159.221 Y148.147 E0.02373
G1 X160.624 Y147.175 E0.07294
G1 X161.047 Y146.817 E0.02372
G1 X162.261 Y145.618 E0.07294
G1 X162.615 Y145.191 E0.02373
G1 X163.601 Y143.805 E0.07272
G1 X163.818 Y143.449 E0.01781
G1 X164.223 Y142.686 E0.03694
G1 X164.386 Y142.303 E0.0178
G1 X164.983 Y140.71 E0.07273
G1 X165.122 Y140.173 E0.02373
G1 X165.436 Y138.496 E0.07295
G1 X165.48 Y137.943 E0.02373
G1 X165.5 Y136.237 E0.07293
