; generated by SuperSlicer 2.3.57 on 2022-03-25 at 16:18:21 UTC


;
;

;
;
; 

; external perimeters extrusion width = 0.40mm
; perimeters extrusion width = 0.45mm
; infill extrusion width = 0.72mm
; solid infill extrusion width = 0.56mm
; top infill extrusion width = 0.40mm
; support material extrusion width = 0.42mm
; first layer extrusion width = 0.48mm

; external perimeters extrusion width = 0.42mm
; perimeters extrusion width = 0.45mm
; infill extrusion width = 0.72mm
; solid infill extrusion width = 0.56mm
; top infill extrusion width = 0.40mm
; support material extrusion width = 0.42mm
; first layer extrusion width = 0.48mm

; external perimeters extrusion width = 0.16mm
; perimeters extrusion width = 0.16mm
; infill extrusion width = 0.72mm
; solid infill extrusion width = 0.56mm
; top infill extrusion width = 0.40mm
; support material extrusion width = 0.42mm
; first layer extrusion width = 0.48mm

; object:{"name":"snapware_X-Large_holder","id":"snapware_X-Large_holder.stl id:0 copy 0","object_center":[152.500000,150.000000,0.000000],"boundingbox_center":[152.500000,150.000000,14.000000],"boundingbox_size":[108.000000,50.000000,28.000000]}
; plater:{"center":[152.500000,150.000000,0.000000],"boundingbox_center":[152.500000,150.000000,14.000000],"boundingbox_size":[108.000000,50.000000,28.000000]}

;TYPE:Custom
START_PRINT T_BED=60 T_EXTRUDER=200
M107
G21 ; set units to millimeters
G90 ; use absolute coordinates
M83 ; use relative distances for extrusion
; Filament gcode
M104 S200 ; set temperature
M109 S200 ; set temperature and wait for it to be reached
M190 S60 ; set bed temperature and wait for it to be reached
M107
;LAYER_CHANGE
;Z:0.24
;HEIGHT:0.24
G1 Z0.24 F9000
G1 E-0.8 F3000
G1 X96.144 Y122.409 F9000
G1 E0.8 F1800
; External perimeter
;Skirt
SET_VELOCITY_LIMIT ACCEL=300 ACCEL_TO_DECEL=3000 SQUARE_CORNER_VELOCITY=5

; Support material

;TYPE:Skirt
;WIDTH:0.48
G1 X95.52 Y123.156 E0.04161
G1 X95.116 Y124.036 E0.04141
G1 X94.959 Y124.996 E0.04161
G1 X94.957 Y174.926 E2.13478
G1 X95.062 Y175.767 E0.03621
G1 X95.355 Y176.556 E0.03601
G1 X95.916 Y177.363 E0.04201
G1 X96.676 Y177.993 E0.04221
G1 X97.572 Y178.395 E0.04201
G1 X98.548 Y178.542 E0.04221
G1 X203.514 Y178.565 E4.48785
G1 X206.737 Y178.527 E0.1378
G1 X207.417 Y178.398 E0.02959
G1 X208.056 Y178.145 E0.02939
G1 X208.849 Y177.597 E0.04121
G1 X209.47 Y176.86 E0.04121
G1 X209.877 Y175.987 E0.04121
G1 X210.04 Y175.037 E0.04121
G1 X210.031 Y124.81 E2.14747
G1 X209.842 Y123.908 E0.03941
G1 X209.433 Y123.082 E0.03941
G1 X208.833 Y122.389 E0.03921
G1 X208.074 Y121.865 E0.03941
G1 X207.428 Y121.605 E0.02979
G1 X206.743 Y121.473 E0.02979
G1 X203.505 Y121.435 E0.13848
G1 X101.486 Y121.435 E4.36185
G1 X98.263 Y121.473 E0.1378
G1 X97.583 Y121.602 E0.02959
G1 X96.944 Y121.855 E0.02939
G1 X96.194 Y122.375 E0.03904
G1 X96.44 Y122.72 F9000
G1 F1800
G1 X95.885 Y123.379 E0.03682
G1 X95.526 Y124.162 E0.03682
G1 X95.387 Y125.016 E0.037
G1 X95.386 Y174.919 E2.13364
G1 X95.476 Y175.656 E0.03174
G1 X95.731 Y176.349 E0.03156
G1 X96.227 Y177.068 E0.03738
G1 X96.899 Y177.628 E0.03738
G1 X97.697 Y177.985 E0.03738
G1 X98.558 Y178.114 E0.03719
G1 X203.511 Y178.137 E4.48735
G1 X206.674 Y178.103 E0.13522
G1 X207.279 Y177.992 E0.02628
G1 X207.851 Y177.768 E0.02628
G1 X208.557 Y177.283 E0.03663
G1 X209.11 Y176.628 E0.03663
G1 X209.47 Y175.851 E0.03663
G1 X209.612 Y175.006 E0.03663
G1 X209.605 Y124.851 E2.14442
G1 X209.432 Y124.034 E0.03569
G1 X209.058 Y123.293 E0.0355
G1 X208.506 Y122.672 E0.0355
G1 X207.814 Y122.214 E0.0355
G1 X207.252 Y122.001 E0.02572
G1 X206.659 Y121.896 E0.02572
G1 X203.504 Y121.863 E0.13489
G1 X101.489 Y121.863 E4.36174
G1 X98.326 Y121.897 E0.13522
G1 X97.721 Y122.008 E0.02628
G1 X97.149 Y122.232 E0.02628
G1 X96.489 Y122.686 E0.03425
; INIT printing object snapware_X-Large_holder.stl id:0 copy 0
G1 E-0.8 F3000
; printing object snapware_X-Large_holder.stl id:0 copy 0
G1 X99.268 Y125.768 F9000
G1 E0.8 F1800
; External perimeter
;Perimeter
SET_VELOCITY_LIMIT ACCEL=2000 ACCEL_TO_DECEL=2000 SQUARE_CORNER_VELOCITY=5

; Overhang perimeter

;TYPE:Internal perimeter
G1 X100.507 Y125.767 E0.05296
G1 X100.756 Y125.762 E0.01065
G1 X100.732 Y128.055 E0.09804
G1 X100.732 Y172.445 E1.89791
G1 X100.757 Y174.238 E0.07667
G1 X100.507 Y174.233 E0.01068
G1 X99.268 Y174.232 E0.05296
G1 X99.268 Y125.828 E2.06953
G1 X204.243 Y125.762 F9000
G1 F1800
G1 X205.732 Y125.766 E0.06364
G1 X205.732 Y174.232 E2.07216
G1 X204.493 Y174.233 E0.05296
G1 X204.244 Y174.238 E0.01065
G1 X204.268 Y171.945 E0.09804
G1 X204.268 Y127.555 E1.89791
G1 X204.244 Y125.822 E0.07411
G1 X203.815 Y125.828 F9000
; External perimeter
;ExternalPerimeter
SET_VELOCITY_LIMIT ACCEL=1000 ACCEL_TO_DECEL=1000 SQUARE_CORNER_VELOCITY=5

; Perimeter

;TYPE:External perimeter
G1 F1800
G1 X203.814 Y125.746 E0.00349
G1 X203.694 Y125.746 E0.0046
G1 X203.454 Y125.746 E0.00973
G1 X101.185 Y125.746 E4.37257
G1 X101.184 Y125.866 E0.0046
G1 X101.181 Y126.106 E0.00973
G1 X101.16 Y128.057 E0.08342
G1 X101.16 Y172.442 E1.89769
G1 X101.186 Y174.254 E0.07748
G1 X101.306 Y174.254 E0.0046
G1 X101.546 Y174.254 E0.00973
G1 X203.815 Y174.254 E4.37257
G1 X203.816 Y174.134 E0.0046
G1 X203.819 Y173.894 E0.00973
G1 X203.84 Y171.943 E0.08342
G1 X203.84 Y127.558 E1.89769
G1 X203.816 Y125.888 E0.07142
;WIPE_START
G1 X203.886 Y125.786 F9000
;WIPE_END
G1 X206.16 Y174.66
G1 F1800
G1 X204.497 Y174.661 E0.07109
G1 X203.497 Y174.682 E0.04276
G1 X101.503 Y174.682 E4.36084
G1 X100.503 Y174.661 E0.04276
G1 X98.84 Y174.66 E0.07109
G1 X98.84 Y174.54 E0.0046
G1 X98.84 Y174.3 E0.00973
G1 X98.84 Y125.34 E2.09332
G1 X98.96 Y125.34 E0.0046
G1 X99.2 Y125.34 E0.00973
G1 X100.503 Y125.339 E0.05569
G1 X101.503 Y125.318 E0.04276
G1 X203.496 Y125.318 E4.3608
G1 X203.996 Y125.333 E0.02137
G1 X206.16 Y125.339 E0.09252
G1 X206.16 Y125.459 E0.0046
G1 X206.16 Y125.699 E0.00973
G1 X206.16 Y174.6 E2.09078
;WIPE_START
G1 X205.814 Y174.46 F9000
;WIPE_END
G1 X205.667 Y126.697
; External perimeter
;SolidInfill
SET_VELOCITY_LIMIT ACCEL=2000 ACCEL_TO_DECEL=2000 SQUARE_CORNER_VELOCITY=5

; Bridge infill

;TYPE:Solid infill
;WIDTH:0.431318
G1 F2400
G1 X204.983 Y126.013 E0.03717
G1 X204.495 Y126.011 E0.01875
G1 X204.497 Y126.132 E0.00466
G1 X205.483 Y127.118 E0.05358
G1 X205.483 Y127.724 E0.02328
G1 X204.506 Y126.747 E0.05311
G1 X204.514 Y127.362 E0.02362
G1 X205.483 Y128.33 E0.05264
G1 X205.483 Y128.936 E0.02328
G1 X204.517 Y127.97 E0.05249
G1 X204.517 Y128.576 E0.02328
G1 X205.483 Y129.542 E0.05249
G1 X205.483 Y130.148 E0.02328
G1 X204.517 Y129.182 E0.05249
G1 X204.517 Y129.788 E0.02328
G1 X205.483 Y130.754 E0.05249
G1 X205.483 Y131.36 E0.02328
G1 X204.517 Y130.394 E0.05249
G1 X204.517 Y131 E0.02328
G1 X205.483 Y131.966 E0.05249
G1 X205.483 Y132.572 E0.02328
G1 X204.517 Y131.606 E0.05249
G1 X204.517 Y132.212 E0.02328
G1 X205.483 Y133.178 E0.05249
G1 X205.483 Y133.784 E0.02328
G1 X204.517 Y132.818 E0.05249
G1 X204.517 Y133.424 E0.02328
G1 X205.483 Y134.39 E0.05249
G1 X205.483 Y134.996 E0.02328
G1 X204.517 Y134.03 E0.05249
G1 X204.517 Y134.636 E0.02328
G1 X205.483 Y135.602 E0.05249
G1 X205.483 Y136.208 E0.02328
G1 X204.517 Y135.242 E0.05249
G1 X204.517 Y135.848 E0.02328
G1 X205.483 Y136.814 E0.05249
G1 X205.483 Y137.42 E0.02328
G1 X204.517 Y136.454 E0.05249
G1 X204.517 Y137.06 E0.02328
G1 X205.483 Y138.026 E0.05249
G1 X205.483 Y138.632 E0.02328
G1 X204.517 Y137.666 E0.05249
G1 X204.517 Y138.272 E0.02328
G1 X205.483 Y139.238 E0.05249
G1 X205.483 Y139.844 E0.02328
G1 X204.517 Y138.878 E0.05249
G1 X204.517 Y139.484 E0.02328
G1 X205.483 Y140.45 E0.05249
G1 X205.483 Y141.056 E0.02328
G1 X204.517 Y140.09 E0.05249
G1 X204.517 Y140.696 E0.02328
G1 X205.483 Y141.662 E0.05249
G1 X205.483 Y142.268 E0.02328
G1 X204.517 Y141.302 E0.05249
G1 X204.517 Y141.908 E0.02328
G1 X205.483 Y142.874 E0.05249
G1 X205.483 Y143.48 E0.02328
G1 X204.517 Y142.514 E0.05249
G1 X204.517 Y143.12 E0.02328
G1 X205.483 Y144.086 E0.05249
G1 X205.483 Y144.692 E0.02328
G1 X204.517 Y143.726 E0.05249
G1 X204.517 Y144.332 E0.02328
G1 X205.483 Y145.298 E0.05249
G1 X205.483 Y145.904 E0.02328
G1 X204.517 Y144.938 E0.05249
G1 X204.517 Y145.544 E0.02328
G1 X205.483 Y146.51 E0.05249
G1 X205.483 Y147.116 E0.02328
G1 X204.517 Y146.15 E0.05249
G1 X204.517 Y146.756 E0.02328
G1 X205.483 Y147.722 E0.05249
G1 X205.483 Y148.328 E0.02328
G1 X204.517 Y147.362 E0.05249
G1 X204.517 Y147.968 E0.02328
G1 X205.483 Y148.934 E0.05249
G1 X205.483 Y149.54 E0.02328
G1 X204.517 Y148.574 E0.05249
G1 X204.517 Y149.18 E0.02328
G1 X205.483 Y150.146 E0.05249
G1 X205.483 Y150.752 E0.02328
G1 X204.517 Y149.786 E0.05249
G1 X204.517 Y150.392 E0.02328
G1 X205.483 Y151.358 E0.05249
G1 X205.483 Y151.964 E0.02328
G1 X204.517 Y150.998 E0.05249
G1 X204.517 Y151.604 E0.02328
G1 X205.483 Y152.57 E0.05249
G1 X205.483 Y153.176 E0.02328
G1 X204.517 Y152.21 E0.05249
G1 X204.517 Y152.816 E0.02328
G1 X205.483 Y153.782 E0.05249
G1 X205.483 Y154.388 E0.02328
G1 X204.517 Y153.422 E0.05249
G1 X204.517 Y154.028 E0.02328
G1 X205.483 Y154.994 E0.05249
G1 X205.483 Y155.6 E0.02328
G1 X204.517 Y154.634 E0.05249
G1 X204.517 Y155.24 E0.02328
G1 X205.483 Y156.206 E0.05249
G1 X205.483 Y156.812 E0.02328
G1 X204.517 Y155.846 E0.05249
G1 X204.517 Y156.452 E0.02328
G1 X205.483 Y157.418 E0.05249
G1 X205.483 Y158.024 E0.02328
G1 X204.517 Y157.058 E0.05249
G1 X204.517 Y157.664 E0.02328
G1 X205.483 Y158.63 E0.05249
G1 X205.483 Y159.236 E0.02328
G1 X204.517 Y158.27 E0.05249
G1 X204.517 Y158.876 E0.02328
G1 X205.483 Y159.842 E0.05249
G1 X205.483 Y160.448 E0.02328
G1 X204.517 Y159.482 E0.05249
G1 X204.517 Y160.088 E0.02328
G1 X205.483 Y161.054 E0.05249
G1 X205.483 Y161.66 E0.02328
G1 X204.517 Y160.693 E0.05249
G1 X204.517 Y161.299 E0.02328
G1 X205.483 Y162.266 E0.05249
G1 X205.483 Y162.871 E0.02328
G1 X204.517 Y161.905 E0.05249
G1 X204.517 Y162.511 E0.02328
G1 X205.483 Y163.477 E0.05249
G1 X205.483 Y164.083 E0.02328
G1 X204.517 Y163.117 E0.05249
G1 X204.517 Y163.723 E0.02328
G1 X205.483 Y164.689 E0.05249
G1 X205.483 Y165.295 E0.02328
G1 X204.517 Y164.329 E0.05249
G1 X204.517 Y164.935 E0.02328
G1 X205.483 Y165.901 E0.05249
G1 X205.483 Y166.507 E0.02328
G1 X204.517 Y165.541 E0.05249
G1 X204.517 Y166.147 E0.02328
G1 X205.483 Y167.113 E0.05249
G1 X205.483 Y167.719 E0.02328
G1 X204.517 Y166.753 E0.05249
G1 X204.517 Y167.359 E0.02328
G1 X205.483 Y168.325 E0.05249
G1 X205.483 Y168.931 E0.02328
G1 X204.517 Y167.965 E0.05249
G1 X204.517 Y168.571 E0.02328
G1 X205.483 Y169.537 E0.05249
G1 X205.483 Y170.143 E0.02328
G1 X204.517 Y169.177 E0.05249
G1 X204.517 Y169.783 E0.02328
G1 X205.483 Y170.749 E0.05249
G1 X205.483 Y171.355 E0.02328
G1 X204.517 Y170.389 E0.05249
G1 X204.517 Y170.995 E0.02328
G1 X205.483 Y171.961 E0.05249
G1 X205.483 Y172.567 E0.02328
G1 X204.517 Y171.601 E0.05249
G1 X204.517 Y171.946 E0.01326
G1 X204.514 Y172.204 E0.00991
G1 X205.483 Y173.173 E0.05264
G1 X205.483 Y173.779 E0.02328
G1 X204.508 Y172.804 E0.05299
G1 X204.501 Y173.403 E0.02303
G1 X205.267 Y174.17 E0.04162
G1 E-0.8 F3000
G1 X100.682 Y126.683 F9000
G1 E0.8 F1800
;WIDTH:0.431319
G1 F2400
G1 X100.012 Y126.014 E0.03638
G1 X99.517 Y126.016 E0.01903
G1 X99.517 Y126.124 E0.00417
G1 X100.493 Y127.1 E0.05304
G1 X100.487 Y127.7 E0.02303
G1 X99.517 Y126.73 E0.05269
G1 X99.517 Y127.336 E0.02328
G1 X100.483 Y128.302 E0.05249
G1 X100.483 Y128.908 E0.02328
G1 X99.517 Y127.942 E0.05249
G1 X99.517 Y128.548 E0.02328
G1 X100.483 Y129.514 E0.05249
G1 X100.483 Y130.12 E0.02328
G1 X99.517 Y129.154 E0.05249
G1 X99.517 Y129.76 E0.02328
G1 X100.483 Y130.726 E0.05249
G1 X100.483 Y131.332 E0.02328
G1 X99.517 Y130.366 E0.05249
G1 X99.517 Y130.972 E0.02328
G1 X100.483 Y131.938 E0.05249
G1 X100.483 Y132.544 E0.02328
G1 X99.517 Y131.578 E0.05249
G1 X99.517 Y132.184 E0.02328
G1 X100.483 Y133.15 E0.05249
G1 X100.483 Y133.756 E0.02328
G1 X99.517 Y132.79 E0.05249
G1 X99.517 Y133.396 E0.02328
G1 X100.483 Y134.362 E0.05249
G1 X100.483 Y134.968 E0.02328
G1 X99.517 Y134.002 E0.05249
G1 X99.517 Y134.608 E0.02328
G1 X100.483 Y135.574 E0.05249
G1 X100.483 Y136.18 E0.02328
G1 X99.517 Y135.214 E0.05249
G1 X99.517 Y135.82 E0.02328
G1 X100.483 Y136.786 E0.05249
G1 X100.483 Y137.392 E0.02328
G1 X99.517 Y136.426 E0.05249
G1 X99.517 Y137.032 E0.02328
G1 X100.483 Y137.998 E0.05249
G1 X100.483 Y138.604 E0.02328
G1 X99.517 Y137.638 E0.05249
G1 X99.517 Y138.244 E0.02328
G1 X100.483 Y139.21 E0.05249
G1 X100.483 Y139.816 E0.02328
G1 X99.517 Y138.85 E0.05249
G1 X99.517 Y139.456 E0.02328
G1 X100.483 Y140.422 E0.05249
G1 X100.483 Y141.028 E0.02328
G1 X99.517 Y140.062 E0.05249
G1 X99.517 Y140.668 E0.02328
G1 X100.483 Y141.634 E0.05249
G1 X100.483 Y142.24 E0.02328
G1 X99.517 Y141.274 E0.05249
G1 X99.517 Y141.88 E0.02328
G1 X100.483 Y142.846 E0.05249
G1 X100.483 Y143.452 E0.02328
G1 X99.517 Y142.486 E0.05249
G1 X99.517 Y143.092 E0.02328
G1 X100.483 Y144.058 E0.05249
G1 X100.483 Y144.664 E0.02328
G1 X99.517 Y143.698 E0.05249
G1 X99.517 Y144.304 E0.02328
G1 X100.483 Y145.27 E0.05249
G1 X100.483 Y145.876 E0.02328
G1 X99.517 Y144.91 E0.05249
G1 X99.517 Y145.516 E0.02328
G1 X100.483 Y146.482 E0.05249
G1 X100.483 Y147.088 E0.02328
G1 X99.517 Y146.122 E0.05249
G1 X99.517 Y146.728 E0.02328
G1 X100.483 Y147.694 E0.05249
G1 X100.483 Y148.3 E0.02328
G1 X99.517 Y147.334 E0.05249
G1 X99.517 Y147.94 E0.02328
G1 X100.483 Y148.906 E0.05249
G1 X100.483 Y149.512 E0.02328
G1 X99.517 Y148.546 E0.05249
G1 X99.517 Y149.151 E0.02328
G1 X100.483 Y150.118 E0.05249
G1 X100.483 Y150.724 E0.02328
G1 X99.517 Y149.757 E0.05249
G1 X99.517 Y150.363 E0.02328
G1 X100.483 Y151.33 E0.05249
G1 X100.483 Y151.935 E0.02328
G1 X99.517 Y150.969 E0.05249
G1 X99.517 Y151.575 E0.02328
G1 X100.483 Y152.541 E0.05249
G1 X100.483 Y153.147 E0.02328
G1 X99.517 Y152.181 E0.05249
G1 X99.517 Y152.787 E0.02328
G1 X100.483 Y153.753 E0.05249
G1 X100.483 Y154.359 E0.02328
G1 X99.517 Y153.393 E0.05249
G1 X99.517 Y153.999 E0.02328
G1 X100.483 Y154.965 E0.05249
G1 X100.483 Y155.571 E0.02328
G1 X99.517 Y154.605 E0.05249
G1 X99.517 Y155.211 E0.02328
G1 X100.483 Y156.177 E0.05249
G1 X100.483 Y156.783 E0.02328
G1 X99.517 Y155.817 E0.05249
G1 X99.517 Y156.423 E0.02328
G1 X100.483 Y157.389 E0.05249
G1 X100.483 Y157.995 E0.02328
G1 X99.517 Y157.029 E0.05249
G1 X99.517 Y157.635 E0.02328
G1 X100.483 Y158.601 E0.05249
G1 X100.483 Y159.207 E0.02328
G1 X99.517 Y158.241 E0.05249
G1 X99.517 Y158.847 E0.02328
G1 X100.483 Y159.813 E0.05249
G1 X100.483 Y160.419 E0.02328
G1 X99.517 Y159.453 E0.05249
G1 X99.517 Y160.059 E0.02328
G1 X100.483 Y161.025 E0.05249
G1 X100.483 Y161.631 E0.02328
G1 X99.517 Y160.665 E0.05249
G1 X99.517 Y161.271 E0.02328
G1 X100.483 Y162.237 E0.05249
G1 X100.483 Y162.843 E0.02328
G1 X99.517 Y161.877 E0.05249
G1 X99.517 Y162.483 E0.02328
G1 X100.483 Y163.449 E0.05249
G1 X100.483 Y164.055 E0.02328
G1 X99.517 Y163.089 E0.05249
G1 X99.517 Y163.695 E0.02328
G1 X100.483 Y164.661 E0.05249
G1 X100.483 Y165.267 E0.02328
G1 X99.517 Y164.301 E0.05249
G1 X99.517 Y164.907 E0.02328
G1 X100.483 Y165.873 E0.05249
G1 X100.483 Y166.479 E0.02328
G1 X99.517 Y165.513 E0.05249
G1 X99.517 Y166.119 E0.02328
G1 X100.483 Y167.085 E0.05249
G1 X100.483 Y167.691 E0.02328
G1 X99.517 Y166.725 E0.05249
G1 X99.517 Y167.331 E0.02328
G1 X100.483 Y168.297 E0.05249
G1 X100.483 Y168.903 E0.02328
G1 X99.517 Y167.937 E0.05249
G1 X99.517 Y168.543 E0.02328
G1 X100.483 Y169.509 E0.05249
G1 X100.483 Y170.115 E0.02328
G1 X99.517 Y169.149 E0.05249
G1 X99.517 Y169.755 E0.02328
G1 X100.483 Y170.721 E0.05249
G1 X100.483 Y171.327 E0.02328
G1 X99.517 Y170.361 E0.05249
G1 X99.517 Y170.967 E0.02328
G1 X100.483 Y171.933 E0.05249
G1 X100.483 Y172.447 E0.01973
G1 X100.484 Y172.54 E0.0036
G1 X99.517 Y171.573 E0.05256
G1 X99.517 Y172.179 E0.02328
G1 X100.493 Y173.155 E0.05304
G1 X100.502 Y173.77 E0.02362
G1 X99.517 Y172.785 E0.05351
G1 X99.517 Y173.391 E0.02328
G1 X100.298 Y174.172 E0.04244
; INIT stop printing object snapware_X-Large_holder.stl id:0 copy 0
;LAYER_CHANGE
;Z:0.44
;HEIGHT:0.2
; stop printing object snapware_X-Large_holder.stl id:0 copy 0
G1 Z0.44 F9000
; INIT printing object snapware_X-Large_holder.stl id:0 copy 0
