; generated by SuperSlicer 2.3.57 on 2022-03-04 at 22:24:34 UTC


;
;

;
;
; 

; external perimeters extrusion width = 0.40mm
; perimeters extrusion width = 0.45mm
; infill extrusion width = 0.72mm
; solid infill extrusion width = 0.56mm
; top infill extrusion width = 0.40mm
; support material extrusion width = 0.42mm
; first layer extrusion width = 0.48mm

; external perimeters extrusion width = 0.42mm
; perimeters extrusion width = 0.45mm
; infill extrusion width = 0.72mm
; solid infill extrusion width = 0.56mm
; top infill extrusion width = 0.40mm
; support material extrusion width = 0.42mm
; first layer extrusion width = 0.48mm

; object:{"name":"Base X100","id":"Base X100.5 Y98.5.stl id:0 copy 0","object_center":[165.000000,165.000000,0.000000],"boundingbox_center":[165.000000,165.000000,4.875000],"boundingbox_size":[173.410309,61.355653,9.750000]}
; plater:{"center":[165.000000,165.000000,0.000000],"boundingbox_center":[165.000000,165.000000,4.875000],"boundingbox_size":[173.410309,61.355653,9.750000]}

;TYPE:Custom
START_PRINT T_BED=60 T_EXTRUDER=200
M107
G21 ; set units to millimeters
G90 ; use absolute coordinates
M83 ; use relative distances for extrusion
; Filament gcode
M104 S200 ; set temperature
M109 S200 ; set temperature and wait for it to be reached
M190 S60 ; set bed temperature and wait for it to be reached
M107
;LAYER_CHANGE
;Z:0.24
;HEIGHT:0.24
G1 Z0.24 F9000
G1 E-0.8 F3000
G1 X76.43 Y131.596 F9000
G1 E0.8 F1800
; External perimeter
;Skirt
SET_VELOCITY_LIMIT ACCEL=300 ACCEL_TO_DECEL=3000 SQUARE_CORNER_VELOCITY=5

; Support material

;TYPE:Skirt
;WIDTH:0.48
G1 X75.552 Y132.473 E0.05305
G1 X74.979 Y133.561 E0.05259
G1 X74.755 Y134.768 E0.05248
G1 X74.752 Y195.109 E2.57992
G1 X74.836 Y195.895 E0.03378
G1 X75.007 Y196.517 E0.02758
G1 X75.614 Y197.609 E0.05342
G1 X76.52 Y198.469 E0.0534
G1 X77.644 Y199.023 E0.05361
G1 X78.871 Y199.22 E0.0531
G1 X251.084 Y199.221 E7.36305
G1 X251.881 Y199.14 E0.03428
G1 X252.517 Y198.967 E0.02819
G1 X253.567 Y198.407 E0.05085
G1 X254.445 Y197.531 E0.05305
G1 X255.018 Y196.448 E0.05238
G1 X255.245 Y195.251 E0.05208
G1 X255.247 Y134.834 E2.58314
G1 X255.144 Y134.002 E0.03587
G1 X254.926 Y133.315 E0.03079
G1 X254.468 Y132.518 E0.0393
G1 X254.019 Y131.979 E0.02999
G1 X253.345 Y131.446 E0.03675
G1 X252.726 Y131.115 E0.02999
G1 X251.913 Y130.864 E0.03638
G1 X251.164 Y130.786 E0.0322
G1 X78.916 Y130.779 E7.36454
G1 X78.119 Y130.86 E0.03429
G1 X77.483 Y131.033 E0.02819
G1 X76.483 Y131.568 E0.04848
G1 X76.689 Y131.937 F9000
G1 F1800
G1 X75.898 Y132.726 E0.04778
G1 X75.383 Y133.702 E0.0472
G1 X75.183 Y134.794 E0.04746
G1 X75.181 Y195.109 E2.5788
G1 X75.256 Y195.813 E0.03028
G1 X75.407 Y196.364 E0.0244
G1 X75.953 Y197.348 E0.04811
G1 X76.766 Y198.118 E0.04787
G1 X77.78 Y198.616 E0.04834
G1 X78.883 Y198.792 E0.04772
G1 X251.08 Y198.792 E7.36238
G1 X251.8 Y198.719 E0.03095
G1 X252.364 Y198.567 E0.02496
G1 X253.307 Y198.066 E0.04567
G1 X254.099 Y197.278 E0.04778
G1 X254.615 Y196.302 E0.04719
G1 X254.817 Y195.219 E0.04709
G1 X254.819 Y134.847 E2.58126
G1 X254.725 Y134.093 E0.03246
G1 X254.533 Y133.486 E0.02723
G1 X254.115 Y132.762 E0.03572
G1 X253.72 Y132.286 E0.02647
G1 X253.11 Y131.805 E0.03322
G1 X252.565 Y131.512 E0.02647
G1 X251.833 Y131.285 E0.03277
G1 X251.164 Y131.214 E0.02873
G1 X78.92 Y131.208 E7.36438
G1 X78.2 Y131.281 E0.03096
G1 X77.636 Y131.433 E0.02496
G1 X76.742 Y131.909 E0.04328
; INIT printing object Base X100.5 Y98.5.stl id:0 copy 0
G1 E-0.8 F3000
; printing object Base X100.5 Y98.5.stl id:0 copy 0
G1 X79.063 Y135.091 F9000
G1 E0.8 F1800
; External perimeter
;Perimeter
SET_VELOCITY_LIMIT ACCEL=2000 ACCEL_TO_DECEL=2000 SQUARE_CORNER_VELOCITY=5

; Overhang perimeter

;TYPE:Internal perimeter
G1 X250.937 Y135.097 E7.34852
G1 X250.937 Y194.909 E2.5573
G1 X79.063 Y194.909 E7.34852
G1 X79.063 Y135.151 E2.55501
G1 X251.315 Y195.228 F9000
; External perimeter
;ExternalPerimeter
SET_VELOCITY_LIMIT ACCEL=1000 ACCEL_TO_DECEL=1000 SQUARE_CORNER_VELOCITY=5

; Perimeter

;TYPE:External perimeter
G1 F1800
G1 X251.256 Y195.283 E0.00346
G1 X251.175 Y195.321 E0.00382
G1 X251.06 Y195.338 E0.00496
G1 X78.94 Y195.338 E7.35909
G1 X78.825 Y195.321 E0.00496
G1 X78.744 Y195.283 E0.00382
G1 X78.685 Y195.228 E0.00347
G1 X78.65 Y195.165 E0.00307
G1 X78.635 Y195.075 E0.00389
G1 X78.635 Y134.925 E2.57176
G1 X78.65 Y134.835 E0.00389
G1 X78.685 Y134.772 E0.00307
G1 X78.744 Y134.717 E0.00347
G1 X78.825 Y134.679 E0.00382
G1 X78.94 Y134.662 E0.00496
G1 X251.129 Y134.668 E7.36202
G1 X251.218 Y134.695 E0.00397
G1 X251.281 Y134.737 E0.00324
G1 X251.352 Y134.845 E0.00551
G1 X251.365 Y134.925 E0.00346
G1 X251.365 Y195.075 E2.57176
G1 X251.344 Y195.175 E0.00437
;WIPE_START
G1 X251.236 Y195.212 F9000
;WIPE_END
G1 X250.872 Y136.027
; External perimeter
;SolidInfill
SET_VELOCITY_LIMIT ACCEL=2000 ACCEL_TO_DECEL=2000 SQUARE_CORNER_VELOCITY=5

; Bridge infill

;TYPE:Solid infill
;WIDTH:0.478441
G1 F2400
G1 X250.19 Y135.345 E0.0411
G1 X249.584 Y135.345 E0.02583
G1 X250.688 Y136.449 E0.06652
G1 X250.688 Y137.055 E0.02582
G1 X248.978 Y135.345 E0.10304
G1 X248.372 Y135.345 E0.02583
G1 X250.688 Y137.661 E0.13957
G1 X250.688 Y138.267 E0.02582
G1 X247.766 Y135.345 E0.17609
G1 X247.16 Y135.345 E0.02583
G1 X250.688 Y138.873 E0.21261
G1 X250.688 Y139.479 E0.02582
G1 X246.554 Y135.345 E0.24914
G1 X245.948 Y135.345 E0.02583
G1 X250.688 Y140.085 E0.28566
G1 X250.688 Y140.691 E0.02582
G1 X245.342 Y135.345 E0.32218
G1 X244.736 Y135.345 E0.02583
G1 X250.688 Y141.297 E0.35871
G1 X250.688 Y141.903 E0.02582
G1 X244.13 Y135.345 E0.39523
G1 X243.524 Y135.345 E0.02583
G1 X250.688 Y142.509 E0.43175
G1 X250.688 Y143.115 E0.02582
G1 X242.918 Y135.345 E0.46828
G1 X242.312 Y135.345 E0.02583
G1 X250.688 Y143.721 E0.5048
G1 X250.688 Y144.327 E0.02582
G1 X241.706 Y135.345 E0.54132
G1 X241.1 Y135.345 E0.02583
G1 X250.688 Y144.933 E0.57785
G1 X250.688 Y145.539 E0.02582
G1 X240.494 Y135.345 E0.61437
G1 X239.888 Y135.345 E0.02583
G1 X250.688 Y146.145 E0.65089
G1 X250.688 Y146.751 E0.02582
G1 X239.282 Y135.345 E0.68742
G1 X238.676 Y135.345 E0.02583
G1 X250.688 Y147.357 E0.72394
G1 X250.688 Y147.963 E0.02582
G1 X238.07 Y135.345 E0.76046
G1 X237.464 Y135.345 E0.02583
G1 X250.688 Y148.569 E0.79699
G1 X250.688 Y149.175 E0.02582
G1 X236.858 Y135.345 E0.83351
G1 X236.252 Y135.345 E0.02583
G1 X250.688 Y149.781 E0.87003
G1 X250.688 Y150.387 E0.02582
G1 X235.646 Y135.345 E0.90656
G1 X235.04 Y135.345 E0.02583
G1 X250.688 Y150.993 E0.94308
G1 X250.688 Y151.599 E0.02582
G1 X234.434 Y135.345 E0.9796
G1 X233.828 Y135.345 E0.02583
G1 X250.688 Y152.205 E1.01613
G1 X250.688 Y152.811 E0.02582
G1 X233.222 Y135.345 E1.05265
G1 X232.616 Y135.345 E0.02583
G1 X250.688 Y153.417 E1.08917
G1 X250.688 Y154.023 E0.02582
G1 X232.01 Y135.345 E1.1257
G1 X231.404 Y135.345 E0.02583
G1 X250.688 Y154.629 E1.16222
G1 X250.688 Y155.235 E0.02582
G1 X230.798 Y135.345 E1.19874
G1 X230.192 Y135.345 E0.02583
G1 X250.688 Y155.841 E1.23527
G1 X250.688 Y156.447 E0.02582
G1 X229.586 Y135.345 E1.27179
G1 X228.98 Y135.345 E0.02583
G1 X250.688 Y157.053 E1.30831
G1 X250.688 Y157.659 E0.02582
G1 X228.374 Y135.345 E1.34484
G1 X227.768 Y135.345 E0.02583
G1 X250.688 Y158.265 E1.38136
G1 X250.688 Y158.871 E0.02582
G1 X227.162 Y135.345 E1.41788
G1 X226.556 Y135.345 E0.02583
G1 X250.688 Y159.477 E1.45441
G1 X250.688 Y160.083 E0.02582
G1 X225.95 Y135.345 E1.49093
G1 X225.344 Y135.345 E0.02583
G1 X250.688 Y160.689 E1.52745
G1 X250.688 Y161.294 E0.02582
G1 X224.738 Y135.345 E1.56398
G1 X224.132 Y135.345 E0.02583
G1 X250.688 Y161.9 E1.6005
G1 X250.688 Y162.506 E0.02582
G1 X223.526 Y135.344 E1.63702
G1 X222.92 Y135.344 E0.02583
G1 X250.688 Y163.112 E1.67355
G1 X250.688 Y163.718 E0.02582
G1 X222.314 Y135.344 E1.71007
G1 X221.708 Y135.344 E0.02583
G1 X250.688 Y164.324 E1.74659
G1 X250.688 Y164.93 E0.02582
G1 X221.102 Y135.344 E1.78312
G1 X220.496 Y135.344 E0.02583
G1 X250.688 Y165.536 E1.81964
G1 X250.688 Y166.142 E0.02582
G1 X219.89 Y135.344 E1.85616
G1 X219.284 Y135.344 E0.02583
G1 X250.688 Y166.748 E1.89269
G1 X250.688 Y167.354 E0.02582
G1 X218.678 Y135.344 E1.92921
G1 X218.072 Y135.344 E0.02583
G1 X250.688 Y167.96 E1.96573
G1 X250.688 Y168.566 E0.02582
G1 X217.466 Y135.344 E2.00226
G1 X216.86 Y135.344 E0.02583
G1 X250.688 Y169.172 E2.03878
G1 X250.688 Y169.778 E0.02582
G1 X216.254 Y135.344 E2.0753
G1 X215.648 Y135.344 E0.02583
G1 X250.688 Y170.384 E2.11183
G1 X250.688 Y170.99 E0.02582
G1 X215.042 Y135.344 E2.14835
G1 X214.436 Y135.344 E0.02583
G1 X250.688 Y171.596 E2.18487
G1 X250.688 Y172.202 E0.02582
G1 X213.83 Y135.344 E2.2214
G1 X213.224 Y135.344 E0.02583
G1 X250.688 Y172.808 E2.25792
G1 X250.688 Y173.414 E0.02582
G1 X212.618 Y135.344 E2.29444
G1 X212.012 Y135.344 E0.02583
G1 X250.688 Y174.02 E2.33097
G1 X250.688 Y174.626 E0.02582
G1 X211.406 Y135.344 E2.36749
G1 X210.8 Y135.344 E0.02583
G1 X250.688 Y175.232 E2.40401
G1 X250.688 Y175.838 E0.02582
G1 X210.194 Y135.344 E2.44054
G1 X209.588 Y135.344 E0.02583
G1 X250.688 Y176.444 E2.47706
G1 X250.688 Y177.05 E0.02582
G1 X208.982 Y135.344 E2.51358
G1 X208.376 Y135.344 E0.02583
G1 X250.688 Y177.656 E2.55011
G1 X250.688 Y178.262 E0.02582
G1 X207.77 Y135.344 E2.58663
G1 X207.164 Y135.344 E0.02583
G1 X250.688 Y178.868 E2.62315
G1 X250.688 Y179.474 E0.02582
G1 X206.558 Y135.344 E2.65968
G1 X205.952 Y135.344 E0.02583
G1 X250.688 Y180.08 E2.6962
G1 X250.688 Y180.686 E0.02582
G1 X205.346 Y135.344 E2.73272
G1 X204.74 Y135.344 E0.02583
G1 X250.688 Y181.292 E2.76925
G1 X250.688 Y181.898 E0.02582
G1 X204.134 Y135.344 E2.80577
G1 X203.528 Y135.344 E0.02583
G1 X250.688 Y182.504 E2.84229
G1 X250.688 Y183.11 E0.02582
G1 X202.922 Y135.344 E2.87882
G1 X202.316 Y135.344 E0.02583
G1 X250.688 Y183.716 E2.91534
G1 X250.688 Y184.322 E0.02582
G1 X201.71 Y135.344 E2.95187
G1 X201.104 Y135.344 E0.02583
G1 X250.688 Y184.928 E2.98839
G1 X250.688 Y185.534 E0.02582
G1 X200.498 Y135.344 E3.02491
G1 X199.892 Y135.344 E0.02583
G1 X250.688 Y186.14 E3.06144
G1 X250.688 Y186.746 E0.02582
G1 X199.286 Y135.344 E3.09796
G1 X198.68 Y135.344 E0.02583
G1 X250.688 Y187.352 E3.13448
G1 X250.688 Y187.958 E0.02582
G1 X198.074 Y135.344 E3.17101
G1 X197.468 Y135.344 E0.02583
G1 X250.688 Y188.564 E3.20753
G1 X250.688 Y189.17 E0.02582
G1 X196.862 Y135.344 E3.24405
G1 X196.256 Y135.343 E0.02583
G1 X250.688 Y189.776 E3.28058
G1 X250.688 Y190.382 E0.02582
G1 X195.65 Y135.343 E3.3171
G1 X195.044 Y135.343 E0.02583
G1 X250.688 Y190.988 E3.35362
G1 X250.688 Y191.594 E0.02582
G1 X194.438 Y135.343 E3.39015
G1 X193.832 Y135.343 E0.02583
G1 X250.688 Y192.2 E3.42667
G1 X250.688 Y192.806 E0.02582
G1 X193.226 Y135.343 E3.46319
G1 X192.62 Y135.343 E0.02583
G1 X250.688 Y193.412 E3.49972
G1 X250.688 Y194.018 E0.02582
G1 X192.014 Y135.343 E3.53624
G1 X191.408 Y135.343 E0.02583
G1 X250.688 Y194.624 E3.57276
G1 X250.688 Y194.661 E0.00159
G1 X250.119 Y194.661 E0.02424
G1 X190.802 Y135.343 E3.57501
G1 X190.196 Y135.343 E0.02583
G1 X249.513 Y194.661 E3.57501
G1 X248.907 Y194.661 E0.02582
G1 X189.59 Y135.343 E3.57501
G1 X188.984 Y135.343 E0.02583
G1 X248.301 Y194.661 E3.57501
G1 X247.695 Y194.661 E0.02582
G1 X188.378 Y135.343 E3.57501
G1 X187.772 Y135.343 E0.02583
G1 X247.089 Y194.661 E3.57502
G1 X246.484 Y194.661 E0.02582
G1 X187.166 Y135.343 E3.57502
G1 X186.56 Y135.343 E0.02583
G1 X245.878 Y194.661 E3.57502
G1 X245.272 Y194.661 E0.02582
G1 X185.954 Y135.343 E3.57502
G1 X185.348 Y135.343 E0.02583
G1 X244.666 Y194.661 E3.57502
G1 X244.06 Y194.661 E0.02582
G1 X184.742 Y135.343 E3.57502
G1 X184.136 Y135.343 E0.02583
G1 X243.454 Y194.661 E3.57502
G1 X242.848 Y194.661 E0.02582
G1 X183.53 Y135.343 E3.57502
G1 X182.924 Y135.343 E0.02583
G1 X242.242 Y194.661 E3.57503
G1 X241.636 Y194.661 E0.02582
G1 X182.318 Y135.343 E3.57503
G1 X181.712 Y135.343 E0.02583
G1 X241.03 Y194.661 E3.57503
G1 X240.424 Y194.661 E0.02582
G1 X181.106 Y135.343 E3.57503
G1 X180.5 Y135.343 E0.02583
G1 X239.818 Y194.661 E3.57503
G1 X239.212 Y194.661 E0.02582
G1 X179.894 Y135.343 E3.57503
G1 X179.288 Y135.343 E0.02583
G1 X238.606 Y194.661 E3.57503
G1 X238 Y194.661 E0.02582
G1 X178.682 Y135.343 E3.57504
G1 X178.076 Y135.343 E0.02583
G1 X237.394 Y194.661 E3.57504
G1 X236.788 Y194.661 E0.02582
G1 X177.47 Y135.343 E3.57504
G1 X176.864 Y135.343 E0.02583
G1 X236.182 Y194.661 E3.57504
G1 X235.576 Y194.661 E0.02582
G1 X176.258 Y135.343 E3.57504
G1 X175.652 Y135.343 E0.02583
G1 X234.97 Y194.661 E3.57504
G1 X234.364 Y194.661 E0.02582
G1 X175.046 Y135.343 E3.57504
G1 X174.44 Y135.343 E0.02583
G1 X233.758 Y194.661 E3.57504
G1 X233.152 Y194.661 E0.02582
G1 X173.834 Y135.343 E3.57505
G1 X173.228 Y135.343 E0.02583
G1 X232.546 Y194.661 E3.57505
G1 X231.94 Y194.661 E0.02582
G1 X172.622 Y135.343 E3.57505
G1 X172.016 Y135.343 E0.02583
G1 X231.334 Y194.661 E3.57505
G1 X230.728 Y194.661 E0.02582
G1 X171.41 Y135.343 E3.57505
G1 X170.804 Y135.343 E0.02583
G1 X230.122 Y194.661 E3.57505
G1 X229.516 Y194.661 E0.02582
G1 X170.198 Y135.343 E3.57505
G1 X169.592 Y135.343 E0.02583
G1 X228.91 Y194.661 E3.57506
G1 X228.304 Y194.661 E0.02582
G1 X168.986 Y135.342 E3.57506
G1 X168.38 Y135.342 E0.02583
G1 X227.698 Y194.661 E3.57506
G1 X227.092 Y194.661 E0.02582
G1 X167.774 Y135.342 E3.57506
G1 X167.168 Y135.342 E0.02583
G1 X226.486 Y194.661 E3.57506
G1 X225.88 Y194.661 E0.02582
G1 X166.562 Y135.342 E3.57506
G1 X165.956 Y135.342 E0.02583
G1 X225.274 Y194.661 E3.57506
G1 X224.668 Y194.661 E0.02582
G1 X165.35 Y135.342 E3.57506
G1 X164.744 Y135.342 E0.02583
G1 X224.062 Y194.661 E3.57507
G1 X223.456 Y194.661 E0.02582
G1 X164.138 Y135.342 E3.57507
G1 X163.532 Y135.342 E0.02583
G1 X222.85 Y194.661 E3.57507
G1 X222.244 Y194.661 E0.02582
G1 X162.926 Y135.342 E3.57507
G1 X162.32 Y135.342 E0.02583
G1 X221.638 Y194.661 E3.57507
G1 X221.032 Y194.661 E0.02582
G1 X161.714 Y135.342 E3.57507
G1 X161.108 Y135.342 E0.02583
G1 X220.426 Y194.661 E3.57507
G1 X219.82 Y194.661 E0.02582
G1 X160.502 Y135.342 E3.57508
G1 X159.896 Y135.342 E0.02583
G1 X219.214 Y194.661 E3.57508
G1 X218.608 Y194.661 E0.02582
G1 X159.29 Y135.342 E3.57508
G1 X158.684 Y135.342 E0.02583
G1 X218.002 Y194.661 E3.57508
G1 X217.396 Y194.661 E0.02582
G1 X158.078 Y135.342 E3.57508
G1 X157.472 Y135.342 E0.02583
G1 X216.79 Y194.661 E3.57508
G1 X216.184 Y194.661 E0.02582
G1 X156.866 Y135.342 E3.57508
G1 X156.26 Y135.342 E0.02583
G1 X215.578 Y194.661 E3.57508
G1 X214.972 Y194.661 E0.02582
G1 X155.654 Y135.342 E3.57509
G1 X155.048 Y135.342 E0.02583
G1 X214.366 Y194.661 E3.57509
G1 X213.76 Y194.661 E0.02582
G1 X154.442 Y135.342 E3.57509
G1 X153.836 Y135.342 E0.02583
G1 X213.154 Y194.661 E3.57509
G1 X212.548 Y194.661 E0.02582
G1 X153.23 Y135.342 E3.57509
G1 X152.624 Y135.342 E0.02583
G1 X211.942 Y194.661 E3.57509
G1 X211.336 Y194.661 E0.02582
G1 X152.018 Y135.342 E3.57509
G1 X151.412 Y135.342 E0.02583
G1 X210.73 Y194.661 E3.5751
G1 X210.125 Y194.661 E0.02582
G1 X150.806 Y135.342 E3.5751
G1 X150.199 Y135.342 E0.02583
G1 X209.519 Y194.661 E3.5751
G1 X208.913 Y194.661 E0.02582
G1 X149.593 Y135.342 E3.5751
G1 X148.987 Y135.342 E0.02583
G1 X208.307 Y194.661 E3.5751
G1 X207.701 Y194.661 E0.02582
G1 X148.381 Y135.342 E3.5751
G1 X147.775 Y135.342 E0.02583
G1 X207.095 Y194.661 E3.5751
G1 X206.489 Y194.661 E0.02582
G1 X147.169 Y135.342 E3.5751
G1 X146.563 Y135.342 E0.02583
G1 X205.883 Y194.661 E3.57511
G1 X205.277 Y194.661 E0.02582
G1 X145.957 Y135.342 E3.57511
G1 X145.351 Y135.342 E0.02583
G1 X204.671 Y194.661 E3.57511
G1 X204.065 Y194.661 E0.02582
G1 X144.745 Y135.342 E3.57511
G1 X144.139 Y135.342 E0.02583
G1 X203.459 Y194.661 E3.57511
G1 X202.853 Y194.661 E0.02582
G1 X143.533 Y135.342 E3.57511
G1 X142.927 Y135.342 E0.02583
G1 X202.247 Y194.661 E3.57511
G1 X201.641 Y194.661 E0.02582
G1 X142.321 Y135.342 E3.57512
G1 X141.715 Y135.341 E0.02583
G1 X201.035 Y194.661 E3.57512
G1 X200.429 Y194.661 E0.02582
G1 X141.109 Y135.341 E3.57512
G1 X140.503 Y135.341 E0.02583
G1 X199.823 Y194.661 E3.57512
G1 X199.217 Y194.661 E0.02582
G1 X139.897 Y135.341 E3.57512
G1 X139.291 Y135.341 E0.02583
G1 X198.611 Y194.661 E3.57512
G1 X198.005 Y194.661 E0.02582
G1 X138.685 Y135.341 E3.57512
G1 X138.079 Y135.341 E0.02583
G1 X197.399 Y194.661 E3.57512
