; generated by SuperSlicer 2.3.57 on 2022-02-26 at 09:00:49 UTC


;
;

;
;
; 

; external perimeters extrusion width = 0.40mm
; perimeters extrusion width = 0.45mm
; infill extrusion width = 0.72mm
; solid infill extrusion width = 0.56mm
; top infill extrusion width = 0.40mm
; support material extrusion width = 0.42mm
; first layer extrusion width = 0.48mm

; external perimeters extrusion width = 0.40mm
; perimeters extrusion width = 0.45mm
; infill extrusion width = 0.72mm
; solid infill extrusion width = 0.56mm
; top infill extrusion width = 0.40mm
; support material extrusion width = 0.42mm
; first layer extrusion width = 0.48mm

; object:{"name":"Post","id":"Post id:0 copy 0","object_center":[255.138688,165.000000,0.000000],"boundingbox_center":[255.138688,165.000000,10.875000],"boundingbox_size":[31.769470,112.090302,21.750000]}
; object:{"name":"Base","id":"Base.stl id:1 copy 0","object_center":[146.115265,165.000000,0.000000],"boundingbox_center":[146.115265,165.000000,4.875000],"boundingbox_size":[174.277374,66.049522,9.750000]}
; object:{"name":"Base","id":"Base.stl id:2 copy 0","object_center":[146.115265,237.049522,0.000000],"boundingbox_center":[146.115265,237.049522,4.875000],"boundingbox_size":[174.277374,66.049522,9.750000]}
; object:{"name":"Base","id":"Base.stl id:3 copy 0","object_center":[146.115265,92.950478,0.000000],"boundingbox_center":[146.115265,92.950478,4.875000],"boundingbox_size":[174.277374,66.049522,9.750000]}
; plater:{"center":[165.000000,165.000000,0.000000],"boundingbox_center":[165.000000,165.000000,10.875000],"boundingbox_size":[212.046845,210.148566,21.750000]}

;TYPE:Custom
START_PRINT T_BED=60 T_EXTRUDER=205
M107
G21 ; set units to millimeters
G90 ; use absolute coordinates
M83 ; use relative distances for extrusion
; Filament gcode
M104 S205 ; set temperature
M109 S205 ; set temperature and wait for it to be reached
M190 S60 ; set bed temperature and wait for it to be reached
M107
;LAYER_CHANGE
;Z:0.24
;HEIGHT:0.24
G1 Z0.24 F9000
G1 E-0.8 F3000
G1 X56.639 Y57.66 F9000
G1 E0.8 F1800
; External perimeter
;Skirt
SET_VELOCITY_LIMIT ACCEL=300 ACCEL_TO_DECEL=3000 SQUARE_CORNER_VELOCITY=5

; Support material

;TYPE:Skirt
;WIDTH:0.48
G1 X56.351 Y57.943 E0.01729
G1 X55.992 Y58.474 E0.02738
G1 X55.669 Y59.172 E0.03289
G1 X55.513 Y59.769 E0.02638
G1 X55.434 Y60.538 E0.03306
G1 X55.434 Y269.461 E8.93259
G1 X55.547 Y270.405 E0.04067
G1 X55.822 Y271.196 E0.03581
G1 X56.307 Y272.002 E0.04021
G1 X56.998 Y272.702 E0.04206
G1 X57.529 Y273.061 E0.02738
G1 X58.229 Y273.384 E0.03295
G1 X58.826 Y273.539 E0.02638
G1 X59.589 Y273.617 E0.03279
G1 X232.637 Y273.617 E7.39877
G1 X233.584 Y273.504 E0.04076
G1 X234.37 Y273.23 E0.03561
G1 X235.174 Y272.749 E0.04008
G1 X235.879 Y272.057 E0.04223
G1 X273.786 Y223.164 E2.64511
G1 X274.186 Y222.51 E0.0328
G1 X274.441 Y221.786 E0.0328
G1 X274.54 Y220.95 E0.03601
G1 X274.539 Y109.142 E4.7804
G1 X274.48 Y108.537 E0.02598
G1 X274.319 Y107.94 E0.02643
G1 X273.779 Y106.924 E0.04919
G1 X235.909 Y57.98 E2.64591
G1 X235.238 Y57.302 E0.04079
G1 X234.486 Y56.82 E0.03815
G1 X233.569 Y56.493 E0.04165
G1 X232.709 Y56.39 E0.03701
G1 X59.574 Y56.383 E7.40247
G1 X58.638 Y56.499 E0.04036
G1 X57.852 Y56.774 E0.03561
G1 X57.053 Y57.254 E0.03987
G1 X56.682 Y57.618 E0.02219
G1 X56.981 Y57.922 F9000
G1 F1800
G1 X56.683 Y58.215 E0.01785
G1 X56.366 Y58.684 E0.02421
G1 X56.072 Y59.316 E0.02982
G1 X55.862 Y60.539 E0.05303
G1 X55.862 Y269.459 E8.93246
G1 X55.965 Y270.312 E0.03677
G1 X56.208 Y271.009 E0.03156
G1 X56.64 Y271.731 E0.03597
G1 X57.265 Y272.367 E0.0381
G1 X57.737 Y272.686 E0.0244
G1 X58.373 Y272.98 E0.02992
G1 X59.594 Y273.189 E0.05299
G1 X232.635 Y273.189 E7.39845
G1 X233.487 Y273.086 E0.0367
G1 X234.185 Y272.844 E0.03156
G1 X234.909 Y272.412 E0.03605
G1 X235.547 Y271.787 E0.03819
G1 X273.447 Y222.902 E2.64468
G1 X273.8 Y222.325 E0.02892
G1 X274.024 Y221.687 E0.02892
G1 X274.111 Y220.949 E0.03174
G1 X274.111 Y109.153 E4.77989
G1 X273.914 Y108.081 E0.04662
G1 X273.436 Y107.181 E0.04356
G1 X235.574 Y58.248 E2.64529
G1 X234.972 Y57.638 E0.03666
G1 X234.303 Y57.208 E0.03398
G1 X233.473 Y56.91 E0.03773
G1 X232.709 Y56.818 E0.03287
G1 X59.582 Y56.812 E7.40215
G1 X58.734 Y56.916 E0.03651
G1 X58.042 Y57.158 E0.03137
G1 X57.322 Y57.588 E0.03586
G1 X57.024 Y57.88 E0.01786
; INIT printing object Post id:0 copy 0
G1 E-0.8 F3000
; printing object Post id:0 copy 0
G1 X258.936 Y109.751 F9000
G1 E0.8 F1800
; External perimeter
;Perimeter
SET_VELOCITY_LIMIT ACCEL=2000 ACCEL_TO_DECEL=2000 SQUARE_CORNER_VELOCITY=5

; Overhang perimeter

;TYPE:Internal perimeter
G1 X270.228 Y109.753 E0.48282
G1 X270.228 Y220.276 E4.72545
G1 X258.934 Y220.263 E0.4829
G1 X258.936 Y109.811 E4.72243
G1 X270.657 Y220.705 F9000
; External perimeter
;ExternalPerimeter
SET_VELOCITY_LIMIT ACCEL=1000 ACCEL_TO_DECEL=1000 SQUARE_CORNER_VELOCITY=5

; Perimeter

;TYPE:External perimeter
G1 F1800
G1 X258.505 Y220.691 E0.51954
G1 X258.505 Y220.571 E0.0046
G1 X258.505 Y220.331 E0.00973
G1 X258.507 Y109.323 E4.74622
G1 X258.627 Y109.323 E0.00458
G1 X258.867 Y109.323 E0.00971
G1 X270.657 Y109.325 E0.50407
G1 X270.657 Y109.445 E0.0046
G1 X270.657 Y109.685 E0.00973
G1 X270.657 Y220.645 E4.74415
;WIPE_START
G1 X270.311 Y220.504 F9000
;WIPE_END
G1 X269.298 Y109.817
; External perimeter
;SolidInfill
SET_VELOCITY_LIMIT ACCEL=2000 ACCEL_TO_DECEL=2000 SQUARE_CORNER_VELOCITY=5

; Bridge infill

;TYPE:Solid infill
;WIDTH:0.473247
G1 F2400
G1 X269.98 Y110.499 E0.04066
G1 X269.98 Y111.105 E0.02554
G1 X268.876 Y110.001 E0.06581
G1 X268.27 Y110.001 E0.02555
G1 X269.98 Y111.711 E0.10194
G1 X269.98 Y112.317 E0.02554
G1 X267.664 Y110.001 E0.13807
G1 X267.058 Y110.001 E0.02555
G1 X269.98 Y112.923 E0.1742
G1 X269.98 Y113.529 E0.02554
G1 X266.452 Y110.001 E0.21033
G1 X265.846 Y110.001 E0.02555
G1 X269.98 Y114.135 E0.24646
G1 X269.98 Y114.741 E0.02554
G1 X265.239 Y110.001 E0.28259
G1 X264.633 Y110.001 E0.02555
G1 X269.98 Y115.347 E0.31872
G1 X269.98 Y115.953 E0.02554
G1 X264.027 Y110.001 E0.35486
G1 X263.421 Y110.001 E0.02555
G1 X269.98 Y116.559 E0.39099
G1 X269.98 Y117.165 E0.02554
G1 X262.815 Y110 E0.42712
G1 X262.209 Y110 E0.02555
G1 X269.98 Y117.771 E0.46325
G1 X269.98 Y118.377 E0.02554
G1 X261.603 Y110 E0.49938
G1 X260.997 Y110 E0.02555
G1 X269.98 Y118.983 E0.53551
G1 X269.98 Y119.589 E0.02554
G1 X260.391 Y110 E0.57164
G1 X259.785 Y110 E0.02555
G1 X269.98 Y120.195 E0.60777
G1 X269.98 Y120.801 E0.02554
G1 X259.184 Y110.005 E0.64357
G1 X259.184 Y110.611 E0.02554
G1 X269.98 Y121.407 E0.64357
G1 X269.98 Y122.013 E0.02554
G1 X259.184 Y111.217 E0.64357
G1 X259.184 Y111.823 E0.02554
G1 X269.98 Y122.619 E0.64357
G1 X269.98 Y123.225 E0.02554
G1 X259.184 Y112.429 E0.64358
G1 X259.184 Y113.035 E0.02554
G1 X269.98 Y123.831 E0.64358
G1 X269.98 Y124.437 E0.02554
G1 X259.184 Y113.641 E0.64358
G1 X259.184 Y114.247 E0.02554
G1 X269.98 Y125.043 E0.64358
G1 X269.98 Y125.649 E0.02554
G1 X259.184 Y114.853 E0.64358
G1 X259.184 Y115.459 E0.02554
G1 X269.98 Y126.255 E0.64358
G1 X269.98 Y126.861 E0.02554
G1 X259.184 Y116.065 E0.64358
G1 X259.184 Y116.671 E0.02554
G1 X269.98 Y127.467 E0.64358
G1 X269.98 Y128.073 E0.02554
G1 X259.184 Y117.277 E0.64358
G1 X259.184 Y117.883 E0.02554
G1 X269.98 Y128.679 E0.64358
G1 X269.98 Y129.285 E0.02554
G1 X259.184 Y118.489 E0.64358
G1 X259.184 Y119.095 E0.02554
G1 X269.98 Y129.891 E0.64358
G1 X269.98 Y130.497 E0.02554
G1 X259.184 Y119.701 E0.64358
G1 X259.184 Y120.307 E0.02554
G1 X269.98 Y131.103 E0.64358
G1 X269.98 Y131.709 E0.02554
G1 X259.184 Y120.913 E0.64358
G1 X259.184 Y121.519 E0.02554
G1 X269.98 Y132.315 E0.64358
G1 X269.98 Y132.921 E0.02554
G1 X259.184 Y122.125 E0.64359
G1 X259.184 Y122.731 E0.02554
G1 X269.98 Y133.527 E0.64359
G1 X269.98 Y134.133 E0.02554
G1 X259.184 Y123.337 E0.64359
G1 X259.184 Y123.943 E0.02554
G1 X269.98 Y134.739 E0.64359
G1 X269.98 Y135.345 E0.02554
G1 X259.184 Y124.549 E0.64359
G1 X259.184 Y125.155 E0.02554
G1 X269.98 Y135.951 E0.64359
G1 X269.98 Y136.557 E0.02554
G1 X259.184 Y125.761 E0.64359
G1 X259.184 Y126.367 E0.02554
G1 X269.98 Y137.163 E0.64359
G1 X269.98 Y137.769 E0.02554
G1 X259.184 Y126.973 E0.64359
G1 X259.184 Y127.579 E0.02554
G1 X269.98 Y138.375 E0.64359
G1 X269.98 Y138.981 E0.02554
G1 X259.184 Y128.185 E0.64359
G1 X259.184 Y128.791 E0.02554
G1 X269.98 Y139.587 E0.64359
G1 X269.98 Y140.193 E0.02554
G1 X259.184 Y129.397 E0.64359
G1 X259.184 Y130.003 E0.02554
G1 X269.98 Y140.798 E0.64359
G1 X269.98 Y141.404 E0.02554
G1 X259.184 Y130.609 E0.64359
G1 X259.184 Y131.215 E0.02554
G1 X269.98 Y142.01 E0.64359
G1 X269.98 Y142.616 E0.02554
G1 X259.184 Y131.821 E0.6436
G1 X259.184 Y132.426 E0.02554
G1 X269.98 Y143.222 E0.6436
G1 X269.98 Y143.828 E0.02554
G1 X259.184 Y133.032 E0.6436
G1 X259.184 Y133.638 E0.02554
G1 X269.98 Y144.434 E0.6436
G1 X269.98 Y145.04 E0.02554
G1 X259.184 Y134.244 E0.6436
G1 X259.184 Y134.85 E0.02554
G1 X269.98 Y145.646 E0.6436
G1 X269.98 Y146.252 E0.02554
G1 X259.184 Y135.456 E0.6436
G1 X259.184 Y136.062 E0.02554
G1 X269.98 Y146.858 E0.6436
G1 X269.98 Y147.464 E0.02554
G1 X259.184 Y136.668 E0.6436
G1 X259.184 Y137.274 E0.02554
G1 X269.98 Y148.07 E0.6436
G1 X269.98 Y148.676 E0.02554
G1 X259.184 Y137.88 E0.6436
G1 X259.184 Y138.486 E0.02554
G1 X269.98 Y149.282 E0.6436
G1 X269.98 Y149.888 E0.02554
G1 X259.184 Y139.092 E0.6436
G1 X259.184 Y139.698 E0.02554
G1 X269.98 Y150.494 E0.6436
G1 X269.98 Y151.1 E0.02554
G1 X259.184 Y140.304 E0.6436
G1 X259.184 Y140.91 E0.02554
G1 X269.98 Y151.706 E0.64361
G1 X269.98 Y152.312 E0.02554
G1 X259.184 Y141.516 E0.64361
G1 X259.184 Y142.122 E0.02554
G1 X269.98 Y152.918 E0.64361
G1 X269.98 Y153.524 E0.02554
G1 X259.184 Y142.728 E0.64361
G1 X259.184 Y143.334 E0.02554
G1 X269.98 Y154.13 E0.64361
G1 X269.98 Y154.736 E0.02554
G1 X259.184 Y143.94 E0.64361
G1 X259.184 Y144.546 E0.02554
G1 X269.98 Y155.342 E0.64361
G1 X269.98 Y155.948 E0.02554
G1 X259.184 Y145.152 E0.64361
G1 X259.184 Y145.758 E0.02554
G1 X269.98 Y156.554 E0.64361
G1 X269.98 Y157.16 E0.02554
G1 X259.184 Y146.364 E0.64361
G1 X259.184 Y146.97 E0.02554
G1 X269.98 Y157.766 E0.64361
G1 X269.98 Y158.372 E0.02554
G1 X259.184 Y147.576 E0.64361
G1 X259.184 Y148.182 E0.02554
G1 X269.98 Y158.978 E0.64361
G1 X269.98 Y159.584 E0.02554
G1 X259.184 Y148.788 E0.64361
G1 X259.184 Y149.394 E0.02554
G1 X269.98 Y160.19 E0.64361
G1 X269.98 Y160.796 E0.02554
G1 X259.184 Y150 E0.64361
G1 X259.184 Y150.606 E0.02554
G1 X269.98 Y161.402 E0.64362
G1 X269.98 Y162.008 E0.02554
G1 X259.184 Y151.212 E0.64362
G1 X259.184 Y151.818 E0.02554
G1 X269.98 Y162.614 E0.64362
G1 X269.98 Y163.22 E0.02554
G1 X259.184 Y152.424 E0.64362
G1 X259.184 Y153.03 E0.02554
G1 X269.98 Y163.826 E0.64362
G1 X269.98 Y164.432 E0.02554
G1 X259.183 Y153.636 E0.64362
G1 X259.183 Y154.242 E0.02554
G1 X269.98 Y165.038 E0.64362
G1 X269.98 Y165.644 E0.02554
G1 X259.183 Y154.847 E0.64362
G1 X259.183 Y155.453 E0.02554
G1 X269.98 Y166.25 E0.64362
G1 X269.98 Y166.856 E0.02554
G1 X259.183 Y156.059 E0.64362
G1 X259.183 Y156.665 E0.02554
G1 X269.98 Y167.462 E0.64362
G1 X269.98 Y168.068 E0.02554
G1 X259.183 Y157.271 E0.64362
G1 X259.183 Y157.877 E0.02554
G1 X269.98 Y168.674 E0.64362
G1 X269.98 Y169.28 E0.02554
G1 X259.183 Y158.483 E0.64362
G1 X259.183 Y159.089 E0.02554
G1 X269.98 Y169.886 E0.64362
G1 X269.98 Y170.492 E0.02554
G1 X259.183 Y159.695 E0.64362
G1 X259.183 Y160.301 E0.02554
G1 X269.98 Y171.098 E0.64363
G1 X269.98 Y171.704 E0.02554
G1 X259.183 Y160.907 E0.64363
G1 X259.183 Y161.513 E0.02554
G1 X269.98 Y172.31 E0.64363
G1 X269.98 Y172.916 E0.02554
G1 X259.183 Y162.119 E0.64363
G1 X259.183 Y162.725 E0.02554
G1 X269.98 Y173.522 E0.64363
G1 X269.98 Y174.128 E0.02554
G1 X259.183 Y163.331 E0.64363
G1 X259.183 Y163.937 E0.02554
G1 X269.98 Y174.734 E0.64363
G1 X269.98 Y175.34 E0.02554
G1 X259.183 Y164.543 E0.64363
G1 X259.183 Y165.149 E0.02554
G1 X269.98 Y175.946 E0.64363
G1 X269.98 Y176.552 E0.02554
G1 X259.183 Y165.755 E0.64363
G1 X259.183 Y166.361 E0.02554
G1 X269.98 Y177.157 E0.64363
G1 X269.98 Y177.763 E0.02554
G1 X259.183 Y166.967 E0.64363
G1 X259.183 Y167.573 E0.02554
G1 X269.98 Y178.369 E0.64363
G1 X269.98 Y178.975 E0.02554
G1 X259.183 Y168.179 E0.64363
G1 X259.183 Y168.785 E0.02554
G1 X269.98 Y179.581 E0.64363
G1 X269.98 Y180.187 E0.02554
G1 X259.183 Y169.391 E0.64363
G1 X259.183 Y169.997 E0.02554
G1 X269.98 Y180.793 E0.64364
G1 X269.98 Y181.399 E0.02554
G1 X259.183 Y170.603 E0.64364
G1 X259.183 Y171.209 E0.02554
G1 X269.98 Y182.005 E0.64364
G1 X269.98 Y182.611 E0.02554
G1 X259.183 Y171.815 E0.64364
G1 X259.183 Y172.421 E0.02554
G1 X269.98 Y183.217 E0.64364
G1 X269.98 Y183.823 E0.02554
G1 X259.183 Y173.027 E0.64364
G1 X259.183 Y173.633 E0.02554
G1 X269.98 Y184.429 E0.64364
G1 X269.98 Y185.035 E0.02554
G1 X259.183 Y174.239 E0.64364
G1 X259.183 Y174.845 E0.02554
G1 X269.98 Y185.641 E0.64364
G1 X269.98 Y186.247 E0.02554
G1 X259.183 Y175.451 E0.64364
G1 X259.183 Y176.057 E0.02554
G1 X269.98 Y186.853 E0.64364
G1 X269.98 Y187.459 E0.02554
G1 X259.183 Y176.662 E0.64364
G1 X259.183 Y177.268 E0.02554
G1 X269.98 Y188.065 E0.64364
G1 X269.98 Y188.671 E0.02554
G1 X259.183 Y177.874 E0.64364
G1 X259.183 Y178.48 E0.02554
G1 X269.98 Y189.277 E0.64364
G1 X269.98 Y189.883 E0.02554
G1 X259.183 Y179.086 E0.64365
G1 X259.183 Y179.692 E0.02554
G1 X269.98 Y190.489 E0.64365
G1 X269.98 Y191.095 E0.02554
G1 X259.183 Y180.298 E0.64365
G1 X259.183 Y180.904 E0.02554
G1 X269.98 Y191.701 E0.64365
G1 X269.98 Y192.307 E0.02554
G1 X259.183 Y181.51 E0.64365
G1 X259.183 Y182.116 E0.02554
G1 X269.98 Y192.913 E0.64365
G1 X269.98 Y193.519 E0.02554
G1 X259.183 Y182.722 E0.64365
G1 X259.183 Y183.328 E0.02554
G1 X269.98 Y194.125 E0.64365
G1 X269.98 Y194.731 E0.02554
G1 X259.183 Y183.934 E0.64365
G1 X259.183 Y184.54 E0.02554
G1 X269.98 Y195.337 E0.64365
G1 X269.98 Y195.943 E0.02554
G1 X259.183 Y185.146 E0.64365
G1 X259.183 Y185.752 E0.02554
G1 X269.98 Y196.549 E0.64365
G1 X269.98 Y197.155 E0.02554
G1 X259.183 Y186.358 E0.64365
G1 X259.183 Y186.964 E0.02554
G1 X269.98 Y197.761 E0.64365
G1 X269.98 Y198.367 E0.02554
G1 X259.183 Y187.57 E0.64365
G1 X259.183 Y188.176 E0.02554
G1 X269.98 Y198.973 E0.64365
G1 X269.98 Y199.579 E0.02554
G1 X259.183 Y188.782 E0.64366
G1 X259.183 Y189.388 E0.02554
G1 X269.98 Y200.185 E0.64366
G1 X269.98 Y200.791 E0.02554
G1 X259.183 Y189.994 E0.64366
G1 X259.183 Y190.6 E0.02554
G1 X269.98 Y201.397 E0.64366
G1 X269.98 Y202.003 E0.02554
G1 X259.183 Y191.206 E0.64366
G1 X259.183 Y191.812 E0.02554
G1 X269.98 Y202.609 E0.64366
G1 X269.98 Y203.215 E0.02554
G1 X259.183 Y192.418 E0.64366
G1 X259.183 Y193.024 E0.02554
G1 X269.98 Y203.821 E0.64366
G1 X269.98 Y204.427 E0.02554
G1 X259.183 Y193.63 E0.64366
G1 X259.183 Y194.236 E0.02554
G1 X269.98 Y205.033 E0.64366
G1 X269.98 Y205.639 E0.02554
G1 X259.183 Y194.842 E0.64366
G1 X259.183 Y195.448 E0.02554
G1 X269.98 Y206.245 E0.64366
G1 X269.98 Y206.851 E0.02554
G1 X259.183 Y196.054 E0.64366
G1 X259.183 Y196.66 E0.02554
G1 X269.98 Y207.457 E0.64366
G1 X269.98 Y208.063 E0.02554
G1 X259.183 Y197.266 E0.64366
G1 X259.183 Y197.872 E0.02554
G1 X269.98 Y208.669 E0.64366
G1 X269.98 Y209.275 E0.02554
G1 X259.183 Y198.478 E0.64367
G1 X259.183 Y199.083 E0.02554
G1 X269.98 Y209.881 E0.64367
G1 X269.98 Y210.487 E0.02554
G1 X259.183 Y199.689 E0.64367
G1 X259.183 Y200.295 E0.02554
G1 X269.98 Y211.093 E0.64367
G1 X269.98 Y211.699 E0.02554
G1 X259.183 Y200.901 E0.64367
G1 X259.183 Y201.507 E0.02554
G1 X269.98 Y212.305 E0.64367
G1 X269.98 Y212.911 E0.02554
G1 X259.183 Y202.113 E0.64367
G1 X259.183 Y202.719 E0.02554
G1 X269.98 Y213.516 E0.64367
G1 X269.98 Y214.122 E0.02554
G1 X259.183 Y203.325 E0.64367
G1 X259.183 Y203.931 E0.02554
G1 X269.98 Y214.728 E0.64367
G1 X269.98 Y215.334 E0.02554
G1 X259.183 Y204.537 E0.64367
G1 X259.183 Y205.143 E0.02554
G1 X269.98 Y215.94 E0.64367
G1 X269.98 Y216.546 E0.02554
G1 X259.183 Y205.749 E0.64367
G1 X259.183 Y206.355 E0.02554
G1 X269.98 Y217.152 E0.64367
G1 X269.98 Y217.758 E0.02554
G1 X259.183 Y206.961 E0.64367
G1 X259.183 Y207.567 E0.02554
G1 X269.98 Y218.364 E0.64368
G1 X269.98 Y218.97 E0.02554
G1 X259.183 Y208.173 E0.64368
G1 X259.183 Y208.779 E0.02554
G1 X269.98 Y219.576 E0.64368
