; generated by SuperSlicer 2.4 on 2022-05-07 at 20:41:51 UTC


;
;

;
;
; 

; external perimeters extrusion width = 0.40mm
; perimeters extrusion width = 0.45mm
; infill extrusion width = 0.72mm
; solid infill extrusion width = 0.56mm
; top infill extrusion width = 0.40mm
; first layer extrusion width = 0.48mm

; object:{"name":"Untitled","id":"Untitled.stl id:0 copy 0","object_center":[165.000144,165.000000,0.000000],"boundingbox_center":[165.000144,165.000000,13.517374],"boundingbox_size":[38.202256,22.230156,27.034748]}
; plater:{"center":[165.000144,165.000000,0.000000],"boundingbox_center":[165.000144,165.000000,13.517374],"boundingbox_size":[38.202256,22.230156,27.034748]}

M73 P0 R31
;TYPE:Custom
START_PRINT T_BED=70 T_EXTRUDER=230
M107
G21 ; set units to millimeters
G90 ; use absolute coordinates
M83 ; use relative distances for extrusion
; Filament gcode
M104 S230 ; set temperature
M109 S230 ; set temperature and wait for it to be reached
M190 S70 ; set bed temperature and wait for it to be reached
M107
;LAYER_CHANGE
;Z:0.24
;HEIGHT:0.24
G1 Z0.24 F9000
G92 E0
G1 E-1 F3000
M204 S1000
G1 X143.877 Y151.649 F9000
G1 E1 F1800
;TYPE:Skirt
;WIDTH:0.45
G1 X142.872 Y153 E0.06562
G1 X142.622 Y153.759 E0.03114
G1 X142.513 Y154.455 E0.02745
G1 X142.495 Y170.434 E0.62265
G1 X142.619 Y171.464 E0.0404
G1 X142.868 Y172.218 E0.03098
G1 X144.126 Y173.765 E0.07767
G1 X145.695 Y174.375 E0.06562
G1 X181.042 Y179.148 E1.38986
G1 X183.802 Y179.19 E0.10754
G1 X185.09 Y178.957 E0.05104
G1 X186.482 Y178.008 E0.06562
G1 X187.288 Y176.53 E0.06562
G1 X187.482 Y175.429 E0.04354
G1 X187.496 Y157.824 E0.68602
G1 X187.343 Y156.7 E0.0442
G1 X186.657 Y155.234 E0.06307
G1 X184.305 Y152.209 E0.14932
G1 X183.105 Y151.216 E0.06071
G1 X181.468 Y150.821 E0.06562
G1 X178.572 Y150.82 E0.11285
G1 X146.18 Y150.815 E1.26222
G1 X143.877 Y151.649 E0.09542
G1 X144.201 Y151.897 F9000
G1 F1800
G1 X143.237 Y153.156 E0.06178
G1 X143.006 Y153.856 E0.02876
G1 X142.908 Y154.492 E0.02505
G1 X142.892 Y170.434 E0.62123
G1 X143.003 Y171.366 E0.03657
G1 X143.233 Y172.063 E0.02861
G1 X144.277 Y173.386 E0.06567
G1 X145.748 Y173.982 E0.06184
G1 X181.095 Y178.756 E1.38986
G1 X183.803 Y178.794 E0.10553
G1 X184.777 Y178.646 E0.03839
G1 X186.125 Y177.809 E0.06184
G1 X186.905 Y176.427 E0.06184
G1 X187.088 Y175.385 E0.0412
G1 X187.1 Y157.824 E0.6843
G1 X186.96 Y156.803 E0.04016
G1 X186.344 Y155.477 E0.05696
G1 X183.992 Y152.452 E0.14932
G1 X183.005 Y151.611 E0.05053
G1 X181.468 Y151.217 E0.06184
G1 X178.572 Y151.217 E0.11285
G1 X146.179 Y151.211 E1.26222
G1 X144.201 Y151.897 E0.08159
; INIT printing object Untitled.stl id:0 copy 0
G1 E-1 F3000
; printing object Untitled.stl id:0 copy 0
G1 X160.85 Y163.423 F9000
G1 E1 F1800
;TYPE:Internal perimeter
;WIDTH:0.48
G1 X160.849 Y167.861 E0.18596
G1 X168.948 Y167.862 E0.33937
G1 X168.95 Y157.078 E0.45187
G1 X160.851 Y157.077 E0.33937
G1 X160.85 Y159.197 E0.08881
G1 X160.85 Y163.423 E0.17709
G1 X161.278 Y163.423 F9000
G1 F1800
G1 X161.278 Y164.258 E0.03497
G1 X161.277 Y167.433 E0.13304
G1 X168.52 Y167.434 E0.30346
G1 X168.521 Y162.543 E0.20494
G1 X168.521 Y157.507 E0.21101
G1 X161.279 Y157.505 E0.30346
G1 X161.279 Y159.197 E0.07086
G1 X161.278 Y162.395 E0.134
G1 X161.278 Y163.423 E0.04309
G1 X161.707 Y163.423 F9000
G1 F1800
G1 X161.706 Y164.258 E0.03497
G1 X161.706 Y167.004 E0.11509
G1 X168.091 Y167.005 E0.26755
G1 X168.092 Y162.996 E0.16801
G1 X161.707 Y162.995 E0.26755
G1 X161.707 Y163.423 E0.01795
G1 X162.135 Y163.423 F9000
;TYPE:External perimeter
G1 F1800
G1 X162.135 Y164.258 E0.03497
G1 X162.134 Y166.576 E0.09713
G1 X162.254 Y166.576 E0.00449
G1 X162.494 Y166.576 E0.00952
G1 X167.663 Y166.577 E0.21656
G1 X167.663 Y166.457 E0.00451
G1 X167.663 Y166.217 E0.00954
G1 X167.663 Y163.424 E0.11702
G1 X167.543 Y163.424 E0.00449
G1 X167.303 Y163.424 E0.00952
G1 X162.135 Y163.423 E0.21656
;WIPE_START
M204 S3000
G1 X161.735 Y163.423 F9000
;WIPE_END
M204 S1000
G1 X162.135 Y161.942
;TYPE:Internal perimeter
G1 F1800
G1 X168.092 Y161.943 E0.2496
G1 X168.093 Y157.935 E0.16792
G1 X161.707 Y157.934 E0.26755
G1 X161.707 Y159.197 E0.0529
G1 X161.707 Y161.942 E0.11502
G1 X162.135 Y161.942 E0.01795
G1 X162.135 Y161.513 F9000
;TYPE:External perimeter
G1 F1800
G1 X167.664 Y161.514 E0.23165
G1 X167.664 Y161.394 E0.00451
G1 X167.664 Y161.154 E0.00954
G1 X167.664 Y158.363 E0.11693
G1 X167.544 Y158.363 E0.00449
G1 X167.304 Y158.363 E0.00952
G1 X162.136 Y158.363 E0.21656
G1 X162.136 Y158.483 E0.00449
G1 X162.136 Y158.723 E0.00952
G1 X162.136 Y159.197 E0.01987
G1 X162.135 Y161.513 E0.09706
;WIPE_START
M204 S3000
G1 X162.135 Y161.913 F9000
;WIPE_END
M204 S1000
G1 X156.038 Y165.899
;TYPE:Internal perimeter
G1 F1800
G1 X155.903 Y165.711 E0.00974
G1 X155.554 Y165.35 E0.02101
G1 X155.161 Y165.048 E0.02078
G1 X154.725 Y164.799 E0.02102
G1 X154.246 Y164.616 E0.02148
G1 X153.757 Y164.509 E0.02097
G1 X153.254 Y164.471 E0.02115
G1 X152.753 Y164.509 E0.02105
G1 X152.265 Y164.616 E0.02095
G1 X151.786 Y164.799 E0.02148
G1 X151.35 Y165.047 E0.02102
G1 X150.957 Y165.349 E0.02078
G1 X150.608 Y165.71 E0.02101
G1 X150.312 Y166.121 E0.02123
G1 X150.08 Y166.573 E0.02127
G1 X149.919 Y167.048 E0.02102
G1 X149.828 Y167.541 E0.02103
G1 X149.809 Y168.041 E0.02096
G1 X149.863 Y168.548 E0.02138
G1 X149.993 Y169.035 E0.0211
G1 X150.1 Y169.288 E0.01149
G1 X147.615 Y169.287 E0.1041
G1 X147.618 Y155.935 E0.55946
G1 X150.091 Y155.936 E0.10365
G1 X149.922 Y156.437 E0.02216
G1 X149.83 Y156.928 E0.02096
G1 X149.811 Y157.432 E0.02112
G1 X149.865 Y157.937 E0.02129
G1 X149.995 Y158.423 E0.02107
G1 X150.19 Y158.885 E0.02103
G1 X150.455 Y159.316 E0.0212
G1 X150.772 Y159.697 E0.02073
G1 X151.143 Y160.034 E0.02102
G1 X151.571 Y160.318 E0.02154
G1 X152.028 Y160.529 E0.02109
G1 X152.507 Y160.674 E0.02095
G1 X153.006 Y160.747 E0.02111
G1 X153.507 Y160.747 E0.021
G1 X154.005 Y160.674 E0.02111
G1 X154.484 Y160.53 E0.02096
G1 X154.941 Y160.319 E0.0211
G1 X155.37 Y160.034 E0.02154
G1 X155.741 Y159.697 E0.02101
G1 X156.058 Y159.317 E0.02073
G1 X156.323 Y158.886 E0.0212
G1 X156.518 Y158.424 E0.02103
G1 X156.648 Y157.938 E0.02108
G1 X156.703 Y157.433 E0.02129
G1 X156.684 Y156.929 E0.02112
G1 X156.592 Y156.438 E0.02096
G1 X156.423 Y155.937 E0.02216
G1 X179.942 Y155.941 E0.98545
M73 P1 R31
G1 X179.941 Y158.975 E0.12714
G1 X182.377 Y158.969 E0.10205
G1 X182.382 Y169.293 E0.43257
G1 X156.41 Y169.289 E1.08822
G1 X156.516 Y169.036 E0.01149
G1 X156.647 Y168.549 E0.0211
G1 X156.701 Y168.042 E0.02138
G1 X156.682 Y167.542 E0.02096
G1 X156.591 Y167.049 E0.02103
G1 X156.43 Y166.574 E0.02102
G1 X156.199 Y166.122 E0.02127
G1 X156.038 Y165.899 E0.0115
G1 X155.691 Y166.149 F9000
G1 F1800
G1 X155.573 Y165.986 E0.00843
G1 X155.268 Y165.671 E0.01839
G1 X154.923 Y165.405 E0.01823
G1 X154.541 Y165.188 E0.01841
G1 X154.123 Y165.028 E0.01875
G1 X153.695 Y164.934 E0.01836
G1 X153.254 Y164.901 E0.01853
G1 X152.816 Y164.934 E0.01843
G1 X152.388 Y165.028 E0.01835
G1 X151.97 Y165.187 E0.01875
G1 X151.588 Y165.405 E0.01841
G1 X151.243 Y165.67 E0.01823
G1 X150.938 Y165.985 E0.01839
G1 X150.679 Y166.345 E0.01858
G1 X150.476 Y166.74 E0.0186
G1 X150.335 Y167.156 E0.0184
G1 X150.255 Y167.589 E0.01844
G1 X150.238 Y168.026 E0.01836
G1 X150.286 Y168.47 E0.01868
G1 X150.4 Y168.896 E0.01847
G1 X150.57 Y169.301 E0.01842
G1 X150.826 Y169.716 E0.02045
G1 X147.187 Y169.716 E0.15249
G1 X147.189 Y155.507 E0.59536
G1 X150.797 Y155.507 E0.15118
G1 X150.478 Y156.13 E0.02933
G1 X150.337 Y156.545 E0.01836
G1 X150.257 Y156.976 E0.01836
G1 X150.24 Y157.417 E0.0185
G1 X150.288 Y157.858 E0.01859
G1 X150.401 Y158.284 E0.01845
G1 X150.572 Y158.689 E0.01841
G1 X150.804 Y159.065 E0.01855
G1 X151.082 Y159.399 E0.0182
G1 X151.407 Y159.695 E0.0184
G1 X151.781 Y159.943 E0.01881
G1 X152.181 Y160.128 E0.01846
G1 X152.601 Y160.254 E0.01837
G1 X153.037 Y160.318 E0.01848
G1 X153.476 Y160.318 E0.01838
G1 X153.912 Y160.255 E0.01848
G1 X154.332 Y160.128 E0.01837
G1 X154.732 Y159.943 E0.01846
G1 X155.106 Y159.695 E0.01881
G1 X155.431 Y159.4 E0.0184
G1 X155.709 Y159.066 E0.0182
G1 X155.941 Y158.69 E0.01855
G1 X156.112 Y158.285 E0.01841
G1 X156.226 Y157.859 E0.01845
G1 X156.273 Y157.418 E0.01859
G1 X156.257 Y156.977 E0.0185
G1 X156.177 Y156.546 E0.01836
G1 X156.036 Y156.131 E0.01836
G1 X155.717 Y155.508 E0.02933
G1 X180.37 Y155.512 E1.03298
G1 X180.37 Y158.545 E0.12709
G1 X182.805 Y158.54 E0.10204
G1 X182.812 Y174.495 E0.66851
G1 X182.288 Y174.492 E0.02199
G1 X182.287 Y169.722 E0.1999
G1 X155.683 Y169.717 E1.11469
G1 X155.939 Y169.302 E0.02045
G1 X156.11 Y168.897 E0.01842
G1 X156.224 Y168.471 E0.01847
G1 X156.272 Y168.027 E0.01868
G1 X156.255 Y167.59 E0.01836
G1 X156.175 Y167.157 E0.01843
G1 X156.034 Y166.741 E0.0184
G1 X155.832 Y166.346 E0.0186
G1 X155.691 Y166.149 E0.01015
G1 X155.343 Y166.4 F9000
G1 F1800
G1 X155.243 Y166.262 E0.00712
G1 X154.982 Y165.991 E0.01577
G1 X154.685 Y165.763 E0.01568
G1 X154.358 Y165.576 E0.01579
G1 X154 Y165.44 E0.01603
G1 X153.633 Y165.359 E0.01576
G1 X153.254 Y165.33 E0.01591
G1 X153.047 Y165.346 E0.0087
G1 X152.878 Y165.359 E0.00712
G1 X152.511 Y165.439 E0.01575
G1 X152.153 Y165.576 E0.01603
G1 X151.826 Y165.762 E0.0158
G1 X151.529 Y165.991 E0.01568
G1 X151.267 Y166.261 E0.01577
G1 X151.045 Y166.569 E0.01592
G1 X150.872 Y166.908 E0.01592
G1 X150.751 Y167.264 E0.01578
G1 X150.682 Y167.636 E0.01584
G1 X150.668 Y168.012 E0.01576
G1 X150.708 Y168.391 E0.01599
G1 X150.806 Y168.757 E0.01584
G1 X150.952 Y169.104 E0.0158
G1 X151.151 Y169.427 E0.01589
G1 X151.392 Y169.716 E0.01576
G1 X151.87 Y170.145 E0.0269
G1 X146.758 Y170.144 E0.21417
G1 X146.761 Y155.078 E0.63127
G1 X151.539 Y155.079 E0.20022
G1 X151.618 Y155.311 E0.01029
G1 X151.529 Y155.38 E0.0047
G1 X151.268 Y155.653 E0.01583
G1 X151.047 Y155.959 E0.01584
G1 X150.874 Y156.297 E0.01593
G1 X150.753 Y156.654 E0.01576
G1 X150.684 Y157.023 E0.01576
G1 X150.67 Y157.402 E0.01588
G1 X150.71 Y157.779 E0.0159
G1 X150.808 Y158.144 E0.01583
G1 X150.954 Y158.492 E0.0158
G1 X151.153 Y158.815 E0.01589
G1 X151.392 Y159.102 E0.01566
G1 X151.671 Y159.355 E0.01578
G1 X151.991 Y159.568 E0.01608
G1 X152.333 Y159.726 E0.01582
G1 X152.694 Y159.835 E0.01578
G1 X153.068 Y159.89 E0.01585
G1 X153.445 Y159.89 E0.01577
G1 X153.819 Y159.835 E0.01584
G1 X154.179 Y159.727 E0.01578
G1 X154.522 Y159.568 E0.01582
G1 X154.842 Y159.356 E0.01608
G1 X155.121 Y159.103 E0.01578
G1 X155.36 Y158.816 E0.01566
G1 X155.559 Y158.493 E0.01589
G1 X155.706 Y158.145 E0.0158
G1 X155.803 Y157.78 E0.01583
G1 X155.844 Y157.403 E0.0159
G1 X155.83 Y157.024 E0.01588
G1 X155.761 Y156.654 E0.01576
G1 X155.64 Y156.298 E0.01576
G1 X155.467 Y155.96 E0.01592
G1 X155.246 Y155.653 E0.01584
G1 X154.985 Y155.38 E0.01583
G1 X154.896 Y155.312 E0.0047
G1 X154.975 Y155.079 E0.01028
G1 X180.799 Y155.084 E1.08202
G1 X180.798 Y158.116 E0.12705
G1 X183.233 Y158.11 E0.10203
G1 X183.241 Y174.925 E0.70453
G1 X181.859 Y174.919 E0.05791
G1 X181.858 Y170.15 E0.19983
G1 X154.64 Y170.145 E1.14047
G1 X155.118 Y169.717 E0.0269
G1 X155.358 Y169.428 E0.01576
G1 X155.557 Y169.105 E0.01589
G1 X155.704 Y168.757 E0.0158
G1 X155.802 Y168.392 E0.01584
G1 X155.842 Y168.013 E0.01599
G1 X155.828 Y167.637 E0.01576
G1 X155.759 Y167.265 E0.01584
G1 X155.639 Y166.908 E0.01578
G1 X155.465 Y166.57 E0.01592
G1 X155.343 Y166.4 E0.0088
G1 X154.995 Y166.65 F9000
;TYPE:External perimeter
G1 F1800
G1 X154.914 Y166.537 E0.00581
G1 X154.695 Y166.312 E0.01315
G1 X154.447 Y166.121 E0.01313
G1 X154.174 Y165.965 E0.01318
G1 X153.877 Y165.851 E0.01331
G1 X153.57 Y165.784 E0.01316
G1 X153.254 Y165.76 E0.01329
G1 X153.08 Y165.773 E0.00733
G1 X152.94 Y165.784 E0.00587
G1 X152.695 Y165.838 E0.01052
G1 X152.634 Y165.851 E0.00263
G1 X152.337 Y165.964 E0.01331
G1 X152.109 Y166.095 E0.01101
G1 X152.064 Y166.12 E0.00217
G1 X151.815 Y166.311 E0.01313
G1 X151.597 Y166.537 E0.01315
G1 X151.412 Y166.794 E0.01327
G1 X151.267 Y167.075 E0.01325
G1 X151.167 Y167.372 E0.01316
G1 X151.109 Y167.683 E0.01325
G1 X151.103 Y167.843 E0.00671
G1 X151.097 Y167.997 E0.00645
G1 X151.119 Y168.197 E0.00842
G1 X151.131 Y168.313 E0.00487
G1 X151.212 Y168.617 E0.01322
G1 X151.335 Y168.907 E0.01319
G1 X151.5 Y169.176 E0.01324
G1 X151.616 Y169.316 E0.0076
G1 X151.701 Y169.418 E0.00557
G1 X151.934 Y169.627 E0.01311
G1 X152.198 Y169.802 E0.01325
G1 X152.483 Y169.936 E0.01322
G1 X152.786 Y170.028 E0.01324
G1 X153.098 Y170.073 E0.01321
G1 X153.412 Y170.073 E0.01316
G1 X153.487 Y170.063 E0.00317
G1 X153.724 Y170.028 E0.01004
G1 X153.917 Y169.97 E0.00844
G1 X154.026 Y169.937 E0.0048
G1 X154.062 Y169.92 E0.00167
G1 X154.312 Y169.802 E0.01156
G1 X154.576 Y169.627 E0.01325
G1 X154.808 Y169.419 E0.01311
G1 X155.009 Y169.177 E0.01317
G1 X155.097 Y169.035 E0.007
G1 X155.175 Y168.908 E0.00624
G1 X155.243 Y168.748 E0.00727
G1 X155.298 Y168.618 E0.00592
G1 X155.379 Y168.313 E0.01321
G1 X155.413 Y167.998 E0.01329
G1 X155.401 Y167.684 E0.01316
G1 X155.344 Y167.373 E0.01325
G1 X155.243 Y167.076 E0.01316
G1 X155.099 Y166.794 E0.01325
G1 X154.995 Y166.65 E0.00745
;WIPE_START
M204 S3000
G1 X155.052 Y166.523 F9000
;WIPE_END
M204 S1000
G1 X153.726 Y159.416
G1 F1800
G1 X154.027 Y159.325 E0.01319
G1 X154.131 Y159.277 E0.00482
G1 X154.313 Y159.193 E0.00837
G1 X154.578 Y159.017 E0.01334
G1 X154.811 Y158.806 E0.01316
G1 X155.011 Y158.565 E0.01313
G1 X155.177 Y158.296 E0.01324
G1 X155.206 Y158.227 E0.00315
G1 X155.299 Y158.006 E0.01004
G1 X155.381 Y157.701 E0.01321
G1 X155.415 Y157.388 E0.0132
G1 X155.403 Y157.072 E0.01326
G1 X155.345 Y156.763 E0.01317
G1 X155.245 Y156.466 E0.01315
G1 X155.1 Y156.184 E0.01325
G1 X154.997 Y156.04 E0.00743
G1 X154.916 Y155.928 E0.0058
G1 X154.907 Y155.918 E0.00057
G1 X154.698 Y155.7 E0.01264
G1 X154.448 Y155.508 E0.01322
G1 X154.35 Y155.453 E0.00472
G1 X154.175 Y155.354 E0.00842
G1 X153.88 Y155.242 E0.01321
G1 X153.848 Y155.234 E0.00139
G1 X153.572 Y155.172 E0.01183
G1 X153.441 Y155.163 E0.00553
G1 X153.256 Y155.15 E0.00775
G1 X152.942 Y155.172 E0.01319
G1 X152.634 Y155.241 E0.01322
G1 X152.543 Y155.276 E0.00408
G1 X152.34 Y155.354 E0.00912
G1 X152.066 Y155.507 E0.01314
G1 X151.816 Y155.7 E0.01321
G1 X151.709 Y155.811 E0.00647
G1 X151.598 Y155.927 E0.00675
G1 X151.454 Y156.127 E0.01033
G1 X151.414 Y156.184 E0.00289
G1 X151.269 Y156.465 E0.01325
G1 X151.169 Y156.762 E0.01315
G1 X151.111 Y157.071 E0.01317
G1 X151.099 Y157.387 E0.01326
G1 X151.119 Y157.576 E0.00795
G1 X151.133 Y157.701 E0.00525
G1 X151.214 Y158.005 E0.01321
G1 X151.336 Y158.295 E0.01319
G1 X151.502 Y158.564 E0.01324
G1 X151.702 Y158.805 E0.01313
G1 X151.732 Y158.832 E0.00167
G1 X151.935 Y159.016 E0.01149
G1 X152.2 Y159.193 E0.01334
G1 X152.486 Y159.325 E0.01319
G1 X152.787 Y159.416 E0.01319
G1 X153.032 Y159.451 E0.01035
G1 X153.099 Y159.461 E0.00286
G1 X153.414 Y159.461 E0.01316
G1 X153.726 Y159.416 E0.01321
;WIPE_START
M204 S3000
G1 X153.944 Y159.642 F9000
;WIPE_END
G1 E-1 F3000
M204 S1000
G1 X181.227 Y157.686 F9000
G1 E1 F1800
G1 X183.625 Y157.681 E0.1005
G1 X183.65 Y157.798 E0.0047
G1 X183.662 Y157.851 E0.00194
G1 X183.67 Y175.017 E0.71927
G1 X183.632 Y175.355 E0.01424
G1 X183.512 Y175.355 E0.00462
G1 X183.272 Y175.354 E0.00965
G1 X182.593 Y175.351 E0.02845
G1 X181.546 Y175.346 E0.0439
G1 X181.535 Y175.344 E0.00046
G1 X181.489 Y175.319 E0.0022
G1 X181.45 Y175.267 E0.00271
G1 X181.431 Y175.18 E0.00376
G1 X181.43 Y172.88 E0.09637
G1 X181.43 Y170.578 E0.09644
G1 X181.31 Y170.578 E0.00451
G1 X181.07 Y170.578 E0.00954
G1 X146.353 Y170.573 E1.45467
G1 X146.34 Y170.532 E0.00018
G1 X146.33 Y170.424 E0.00456
G1 X146.332 Y154.799 E0.6547
G1 X146.342 Y154.69 E0.00456
G1 X146.355 Y154.65 E0.00178
G1 X146.475 Y154.65 E0.00478
G1 X146.612 Y154.65 E0.0055
G1 X181.227 Y154.655 E1.45039
G1 X181.227 Y154.775 E0.00451
G1 X181.227 Y155.015 E0.00954
G1 X181.227 Y156.171 E0.04842
G1 X181.227 Y157.686 E0.0635
;WIPE_START
M204 S3000
G1 X181.227 Y158.086 F9000
;WIPE_END
M204 S1000
G1 X179.877 Y156.871
;TYPE:Solid infill
;WIDTH:0.464479
G1 F2400
G1 X179.195 Y156.189 E0.0391
G1 X178.589 Y156.189 E0.02457
G1 X179.693 Y157.293 E0.06328
G1 X179.693 Y157.898 E0.02457
G1 X177.983 Y156.189 E0.09803
G1 X177.377 Y156.189 E0.02457
G1 X179.877 Y158.689 E0.14334
G1 X181.436 Y159.036 F9000
