; generated by SuperSlicer 2.3.56 on 2021-05-29 at 06:56:13 UTC

; 

; external perimeters extrusion width = 0.40mm
; perimeters extrusion width = 0.40mm
; infill extrusion width = 0.40mm
; solid infill extrusion width = 0.40mm
; top infill extrusion width = 0.40mm
; first layer extrusion width = 0.40mm


M140 S70 ; set bed temperature
;TYPE:Custom
START_PRINT T_BED=70 T_EXTRUDER=245
M107
G21 ; set units to millimeters
G90 ; use absolute coordinates
M82 ; use absolute distances for extrusion
G92 E0
; Filament gcode
M109 S245 ; set temperature and wait for it to be reached
M190 S70 ; set bed temperature and wait for it to be reached
;LAYER_CHANGE
;Z:0.24
;HEIGHT:0.24
G1 Z0.240000 F9000.000
G1 E-1.00000 F2100.000
G1 X137.038 Y130.769 F9000.000
G1 E0.00000 F2100.000
;TYPE:Skirt
;WIDTH:0.4
G1 F900.000
G1 X137.644 Y130.164 E0.02977
G1 X140.423 Y127.779 E0.15714
G1 X143.685 Y125.574 E0.29404
G1 X146.695 Y123.999 E0.41215
G1 X147.469 Y123.643 E0.44178
G1 X150.898 Y122.365 E0.56904
G1 X155.047 Y121.365 E0.71745
G1 X158.662 Y120.922 E0.84409
G1 X162.290 Y120.854 E0.97029
G1 X164.443 Y120.986 E1.04529
G1 X166.589 Y121.257 E1.12050
G1 X168.254 Y121.556 E1.17931
G1 X172.351 Y122.688 E1.32713
G1 X175.857 Y124.122 E1.45886
G1 X178.829 Y125.743 E1.57657
G1 X179.554 Y126.186 E1.60611
G1 X182.466 Y128.279 E1.73081
G1 X185.659 Y131.215 E1.88162
G1 X188.044 Y133.983 E2.00868
G1 X189.988 Y136.818 E2.12820
G1 X190.403 Y137.499 E2.15595
G1 X192.104 Y140.797 E2.28498
G1 X192.825 Y142.552 E2.35096
G1 X193.724 Y145.287 E2.45109
G1 X194.420 Y148.180 E2.55454
G1 X194.867 Y151.489 E2.67066
G1 X195.013 Y153.972 E2.75715
G1 X194.980 Y156.058 E2.82971
G1 X194.625 Y159.545 E2.95157
G1 X186.512 Y207.157 E4.63106
G1 X186.148 Y208.437 E4.67733
G1 X185.800 Y209.241 E4.70778
G1 X185.263 Y210.067 E4.74206
G1 X184.591 Y210.781 E4.77613
G1 X183.530 Y211.650 E4.82385
G1 X182.669 Y212.154 E4.85852
G1 X180.868 Y212.757 E4.92456
G1 X180.011 Y212.936 E4.95501
G1 X177.929 Y213.081 E5.02758
G1 X144.330 Y213.081 E6.19594
G1 X142.440 Y212.958 E6.26180
G1 X141.729 Y212.847 E6.28682
G1 X140.162 Y212.390 E6.34359
G1 X139.372 Y212.053 E6.37344
G1 X138.598 Y211.563 E6.40530
G1 X137.503 Y210.640 E6.45509
G1 X136.883 Y209.935 E6.48776
G1 X136.388 Y209.129 E6.52063
G1 X136.077 Y208.373 E6.54907
G1 X135.718 Y207.084 E6.59558
G1 X127.541 Y159.098 E8.28824
G1 X127.233 Y155.245 E8.42266
G1 X127.342 Y151.856 E8.54058
G1 X127.412 Y151.009 E8.57011
G1 X127.997 Y147.333 E8.69957
G1 X129.043 Y143.594 E8.83456
G1 X130.314 Y140.448 E8.95255
G1 X130.674 Y139.674 E8.98222
G1 X132.472 Y136.456 E9.11041
G1 X134.760 Y133.283 E9.24644
G1 X136.997 Y130.814 E9.36231
G1 X137.256 Y131.048 F9000.000
G1 F900.000
G1 X137.295 Y131.004 E9.36435
G1 X137.876 Y130.424 E9.39291
G1 X140.640 Y128.052 E9.51956
G1 X143.869 Y125.870 E9.65505
G1 X146.855 Y124.309 E9.77223
G1 X147.597 Y123.967 E9.80065
G1 X151.002 Y122.697 E9.92700
G1 X155.090 Y121.710 E10.07325
G1 X158.685 Y121.270 E10.19920
G1 X162.286 Y121.203 E10.32444
G1 X164.401 Y121.332 E10.39811
G1 X166.536 Y121.601 E10.47294
G1 X168.191 Y121.899 E10.53142
G1 X172.229 Y123.014 E10.67710
G1 X175.708 Y124.437 E10.80778
G1 X178.661 Y126.048 E10.92477
G1 X179.356 Y126.473 E10.95310
G1 X182.253 Y128.556 E11.07717
G1 X185.399 Y131.447 E11.22574
G1 X187.771 Y134.200 E11.35210
G1 X189.698 Y137.012 E11.47064
G1 X190.097 Y137.665 E11.49724
G1 X191.785 Y140.938 E11.62530
G1 X192.498 Y142.672 E11.69051
G1 X193.390 Y145.389 E11.78994
G1 X194.078 Y148.247 E11.89215
G1 X194.520 Y151.514 E12.00680
G1 X194.665 Y153.981 E12.09274
G1 X194.632 Y156.050 E12.16469
G1 X194.278 Y159.506 E12.28550
G1 X186.172 Y207.084 E13.96378
G1 X185.819 Y208.322 E14.00852
G1 X185.494 Y209.074 E14.03702
G1 X184.986 Y209.855 E14.06942
G1 X184.350 Y210.528 E14.10162
G1 X183.330 Y211.364 E14.14748
G1 X182.512 Y211.843 E14.18046
G1 X180.764 Y212.424 E14.24450
G1 X179.939 Y212.594 E14.27378
G1 X177.927 Y212.733 E14.34390
G1 X144.330 Y212.733 E15.51219
G1 X142.473 Y212.611 E15.57688
G1 X141.802 Y212.507 E15.60051
G1 X140.278 Y212.061 E15.65573
G1 X139.534 Y211.744 E15.68384
G1 X138.804 Y211.282 E15.71389
G1 X137.744 Y210.388 E15.76211
G1 X137.155 Y209.717 E15.79314
G1 X136.693 Y208.960 E15.82398
G1 X136.404 Y208.253 E15.85053
G1 X136.056 Y206.995 E15.89594
G1 X127.886 Y159.052 E17.58707
G1 X127.581 Y155.237 E17.72018
G1 X127.691 Y151.869 E17.83736
G1 X127.758 Y151.057 E17.86569
G1 X128.339 Y147.402 E17.99437
G1 X129.373 Y143.706 E18.12781
G1 X130.637 Y140.580 E18.24508
G1 X130.981 Y139.838 E18.27352
G1 X132.769 Y136.639 E18.40098
G1 X135.034 Y133.497 E18.53563
G1 X137.215 Y131.092 E18.64854
G92 E0
G1 E-1.00000 F2100.000
G1 X141.443 Y134.949 F9000.000
G1 E0.00000 F2100.000
;TYPE:Perimeter
G1 F900.000
G1 X141.510 Y134.875 E0.00345
G1 X141.675 Y134.704 E0.01174
G1 X143.943 Y132.740 E0.11605
G1 X144.128 Y132.590 E0.12434
G1 X146.610 Y130.907 E0.22863
G1 X146.812 Y130.779 E0.23692
G1 X149.473 Y129.397 E0.34121
G1 X149.688 Y129.294 E0.34950
G1 X152.495 Y128.234 E0.45382
G1 X152.720 Y128.156 E0.46211
G1 X155.631 Y127.431 E0.56642
G1 X155.864 Y127.381 E0.57472
G1 X158.839 Y127.003 E0.67898
G1 X159.078 Y126.979 E0.68735
G1 X162.087 Y126.928 E0.79197
G1 X162.268 Y126.926 E0.79828
G1 X163.741 Y127.017 E0.84961
G1 X164.194 Y127.080 E0.86550
G1 X165.687 Y127.261 E0.91781
G1 X167.140 Y127.524 E0.96915
G1 X170.032 Y128.318 E1.07343
G1 X170.260 Y128.388 E1.08173
G1 X173.040 Y129.513 E1.18602
G1 X173.258 Y129.609 E1.19431
G1 X175.888 Y131.054 E1.29864
G1 X176.094 Y131.175 E1.30694
G1 X178.535 Y132.917 E1.41122
G1 X178.725 Y133.061 E1.41951
G1 X180.944 Y135.078 E1.52379
G1 X181.116 Y135.243 E1.53207
G1 X183.084 Y137.506 E1.63637
G1 X183.235 Y137.691 E1.64467
G1 X184.925 Y140.168 E1.74894
G1 X185.053 Y140.370 E1.75724
G1 X186.442 Y143.027 E1.86151
G1 X186.550 Y143.249 E1.87007
G1 X187.115 Y144.616 E1.92152
G1 X187.817 Y146.768 E2.00023
G1 X187.882 Y146.943 E2.00672
G1 X187.925 Y147.108 E2.01266
G1 X188.450 Y149.286 E2.09058
G1 X188.762 Y151.522 E2.16907
G1 X188.795 Y151.706 E2.17557
G1 X188.808 Y151.876 E2.18152
G1 X188.944 Y154.119 E2.25963
G1 X188.912 Y155.860 E2.32020
G1 X188.594 Y158.841 E2.42444
G1 X188.562 Y159.078 E2.43273
G1 X187.897 Y162.003 E2.53706
G1 X187.837 Y162.234 E2.54535
G1 X186.835 Y165.059 E2.64960
G1 X186.748 Y165.282 E2.65789
G1 X185.419 Y167.976 E2.76236
G1 X185.338 Y168.135 E2.76858
G1 X184.565 Y169.405 E2.82028
G1 X184.426 Y169.619 E2.82915
G1 X183.729 Y170.629 E2.87181
G1 X156.708 Y171.100 E3.81156
G1 X156.708 Y174.018 E3.91304
G1 X145.305 Y174.018 E4.30955
G1 X145.305 Y171.299 E4.40411
G1 X139.100 Y171.408 E4.61988
G1 X137.544 Y169.183 E4.71430
G1 X136.793 Y167.880 E4.76658
G1 X136.552 Y167.501 E4.78219
G1 X135.295 Y164.791 E4.88607
G1 X135.201 Y164.572 E4.89436
G1 X134.265 Y161.722 E4.99867
G1 X134.198 Y161.494 E5.00696
G1 X133.603 Y158.555 E5.11123
G1 X133.562 Y158.320 E5.11952
G1 X133.315 Y155.331 E5.22382
G1 X133.303 Y155.093 E5.23211
G1 X133.409 Y152.096 E5.33636
G1 X133.424 Y151.858 E5.34465
G1 X133.879 Y148.894 E5.44895
G1 X133.922 Y148.659 E5.45723
G1 X134.723 Y145.769 E5.56151
G1 X134.794 Y145.542 E5.56981
G1 X135.926 Y142.764 E5.67411
G1 X136.023 Y142.546 E5.68240
G1 X137.474 Y139.921 E5.78668
G1 X137.595 Y139.716 E5.79497
G1 X139.344 Y137.280 E5.89925
G1 X139.489 Y137.091 E5.90754
G1 X141.402 Y134.993 E6.00628
G1 X141.145 Y134.758 F9000.000
;TYPE:External perimeter
G1 F900.000
G1 X141.256 Y134.637 E6.01199
G1 X141.436 Y134.451 E6.02099
G1 X143.719 Y132.474 E6.12602
G1 X143.920 Y132.310 E6.13502
G1 X146.419 Y130.616 E6.24002
G1 X146.637 Y130.476 E6.24902
G1 X149.318 Y129.086 E6.35402
G1 X149.551 Y128.973 E6.36303
G1 X152.376 Y127.906 E6.46806
G1 X152.621 Y127.822 E6.47706
G1 X155.552 Y127.092 E6.58208
G1 X155.805 Y127.037 E6.59109
G1 X158.800 Y126.656 E6.69606
G1 X159.058 Y126.631 E6.70510
G1 X162.082 Y126.579 E6.81025
G1 X162.277 Y126.577 E6.81703
G1 X163.776 Y126.670 E6.86926
G1 X164.239 Y126.734 E6.88551
G1 X165.739 Y126.916 E6.93807
G1 X167.218 Y127.184 E6.99031
G1 X170.129 Y127.983 E7.09530
G1 X170.377 Y128.059 E7.10430
G1 X173.176 Y129.192 E7.20931
G1 X173.413 Y129.296 E7.21831
G1 X176.060 Y130.751 E7.32335
G1 X176.283 Y130.883 E7.33236
G1 X178.741 Y132.637 E7.43736
G1 X178.948 Y132.793 E7.44636
G1 X181.183 Y134.823 E7.55135
G1 X181.369 Y135.003 E7.56035
G1 X183.350 Y137.282 E7.66536
G1 X183.515 Y137.482 E7.67436
G1 X185.216 Y139.976 E7.77935
G1 X185.355 Y140.195 E7.78836
G1 X186.753 Y142.870 E7.89334
G1 X186.868 Y143.106 E7.90244
G1 X187.443 Y144.495 E7.95472
G1 X188.146 Y146.653 E8.03365
G1 X188.215 Y146.838 E8.04051
G1 X188.263 Y147.023 E8.04716
G1 X188.793 Y149.221 E8.12579
G1 X189.106 Y151.467 E8.20464
G1 X189.141 Y151.661 E8.21150
G1 X189.156 Y151.852 E8.21815
G1 X189.292 Y154.112 E8.29686
G1 X189.260 Y155.882 E8.35844
G1 X188.940 Y158.883 E8.46339
G1 X188.905 Y159.140 E8.47240
G1 X188.236 Y162.085 E8.57743
G1 X188.171 Y162.336 E8.58643
G1 X187.161 Y165.181 E8.69140
G1 X187.068 Y165.422 E8.70040
G1 X185.731 Y168.131 E8.80546
G1 X185.643 Y168.305 E8.81221
G1 X184.860 Y169.591 E8.86457
G1 X184.716 Y169.813 E8.87379
G1 X183.914 Y170.974 E8.92285
G1 X157.056 Y171.443 E9.85692
G1 X157.056 Y174.367 E9.95860
G1 X144.956 Y174.367 E10.37935
G1 X144.956 Y171.654 E10.47369
G1 X138.921 Y171.759 E10.68358
G1 X137.249 Y169.370 E10.78497
G1 X136.494 Y168.061 E10.83754
G1 X136.246 Y167.668 E10.85368
G1 X134.977 Y164.934 E10.95853
G1 X134.874 Y164.696 E10.96753
G1 X133.933 Y161.826 E11.07255
G1 X133.859 Y161.578 E11.08156
G1 X133.260 Y158.619 E11.18654
G1 X133.216 Y158.364 E11.19554
G1 X132.967 Y155.354 E11.30054
G1 X132.954 Y155.096 E11.30955
G1 X133.061 Y152.079 E11.41452
G1 X133.077 Y151.820 E11.42352
G1 X133.536 Y148.836 E11.52852
G1 X133.582 Y148.581 E11.53752
G1 X134.389 Y145.671 E11.64252
G1 X134.465 Y145.424 E11.65152
G1 X135.606 Y142.628 E11.75653
G1 X135.711 Y142.391 E11.76554
G1 X137.171 Y139.748 E11.87053
G1 X137.303 Y139.525 E11.87953
G1 X139.064 Y137.073 E11.98452
G1 X139.221 Y136.867 E11.99353
G1 X141.104 Y134.802 E12.09071
G1 X141.305 Y134.793 F9000.000
G92 E0
G1 E-1.00000 F2100.000
G1 X183.957 Y138.972 F9000.000
G1 E0.00000 F2100.000
;TYPE:Solid infill
;WIDTH:0.40169
G1 F1800.000
G1 X176.861 Y131.876 E0.35043
G92 E0
G1 E-1.00000 F2100.000
G1 X175.454 Y130.962 F9000.000
G1 E0.00000 F2100.000
G1 F1800.000
G1 X184.974 Y140.481 E0.47012
G1 X185.507 Y141.507 F9000.000
G1 F1800.000
G1 X174.353 Y130.353 E1.02095
G1 X173.252 Y129.745 F9000.000
G1 F1800.000
G1 X186.040 Y142.533 E1.65249
G1 X186.527 Y143.513 F9000.000
G1 F1800.000
G1 X172.695 Y129.681 E2.33557
G1 X171.863 Y129.342 E2.36692
G1 X186.585 Y144.064 E3.09395
G1 X186.854 Y144.713 E3.11847
G1 X186.909 Y144.881 E3.12464
G1 X171.032 Y129.003 E3.90873
G1 X170.200 Y128.665 E3.94008
G1 X187.151 Y145.616 E4.77719
G1 X187.393 Y146.351 E4.80421
G1 X169.513 Y128.471 E5.68720
G1 X168.832 Y128.282 E5.71189
G1 X187.628 Y147.078 E6.64012
G1 X187.786 Y147.728 E6.66349
G1 X168.150 Y128.093 E7.63316
G1 X167.469 Y127.905 E7.65785
G1 X187.943 Y148.379 E8.66896
G1 X188.101 Y149.030 E8.69233
G1 X166.821 Y127.750 E9.74321
G1 X166.219 Y127.641 E9.76458
G1 X188.219 Y149.640 E10.85102
G1 X188.301 Y150.215 E10.87129
G1 X165.619 Y127.533 E11.99142
G1 X165.055 Y127.463 E12.01125
G1 X188.383 Y150.790 E13.16324
G1 X188.464 Y151.364 E13.18352
G1 X164.492 Y127.392 E14.36738
G1 X163.928 Y127.321 E14.38721
G1 X188.529 Y151.922 E15.60208
G1 X188.561 Y152.447 E15.62046
G1 X163.389 Y127.274 E16.86358
G1 X162.863 Y127.242 E16.88196
G1 X188.594 Y152.972 E18.15263
G1 X188.626 Y153.497 E18.17100
G1 X162.338 Y127.209 E19.46921
G1 X162.262 Y127.205 E19.47188
G1 X161.847 Y127.212 E19.48635
G1 X188.658 Y154.023 E20.81039
G1 X188.665 Y154.125 E20.81397
G1 X188.658 Y154.515 E20.82758
G1 X161.363 Y127.220 E22.17552
G1 X160.878 Y127.228 E22.19245
G1 X188.649 Y154.999 E23.56388
G1 X188.640 Y155.483 E23.58079
G1 X160.393 Y127.236 E24.97573
G1 X159.909 Y127.244 E24.99266
G1 X188.621 Y155.957 E26.41061
G1 X188.574 Y156.402 E26.42625
G1 X159.424 Y127.252 E27.86580
G1 X159.098 Y127.258 E27.87719
G1 X158.955 Y127.276 E27.88223
G1 X188.526 Y156.848 E29.34262
G1 X188.479 Y157.293 E29.35826
G1 X158.516 Y127.331 E30.83793
G1 X158.078 Y127.385 E30.85335
G1 X188.431 Y157.738 E32.35232
G1 X188.384 Y158.184 E32.36796
G1 X157.640 Y127.440 E33.88622
G1 X157.202 Y127.495 E33.90164
G1 X188.336 Y158.629 E35.43919
G1 X188.317 Y158.808 E35.44546
G1 X188.287 Y159.028 E35.45322
G1 X188.279 Y159.065 E35.45454
G1 X156.764 Y127.549 E37.01089
G1 X156.326 Y127.604 E37.02631
G1 X188.188 Y159.466 E38.59980
G1 X188.096 Y159.868 E38.61418
G1 X155.890 Y127.661 E40.20466
G1 X155.495 Y127.759 E40.21888
G1 X188.005 Y160.269 E41.82438
G1 X187.914 Y160.671 E41.83877
G1 X155.100 Y127.856 E43.45928
G1 X154.704 Y127.954 E43.47350
G1 X187.823 Y161.072 E45.10903
G1 X187.731 Y161.474 E45.12341
G1 X154.309 Y128.051 E46.77396
G1 X153.914 Y128.149 E46.78818
G1 X187.640 Y161.876 E48.45375
G1 X187.626 Y161.937 E48.45595
G1 X187.571 Y162.152 E48.46370
G1 X187.532 Y162.260 E48.46771
G1 X153.518 Y128.247 E50.14746
G1 X153.123 Y128.344 E50.16168
G1 X187.402 Y162.623 E51.85454
G1 X187.272 Y162.986 E51.86800
G1 X152.735 Y128.449 E53.57363
G1 X152.376 Y128.583 E53.58700
G1 X187.143 Y163.350 E55.30391
G1 X187.013 Y163.713 E55.31738
G1 X152.018 Y128.718 E57.04559
G1 X151.659 Y128.852 E57.05895
G1 X186.883 Y164.076 E58.79846
G1 X186.753 Y164.439 E58.81192
G1 X151.301 Y128.986 E60.56271
G1 X150.943 Y129.121 E60.57608
G1 X186.624 Y164.802 E62.33816
G1 X186.494 Y165.165 E62.35162
G1 X150.584 Y129.255 E64.12500
G1 X150.226 Y129.390 E64.13837
G1 X186.332 Y165.496 E65.92142
G1 X186.169 Y165.825 E65.93427
G1 X149.868 Y129.524 E67.72698
G1 X149.798 Y129.550 E67.72957
G1 X149.598 Y129.647 E67.73732
G1 X149.532 Y129.681 E67.73993
G1 X186.006 Y166.155 E69.54118
G1 X185.843 Y166.485 E69.55403
G1 X149.207 Y129.850 E71.36325
G1 X148.883 Y130.018 E71.37602
G1 X185.680 Y166.815 E73.19322
G1 X185.517 Y167.145 E73.20606
G1 X148.558 Y130.186 E75.03124
G1 X148.234 Y130.355 E75.04400
G1 X185.354 Y167.475 E76.87715
G1 X185.191 Y167.805 E76.89000
G1 X147.909 Y130.523 E78.73112
G1 X147.585 Y130.692 E78.74388
G1 X185.018 Y168.125 E80.59251
G1 X184.832 Y168.431 E80.60503
G1 X147.260 Y130.860 E82.46047
G1 X146.954 Y131.019 E82.47252
G1 X146.938 Y131.030 E82.47322
G1 X184.645 Y168.738 E84.33539
G1 X184.459 Y169.044 E84.34791
G1 X146.643 Y131.229 E86.21540
G1 X146.349 Y131.427 E86.22780
G1 X184.268 Y169.346 E88.10040
G1 X184.068 Y169.639 E88.11278
G1 X146.055 Y131.626 E89.99003
G1 X145.761 Y131.824 E90.00243
G1 X183.868 Y169.932 E91.88432
G1 X183.668 Y170.224 E91.89671
G1 X145.466 Y132.023 E93.78325
G1 X145.172 Y132.222 E93.79565
G1 X183.308 Y170.357 E95.67895
G1 X182.823 Y170.366 E95.69586
G1 X144.878 Y132.420 E97.56977
G1 X144.584 Y132.619 E97.58217
G1 X182.339 Y170.374 E99.44669
G1 X181.854 Y170.382 E99.46360
G1 X144.290 Y132.818 E101.31869
G1 X144.025 Y133.046 E101.33089
G1 X181.370 Y170.391 E103.17513
G1 X180.886 Y170.399 E103.19205
G1 X143.761 Y133.274 E105.02543
G1 X143.496 Y133.503 E105.03764
G1 X180.401 Y170.408 E106.86017
G1 X179.917 Y170.416 E106.87709
G1 X143.231 Y133.731 E108.68878
G1 X142.967 Y133.959 E108.70098
G1 X179.433 Y170.425 E110.50181
G1 X178.948 Y170.433 E110.51873
G1 X142.702 Y134.187 E112.30872
G1 X142.437 Y134.415 E112.32092
G1 X178.464 Y170.442 E114.10005
G1 X177.979 Y170.450 E114.11697
G1 X142.173 Y134.643 E115.88526
G1 X141.908 Y134.872 E115.89746
G1 X177.495 Y170.459 E117.65489
G1 X177.011 Y170.467 E117.67181
G1 X141.668 Y135.125 E119.41717
G1 X141.433 Y135.382 E119.42935
G1 X176.526 Y170.475 E121.16242
G1 X176.042 Y170.484 E121.17934
G1 X141.197 Y135.639 E122.90013
G1 X140.961 Y135.896 E122.91231
G1 X175.557 Y170.492 E124.62081
G1 X175.073 Y170.501 E124.63773
G1 X140.726 Y136.153 E126.33395
G1 X140.490 Y136.411 E126.34613
G1 X174.589 Y170.509 E128.03007
G1 X174.104 Y170.518 E128.04699
G1 X140.254 Y136.668 E129.71864
G1 X140.019 Y136.925 E129.73082
G1 X173.620 Y170.526 E131.39019
G1 X173.135 Y170.535 E131.40711
G1 X139.783 Y137.182 E133.05420
G1 X139.705 Y137.267 E133.05821
