; generated by SuperSlicer 2.3.55 on 2021-05-07 at 16:02:23 UTC

; 

; external perimeters extrusion width = 0.40mm
; perimeters extrusion width = 0.40mm
; infill extrusion width = 0.40mm
; solid infill extrusion width = 0.40mm
; top infill extrusion width = 0.40mm
; first layer extrusion width = 0.40mm


M140 S70 ; set bed temperature
;TYPE:Custom
START_PRINT T_BED=70 T_EXTRUDER=245
M107
G21 ; set units to millimeters
G90 ; use absolute coordinates
M82 ; use absolute distances for extrusion
G92 E0
; Filament gcode
M109 S245 ; set temperature and wait for it to be reached
M190 S70 ; set bed temperature and wait for it to be reached
;LAYER_CHANGE
;Z:0.24
;HEIGHT:0.24
G1 Z0.240000 F9000.000
G1 E-0.80000 F2100.000
G1 X142.076 Y151.722 F9000.000
G1 E0.00000 F2100.000
;TYPE:Skirt
;WIDTH:0.4
G1 F900.000
G1 X143.170 Y150.720 E0.05159
G1 X143.984 Y150.216 E0.08489
G1 X144.863 Y149.837 E0.11818
G1 X145.817 Y149.585 E0.15248
G1 X146.775 Y149.481 E0.18598
G1 X181.006 Y149.477 E1.37629
G1 X182.010 Y149.570 E1.41137
G1 X182.981 Y149.845 E1.44645
G1 X183.886 Y150.291 E1.48153
G1 X184.694 Y150.895 E1.51661
G1 X185.379 Y151.635 E1.55169
G1 X185.918 Y152.488 E1.58677
G1 X186.292 Y153.419 E1.62165
G1 X186.491 Y154.408 E1.65673
G1 X186.501 Y175.493 E2.38992
G1 X186.272 Y176.647 E2.43082
G1 X185.806 Y177.721 E2.47153
G1 X185.121 Y178.677 E2.51243
G1 X184.253 Y179.463 E2.55314
G1 X183.548 Y179.900 E2.58198
G1 X182.786 Y180.226 E2.61082
G1 X181.983 Y180.435 E2.63966
G1 X181.152 Y180.521 E2.66871
G1 X145.843 Y180.521 E3.89650
G1 X144.599 Y180.342 E3.94022
G1 X143.427 Y179.887 E3.98393
G1 X142.389 Y179.178 E4.02765
G1 X141.537 Y178.253 E4.07136
G1 X141.114 Y177.574 E4.09920
G1 X140.791 Y176.835 E4.12723
G1 X140.579 Y176.057 E4.15527
G1 X140.483 Y175.256 E4.18331
G1 X140.488 Y155.659 E4.86476
G1 X140.715 Y154.255 E4.91424
G1 X141.258 Y152.905 E4.96482
G1 X142.042 Y151.772 E5.01274
G1 X142.331 Y151.975 F9000.000
G1 F900.000
G1 X143.403 Y150.982 E5.06355
G1 X144.169 Y150.513 E5.09476
G1 X144.995 Y150.161 E5.12599
G1 X145.889 Y149.927 E5.15812
G1 X146.798 Y149.829 E5.18991
G1 X181.006 Y149.826 E6.37943
G1 X181.950 Y149.914 E6.41241
G1 X182.862 Y150.173 E6.44538
G1 X183.712 Y150.594 E6.47836
G1 X184.471 Y151.163 E6.51134
G1 X185.113 Y151.861 E6.54432
G1 X185.617 Y152.664 E6.57730
G1 X185.964 Y153.541 E6.61008
G1 X186.147 Y154.471 E6.64306
G1 X186.155 Y175.443 E7.37233
G1 X185.942 Y176.533 E7.41095
G1 X185.501 Y177.553 E7.44957
G1 X184.849 Y178.458 E7.48838
G1 X184.022 Y179.200 E7.52700
G1 X183.366 Y179.602 E7.55374
G1 X182.652 Y179.903 E7.58069
G1 X181.902 Y180.095 E7.60763
G1 X181.131 Y180.173 E7.63457
G1 X145.854 Y180.172 E8.86126
G1 X144.677 Y180.002 E8.90259
G1 X143.576 Y179.571 E8.94373
G1 X142.601 Y178.901 E8.98488
G1 X141.800 Y178.022 E9.02621
G1 X141.409 Y177.386 E9.05218
G1 X141.111 Y176.695 E9.07834
G1 X140.917 Y175.968 E9.10450
G1 X140.831 Y175.226 E9.13047
G1 X140.836 Y155.679 E9.81019
G1 X141.052 Y154.343 E9.85725
G1 X141.573 Y153.056 E9.90554
G1 X142.297 Y152.024 E9.94937
G92 E0
G1 E-0.80000 F2100.000
G1 X146.387 Y155.486 F9000.000
G1 E0.00000 F2100.000
;TYPE:External perimeter
G1 F900.000
G1 X146.662 Y155.275 E0.01204
G1 X147.002 Y155.200 E0.02416
G1 X180.800 Y155.200 E1.19941
G1 X180.800 Y174.800 E1.88096
G1 X155.200 Y174.800 E2.77115
G1 X155.200 Y163.800 E3.15365
G1 X149.800 Y163.800 E3.34143
G1 X149.800 Y174.800 E3.72393
G1 X146.200 Y174.800 E3.84912
G1 X146.200 Y156.029 E4.50186
G1 X146.237 Y155.760 E4.51130
G1 X146.350 Y155.533 E4.52010
G92 E0
G1 E-0.80000 F2100.000
G1 X180.678 Y156.026 F9000.000
G1 E0.00000 F2100.000
;TYPE:Solid infill
;WIDTH:0.40337
G1 F1800.000
G1 X180.130 Y155.479 E0.02716
G1 X179.638 Y155.479 E0.04444
G1 X180.521 Y156.362 E0.08826
G1 X180.521 Y156.855 E0.10555
G1 X179.145 Y155.479 E0.17381
G1 X178.652 Y155.479 E0.19109
G1 X180.521 Y157.348 E0.28380
G1 X180.521 Y157.841 E0.30108
G1 X178.159 Y155.479 E0.41822
G1 X177.666 Y155.479 E0.43551
G1 X180.521 Y158.334 E0.57709
G1 X180.521 Y158.827 E0.59437
G1 X177.173 Y155.479 E0.76040
G1 X176.680 Y155.479 E0.77768
G1 X180.521 Y159.320 E0.96815
G1 X180.521 Y159.812 E0.98543
G1 X176.188 Y155.479 E1.20034
G1 X175.695 Y155.479 E1.21762
G1 X180.521 Y160.305 E1.45697
G1 X180.521 Y160.798 E1.47425
G1 X175.202 Y155.479 E1.73804
G1 X174.709 Y155.479 E1.75532
G1 X180.521 Y161.291 E2.04355
G1 X180.521 Y161.784 E2.06084
G1 X174.216 Y155.479 E2.37351
G1 X173.723 Y155.479 E2.39079
G1 X180.521 Y162.277 E2.72790
G1 X180.521 Y162.769 E2.74518
G1 X173.231 Y155.479 E3.10673
G1 X172.738 Y155.479 E3.12402
G1 X180.521 Y163.262 E3.51001
G1 X180.521 Y163.755 E3.52729
G1 X172.245 Y155.479 E3.93772
G1 X171.752 Y155.479 E3.95501
G1 X180.521 Y164.248 E4.38988
G1 X180.521 Y164.741 E4.40716
G1 X171.259 Y155.479 E4.86648
G1 X170.766 Y155.479 E4.88376
G1 X180.521 Y165.234 E5.36751
G1 X180.521 Y165.727 E5.38480
G1 X170.273 Y155.479 E5.89299
G1 X169.781 Y155.479 E5.91027
G1 X180.521 Y166.219 E6.44291
G1 X180.521 Y166.712 E6.46019
G1 X169.288 Y155.479 E7.01727
G1 X168.795 Y155.479 E7.03455
G1 X180.521 Y167.205 E7.61607
G1 X180.521 Y167.698 E7.63335
G1 X168.302 Y155.479 E8.23931
G1 X167.809 Y155.479 E8.25659
G1 X180.521 Y168.191 E8.88699
G1 X180.521 Y168.684 E8.90427
G1 X167.316 Y155.479 E9.55911
G1 X166.824 Y155.479 E9.57640
G1 X180.521 Y169.176 E10.25568
G1 X180.521 Y169.669 E10.27296
G1 X166.331 Y155.479 E10.97668
G1 X165.838 Y155.479 E10.99396
G1 X180.521 Y170.162 E11.72212
G1 X180.521 Y170.655 E11.73941
G1 X165.345 Y155.479 E12.49201
G1 X164.852 Y155.479 E12.50929
G1 X180.521 Y171.148 E13.28633
G1 X180.521 Y171.641 E13.30362
G1 X164.359 Y155.479 E14.10510
G1 X163.866 Y155.479 E14.12238
G1 X180.521 Y172.134 E14.94831
G1 X180.521 Y172.626 E14.96559
G1 X163.374 Y155.479 E15.81595
G1 X162.881 Y155.479 E15.83324
G1 X180.521 Y173.119 E16.70804
G1 X180.521 Y173.612 E16.72532
G1 X162.388 Y155.479 E17.62457
G1 X161.895 Y155.479 E17.64185
G1 X180.521 Y174.105 E18.56554
G1 X180.521 Y174.521 E18.58014
G1 X180.445 Y174.521 E18.58282
G1 X161.402 Y155.479 E19.52715
G1 X160.909 Y155.479 E19.54443
G1 X179.952 Y174.521 E20.48876
G1 X179.459 Y174.521 E20.50605
G1 X160.417 Y155.479 E21.45038
G1 X159.924 Y155.479 E21.46766
G1 X178.966 Y174.521 E22.41199
G1 X178.473 Y174.521 E22.42927
G1 X159.431 Y155.479 E23.37360
G1 X158.938 Y155.479 E23.39088
G1 X177.980 Y174.521 E24.33521
G1 X177.488 Y174.521 E24.35250
G1 X158.445 Y155.479 E25.29683
G1 X157.952 Y155.479 E25.31411
G1 X176.995 Y174.521 E26.25844
G1 X176.502 Y174.521 E26.27572
G1 X157.459 Y155.479 E27.22005
G1 X156.967 Y155.479 E27.23733
G1 X176.009 Y174.521 E28.18167
G1 X175.516 Y174.521 E28.19895
G1 X156.474 Y155.479 E29.14328
G1 X155.981 Y155.479 E29.16056
G1 X175.023 Y174.521 E30.10489
G1 X174.530 Y174.521 E30.12217
G1 X155.488 Y155.479 E31.06650
G1 X154.995 Y155.479 E31.08378
G1 X174.038 Y174.521 E32.02812
G1 X173.545 Y174.521 E32.04540
G1 X154.502 Y155.479 E32.98973
G1 X154.010 Y155.479 E33.00701
G1 X173.052 Y174.521 E33.95134
G1 X172.559 Y174.521 E33.96862
G1 X153.517 Y155.479 E34.91295
G1 X153.024 Y155.479 E34.93023
G1 X172.066 Y174.521 E35.87457
G1 X171.573 Y174.521 E35.89185
G1 X152.531 Y155.479 E36.83618
G1 X152.038 Y155.479 E36.85346
G1 X171.081 Y174.521 E37.79779
G1 X170.588 Y174.521 E37.81507
G1 X151.545 Y155.479 E38.75940
G1 X151.052 Y155.479 E38.77669
G1 X170.095 Y174.521 E39.72102
G1 X169.602 Y174.521 E39.73830
G1 X150.560 Y155.479 E40.68263
G1 X150.067 Y155.479 E40.69991
G1 X169.109 Y174.521 E41.64424
G1 X168.616 Y174.521 E41.66152
G1 X149.574 Y155.479 E42.60585
G1 X149.081 Y155.479 E42.62314
G1 X168.123 Y174.521 E43.56747
G1 X167.631 Y174.521 E43.58475
G1 X148.588 Y155.479 E44.52908
G1 X148.095 Y155.479 E44.54636
G1 X167.138 Y174.521 E45.49069
G1 X166.645 Y174.521 E45.50797
G1 X147.603 Y155.479 E46.45230
G1 X147.110 Y155.479 E46.46959
G1 X155.152 Y163.521 E46.86842
G1 X155.479 Y163.521 E46.87987
G1 X155.479 Y163.848 E46.89133
G1 X166.152 Y174.521 E47.42063
G1 X165.659 Y174.521 E47.43791
G1 X155.479 Y164.341 E47.94277
G1 X155.479 Y164.834 E47.96005
G1 X165.166 Y174.521 E48.44047
G1 X164.674 Y174.521 E48.45775
G1 X155.479 Y165.326 E48.91372
G1 X155.479 Y165.819 E48.93101
G1 X164.181 Y174.521 E49.36254
G1 X163.688 Y174.521 E49.37982
G1 X155.479 Y166.312 E49.78692
G1 X155.479 Y166.805 E49.80420
G1 X163.195 Y174.521 E50.18686
G1 X162.702 Y174.521 E50.20414
G1 X155.479 Y167.298 E50.56235
G1 X155.479 Y167.791 E50.57963
G1 X162.209 Y174.521 E50.91341
G1 X161.716 Y174.521 E50.93069
G1 X155.479 Y168.284 E51.24002
G1 X155.479 Y168.776 E51.25730
G1 X161.224 Y174.521 E51.54220
G1 X160.731 Y174.521 E51.55948
G1 X155.479 Y169.269 E51.81993
G1 X155.479 Y169.762 E51.83721
G1 X160.238 Y174.521 E52.07322
G1 X159.745 Y174.521 E52.09050
G1 X155.479 Y170.255 E52.30207
G1 X155.479 Y170.748 E52.31936
G1 X159.252 Y174.521 E52.50649
G1 X158.759 Y174.521 E52.52377
G1 X155.479 Y171.241 E52.68646
G1 X155.479 Y171.733 E52.70374
G1 X158.267 Y174.521 E52.84199
G1 X157.774 Y174.521 E52.85927
G1 X155.479 Y172.226 E52.97308
G1 X155.479 Y172.719 E52.99036
G1 X157.281 Y174.521 E53.07972
G1 X156.788 Y174.521 E53.09701
G1 X155.479 Y173.212 E53.16193
G1 X155.479 Y173.705 E53.17921
G1 X156.295 Y174.521 E53.21970
G1 X155.802 Y174.521 E53.23698
G1 X155.322 Y174.041 E53.26080
G92 E0
G1 E-0.80000 F2100.000
G1 X154.816 Y163.678 F9000.000
G1 E0.00000 F2100.000
G1 F1800.000
G1 X146.711 Y155.573 E0.40192
G1 X146.633 Y155.633 E0.40538
G1 X146.502 Y155.857 E0.41447
G1 X154.166 Y163.521 E0.79453
G1 X153.674 Y163.521 E0.81182
G1 X146.479 Y156.326 E1.16861
G1 X146.479 Y156.819 E1.18589
G1 X153.181 Y163.521 E1.51825
G1 X152.688 Y163.521 E1.53553
G1 X146.479 Y157.312 E1.84344
G1 X146.479 Y157.805 E1.86073
G1 X152.195 Y163.521 E2.14420
G1 X151.702 Y163.521 E2.16148
G1 X146.479 Y158.298 E2.42051
G1 X146.479 Y158.791 E2.43780
G1 X151.209 Y163.521 E2.67239
G1 X150.716 Y163.521 E2.68967
G1 X146.479 Y159.284 E2.89982
G1 X146.479 Y159.776 E2.91710
G1 X150.224 Y163.521 E3.10281
G1 X149.731 Y163.521 E3.12009
G1 X146.479 Y160.269 E3.28136
G1 X146.479 Y160.762 E3.29865
G1 X149.521 Y163.804 E3.44952
G1 X149.521 Y164.297 E3.46680
G1 X146.479 Y161.255 E3.61768
G1 X146.479 Y161.748 E3.63496
G1 X149.521 Y164.790 E3.78584
G1 X149.521 Y165.283 E3.80312
G1 X146.479 Y162.241 E3.95400
G1 X146.479 Y162.733 E3.97128
G1 X149.521 Y165.776 E4.12216
G1 X149.521 Y166.269 E4.13944
G1 X146.479 Y163.226 E4.29032
G1 X146.479 Y163.719 E4.30760
G1 X149.521 Y166.762 E4.45848
G1 X149.521 Y167.254 E4.47576
G1 X146.479 Y164.212 E4.62663
G1 X146.479 Y164.705 E4.64392
G1 X149.521 Y167.747 E4.79479
G1 X149.521 Y168.240 E4.81208
G1 X146.479 Y165.198 E4.96295
G1 X146.479 Y165.691 E4.98023
G1 X149.521 Y168.733 E5.13111
G1 X149.521 Y169.226 E5.14839
G1 X146.479 Y166.183 E5.29927
G1 X146.479 Y166.676 E5.31655
G1 X149.521 Y169.719 E5.46743
G1 X149.521 Y170.211 E5.48471
G1 X146.479 Y167.169 E5.63559
G1 X146.479 Y167.662 E5.65287
G1 X149.521 Y170.704 E5.80375
G1 X149.521 Y171.197 E5.82103
G1 X146.479 Y168.155 E5.97190
G1 X146.479 Y168.648 E5.98919
G1 X149.521 Y171.690 E6.14006
G1 X149.521 Y172.183 E6.15735
G1 X146.479 Y169.140 E6.30822
G1 X146.479 Y169.633 E6.32550
G1 X149.521 Y172.676 E6.47638
G1 X149.521 Y173.169 E6.49366
G1 X146.479 Y170.126 E6.64454
G1 X146.479 Y170.619 E6.66182
G1 X149.521 Y173.661 E6.81270
G1 X149.521 Y174.154 E6.82998
G1 X146.479 Y171.112 E6.98086
G1 X146.479 Y171.605 E6.99814
G1 X149.395 Y174.521 E7.14277
G1 X148.902 Y174.521 E7.16006
G1 X146.479 Y172.098 E7.28025
G1 X146.479 Y172.590 E7.29753
G1 X148.410 Y174.521 E7.39328
G1 X147.917 Y174.521 E7.41056
G1 X146.479 Y173.083 E7.48188
G1 X146.479 Y173.576 E7.49916
G1 X147.424 Y174.521 E7.54603
G1 X146.931 Y174.521 E7.56331
G1 X146.322 Y173.912 E7.59352
;LAYER_CHANGE
;Z:0.44
;HEIGHT:0.2
G1 Z0.440000 F9000.000
G1 X146.200 Y173.912
;TYPE:External perimeter
;WIDTH:0.4
G1 F1800.000
M204 P400
G1 X146.201 Y156.040 E8.12415
G1 X146.307 Y155.600 E8.13760
G1 X146.631 Y155.290 E8.15089
G1 X147.002 Y155.200 E8.16225
G1 X180.800 Y155.200 E9.16575
G1 X180.800 Y174.800 E9.74770
G1 X155.200 Y174.800 E10.50780
G1 X155.200 Y163.800 E10.83440
G1 X149.800 Y163.800 E10.99473
G1 X149.800 Y174.800 E11.32134
G1 X146.200 Y174.800 E11.42823
G1 X146.200 Y173.972 E11.45281
G92 E0
G1 E-0.80000 F2100.000
M204 P500
G1 X179.953 Y174.675 F9000.000
G1 E0.00000 F2100.000
;TYPE:Solid infill
;WIDTH:0.403273
G1 F1800.000
G1 X180.514 Y174.114 E0.02376
G1 X180.514 Y173.609 E0.03887
G1 X179.609 Y174.514 E0.07720
G1 X179.104 Y174.514 E0.09232
G1 X180.514 Y173.104 E0.15203
G1 X180.514 Y172.599 E0.16714
G1 X178.599 Y174.514 E0.24823
G1 X178.094 Y174.514 E0.26335
G1 X180.514 Y172.094 E0.36581
G1 X180.514 Y171.589 E0.38093
G1 X177.589 Y174.514 E0.50477
G1 X177.084 Y174.514 E0.51989
G1 X180.514 Y171.084 E0.66511
G1 X180.514 Y170.579 E0.68022
G1 X176.579 Y174.514 E0.84682
G1 X176.074 Y174.514 E0.86194
G1 X180.514 Y170.074 E1.04991
G1 X180.514 Y169.569 E1.06503
G1 X175.569 Y174.514 E1.27438
G1 X175.064 Y174.514 E1.28950
G1 X180.514 Y169.064 E1.52023
G1 X180.514 Y168.559 E1.53535
G1 X174.559 Y174.514 E1.78746
G1 X174.054 Y174.514 E1.80257
G1 X180.514 Y168.054 E2.07606
G1 X180.514 Y167.549 E2.09118
G1 X173.549 Y174.514 E2.38604
G1 X173.044 Y174.514 E2.40116
G1 X180.514 Y167.044 E2.71740
G1 X180.514 Y166.539 E2.73252
G1 X172.539 Y174.514 E3.07014
G1 X172.034 Y174.514 E3.08525
G1 X180.514 Y166.034 E3.44425
G1 X180.514 Y165.529 E3.45937
G1 X171.529 Y174.514 E3.83974
G1 X171.024 Y174.514 E3.85486
G1 X180.514 Y165.024 E4.25661
G1 X180.514 Y164.519 E4.27173
G1 X170.519 Y174.514 E4.69486
G1 X170.014 Y174.514 E4.70998
G1 X180.514 Y164.014 E5.15448
G1 X180.514 Y163.509 E5.16960
G1 X169.509 Y174.514 E5.63549
G1 X169.004 Y174.514 E5.65060
G1 X180.514 Y163.004 E6.13787
G1 X180.514 Y162.499 E6.15299
G1 X168.499 Y174.514 E6.66163
G1 X167.994 Y174.514 E6.67674
G1 X180.514 Y161.994 E7.20676
G1 X180.514 Y161.489 E7.22188
G1 X167.489 Y174.514 E7.77328
G1 X166.984 Y174.514 E7.78840
G1 X180.514 Y160.984 E8.36117
G1 X180.514 Y160.479 E8.37629
G1 X166.479 Y174.514 E8.97044
G1 X165.974 Y174.514 E8.98556
G1 X180.514 Y159.974 E9.60109
G1 X180.514 Y159.469 E9.61620
G1 X165.469 Y174.514 E10.25311
G1 X164.964 Y174.514 E10.26823
G1 X180.514 Y158.964 E10.92652
G1 X180.514 Y158.459 E10.94163
G1 X164.459 Y174.514 E11.62130
G1 X163.954 Y174.514 E11.63641
G1 X180.514 Y157.954 E12.33746
G1 X180.514 Y157.449 E12.35257
G1 X163.449 Y174.514 E13.07499
G1 X162.944 Y174.514 E13.09011
G1 X180.514 Y156.944 E13.83391
G1 X180.514 Y156.439 E13.84902
G1 X162.439 Y174.514 E14.61420
G1 X161.934 Y174.514 E14.62932
G1 X180.514 Y155.934 E15.41587
G1 X180.514 Y155.486 E15.42930
G1 X180.458 Y155.486 E15.43099
G1 X161.429 Y174.514 E16.23654
G1 X160.924 Y174.514 E16.25165
G1 X179.953 Y155.486 E17.05720
G1 X179.448 Y155.486 E17.07232
G1 X160.419 Y174.514 E17.87787
G1 X159.914 Y174.514 E17.89299
G1 X178.943 Y155.486 E18.69854
G1 X178.438 Y155.486 E18.71365
G1 X159.409 Y174.514 E19.51920
G1 X158.904 Y174.514 E19.53432
G1 X177.933 Y155.486 E20.33987
G1 X177.428 Y155.486 E20.35499
G1 X158.399 Y174.514 E21.16054
G1 X157.894 Y174.514 E21.17565
G1 X176.923 Y155.486 E21.98120
G1 X176.418 Y155.486 E21.99632
G1 X157.390 Y174.514 E22.80187
G1 X156.885 Y174.514 E22.81698
G1 X175.913 Y155.486 E23.62253
G1 X175.408 Y155.486 E23.63765
G1 X156.380 Y174.514 E24.44320
G1 X155.875 Y174.514 E24.45832
G1 X174.903 Y155.486 E25.26387
G1 X174.398 Y155.486 E25.27898
G1 X155.486 Y174.398 E26.07962
G1 X155.486 Y173.893 E26.09474
G1 X173.893 Y155.486 E26.87399
G1 X173.388 Y155.486 E26.88911
G1 X155.486 Y173.388 E27.64699
G1 X155.486 Y172.883 E27.66211
G1 X172.883 Y155.486 E28.39861
G1 X172.378 Y155.486 E28.41372
G1 X155.486 Y172.378 E29.12885
G1 X155.486 Y171.873 E29.14396
G1 X171.873 Y155.486 E29.83771
G1 X171.368 Y155.486 E29.85283
G1 X155.486 Y171.368 E30.52520
G1 X155.486 Y170.863 E30.54031
G1 X170.863 Y155.486 E31.19130
G1 X170.358 Y155.486 E31.20642
G1 X155.486 Y170.358 E31.83603
G1 X155.486 Y169.853 E31.85115
G1 X169.853 Y155.486 E32.45938
G1 X169.348 Y155.486 E32.47450
G1 X155.486 Y169.348 E33.06136
G1 X155.486 Y168.843 E33.07647
G1 X168.843 Y155.486 E33.64195
