; generated by SuperSlicer 2.4 on 2022-05-21 at 04:52:28 UTC


;
;

;
;
; 

; external perimeters extrusion width = 0.40mm
; perimeters extrusion width = 0.45mm
; infill extrusion width = 0.72mm
; solid infill extrusion width = 0.56mm
; top infill extrusion width = 0.40mm
; first layer extrusion width = 0.48mm

; object:{"name":"Liniear_right","id":"Liniear_right.stl id:0 copy 0","object_center":[152.500000,150.000000,0.000000],"boundingbox_center":[152.500000,150.000000,16.000000],"boundingbox_size":[59.500000,62.500000,32.000000]}
; plater:{"center":[152.500000,150.000000,0.000000],"boundingbox_center":[152.500000,150.000000,16.000000],"boundingbox_size":[59.500000,62.500000,32.000000]}

M73 P0 R95
;TYPE:Custom
START_PRINT T_BED=70 T_EXTRUDER=235
M107
G21 ; set units to millimeters
G90 ; use absolute coordinates
M83 ; use relative distances for extrusion
; Filament gcode
M104 S235 ; set temperature
M109 S235 ; set temperature and wait for it to be reached
M190 S70 ; set bed temperature and wait for it to be reached
M107
;LAYER_CHANGE
;Z:0.24
;HEIGHT:0.24
G1 Z0.24 F9000
G92 E0
M73 P0 R94
G1 E-1 F3000
M204 S1000
G1 X120.645 Y115.88 F9000
G1 E1 F1800
;TYPE:Skirt
;WIDTH:0.52
G1 X119.545 Y117.187 E0.07988
G1 X119.15 Y118.85 E0.07988
G1 X119.15 Y166.15 E2.21112
G1 X119.369 Y167.404 E0.0595
G1 X120.304 Y168.834 E0.07988
G1 X121.782 Y169.692 E0.07988
G1 X171.321 Y184.611 E2.41852
G1 X172.43 Y184.799 E0.05258
G1 X174.003 Y184.85 E0.07356
G1 X174.979 Y184.784 E0.04575
G1 X176.217 Y184.535 E0.05901
G1 X177.915 Y183.837 E0.08586
G1 X178.97 Y183.143 E0.05901
G1 X179.903 Y182.293 E0.05901
G1 X180.694 Y181.309 E0.05901
G1 X181.056 Y180.726 E0.03208
G1 X181.692 Y179.308 E0.07266
G1 X185.66 Y167.404 E0.58657
G1 X185.85 Y166.234 E0.0554
G1 X185.85 Y127.753 E1.79886
G1 X185.788 Y126.546 E0.05648
G1 X185.482 Y124.745 E0.08538
G1 X185.068 Y123.395 E0.06603
G1 X184.506 Y122.099 E0.06603
G1 X184.024 Y121.225 E0.04666
G1 X183.225 Y120.06 E0.06603
G1 X182.008 Y118.698 E0.08538
G1 X181.264 Y118.033 E0.04665
G1 X180.126 Y117.197 E0.06603
G1 X178.901 Y116.494 E0.06603
G1 X177.605 Y115.932 E0.06603
G1 X175.85 Y115.426 E0.08538
G1 X174.454 Y115.212 E0.06603
G1 X173.455 Y115.156 E0.04679
G1 X122.85 Y115.15 E2.3656
G1 X120.645 Y115.88 E0.10858
G1 X121.014 Y116.222 F9000
G1 F1800
G1 X120.011 Y117.304 E0.06895
G1 X119.617 Y118.85 E0.0746
G1 X119.617 Y166.15 E2.21112
G1 X119.743 Y167.045 E0.04226
G1 X120.55 Y168.422 E0.0746
G1 X121.917 Y169.246 E0.0746
G1 X171.412 Y184.154 E2.41642
G1 X172.46 Y184.334 E0.04973
G1 X174.003 Y184.383 E0.07213
G1 X174.943 Y184.32 E0.04405
G1 X176.109 Y184.082 E0.05561
G1 X177.673 Y183.438 E0.07908
G1 X178.668 Y182.787 E0.05561
G1 X179.55 Y181.988 E0.05561
G1 X180.297 Y181.063 E0.05561
G1 X180.66 Y180.48 E0.03208
G1 X181.249 Y179.16 E0.06756
G1 X185.217 Y167.256 E0.58657
G1 X185.383 Y166.234 E0.04842
G1 X185.383 Y127.753 E1.79886
G1 X185.322 Y126.572 E0.05526
G1 X185.034 Y124.875 E0.0805
G1 X184.757 Y123.916 E0.04666
G1 X184.256 Y122.651 E0.06358
G1 X183.615 Y121.451 E0.06358
G1 X182.845 Y120.33 E0.06358
G1 X181.698 Y119.046 E0.0805
G1 X180.953 Y118.381 E0.04665
G1 X179.856 Y117.577 E0.06358
G1 X178.675 Y116.902 E0.06358
G1 X177.427 Y116.363 E0.06358
G1 X175.772 Y115.886 E0.0805
G1 X174.428 Y115.678 E0.06358
G1 X173.428 Y115.622 E0.04679
G1 X122.85 Y115.617 E2.36438
G1 X121.096 Y116.134 E0.08548
G1 X121.014 Y116.222 E0.00565
G1 E-1 F3000
; printing object Liniear_right.stl id:0 copy 0
G1 X169.257 Y171.83 F9000
G1 E1 F1800
;TYPE:Internal perimeter
;WIDTH:0.48
G1 X168.812 Y172.275 E0.02688
G1 X168.452 Y172.848 E0.02895
G1 X168.229 Y173.487 E0.02895
G1 X168.153 Y174.16 E0.02895
G1 X168.229 Y174.833 E0.02895
G1 X168.452 Y175.472 E0.02895
G1 X168.812 Y176.045 E0.02895
G1 X169.291 Y176.524 E0.02895
G1 X169.864 Y176.884 E0.02895
G1 X170.503 Y177.107 E0.02895
G1 X171.176 Y177.183 E0.02895
G1 X171.849 Y177.107 E0.02895
G1 X172.488 Y176.884 E0.02895
G1 X173.061 Y176.524 E0.02895
G1 X173.54 Y176.045 E0.02895
G1 X173.9 Y175.472 E0.02895
G1 X174.124 Y174.833 E0.02895
G1 X174.2 Y174.16 E0.02895
G1 X174.124 Y173.487 E0.02895
G1 X173.9 Y172.848 E0.02895
G1 X173.54 Y172.275 E0.02895
G1 X173.061 Y171.796 E0.02895
G1 X172.488 Y171.436 E0.02895
G1 X171.849 Y171.212 E0.02895
G1 X171.176 Y171.136 E0.02895
G1 X170.84 Y171.174 E0.01447
G1 X170.503 Y171.212 E0.01447
G1 X169.864 Y171.436 E0.02895
G1 X169.291 Y171.796 E0.02895
G1 X169.257 Y171.83 E0.00206
G1 X169.56 Y172.133 F9000
;TYPE:External perimeter
G1 F1800
G1 X169.15 Y172.544 E0.02482
G1 X168.841 Y173.035 E0.02482
G1 X168.649 Y173.583 E0.02482
G1 X168.584 Y174.16 E0.02482
G1 X168.649 Y174.737 E0.02482
G1 X168.841 Y175.284 E0.02482
G1 X169.15 Y175.776 E0.02482
G1 X169.56 Y176.186 E0.02482
G1 X170.051 Y176.495 E0.02482
G1 X170.599 Y176.687 E0.02482
G1 X171.176 Y176.752 E0.02482
G1 X171.753 Y176.687 E0.02482
G1 X172.301 Y176.495 E0.02482
G1 X172.792 Y176.186 E0.02482
G1 X173.203 Y175.776 E0.02482
G1 X173.512 Y175.284 E0.02482
G1 X173.703 Y174.737 E0.02482
G1 X173.768 Y174.16 E0.02482
G1 X173.703 Y173.583 E0.02482
G1 X173.512 Y173.035 E0.02482
G1 X173.203 Y172.544 E0.02482
G1 X172.792 Y172.133 E0.02482
G1 X172.301 Y171.824 E0.02482
G1 X171.753 Y171.633 E0.02482
G1 X171.176 Y171.568 E0.02482
G1 X170.888 Y171.6 E0.01241
G1 X170.599 Y171.633 E0.01241
G1 X170.051 Y171.824 E0.02482
G1 X169.56 Y172.133 E0.02482
;WIPE_START
M204 S3000
G1 X169.182 Y172.001 F9000
;WIPE_END
M204 S1000
G1 X171.128 Y126.699
;TYPE:Internal perimeter
G1 F1800
G1 X171.176 Y126.704 E0.00206
G1 X171.849 Y126.628 E0.02895
G1 X172.488 Y126.405 E0.02895
G1 X173.061 Y126.045 E0.02895
G1 X173.54 Y125.566 E0.02895
G1 X173.9 Y124.993 E0.02895
G1 X174.124 Y124.354 E0.02895
G1 X174.2 Y123.681 E0.02895
G1 X174.124 Y123.008 E0.02895
G1 X173.9 Y122.369 E0.02895
G1 X173.54 Y121.796 E0.02895
G1 X173.061 Y121.317 E0.02895
G1 X172.488 Y120.957 E0.02895
G1 X171.849 Y120.733 E0.02895
G1 X171.176 Y120.657 E0.02895
G1 X170.84 Y120.695 E0.01447
G1 X170.503 Y120.733 E0.01447
G1 X169.864 Y120.957 E0.02895
G1 X169.291 Y121.317 E0.02895
G1 X168.812 Y121.796 E0.02895
G1 X168.452 Y122.369 E0.02895
G1 X168.229 Y123.008 E0.02895
G1 X168.153 Y123.681 E0.02895
G1 X168.229 Y124.354 E0.02895
G1 X168.452 Y124.993 E0.02895
G1 X168.812 Y125.566 E0.02895
G1 X169.291 Y126.045 E0.02895
G1 X169.864 Y126.405 E0.02895
G1 X170.503 Y126.628 E0.02895
G1 X171.128 Y126.699 E0.02688
G1 X171.176 Y126.273 F9000
;TYPE:External perimeter
G1 F1800
G1 X171.753 Y126.208 E0.02482
G1 X172.301 Y126.016 E0.02482
G1 X172.792 Y125.707 E0.02482
G1 X173.203 Y125.297 E0.02482
G1 X173.512 Y124.805 E0.02482
G1 X173.703 Y124.258 E0.02482
G1 X173.768 Y123.681 E0.02482
G1 X173.703 Y123.104 E0.02482
G1 X173.512 Y122.556 E0.02482
G1 X173.203 Y122.065 E0.02482
G1 X172.792 Y121.654 E0.02482
G1 X172.301 Y121.345 E0.02482
G1 X171.753 Y121.154 E0.02482
G1 X171.176 Y121.089 E0.02482
G1 X170.888 Y121.121 E0.01241
G1 X170.599 Y121.154 E0.01241
G1 X170.051 Y121.345 E0.02482
G1 X169.56 Y121.654 E0.02482
G1 X169.15 Y122.065 E0.02482
G1 X168.841 Y122.556 E0.02482
G1 X168.649 Y123.104 E0.02482
G1 X168.584 Y123.681 E0.02482
G1 X168.649 Y124.258 E0.02482
G1 X168.841 Y124.805 E0.02482
G1 X169.15 Y125.297 E0.02482
G1 X169.56 Y125.707 E0.02482
G1 X170.051 Y126.016 E0.02482
G1 X170.599 Y126.208 E0.02482
G1 X171.176 Y126.273 E0.02482
;WIPE_START
M204 S3000
G1 X171.389 Y126.612 F9000
;WIPE_END
M204 S1000
G1 X155.196 Y148.622
;TYPE:Internal perimeter
G1 F1800
G1 X154.643 Y148.313 E0.02709
G1 X153.908 Y148.053 E0.03332
G1 X153.14 Y147.921 E0.03332
G1 X152.36 Y147.921 E0.03332
G1 X151.592 Y148.053 E0.03332
G1 X150.857 Y148.313 E0.03332
G1 X150.177 Y148.693 E0.03332
G1 X149.57 Y149.183 E0.03332
G1 X149.055 Y149.768 E0.03333
G1 X148.646 Y150.433 E0.03339
G1 X148.356 Y151.155 E0.03326
G1 X148.192 Y151.916 E0.03331
G1 X148.159 Y152.695 E0.03332
G1 X148.258 Y153.468 E0.03332
G1 X148.486 Y154.213 E0.03332
G1 X148.837 Y154.909 E0.03332
G1 X149.301 Y155.536 E0.03332
G1 X149.863 Y156.075 E0.03332
G1 X150.509 Y156.512 E0.03332
G1 X151.219 Y156.833 E0.03332
G1 X151.973 Y157.029 E0.03332
G1 X152.75 Y157.095 E0.03332
G1 X153.527 Y157.029 E0.03332
G1 X154.281 Y156.833 E0.03332
G1 X154.991 Y156.512 E0.03332
G1 X155.637 Y156.075 E0.03332
G1 X156.199 Y155.536 E0.03332
G1 X156.663 Y154.909 E0.03332
G1 X157.014 Y154.213 E0.03332
G1 X157.194 Y153.624 E0.02636
G1 X157.798 Y154.486 E0.04499
G1 X158.514 Y155.202 E0.04331
G1 X159.344 Y155.783 E0.04331
G1 X160.262 Y156.211 E0.04331
G1 X161.241 Y156.474 E0.04331
G1 X162.25 Y156.562 E0.04331
G1 X163.259 Y156.474 E0.04331
G1 X164.238 Y156.211 E0.04331
G1 X165.156 Y155.783 E0.04331
G1 X165.986 Y155.202 E0.04331
G1 X166.702 Y154.486 E0.04331
G1 X167.283 Y153.656 E0.04331
G1 X167.711 Y152.738 E0.04331
G1 X167.974 Y151.759 E0.04331
G1 X168.062 Y150.75 E0.04331
G1 X167.974 Y149.741 E0.04331
G1 X167.711 Y148.762 E0.04331
G1 X167.283 Y147.844 E0.04331
G1 X166.702 Y147.014 E0.04331
G1 X165.986 Y146.298 E0.04331
G1 X165.156 Y145.717 E0.04331
G1 X164.238 Y145.289 E0.04331
G1 X163.259 Y145.026 E0.04331
G1 X162.25 Y144.938 E0.04331
G1 X161.745 Y144.982 E0.02166
G1 X161.241 Y145.026 E0.02166
G1 X160.262 Y145.289 E0.04331
G1 X159.344 Y145.717 E0.04331
G1 X158.514 Y146.298 E0.04331
G1 X157.798 Y147.014 E0.04332
G1 X157.217 Y147.844 E0.04331
G1 X156.789 Y148.762 E0.04331
G1 X156.502 Y149.833 E0.04738
G1 X155.93 Y149.183 E0.03703
G1 X155.323 Y148.693 E0.03332
G1 X155.196 Y148.622 E0.00624
G1 X156.904 Y150.341 F9000
G1 F1800
G1 X156.857 Y150.884 E0.0233
G1 X156.589 Y150.923 E0.01157
G1 X156.469 Y150.625 E0.01375
G1 X156.099 Y150.023 E0.03021
G1 X155.632 Y149.493 E0.0302
G1 X155.082 Y149.049 E0.0302
G1 X154.466 Y148.705 E0.03021
G1 X153.8 Y148.469 E0.0302
G1 X153.103 Y148.35 E0.03021
G1 X152.397 Y148.35 E0.0302
G1 X151.7 Y148.469 E0.03021
G1 X151.034 Y148.705 E0.0302
G1 X150.418 Y149.049 E0.03021
G1 X149.868 Y149.493 E0.0302
G1 X149.401 Y150.023 E0.03021
G1 X149.03 Y150.626 E0.03027
G1 X148.767 Y151.281 E0.03014
G1 X148.619 Y151.971 E0.0302
G1 X148.589 Y152.677 E0.03021
G1 X148.678 Y153.377 E0.0302
G1 X148.885 Y154.053 E0.0302
G1 X149.203 Y154.684 E0.0302
G1 X149.623 Y155.252 E0.0302
G1 X150.133 Y155.741 E0.0302
G1 X150.719 Y156.136 E0.0302
G1 X151.362 Y156.427 E0.0302
G1 X152.046 Y156.605 E0.0302
G1 X152.75 Y156.665 E0.0302
G1 X153.454 Y156.605 E0.0302
G1 X154.138 Y156.427 E0.0302
G1 X154.781 Y156.136 E0.0302
G1 X155.367 Y155.741 E0.0302
G1 X155.877 Y155.252 E0.0302
G1 X156.297 Y154.684 E0.0302
G1 X156.615 Y154.053 E0.0302
G1 X156.822 Y153.377 E0.0302
G1 X156.922 Y152.595 E0.03373
G1 X157.176 Y152.555 E0.01101
G1 X157.461 Y153.165 E0.02878
G1 X157.589 Y153.441 E0.013
G1 X158.127 Y154.209 E0.04011
G1 X158.791 Y154.873 E0.04011
G1 X159.559 Y155.411 E0.04011
G1 X160.409 Y155.807 E0.04011
G1 X161.315 Y156.05 E0.04011
G1 X162.25 Y156.132 E0.04011
G1 X163.185 Y156.05 E0.04011
G1 X164.091 Y155.807 E0.04011
G1 X164.941 Y155.411 E0.04011
G1 X165.709 Y154.873 E0.04011
G1 X166.373 Y154.209 E0.04011
G1 X166.642 Y153.825 E0.02005
G1 X166.911 Y153.441 E0.02005
G1 X167.307 Y152.591 E0.04011
G1 X167.55 Y151.685 E0.04011
G1 X167.632 Y150.75 E0.04011
G1 X167.55 Y149.815 E0.04011
G1 X167.307 Y148.909 E0.04011
G1 X166.911 Y148.059 E0.04011
G1 X166.373 Y147.291 E0.04011
G1 X165.709 Y146.627 E0.04011
G1 X164.941 Y146.089 E0.04011
G1 X164.091 Y145.693 E0.04011
G1 X163.185 Y145.45 E0.04011
G1 X162.25 Y145.368 E0.04011
G1 X161.783 Y145.409 E0.02005
G1 X161.315 Y145.45 E0.02005
G1 X160.409 Y145.693 E0.04011
G1 X159.559 Y146.089 E0.04011
G1 X158.791 Y146.627 E0.04011
G1 X158.127 Y147.291 E0.04011
G1 X157.589 Y148.059 E0.04011
G1 X157.193 Y148.909 E0.04011
G1 X157.071 Y149.362 E0.02005
G1 X156.95 Y149.815 E0.02005
G1 X156.904 Y150.341 E0.02254
G1 X154.778 Y149.37 F9000
G1 F1800
G1 X154.288 Y149.097 E0.02397
G1 X153.691 Y148.885 E0.02709
G1 X153.067 Y148.778 E0.02709
G1 X152.433 Y148.778 E0.02709
G1 X151.809 Y148.885 E0.02709
G1 X151.212 Y149.097 E0.02709
G1 X150.658 Y149.405 E0.02709
G1 X150.166 Y149.803 E0.02709
G1 X149.747 Y150.279 E0.02709
G1 X149.414 Y150.82 E0.02714
G1 X149.179 Y151.406 E0.02703
G1 X149.045 Y152.026 E0.02708
G1 X149.018 Y152.659 E0.02709
G1 X149.099 Y153.287 E0.02709
G1 X149.284 Y153.893 E0.02709
G1 X149.569 Y154.458 E0.02709
G1 X149.946 Y154.968 E0.02709
G1 X150.404 Y155.406 E0.02709
G1 X150.928 Y155.761 E0.02709
G1 X151.506 Y156.022 E0.02709
G1 X152.119 Y156.181 E0.02709
G1 X152.75 Y156.235 E0.02709
G1 X153.381 Y156.181 E0.02709
G1 X153.994 Y156.022 E0.02709
G1 X154.572 Y155.761 E0.02709
G1 X155.096 Y155.406 E0.02709
G1 X155.554 Y154.968 E0.02709
G1 X155.931 Y154.458 E0.02709
G1 X156.216 Y153.893 E0.02709
G1 X156.401 Y153.287 E0.02709
G1 X156.482 Y152.659 E0.02709
G1 X156.455 Y152.026 E0.02709
G1 X156.321 Y151.406 E0.02709
G1 X156.085 Y150.818 E0.02709
G1 X155.753 Y150.279 E0.02709
G1 X155.334 Y149.803 E0.02709
G1 X154.842 Y149.405 E0.02709
G1 X154.778 Y149.37 E0.00312
G1 X154.569 Y149.744 F9000
G1 F1800
G1 X154.111 Y149.488 E0.02241
G1 X153.583 Y149.302 E0.02397
G1 X153.03 Y149.207 E0.02397
G1 X152.47 Y149.207 E0.02397
G1 X151.917 Y149.302 E0.02397
G1 X151.389 Y149.488 E0.02397
G1 X150.899 Y149.762 E0.02397
G1 X150.463 Y150.114 E0.02397
G1 X150.093 Y150.535 E0.02397
G1 X149.798 Y151.013 E0.02402
G1 X149.59 Y151.532 E0.02391
G1 X149.472 Y152.08 E0.02396
G1 X149.448 Y152.64 E0.02397
G1 X149.519 Y153.196 E0.02397
G1 X149.683 Y153.732 E0.02397
G1 X149.936 Y154.233 E0.02397
G1 X150.269 Y154.684 E0.02397
G1 X150.674 Y155.071 E0.02397
G1 X151.138 Y155.385 E0.02397
G1 X151.649 Y155.616 E0.02397
G1 X152.191 Y155.757 E0.02397
G1 X152.75 Y155.805 E0.02397
G1 X153.309 Y155.757 E0.02397
G1 X153.851 Y155.616 E0.02397
G1 X154.362 Y155.385 E0.02397
G1 X154.826 Y155.071 E0.02397
G1 X155.231 Y154.684 E0.02397
G1 X155.564 Y154.233 E0.02397
G1 X155.817 Y153.732 E0.02397
G1 X155.981 Y153.196 E0.02397
G1 X156.052 Y152.64 E0.02397
G1 X156.028 Y152.08 E0.02397
G1 X155.91 Y151.532 E0.02397
G1 X155.701 Y151.012 E0.02397
G1 X155.407 Y150.535 E0.02397
G1 X155.037 Y150.114 E0.02397
G1 X154.601 Y149.762 E0.02397
G1 X154.569 Y149.744 E0.00156
G1 X154.36 Y150.118 F9000
;TYPE:External perimeter
G1 F1800
G1 X153.934 Y149.88 E0.02085
G1 X153.474 Y149.718 E0.02085
G1 X152.994 Y149.635 E0.02085
G1 X152.506 Y149.635 E0.02085
G1 X152.026 Y149.718 E0.02085
G1 X151.566 Y149.88 E0.02085
G1 X151.14 Y150.118 E0.02085
G1 X150.761 Y150.424 E0.02085
G1 X150.439 Y150.79 E0.02085
G1 X150.182 Y151.207 E0.0209
G1 X150.001 Y151.658 E0.0208
G1 X149.898 Y152.135 E0.02085
G1 X149.878 Y152.622 E0.02085
G1 X149.94 Y153.106 E0.02085
G1 X150.082 Y153.572 E0.02085
G1 X150.302 Y154.007 E0.02085
G1 X150.592 Y154.399 E0.02085
G1 X150.944 Y154.737 E0.02085
G1 X151.348 Y155.01 E0.02085
G1 X151.792 Y155.211 E0.02085
G1 X152.264 Y155.334 E0.02085
G1 X152.75 Y155.375 E0.02085
G1 X153.236 Y155.334 E0.02085
G1 X153.708 Y155.211 E0.02085
G1 X154.152 Y155.01 E0.02085
G1 X154.556 Y154.737 E0.02085
G1 X154.908 Y154.399 E0.02085
G1 X155.198 Y154.007 E0.02085
G1 X155.418 Y153.572 E0.02085
G1 X155.56 Y153.106 E0.02085
G1 X155.622 Y152.622 E0.02085
G1 X155.602 Y152.135 E0.02085
G1 X155.499 Y151.658 E0.02085
G1 X155.317 Y151.206 E0.02085
G1 X155.061 Y150.79 E0.02085
G1 X154.739 Y150.424 E0.02085
G1 X154.36 Y150.118 E0.02085
;WIPE_START
M204 S3000
G1 X154.377 Y149.718 F9000
;WIPE_END
M204 S1000
G1 X157.331 Y150.378
;TYPE:Internal perimeter
G1 F1800
G1 X157.298 Y150.75 E0.01597
G1 X157.374 Y151.61 E0.0369
G1 X157.597 Y152.444 E0.0369
G1 X157.849 Y152.984 E0.02551
G1 X157.962 Y153.226 E0.0114
G1 X158.457 Y153.933 E0.0369
G1 X159.067 Y154.543 E0.0369
G1 X159.774 Y155.038 E0.0369
G1 X160.556 Y155.403 E0.0369
G1 X161.39 Y155.626 E0.0369
G1 X162.25 Y155.702 E0.0369
G1 X163.11 Y155.626 E0.0369
G1 X163.944 Y155.403 E0.0369
G1 X164.726 Y155.038 E0.0369
G1 X165.433 Y154.543 E0.0369
G1 X166.043 Y153.933 E0.0369
G1 X166.291 Y153.579 E0.01845
G1 X166.538 Y153.226 E0.01845
G1 X166.903 Y152.444 E0.0369
G1 X167.126 Y151.61 E0.0369
G1 X167.202 Y150.75 E0.0369
G1 X167.126 Y149.89 E0.0369
G1 X166.903 Y149.056 E0.0369
G1 X166.538 Y148.274 E0.0369
G1 X166.043 Y147.567 E0.0369
