; generated by SuperSlicer 2.4 on 2022-09-13 at 22:17:23 UTC


;
;

;
;
; 

; external perimeters extrusion width = 0.40mm
; perimeters extrusion width = 0.50mm
; infill extrusion width = 0.72mm
; solid infill extrusion width = 0.56mm
; top infill extrusion width = 0.40mm
; support material extrusion width = 0.50mm

; object:{"name":"Scraper","id":"Scraper.STL id:0 copy 0","object_center":[152.500000,150.000000,0.000000],"boundingbox_center":[152.500000,150.000000,4.000000],"boundingbox_size":[37.000002,189.936813,8.000000]}
; plater:{"center":[152.500000,150.000000,0.000000],"boundingbox_center":[152.500000,150.000000,4.000000],"boundingbox_size":[37.000002,189.936813,8.000000]}

M73 P0 R56
;TYPE:Custom
START_PRINT T_BED=60 T_EXTRUDER=200
M107
G21 ; set units to millimeters
G90 ; use absolute coordinates
M83 ; use relative distances for extrusion
; Filament gcode
;_TOOLCHANGE 0
M104 S200 ; set temperature
M109 S200 ; set temperature and wait for it to be reached
M190 S60 ; set bed temperature and wait for it to be reached
M107
;LAYER_CHANGE
;Z:0.2
;HEIGHT:0.2
G1 Z0.2 F9000
G92 E0
G1 E-0.8 F3000
M204 S1000
G1 X133.207 Y62.679 F9000
G1 E0.8 F1800
;TYPE:Skirt
;WIDTH:0.52
G1 X131.495 Y66.582 E0.16569
G1 X130.648 Y70.133 E0.14193
G1 X130.386 Y73.459 E0.12969
G1 X130.411 Y244.673 E6.6561
G1 X131.148 Y246.893 E0.09095
G1 X132.46 Y247.993 E0.06657
G1 X134.127 Y248.388 E0.06657
G1 X170.873 Y248.388 E1.42857
G1 X173.094 Y247.651 E0.09095
G1 X174.194 Y246.339 E0.06657
G1 X174.589 Y244.673 E0.06657
G1 X174.614 Y73.459 E6.6561
M73 P0 R56
G1 X174.352 Y70.133 E0.12969
G1 X173.505 Y66.582 E0.14193
G1 X172.085 Y63.219 E0.14193
G1 X170.131 Y60.135 E0.14193
G1 X167.695 Y57.415 E0.14193
G1 X164.846 Y55.133 E0.14193
G1 X161.659 Y53.351 E0.14193
G1 X158.223 Y52.117 E0.14193
G1 X154.631 Y51.467 E0.14193
G1 X150.981 Y51.416 E0.14193
G1 X147.372 Y51.967 E0.14193
G1 X143.34 Y53.351 E0.16569
G1 X140.154 Y55.133 E0.14193
G1 X137.305 Y57.415 E0.14193
G1 X134.869 Y60.135 E0.14193
G1 X133.207 Y62.679 E0.11814
G1 X133.607 Y62.94 F9000
G1 F1800
G1 X132.132 Y66.193 E0.13887
G1 X131.124 Y70.172 E0.15958
G1 X130.863 Y73.459 E0.12816
G1 X130.888 Y244.673 E6.6561
G1 X131.407 Y246.431 E0.07128
G1 X132.579 Y247.517 E0.06209
G1 X134.127 Y247.911 E0.06209
G1 X170.873 Y247.911 E1.42857
G1 X172.632 Y247.392 E0.07128
G1 X173.718 Y246.22 E0.06209
G1 X174.112 Y244.673 E0.06209
G1 X174.137 Y73.459 E6.6561
M73 P1 R55
G1 X173.876 Y70.172 E0.12816
G1 X173.042 Y66.699 E0.13887
G1 X171.648 Y63.41 E0.13887
G1 X169.731 Y60.396 E0.13887
G1 X167.344 Y57.738 E0.13887
G1 X164.553 Y55.509 E0.13887
G1 X161.432 Y53.77 E0.13887
G1 X158.068 Y52.569 E0.13887
G1 X154.552 Y51.937 E0.13887
G1 X150.981 Y51.893 E0.13887
G1 X147.45 Y52.437 E0.13887
G1 X143.568 Y53.77 E0.15958
G1 X140.447 Y55.509 E0.13887
G1 X137.656 Y57.738 E0.13887
G1 X135.269 Y60.396 E0.13887
G1 X133.607 Y62.94 E0.11814
G1 E-0.8 F3000
; printing object Scraper.STL id:0 copy 0
G1 X169.212 Y243.151 F9000
G1 E0.8 F1800
;TYPE:Internal perimeter
;WIDTH:0.5
G1 X135.788 Y243.151 E1.24492
G1 X143.121 Y160.04 E3.1076
G1 X143.121 Y130.003 E1.11876
G1 X143.215 Y127.811 E0.08173
G1 X143.289 Y119.043 E0.32656
G1 X142.837 Y109.73 E0.34729
G1 X141.842 Y100.509 E0.34544
G1 X140.299 Y91.311 E0.3474
G1 X138.214 Y82.179 E0.34887
G1 X135.64 Y73.304 E0.34417
G1 X135.857 Y70.691 E0.09766
G1 X136.541 Y67.99 E0.1038
G1 X137.66 Y65.438 E0.1038
G1 X139.185 Y63.105 E0.1038
G1 X141.072 Y61.054 E0.1038
G1 X143.271 Y59.343 E0.1038
G1 X145.722 Y58.016 E0.1038
G1 X148.358 Y57.112 E0.1038
G1 X151.107 Y56.653 E0.1038
G1 X153.893 Y56.653 E0.1038
G1 X155.052 Y56.846 E0.04377
G1 X156.642 Y57.112 E0.06003
G1 X159.278 Y58.016 E0.1038
G1 X161.729 Y59.343 E0.1038
G1 X163.928 Y61.054 E0.1038
G1 X165.815 Y63.105 E0.1038
G1 X167.34 Y65.438 E0.1038
G1 X168.459 Y67.99 E0.1038
G1 X169.143 Y70.691 E0.1038
G1 X169.36 Y73.304 E0.09765
G1 X166.801 Y82.12 E0.34192
G1 X164.701 Y91.311 E0.35113
G1 X163.158 Y100.509 E0.3474
G1 X162.163 Y109.73 E0.34543
G1 X161.712 Y118.987 E0.34518
G1 X161.785 Y127.81 E0.32867
G1 X161.879 Y130.003 E0.08174
G1 X161.879 Y160.04 E1.11876
G1 X169.212 Y243.151 E3.1076
M73 P1 R55
G1 X169.711 Y243.608 F9000
G1 F1800
G1 X135.289 Y243.608 E1.28211
G1 X142.664 Y160.02 E3.12544
G1 X142.664 Y129.993 E1.11837
G1 X142.758 Y127.799 E0.0818
G1 X142.832 Y119.053 E0.32578
G1 X142.381 Y109.766 E0.3463
G1 X141.389 Y100.572 E0.34444
G1 X139.851 Y91.399 E0.3464
G1 X137.771 Y82.294 E0.34788
G1 X135.178 Y73.351 E0.34682
G1 X135.405 Y70.616 E0.10221
G1 X136.107 Y67.841 E0.10662
G1 X137.257 Y65.219 E0.10662
G1 X138.823 Y62.823 E0.10662
G1 X140.761 Y60.717 E0.10662
G1 X143.02 Y58.959 E0.10662
G1 X145.538 Y57.596 E0.10662
G1 X148.245 Y56.667 E0.10662
G1 X151.069 Y56.196 E0.10662
G1 X153.931 Y56.196 E0.10662
G1 X155.128 Y56.395 E0.04518
G1 X156.755 Y56.667 E0.06144
G1 X159.462 Y57.596 E0.10662
G1 X161.98 Y58.959 E0.10662
G1 X164.239 Y60.717 E0.10662
G1 X166.177 Y62.823 E0.10662
G1 X167.743 Y65.219 E0.10662
G1 X168.893 Y67.841 E0.10662
G1 X169.595 Y70.616 E0.10662
G1 X169.822 Y73.35 E0.10221
G1 X167.244 Y82.235 E0.34457
G1 X165.149 Y91.399 E0.35014
G1 X163.611 Y100.572 E0.34641
G1 X162.619 Y109.766 E0.34443
G1 X162.169 Y118.996 E0.3442
G1 X162.242 Y127.799 E0.32789
G1 X162.336 Y129.993 E0.08181
G1 X162.336 Y160.02 E1.11837
G1 X169.711 Y243.608 E3.12544
G1 X170.21 Y244.065 F9000
G1 F1800
G1 X134.79 Y244.065 E1.3193
G1 X142.207 Y160 E3.14329
G1 X142.207 Y129.983 E1.11798
G1 X142.301 Y127.787 E0.08187
G1 X142.374 Y119.062 E0.32501
G1 X141.925 Y109.801 E0.34531
G1 X140.936 Y100.634 E0.34344
G1 X139.402 Y91.488 E0.3454
G1 X137.328 Y82.408 E0.3469
G1 X134.715 Y73.397 E0.34947
G1 X134.952 Y70.54 E0.10676
G1 X135.673 Y67.692 E0.10944
G1 X136.854 Y65.001 E0.10944
G1 X138.461 Y62.541 E0.10944
G1 X140.451 Y60.38 E0.10944
G1 X142.77 Y58.575 E0.10944
G1 X145.354 Y57.176 E0.10944
G1 X148.133 Y56.222 E0.10944
G1 X151.031 Y55.739 E0.10944
G1 X153.969 Y55.739 E0.10944
G1 X155.203 Y55.945 E0.04659
G1 X156.867 Y56.222 E0.06285
G1 X159.646 Y57.176 E0.10944
G1 X162.23 Y58.575 E0.10944
G1 X164.549 Y60.38 E0.10944
G1 X166.539 Y62.541 E0.10944
G1 X168.146 Y65.001 E0.10944
G1 X169.327 Y67.692 E0.10944
G1 X170.048 Y70.54 E0.10944
G1 X170.285 Y73.397 E0.10676
G1 X167.687 Y82.35 E0.34722
G1 X165.598 Y91.488 E0.34915
G1 X164.064 Y100.634 E0.34541
G1 X163.075 Y109.801 E0.34343
G1 X162.626 Y119.005 E0.34321
G1 X162.699 Y127.787 E0.32711
G1 X162.793 Y129.983 E0.08188
G1 X162.793 Y160 E1.11798
G1 X170.21 Y244.065 E3.14329
G1 X170.655 Y244.472 F9000
;TYPE:External perimeter
;WIDTH:0.4
G1 F1800
G1 X134.345 Y244.472 E1.05653
G1 X141.8 Y159.982 E2.46801
M73 P2 R54
G1 X141.8 Y129.975 E0.87312
G1 X141.894 Y127.777 E0.06401
G1 X141.967 Y119.07 E0.25336
G1 X141.519 Y109.833 E0.26908
G1 X140.533 Y100.689 E0.2676
G1 X139.002 Y91.567 E0.26914
G1 X136.934 Y82.51 E0.27031
G1 X134.304 Y73.438 E0.27486
G1 X134.549 Y70.473 E0.08657
G1 X135.287 Y67.559 E0.08746
G1 X136.494 Y64.807 E0.08746
G1 X138.138 Y62.29 E0.08746
G1 X140.174 Y60.079 E0.08746
G1 X142.546 Y58.233 E0.08746
G1 X145.19 Y56.802 E0.08746
G1 X148.032 Y55.826 E0.08746
G1 X150.997 Y55.332 E0.08746
G1 X154.003 Y55.332 E0.08746
G1 X155.27 Y55.543 E0.03738
G1 X156.968 Y55.826 E0.05008
G1 X159.81 Y56.802 E0.08746
G1 X162.454 Y58.233 E0.08746
G1 X164.826 Y60.079 E0.08746
G1 X166.862 Y62.29 E0.08746
G1 X168.506 Y64.807 E0.08746
G1 X169.713 Y67.559 E0.08746
G1 X170.451 Y70.473 E0.08746
G1 X170.696 Y73.438 E0.08657
G1 X168.081 Y82.452 E0.2731
G1 X165.998 Y91.567 E0.27207
G1 X164.467 Y100.69 E0.26914
G1 X163.481 Y109.833 E0.2676
G1 X163.034 Y119.013 E0.26744
G1 X163.106 Y127.777 E0.255
G1 X163.2 Y129.975 E0.06401
G1 X163.2 Y159.982 E0.87312
M73 P3 R54
G1 X170.655 Y244.472 E2.46801
;WIPE_START
M204 S3000
G1 X170.303 Y244.282 F9000
;WIPE_END
G1 E-0.8 F3000
M204 S1000
G1 X166.082 Y63.622 F9000
G1 E0.8 F1800
;TYPE:Solid infill
;WIDTH:0.554696
G1 F2400
G1 X163.674 Y61.214 E0.14215
G1 X161.574 Y59.58 E0.11107
G1 X160.995 Y59.266 E0.02749
G1 X166.694 Y64.966 E0.33641
G1 X167.091 Y65.572 E0.03024
G1 X167.498 Y66.5 E0.0423
G1 X159.401 Y58.404 E0.4779
G1 X159.164 Y58.275 E0.01124
G1 X158.216 Y57.95 E0.04184
G1 X168.069 Y67.803 E0.58157
G1 X168.191 Y68.082 E0.01269
G1 X168.386 Y68.851 E0.03315
G1 X157.103 Y57.568 E0.66601
G1 X156.573 Y57.386 E0.02339
G1 X156.113 Y57.309 E0.01946
G1 X168.634 Y69.831 E0.73908
G1 X168.864 Y70.738 E0.03906
G1 X168.869 Y70.796 E0.00246
G1 X155.235 Y57.162 E0.80473
G1 X155.006 Y57.124 E0.00969
G1 X154.357 Y57.016 E0.02745
G1 X168.935 Y71.594 E0.86044
G1 X169.001 Y72.391 E0.03339
G1 X153.545 Y56.935 E0.9123
G1 X152.813 Y56.935 E0.03052
G1 X169.067 Y73.188 E0.95936
G1 X169.074 Y73.275 E0.00364
G1 X168.928 Y73.78 E0.02194
G1 X152.082 Y56.935 E0.9943
G1 X151.351 Y56.935 E0.03052
G1 X168.763 Y74.347 E1.02775
G1 X168.599 Y74.914 E0.02463
G1 X150.693 Y57.008 E1.0569
G1 X150.066 Y57.112 E0.02652
G1 X168.434 Y75.481 E1.08418
G1 X168.27 Y76.048 E0.02463
G1 X149.439 Y57.217 E1.11146
G1 X148.813 Y57.321 E0.02652
G1 X168.105 Y76.614 E1.13875
G1 X167.941 Y77.181 E0.02463
G1 X148.218 Y57.458 E1.16416
G1 X147.673 Y57.645 E0.02402
G1 X167.777 Y77.748 E1.18658
G1 X167.612 Y78.315 E0.02463
G1 X147.129 Y57.831 E1.209
G1 X146.584 Y58.018 E0.02402
G1 X167.448 Y78.881 E1.23143
G1 X167.283 Y79.448 E0.02463
G1 X146.04 Y58.205 E1.25385
G1 X145.836 Y58.275 E0.00902
G1 X145.539 Y58.436 E0.01406
G1 X167.119 Y80.015 E1.2737
G1 X166.954 Y80.582 E0.02463
G1 X145.065 Y58.693 E1.292
G1 X144.59 Y58.949 E0.02252
G1 X166.79 Y81.149 E1.31029
G1 X166.625 Y81.715 E0.02463
G1 X144.116 Y59.206 E1.32859
G1 X143.641 Y59.463 E0.02252
G1 X166.472 Y82.294 E1.34758
G1 X166.336 Y82.889 E0.02548
G1 X143.202 Y59.754 E1.36552
G1 X142.79 Y60.074 E0.02175
G1 X166.2 Y83.484 E1.38176
G1 X166.064 Y84.08 E0.02548
G1 X142.379 Y60.394 E1.398
G1 X141.968 Y60.714 E0.02175
G1 X165.928 Y84.675 E1.41424
G1 X165.792 Y85.27 E0.02548
G1 X141.557 Y61.034 E1.43048
M73 P3 R54
G1 X141.264 Y61.262 E0.0155
G1 X141.163 Y61.372 E0.00621
G1 X165.656 Y85.865 E1.4457
G1 X165.52 Y86.46 E0.02548
G1 X140.812 Y61.753 E1.45835
G1 X140.462 Y62.133 E0.0216
G1 X165.384 Y87.056 E1.47101
G1 X165.248 Y87.651 E0.02548
G1 X140.111 Y62.514 E1.48367
G1 X139.761 Y62.895 E0.0216
G1 X165.112 Y88.246 E1.49633
G1 X164.976 Y88.841 E0.02548
G1 X139.41 Y63.276 E1.50899
G1 X139.121 Y63.718 E0.02204
G1 X164.84 Y89.437 E1.51804
G1 X164.704 Y90.032 E0.02548
G1 X138.832 Y64.16 E1.52707
G1 X138.543 Y64.602 E0.02205
G1 X164.568 Y90.627 E1.5361
G1 X164.432 Y91.222 E0.02548
G1 X138.254 Y65.044 E1.54512
G1 X137.965 Y65.487 E0.02205
G1 X164.325 Y91.847 E1.55588
G1 X164.22 Y92.473 E0.0265
G1 X137.729 Y65.982 E1.56359
G1 X137.506 Y66.491 E0.02317
G1 X164.115 Y93.099 E1.57055
G1 X164.01 Y93.725 E0.0265
G1 X137.283 Y66.999 E1.57751
G1 X137.061 Y67.507 E0.02317
G1 X163.905 Y94.352 E1.58447
G1 X163.8 Y94.978 E0.0265
G1 X136.838 Y68.015 E1.59143
G1 X136.809 Y68.082 E0.00301
G1 X136.68 Y68.589 E0.02186
G1 X163.695 Y95.604 E1.59452
G1 X163.59 Y96.23 E0.0265
G1 X136.532 Y69.173 E1.59705
G1 X136.384 Y69.756 E0.02512
G1 X163.485 Y96.856 E1.59957
G1 X163.38 Y97.483 E0.0265
G1 X136.237 Y70.34 E1.60209
G1 X136.136 Y70.738 E0.01714
G1 X136.118 Y70.952 E0.00899
G1 X163.275 Y98.109 E1.60289
G1 X163.17 Y98.735 E0.0265
G1 X136.062 Y71.628 E1.59999
G1 X136.006 Y72.303 E0.02828
G1 X163.065 Y99.361 E1.59709
G1 X162.959 Y99.987 E0.0265
G1 X135.95 Y72.978 E1.59419
G1 X135.926 Y73.276 E0.01246
G1 X136.093 Y73.852 E0.02504
G1 X162.862 Y100.621 E1.58004
G1 X162.791 Y101.281 E0.02771
G1 X136.391 Y74.882 E1.55821
G1 X136.69 Y75.912 E0.04475
G1 X162.72 Y101.942 E1.53639
G1 X162.649 Y102.602 E0.02771
G1 X136.989 Y76.942 E1.51456
G1 X137.287 Y77.971 E0.04475
G1 X162.577 Y103.262 E1.49273
G1 X162.506 Y103.922 E0.02771
G1 X137.586 Y79.001 E1.47091
G1 X137.884 Y80.031 E0.04475
G1 X162.435 Y104.582 E1.44908
G1 X162.364 Y105.242 E0.02771
G1 X138.183 Y81.061 E1.42725
G1 X138.482 Y82.091 E0.04475
G1 X162.293 Y105.902 E1.40543
G1 X162.221 Y106.562 E0.02771
G1 X138.699 Y83.04 E1.38837
G1 X138.916 Y83.988 E0.04057
G1 X162.15 Y107.222 E1.37139
M73 P4 R53
G1 X162.079 Y107.882 E0.02771
G1 X139.132 Y84.935 E1.35441
M73 P4 R53
G1 X139.349 Y85.883 E0.04057
G1 X162.008 Y108.542 E1.33743
G1 X161.937 Y109.202 E0.02771
G1 X139.565 Y86.831 E1.32046
G1 X139.782 Y87.778 E0.04057
G1 X161.874 Y109.871 E1.30399
G1 X161.84 Y110.568 E0.02914
G1 X139.998 Y88.726 E1.28921
G1 X140.214 Y89.674 E0.04057
G1 X161.806 Y111.266 E1.27443
G1 X161.772 Y111.963 E0.02914
G1 X140.431 Y90.622 E1.25965
G1 X140.576 Y91.256 E0.02716
G1 X140.625 Y91.546 E0.0123
G1 X161.738 Y112.66 E1.24622
G1 X161.704 Y113.357 E0.02914
G1 X140.772 Y92.425 E1.23551
G1 X140.919 Y93.304 E0.03718
G1 X161.67 Y114.055 E1.2248
G1 X161.636 Y114.752 E0.02914
G1 X141.067 Y94.182 E1.2141
G1 X141.214 Y95.061 E0.03718
G1 X161.602 Y115.449 E1.20339
G1 X161.568 Y116.147 E0.02914
G1 X141.362 Y95.94 E1.19269
G1 X141.509 Y96.818 E0.03718
G1 X161.534 Y116.844 E1.18198
G1 X161.5 Y117.541 E0.02914
G1 X141.656 Y97.697 E1.17128
G1 X141.804 Y98.576 E0.03718
G1 X161.466 Y118.238 E1.16057
G1 X161.432 Y118.936 E0.02914
G1 X141.951 Y99.454 E1.14986
G1 X142.099 Y100.333 E0.03718
G1 X161.436 Y119.67 E1.14137
G1 X161.442 Y120.408 E0.03078
G1 X142.196 Y101.162 E1.13597
G1 X142.285 Y101.982 E0.03441
G1 X161.448 Y121.145 E1.13111
G1 X161.454 Y121.882 E0.03078
G1 X142.373 Y102.801 E1.12625
G1 X142.461 Y103.621 E0.03441
G1 X161.46 Y122.62 E1.12139
G1 X161.466 Y123.357 E0.03078
G1 X142.55 Y104.441 E1.11653
G1 X142.638 Y105.26 E0.03441
G1 X161.472 Y124.095 E1.11168
G1 X161.479 Y124.832 E0.03078
G1 X142.727 Y106.08 E1.10682
G1 X142.815 Y106.9 E0.03441
G1 X161.485 Y125.569 E1.10196
G1 X161.491 Y126.307 E0.03078
G1 X142.903 Y107.719 E1.0971
G1 X142.992 Y108.539 E0.03441
G1 X161.497 Y127.044 E1.09224
G1 X161.503 Y127.781 E0.03078
G1 X143.08 Y109.359 E1.08738
G1 X143.118 Y109.708 E0.01467
G1 X143.139 Y110.149 E0.01842
G1 X161.534 Y128.544 E1.08575
G1 X161.567 Y129.308 E0.03191
G1 X143.177 Y110.918 E1.08547
G1 X143.214 Y111.686 E0.03211
G1 X161.597 Y130.069 E1.08504
G1 X161.597 Y130.8 E0.03052
G1 X143.251 Y112.455 E1.08284
G1 X143.289 Y113.223 E0.03211
G1 X161.597 Y131.532 E1.08064
G1 X161.597 Y132.263 E0.03052
G1 X143.326 Y113.992 E1.07843
G1 X143.363 Y114.76 E0.03211
G1 X161.597 Y132.994 E1.07623
G1 X161.597 Y133.725 E0.03052
G1 X143.4 Y115.529 E1.07403
G1 X143.438 Y116.297 E0.03211
G1 X161.597 Y134.457 E1.07183
G1 X161.597 Y135.188 E0.03052
G1 X143.475 Y117.066 E1.06963
G1 X143.512 Y117.834 E0.03211
G1 X161.597 Y135.919 E1.06743
G1 X161.597 Y136.65 E0.03052
G1 X143.55 Y118.603 E1.06523
G1 X143.571 Y119.038 E0.01816
G1 X143.568 Y119.353 E0.01315
G1 X161.597 Y137.382 E1.06414
G1 X161.597 Y138.113 E0.03052
G1 X143.562 Y120.078 E1.0645
G1 X143.556 Y120.803 E0.03027
G1 X161.597 Y138.844 E1.06486
M73 P5 R53
G1 X161.597 Y139.575 E0.03052
G1 X143.55 Y121.528 E1.06522
G1 X143.544 Y122.253 E0.03027
G1 X161.597 Y140.307 E1.06558
G1 X161.597 Y141.038 E0.03052
G1 X143.537 Y122.979 E1.06594
G1 X143.531 Y123.704 E0.03027
G1 X161.597 Y141.769 E1.0663
G1 X161.597 Y142.5 E0.03052
G1 X143.525 Y124.429 E1.06666
G1 X143.519 Y125.154 E0.03027
G1 X161.597 Y143.232 E1.06702
G1 X161.597 Y143.963 E0.03052
G1 X143.513 Y125.879 E1.06738
G1 X143.507 Y126.604 E0.03027
G1 X161.597 Y144.694 E1.06774
G1 X161.597 Y145.426 E0.03052
G1 X143.501 Y127.329 E1.0681
G1 X143.497 Y127.818 E0.02038
G1 X143.487 Y128.047 E0.00957
G1 X161.597 Y146.157 E1.06892
G1 X161.597 Y146.888 E0.03052
G1 X143.457 Y128.748 E1.07069
G1 X143.427 Y129.449 E0.0293
G1 X161.597 Y147.619 E1.07246
G1 X161.597 Y148.351 E0.03052
G1 X143.403 Y130.157 E1.07387
G1 X143.403 Y130.888 E0.03052
G1 X161.597 Y149.082 E1.07387
G1 X161.597 Y149.813 E0.03052
G1 X143.403 Y131.619 E1.07387
G1 X143.403 Y132.351 E0.03052
G1 X161.597 Y150.544 E1.07387
G1 X161.597 Y151.276 E0.03052
G1 X143.403 Y133.082 E1.07387
G1 X143.403 Y133.813 E0.03052
G1 X161.597 Y152.007 E1.07387
G1 X161.597 Y152.738 E0.03052
G1 X143.403 Y134.544 E1.07387
G1 X143.403 Y135.276 E0.03052
G1 X161.597 Y153.469 E1.07387
G1 X161.597 Y154.201 E0.03052
G1 X143.403 Y136.007 E1.07387
