; generated by SuperSlicer 2.4 on 2022-06-07 at 17:12:15 UTC


;
;

;
;
; 

; external perimeters extrusion width = 0.40mm
; perimeters extrusion width = 0.40mm
; infill extrusion width = 0.72mm
; solid infill extrusion width = 0.56mm
; top infill extrusion width = 0.40mm
; support material extrusion width = 0.40mm
; first layer extrusion width = 0.48mm

; object:{"name":"Untitled","id":"Untitled.stl id:0 copy 0","object_center":[152.500000,150.000000,0.000000],"boundingbox_center":[152.500000,150.000000,13.975000],"boundingbox_size":[44.498001,30.400000,27.950001]}
; plater:{"center":[152.500000,150.000000,0.000000],"boundingbox_center":[152.500000,150.000000,13.975000],"boundingbox_size":[44.498001,30.400000,27.950001]}

M73 P0 R43
;TYPE:Custom
START_PRINT T_BED=70 T_EXTRUDER=235
M107
G21 ; set units to millimeters
G90 ; use absolute coordinates
M83 ; use relative distances for extrusion
; Filament gcode
M109 S235 ; set temperature and wait for it to be reached
M190 S70 ; set bed temperature and wait for it to be reached
M107
;LAYER_CHANGE
;Z:0.24
;HEIGHT:0.24
G1 Z0.24 F9000
G92 E0
G1 E-1 F3000
M204 S1000
G1 X124.071 Y127.52 F9000
G1 E1 F1800
;TYPE:Skirt
;WIDTH:0.52
G1 X122.971 Y128.828 E0.07988
G1 X122.577 Y130.49 E0.07988
G1 X122.577 Y162.795 E1.51015
G1 X122.715 Y163.799 E0.04737
G1 X123.546 Y165.292 E0.07988
G1 X124.96 Y166.253 E0.07988
G1 X130.74 Y168.454 E0.28914
G1 X131.917 Y168.735 E0.05659
G1 X132.754 Y168.799 E0.03922
G1 X156.746 Y168.8 E1.12155
G1 X157.583 Y168.735 E0.03926
G1 X158.859 Y168.415 E0.06147
G1 X159.74 Y168.014 E0.04526
G1 X180.58 Y155.924 E1.12626
G1 X182.029 Y154.387 E0.09874
G1 X182.423 Y152.724 E0.07988
G1 X182.423 Y130.49 E1.03935
G1 X181.694 Y128.285 E0.10858
G1 X180.386 Y127.185 E0.07988
G1 X178.724 Y126.791 E0.07988
G1 X126.276 Y126.791 E2.45174
M73 P1 R43
G1 X124.071 Y127.52 E0.10858
G1 X124.44 Y127.863 F9000
G1 F1800
G1 X123.437 Y128.944 E0.06895
G1 X123.043 Y130.49 E0.0746
G1 X123.043 Y162.795 E1.51015
G1 X123.821 Y164.898 E0.10481
G1 X125.126 Y165.817 E0.0746
G1 X130.906 Y168.018 E0.28914
G1 X131.963 Y168.271 E0.05081
G1 X132.754 Y168.333 E0.03708
G1 X156.746 Y168.333 E1.12155
G1 X157.538 Y168.271 E0.03712
G1 X158.68 Y167.984 E0.05508
G1 X159.506 Y167.611 E0.04236
G1 X180.346 Y155.521 E1.12626
G1 X181.563 Y154.271 E0.08156
G1 X181.957 Y152.724 E0.0746
G1 X181.957 Y130.49 E1.03935
G1 X181.44 Y128.737 E0.08548
G1 X180.27 Y127.651 E0.0746
G1 X178.724 Y127.257 E0.0746
G1 X126.276 Y127.257 E2.45174
G1 X124.522 Y127.774 E0.08548
G1 X124.44 Y127.863 E0.00565
G1 E-1 F3000
; printing object Untitled.stl id:0 copy 0
G1 X126.276 Y130.49 F9000
G1 E1 F1800
;TYPE:Support material
;WIDTH:0.48
G1 X178.724 Y130.49 E2.24241
G1 X178.724 Y152.724 E0.95061
G1 X160.193 Y152.724 E0.79228
G1 X160.193 Y147.012 E0.24423
G1 X160.183 Y146.908 E0.00445
G1 X160.071 Y146.346 E0.02451
G1 X160.041 Y146.247 E0.0044
G1 X159.825 Y145.726 E0.02414
G1 X159.79 Y145.656 E0.00333
G1 X159.631 Y145.392 E0.01316
G1 X159.587 Y145.329 E0.0033
G1 X159.376 Y145.073 E0.01418
G1 X159.23 Y144.894 E0.00986
G1 X159.157 Y144.821 E0.00443
G1 X158.72 Y144.463 E0.02416
G1 X158.657 Y144.418 E0.00332
G1 X158.393 Y144.259 E0.01316
G1 X158.323 Y144.224 E0.00333
G1 X157.811 Y144.012 E0.02369
G1 X157.738 Y143.988 E0.00328
G1 X157.448 Y143.915 E0.01281
G1 X157.392 Y143.904 E0.00242
G1 X157.098 Y143.863 E0.0127
G1 X157.025 Y143.858 E0.00314
G1 X156.501 Y143.858 E0.02242
G1 X155.016 Y143.857 E0.06346
G1 X154.522 Y143.857 E0.02115
G1 X153.133 Y143.856 E0.05938
G1 X153.133 Y139.296 E0.19496
G1 X141.796 Y139.296 E0.48472
G1 X141.796 Y143.85 E0.19472
G1 X141.163 Y143.85 E0.02707
G1 X140.668 Y143.85 E0.02115
G1 X139.184 Y143.849 E0.06346
G1 X138.689 Y143.849 E0.02115
G1 X138.194 Y143.848 E0.02115
G1 X137.699 Y143.848 E0.02115
G1 X137.436 Y143.848 E0.01127
G1 X137.204 Y143.848 E0.00988
G1 X136.71 Y143.848 E0.02115
G1 X135.225 Y143.847 E0.06346
G1 X134.731 Y143.847 E0.02115
G1 X134.397 Y143.847 E0.01425
G1 X132.731 Y143.846 E0.07123
G1 X132.682 Y143.848 E0.00213
G1 X132.141 Y143.899 E0.02322
G1 X132.061 Y143.913 E0.00345
G1 X131.762 Y143.988 E0.01322
G1 X131.689 Y144.012 E0.00328
G1 X131.284 Y144.18 E0.01871
G1 X131.177 Y144.224 E0.00498
G1 X131.153 Y144.236 E0.00112
G1 X131.107 Y144.259 E0.00222
G1 X130.843 Y144.418 E0.01319
G1 X130.778 Y144.464 E0.00337
G1 X130.344 Y144.822 E0.02406
G1 X130.273 Y144.893 E0.0043
G1 X129.915 Y145.327 E0.02406
G1 X129.869 Y145.392 E0.00337
G1 X129.733 Y145.619 E0.01135
G1 X129.715 Y145.648 E0.00142
G1 X129.69 Y145.695 E0.00231
G1 X129.564 Y145.964 E0.0127
G1 X129.537 Y146.034 E0.00317
G1 X129.442 Y146.346 E0.01396
G1 X129.372 Y146.574 E0.0102
G1 X129.351 Y146.679 E0.00459
G1 X129.329 Y146.908 E0.00983
G1 X129.299 Y147.23 E0.01384
G1 X129.297 Y147.28 E0.00212
G1 X129.297 Y151.093 E0.16302
G1 X129.914 Y151.71 E0.03734
G1 X135.082 Y151.71 E0.22093
G1 X135.082 Y158.044 E0.27079
G1 X129.914 Y158.044 E0.22096
G1 X129.296 Y158.664 E0.03742
G1 X129.298 Y159.494 E0.03551
G1 X129.303 Y160.974 E0.06327
G1 X129.304 Y161.467 E0.02109
G1 X129.308 Y162.795 E0.05679
G1 X126.276 Y162.795 E0.12964
G1 X126.276 Y130.49 E1.38121
G1 E-1 F3000
G1 X178.21 Y152.617 F9000
G1 E1 F1800
G1 X178.21 Y130.782 E0.93358
G1 X177.734 Y130.782 E0.02036
G1 X177.734 Y152.433 E0.9257
G1 X177.258 Y152.433 E0.02036
G1 X177.258 Y130.782 E0.9257
G1 X176.781 Y130.782 E0.02036
G1 X176.781 Y152.433 E0.9257
G1 X176.305 Y152.433 E0.02036
G1 X176.305 Y130.782 E0.9257
G1 X175.829 Y130.782 E0.02036
G1 X175.829 Y152.433 E0.9257
G1 X175.353 Y152.433 E0.02036
G1 X175.353 Y130.782 E0.9257
G1 X174.877 Y130.782 E0.02036
G1 X174.877 Y152.433 E0.9257
G1 X174.401 Y152.433 E0.02036
G1 X174.401 Y130.782 E0.9257
G1 X173.925 Y130.782 E0.02036
G1 X173.925 Y152.433 E0.9257
M73 P1 R42
G1 X173.449 Y152.433 E0.02036
G1 X173.449 Y130.782 E0.9257
G1 X172.973 Y130.782 E0.02036
G1 X172.973 Y152.433 E0.9257
G1 X172.496 Y152.433 E0.02036
G1 X172.496 Y130.782 E0.9257
G1 X172.02 Y130.782 E0.02036
G1 X172.02 Y152.433 E0.9257
G1 X171.544 Y152.433 E0.02036
M73 P2 R42
G1 X171.544 Y130.782 E0.9257
G1 X171.068 Y130.782 E0.02036
G1 X171.068 Y152.433 E0.9257
G1 X170.592 Y152.433 E0.02036
G1 X170.592 Y130.782 E0.9257
G1 X170.116 Y130.782 E0.02036
G1 X170.116 Y152.433 E0.9257
G1 X169.64 Y152.433 E0.02036
G1 X169.64 Y130.782 E0.9257
G1 X169.164 Y130.782 E0.02036
G1 X169.164 Y152.433 E0.9257
G1 X168.688 Y152.433 E0.02036
G1 X168.688 Y130.782 E0.9257
G1 X168.212 Y130.782 E0.02036
G1 X168.211 Y152.433 E0.9257
G1 X167.735 Y152.433 E0.02036
G1 X167.735 Y130.782 E0.9257
G1 X167.259 Y130.782 E0.02036
G1 X167.259 Y152.433 E0.9257
G1 X166.783 Y152.433 E0.02036
G1 X166.783 Y130.782 E0.9257
G1 X166.307 Y130.782 E0.02036
G1 X166.307 Y152.433 E0.9257
G1 X165.831 Y152.433 E0.02036
G1 X165.831 Y130.782 E0.9257
G1 X165.355 Y130.782 E0.02036
G1 X165.355 Y152.433 E0.9257
G1 X164.879 Y152.433 E0.02036
G1 X164.879 Y130.782 E0.9257
G1 X164.403 Y130.782 E0.02036
G1 X164.403 Y152.433 E0.9257
G1 X163.927 Y152.433 E0.02036
G1 X163.927 Y130.782 E0.9257
G1 X163.45 Y130.782 E0.02036
G1 X163.45 Y152.433 E0.9257
G1 X162.974 Y152.433 E0.02036
G1 X162.974 Y130.782 E0.9257
G1 X162.498 Y130.782 E0.02036
G1 X162.498 Y152.433 E0.9257
G1 X162.022 Y152.433 E0.02036
G1 X162.022 Y130.782 E0.9257
G1 X161.546 Y130.782 E0.02036
G1 X161.546 Y152.433 E0.9257
G1 X161.07 Y152.433 E0.02036
G1 X161.07 Y130.782 E0.9257
G1 X160.594 Y130.782 E0.02036
G1 X160.594 Y152.433 E0.9257
G1 X160.485 Y152.433 E0.00467
G1 X160.485 Y146.997 E0.23239
G1 X160.472 Y146.865 E0.00568
G1 X160.353 Y146.275 E0.02574
G1 X160.315 Y146.149 E0.00562
G1 X160.118 Y145.672 E0.02208
G1 X160.118 Y130.782 E0.63664
G1 X159.642 Y130.782 E0.02036
G1 X159.642 Y144.937 E0.60519
G1 X159.602 Y144.888 E0.00269
G1 X159.446 Y144.699 E0.01047
G1 X159.353 Y144.605 E0.00566
G1 X159.165 Y144.451 E0.01037
G1 X159.165 Y130.782 E0.58444
G1 X158.689 Y130.782 E0.02036
G1 X158.689 Y144.098 E0.56932
G1 X158.534 Y144.004 E0.00777
G1 X158.445 Y143.959 E0.00425
G1 X158.213 Y143.864 E0.01071
G1 X158.213 Y130.782 E0.55932
G1 X157.737 Y130.782 E0.02036
G1 X157.737 Y143.687 E0.55179
G1 X157.512 Y143.631 E0.00994
G1 X157.441 Y143.617 E0.00309
G1 X157.261 Y143.592 E0.00776
G1 X157.261 Y130.782 E0.54769
G1 X156.785 Y130.782 E0.02036
G1 X156.785 Y143.566 E0.54661
G1 X156.501 Y143.566 E0.01215
G1 X156.309 Y143.566 E0.00821
G1 X156.309 Y130.782 E0.5466
G1 X155.833 Y130.782 E0.02036
G1 X155.833 Y143.566 E0.54659
G1 X155.357 Y143.566 E0.02036
G1 X155.357 Y130.782 E0.54658
G1 X154.881 Y130.782 E0.02036
G1 X154.881 Y143.565 E0.54657
G1 X154.522 Y143.565 E0.01534
G1 X154.404 Y143.565 E0.00502
G1 X154.404 Y130.782 E0.54656
G1 X153.928 Y130.782 E0.02036
G1 X153.928 Y143.565 E0.54655
G1 X153.452 Y143.565 E0.02036
G1 X153.452 Y130.782 E0.54654
G1 X152.976 Y130.782 E0.02036
G1 X152.976 Y139.004 E0.35157
M73 P3 R42
G1 X152.5 Y139.004 E0.02036
G1 X152.5 Y130.782 E0.35157
G1 X152.024 Y130.782 E0.02036
G1 X152.024 Y139.004 E0.35157
G1 X151.548 Y139.004 E0.02036
G1 X151.548 Y130.782 E0.35157
G1 X151.072 Y130.782 E0.02036
G1 X151.072 Y139.004 E0.35157
G1 X150.596 Y139.004 E0.02036
G1 X150.596 Y130.782 E0.35157
G1 X150.119 Y130.782 E0.02036
G1 X150.119 Y139.004 E0.35157
G1 X149.643 Y139.004 E0.02036
G1 X149.643 Y130.782 E0.35157
G1 X149.167 Y130.782 E0.02036
G1 X149.167 Y139.004 E0.35157
G1 X148.691 Y139.004 E0.02036
G1 X148.691 Y130.782 E0.35157
G1 X148.215 Y130.782 E0.02036
G1 X148.215 Y139.004 E0.35157
G1 X147.739 Y139.004 E0.02036
G1 X147.739 Y130.782 E0.35157
G1 X147.263 Y130.782 E0.02036
G1 X147.263 Y139.004 E0.35157
G1 X146.787 Y139.004 E0.02036
G1 X146.787 Y130.782 E0.35157
G1 X146.311 Y130.782 E0.02036
G1 X146.311 Y139.004 E0.35157
G1 X145.835 Y139.004 E0.02036
G1 X145.835 Y130.782 E0.35157
G1 X145.358 Y130.782 E0.02036
G1 X145.358 Y139.004 E0.35157
G1 X144.882 Y139.004 E0.02036
G1 X144.882 Y130.782 E0.35157
G1 X144.406 Y130.782 E0.02036
G1 X144.406 Y139.004 E0.35157
G1 X143.93 Y139.004 E0.02036
G1 X143.93 Y130.782 E0.35157
G1 X143.454 Y130.782 E0.02036
G1 X143.454 Y139.004 E0.35157
G1 X142.978 Y139.004 E0.02036
G1 X142.978 Y130.782 E0.35157
G1 X142.502 Y130.782 E0.02036
G1 X142.502 Y139.004 E0.35157
G1 X142.026 Y139.004 E0.02036
G1 X142.026 Y130.782 E0.35157
G1 X141.55 Y130.782 E0.02036
G1 X141.55 Y139.004 E0.35157
G1 X141.504 Y139.004 E0.00193
G1 X141.504 Y143.559 E0.19472
G1 X141.163 Y143.559 E0.01461
G1 X141.073 Y143.558 E0.00382
G1 X141.073 Y130.782 E0.54627
G1 X140.597 Y130.782 E0.02036
G1 X140.597 Y143.558 E0.54626
G1 X140.121 Y143.558 E0.02036
G1 X140.121 Y130.782 E0.54625
G1 X139.645 Y130.782 E0.02036
G1 X139.645 Y143.558 E0.54624
G1 X139.184 Y143.558 E0.01973
G1 X139.169 Y143.558 E0.00063
G1 X139.169 Y130.782 E0.54623
G1 X138.693 Y130.782 E0.02036
G1 X138.693 Y143.557 E0.54622
G1 X138.217 Y143.557 E0.02036
G1 X138.217 Y130.782 E0.54621
G1 X137.741 Y130.782 E0.02036
G1 X137.741 Y143.557 E0.5462
G1 X137.699 Y143.557 E0.00177
G1 X137.436 Y143.557 E0.01127
G1 X137.265 Y143.557 E0.00732
G1 X137.265 Y130.782 E0.54619
G1 X136.789 Y130.782 E0.02036
G1 X136.789 Y143.556 E0.54618
G1 X136.71 Y143.556 E0.00336
G1 X136.312 Y143.556 E0.01699
G1 X136.312 Y130.782 E0.54617
G1 X135.836 Y130.782 E0.02036
G1 X135.836 Y143.556 E0.54616
G1 X135.36 Y143.556 E0.02036
G1 X135.36 Y130.782 E0.54615
G1 X134.884 Y130.782 E0.02036
G1 X134.884 Y143.555 E0.54614
G1 X134.731 Y143.555 E0.00656
G1 X134.408 Y143.555 E0.0138
G1 X134.408 Y130.782 E0.54613
G1 X133.932 Y130.782 E0.02036
G1 X133.932 Y143.555 E0.54612
G1 X133.456 Y143.555 E0.02036
G1 X133.456 Y130.782 E0.54611
G1 X132.98 Y130.782 E0.02036
G1 X132.98 Y143.554 E0.5461
G1 X132.725 Y143.554 E0.01091
G1 X132.661 Y143.557 E0.00272
G1 X132.504 Y143.572 E0.00676
G1 X132.504 Y130.782 E0.54686
G1 X132.027 Y130.782 E0.02036
G1 X132.027 Y143.623 E0.54903
G1 X132.001 Y143.627 E0.00115
G1 X131.68 Y143.708 E0.01415
G1 X131.587 Y143.739 E0.00419
G1 X131.551 Y143.754 E0.00165
G1 X131.551 Y130.782 E0.55463
G1 X131.075 Y130.782 E0.02036
G1 X131.075 Y143.951 E0.56306
G1 X131.055 Y143.959 E0.00092
G1 X131.022 Y143.976 E0.00158
G1 X130.966 Y144.004 E0.00268
G1 X130.683 Y144.174 E0.01411
G1 X130.599 Y144.234 E0.00442
G1 X130.599 Y130.782 E0.57514
G1 X130.123 Y130.782 E0.02036
G1 X130.123 Y144.631 E0.59213
G1 X130.057 Y144.697 E0.00399
G1 X130.047 Y144.709 E0.00066
G1 X129.683 Y145.15 E0.02446
G1 X129.675 Y145.161 E0.00056
G1 X129.647 Y145.201 E0.00211
G1 X129.647 Y130.782 E0.61651
G1 X129.171 Y130.782 E0.02036
G1 X129.171 Y158.376 E1.17981
G1 X129.647 Y157.899 E0.02883
G1 X129.647 Y151.855 E0.2584
G1 X129.794 Y152.002 E0.00887
G1 X130.123 Y152.002 E0.01408
G1 X130.123 Y157.752 E0.24588
G1 X130.599 Y157.752 E0.02036
G1 X130.599 Y152.002 E0.24588
G1 X131.075 Y152.002 E0.02036
G1 X131.075 Y157.752 E0.24588
G1 X131.551 Y157.752 E0.02036
G1 X131.551 Y152.002 E0.24588
G1 X132.027 Y152.002 E0.02036
G1 X132.027 Y157.752 E0.24588
G1 X132.504 Y157.752 E0.02036
G1 X132.504 Y152.002 E0.24588
G1 X132.98 Y152.002 E0.02036
G1 X132.98 Y157.752 E0.24588
G1 X133.456 Y157.752 E0.02036
G1 X133.456 Y152.002 E0.24588
G1 X133.932 Y152.002 E0.02036
G1 X133.932 Y157.752 E0.24588
G1 X134.408 Y157.752 E0.02036
G1 X134.408 Y151.817 E0.25375
G1 E-1 F3000
G1 X128.695 Y162.688 F9000
G1 E1 F1800
G1 X128.695 Y130.782 E1.36418
G1 X128.219 Y130.782 E0.02036
G1 X128.219 Y162.504 E1.3563
G1 X127.742 Y162.504 E0.02036
G1 X127.742 Y130.782 E1.3563
M73 P4 R42
G1 X127.266 Y130.782 E0.02036
G1 X127.266 Y162.504 E1.3563
G1 X126.79 Y162.504 E0.02036
G1 X126.79 Y130.598 E1.36418
G1 E-1 F3000
G1 X136.347 Y151.71 F9000
G1 E1 F1800
G1 X141.986 Y151.71 E0.24106
M73 P4 R41
G1 X142.603 Y151.093 E0.03734
G1 X142.603 Y148.152 E0.12572
G1 X145.153 Y148.152 E0.10901
G1 X145.153 Y159.444 E0.48277
G1 X142.603 Y159.444 E0.10901
G1 X142.603 Y158.661 E0.03345
G1 X141.986 Y158.044 E0.03734
G1 X136.347 Y158.044 E0.24106
G1 X136.347 Y151.71 E0.27079
G1 X144.406 Y159.337 F9000
G1 F1800
G1 X144.406 Y148.444 E0.46574
G1 X143.93 Y148.444 E0.02036
G1 X143.93 Y159.152 E0.45786
G1 X143.454 Y159.152 E0.02036
G1 X143.454 Y148.444 E0.45786
G1 X142.978 Y148.444 E0.02036
G1 X142.978 Y159.152 E0.45786
G1 X142.895 Y159.152 E0.00356
G1 X142.895 Y158.541 E0.02616
G1 X142.502 Y158.148 E0.02375
G1 X142.502 Y151.606 E0.27969
G1 X142.106 Y152.002 E0.02391
G1 X142.026 Y152.002 E0.00345
G1 X142.026 Y157.752 E0.24588
G1 X141.55 Y157.752 E0.02036
G1 X141.55 Y152.002 E0.24588
G1 X141.073 Y152.002 E0.02036
G1 X141.073 Y157.752 E0.24588
G1 X140.597 Y157.752 E0.02036
G1 X140.597 Y152.002 E0.24588
G1 X140.121 Y152.002 E0.02036
G1 X140.121 Y157.752 E0.24588
G1 X139.645 Y157.752 E0.02036
G1 X139.645 Y152.002 E0.24588
G1 X139.169 Y152.002 E0.02036
G1 X139.169 Y157.752 E0.24588
G1 X138.693 Y157.752 E0.02036
G1 X138.693 Y152.002 E0.24588
G1 X138.217 Y152.002 E0.02036
G1 X138.217 Y157.752 E0.24588
G1 X137.741 Y157.752 E0.02036
G1 X137.741 Y152.002 E0.24588
G1 X137.265 Y152.002 E0.02036
G1 X137.265 Y157.752 E0.24588
G1 X136.789 Y157.752 E0.02036
G1 X136.789 Y151.817 E0.25375
G1 E-1 F3000
G1 X157.692 Y163.688 F9000
G1 E1 F1800
;TYPE:Internal perimeter
G1 X157.897 Y163.636 E0.00906
G1 X158.02 Y163.881 E0.01173
G1 X157.695 Y164.148 E0.01799
G1 X157.582 Y164.216 E0.00562
G1 X157.233 Y164.361 E0.01618
G1 X157.105 Y164.393 E0.00565
G1 X156.713 Y164.432 E0.01682
G1 X132.787 Y164.431 E1.02298
G1 X132.395 Y164.393 E0.01682
G1 X132.267 Y164.361 E0.00565
G1 X131.935 Y164.223 E0.01535
G1 X131.655 Y164.035 E0.01442
G1 X131.4 Y163.78 E0.01544
G1 X131.31 Y163.66 E0.00641
G1 X131.233 Y163.531 E0.00644
G1 X131.088 Y163.182 E0.01614
G1 X131.052 Y163.038 E0.00633
G1 X131.027 Y162.861 E0.00764
G1 X131.297 Y162.77 E0.01216
G1 X131.505 Y163.142 E0.01821
G1 X131.737 Y163.383 E0.01432
G1 X132.164 Y163.642 E0.02134
G1 X132.686 Y163.755 E0.02283
G1 X133.216 Y163.687 E0.02288
G1 X133.656 Y163.464 E0.02109
G1 X133.885 Y163.262 E0.01306
G1 X134.074 Y163.029 E0.01281
G1 X134.278 Y162.579 E0.02112
G1 X134.321 Y162.086 E0.02118
G1 X134.273 Y161.783 E0.0131
G1 X134.178 Y161.522 E0.01189
G1 X134.032 Y161.265 E0.01263
G1 X133.717 Y160.936 E0.01947
G1 X133.441 Y160.761 E0.01395
G1 X132.952 Y160.61 E0.02189
