; generated by SuperSlicer 2.4 on 2022-11-17 at 00:04:26 UTC


;
;

;
;
; 

; external perimeters extrusion width = 0.40mm
; perimeters extrusion width = 0.46mm
; infill extrusion width = 0.64mm
; solid infill extrusion width = 0.56mm
; top infill extrusion width = 0.40mm
; support material extrusion width = 0.46mm
; first layer extrusion width = 0.50mm

; external perimeters extrusion width = 0.40mm
; perimeters extrusion width = 0.46mm
; infill extrusion width = 0.64mm
; solid infill extrusion width = 0.56mm
; top infill extrusion width = 0.40mm
; support material extrusion width = 0.46mm
; first layer extrusion width = 0.50mm

; external perimeters extrusion width = 0.40mm
; perimeters extrusion width = 0.46mm
; infill extrusion width = 0.64mm
; solid infill extrusion width = 0.56mm
; top infill extrusion width = 0.40mm
; support material extrusion width = 0.46mm
; first layer extrusion width = 0.50mm

; object:{"name":"Ikea_Skadis_Shelf_150x60mm","id":"Ikea_Skadis_Shelf_150x60mm.stl id:0 copy 0","object_center":[152.500000,72.021080,0.000000],"boundingbox_center":[152.500000,72.021080,7.000000],"boundingbox_size":[150.000000,72.000000,14.000000]}
; object:{"name":"Tape_holder_-_6x","id":"Tape_holder_-_6x.stl id:1 copy 0","object_center":[152.500000,228.000000,0.000000],"boundingbox_center":[152.500000,228.000000,17.500000],"boundingbox_size":[135.000000,71.957840,35.000000]}
; object:{"name":"Ikea_Skadis_Shelf_150x60mm","id":"Ikea_Skadis_Shelf_150x60mm.stl id:2 copy 0","object_center":[152.500000,150.021080,0.000000],"boundingbox_center":[152.500000,150.021080,7.000000],"boundingbox_size":[150.000000,72.000000,14.000000]}
; plater:{"center":[152.500000,150.000000,0.000000],"boundingbox_center":[152.500000,150.000000,17.500000],"boundingbox_size":[150.000000,227.957840,35.000000]}

M73 P0 R329


; Pre-Processed for Cancel-Object support by preprocess_cancellation v0.2.0
; 3 known objects
EXCLUDE_OBJECT_DEFINE NAME=Ikea_Skadis_Shelf_150x60mm_stl_id_0_copy_0 CENTER=152.470,81.372 POLYGON=[[77.7,36.221],[77.7,112.339],[227.3,112.339],[227.3,36.221]]
EXCLUDE_OBJECT_DEFINE NAME=Ikea_Skadis_Shelf_150x60mm_stl_id_2_copy_0 CENTER=152.470,159.372 POLYGON=[[77.7,114.221],[77.7,190.339],[227.3,190.339],[227.3,114.221]]
EXCLUDE_OBJECT_DEFINE NAME=Tape_holder___6x_stl_id_1_copy_0 CENTER=152.278,234.226 POLYGON=[[84.178,192.222],[84.178,268.318],[220.821,268.318],[220.821,192.222]]
;TYPE:Custom
START_PRINT T_BED=60 T_EXTRUDER=200
M107
G21 ; set units to millimeters
G90 ; use absolute coordinates
M83 ; use relative distances for extrusion
; Filament gcode
;_TOOLCHANGE 0
M104 S200 ; set temperature
M109 S200 ; set temperature and wait for it to be reached
M190 S60 ; set bed temperature and wait for it to be reached
M107
;LAYER_CHANGE
;Z:0.2
;HEIGHT:0.2
G1 Z0.2 F9000
G92 E0
G1 E-0.8 F3000
M204 S1000
G1 X74.679 Y34.855 F9000
G1 E0.8 F1800
;TYPE:Skirt
;WIDTH:0.52
G1 X74.284 Y36.521 E0.06657
G1 X74.293 Y174.129 E5.34966
G1 X80.471 Y265.818 E3.57254
G1 X80.722 Y266.931 E0.04436
G1 X81.806 Y269.681 E0.11491
G1 X82.284 Y270.539 E0.03818
G1 X83.596 Y271.639 E0.06657
G1 X85.263 Y272.033 E0.06657
G1 X219.737 Y272.033 E5.22782
G1 X220.711 Y271.903 E0.03818
G1 X222.215 Y271.086 E0.06657
G1 X223.194 Y269.681 E0.06657
G1 X224.278 Y266.931 E0.11491
G1 X224.529 Y265.818 E0.04436
G1 X230.716 Y173.88 E3.58226
M73 P0 R328
G1 X230.716 Y36.521 E5.33994
G1 X229.979 Y34.3 E0.09097
G1 X228.666 Y33.2 E0.06657
G1 X227 Y32.805 E0.06657
G1 X78 Y32.805 E5.79252
G1 X75.779 Y33.542 E0.09097
G1 X74.679 Y34.855 E0.06657
G1 X75.155 Y34.976 F9000
G1 F1800
G1 X74.761 Y36.521 E0.06199
G1 X74.769 Y174.097 E5.34841
G1 X80.947 Y265.785 E3.57254
G1 X81.166 Y266.756 E0.03866
G1 X82.25 Y269.506 E0.11491
G1 X83.715 Y271.162 E0.08598
G1 X85.263 Y271.556 E0.06209
G1 X219.737 Y271.556 E5.22782
G1 X221.816 Y270.801 E0.08598
G1 X222.75 Y269.506 E0.06209
G1 X223.834 Y266.756 E0.11491
G1 X224.053 Y265.785 E0.03866
G1 X230.239 Y173.88 E3.58101
G1 X230.239 Y36.521 E5.33994
G1 X229.719 Y34.762 E0.0713
G1 X228.548 Y33.676 E0.06209
G1 X227 Y33.283 E0.06209
G1 X78 Y33.283 E5.79252
G1 X76.241 Y33.802 E0.0713
G1 X75.155 Y34.976 E0.06218
G1 E-0.8 F3000
; printing object Ikea_Skadis_Shelf_150x60mm.stl id:0 copy 0
EXCLUDE_OBJECT_START NAME=Ikea_Skadis_Shelf_150x60mm_stl_id_0_copy_0
G1 X183.941 Y97 F9000
G1 E0.8 F1800
;TYPE:Support material
;WIDTH:0.5
G1 X199.652 Y97 E0.58518
G1 X199.652 Y112.339 E0.57133
G1 X183.941 Y112.339 E0.58518
G1 X183.941 Y97 E0.57133
G1 X199.224 Y112.225 F9000
G1 F1800
G1 X199.224 Y97.31 E0.55549
G1 X198.716 Y97.31 E0.01892
G1 X198.716 Y112.028 E0.54817
G1 X198.208 Y112.028 E0.01892
G1 X198.208 Y97.31 E0.54817
G1 X197.7 Y97.31 E0.01892
G1 X197.7 Y112.028 E0.54817
G1 X197.192 Y112.028 E0.01892
G1 X197.192 Y97.31 E0.54817
G1 X196.684 Y97.31 E0.01892
G1 X196.684 Y112.028 E0.54817
G1 X196.176 Y112.028 E0.01892
G1 X196.176 Y97.31 E0.54817
G1 X195.669 Y97.31 E0.01892
G1 X195.669 Y112.028 E0.54817
G1 X195.161 Y112.028 E0.01892
G1 X195.161 Y97.31 E0.54817
G1 X194.653 Y97.31 E0.01892
G1 X194.653 Y112.028 E0.54817
G1 X194.145 Y112.028 E0.01892
G1 X194.145 Y97.31 E0.54817
G1 X193.637 Y97.31 E0.01892
G1 X193.637 Y112.028 E0.54817
G1 X193.129 Y112.028 E0.01892
G1 X193.129 Y97.31 E0.54817
G1 X192.621 Y97.31 E0.01892
G1 X192.621 Y112.028 E0.54817
G1 X192.114 Y112.028 E0.01892
G1 X192.114 Y97.31 E0.54817
G1 X191.606 Y97.31 E0.01892
G1 X191.606 Y112.028 E0.54817
G1 X191.098 Y112.028 E0.01892
G1 X191.098 Y97.31 E0.54817
G1 X190.59 Y97.31 E0.01892
G1 X190.59 Y112.028 E0.54817
G1 X190.082 Y112.028 E0.01892
G1 X190.082 Y97.31 E0.54817
G1 X189.574 Y97.31 E0.01892
G1 X189.574 Y112.028 E0.54817
G1 X189.066 Y112.028 E0.01892
G1 X189.066 Y97.31 E0.54817
G1 X188.558 Y97.31 E0.01892
G1 X188.558 Y112.028 E0.54817
G1 X188.051 Y112.028 E0.01892
G1 X188.051 Y97.31 E0.54817
G1 X187.543 Y97.31 E0.01892
G1 X187.543 Y112.028 E0.54817
G1 X187.035 Y112.028 E0.01892
G1 X187.035 Y97.31 E0.54817
G1 X186.527 Y97.31 E0.01892
G1 X186.527 Y112.028 E0.54817
G1 X186.019 Y112.028 E0.01892
G1 X186.019 Y97.31 E0.54817
G1 X185.511 Y97.31 E0.01892
G1 X185.511 Y112.028 E0.54817
G1 X185.003 Y112.028 E0.01892
G1 X185.003 Y97.31 E0.54817
G1 X184.496 Y97.31 E0.01892
G1 X184.496 Y112.225 E0.55549
G1 E-0.8 F3000
G1 X158.647 Y112.225 F9000
G1 E0.8 F1800
G1 X158.647 Y112.339 E0.00426
G1 X146.353 Y112.339 E0.4579
G1 X146.353 Y97 E0.57133
G1 X158.647 Y97 E0.4579
G1 X158.647 Y112.225 E0.56707
G1 X158.087 Y112.225 F9000
G1 F1800
G1 X158.087 Y97.31 E0.55549
G1 X157.579 Y97.31 E0.01892
G1 X157.579 Y112.028 E0.54817
G1 X157.071 Y112.028 E0.01892
G1 X157.071 Y97.31 E0.54817
M73 P0 R327
G1 X156.563 Y97.31 E0.01892
G1 X156.563 Y112.028 E0.54817
G1 X156.055 Y112.028 E0.01892
G1 X156.055 Y97.31 E0.54817
G1 X155.547 Y97.31 E0.01892
G1 X155.547 Y112.028 E0.54817
G1 X155.039 Y112.028 E0.01892
G1 X155.039 Y97.31 E0.54817
G1 X154.531 Y97.31 E0.01892
G1 X154.531 Y112.028 E0.54817
G1 X154.024 Y112.028 E0.01892
G1 X154.024 Y97.31 E0.54817
G1 X153.516 Y97.31 E0.01892
G1 X153.516 Y112.028 E0.54817
G1 X153.008 Y112.028 E0.01892
G1 X153.008 Y97.31 E0.54817
G1 X152.5 Y97.31 E0.01892
G1 X152.5 Y112.028 E0.54817
G1 X151.992 Y112.028 E0.01892
G1 X151.992 Y97.31 E0.54817
G1 X151.484 Y97.31 E0.01892
G1 X151.484 Y112.028 E0.54817
G1 X150.976 Y112.028 E0.01892
G1 X150.976 Y97.31 E0.54817
G1 X150.469 Y97.31 E0.01892
G1 X150.469 Y112.028 E0.54817
G1 X149.961 Y112.028 E0.01892
G1 X149.961 Y97.31 E0.54817
G1 X149.453 Y97.31 E0.01892
G1 X149.453 Y112.028 E0.54817
G1 X148.945 Y112.028 E0.01892
G1 X148.945 Y97.31 E0.54817
G1 X148.437 Y97.31 E0.01892
G1 X148.437 Y112.028 E0.54817
G1 X147.929 Y112.028 E0.01892
G1 X147.929 Y97.31 E0.54817
G1 X147.421 Y97.31 E0.01892
G1 X147.421 Y112.028 E0.54817
G1 X146.913 Y112.028 E0.01892
G1 X146.913 Y97.114 E0.55549
G1 E-0.8 F3000
G1 X121.059 Y97.114 F9000
G1 E0.8 F1800
G1 X121.059 Y112.339 E0.56707
G1 X105.348 Y112.339 E0.58518
G1 X105.348 Y97 E0.57133
G1 X121.059 Y97 E0.58518
G1 X121.059 Y97.114 E0.00426
G1 X120.504 Y112.225 F9000
G1 F1800
G1 X120.504 Y97.31 E0.55549
G1 X119.997 Y97.31 E0.01892
G1 X119.997 Y112.028 E0.54817
G1 X119.489 Y112.028 E0.01892
G1 X119.489 Y97.31 E0.54817
G1 X118.981 Y97.31 E0.01892
G1 X118.981 Y112.028 E0.54817
G1 X118.473 Y112.028 E0.01892
G1 X118.473 Y97.31 E0.54817
G1 X117.965 Y97.31 E0.01892
G1 X117.965 Y112.028 E0.54817
G1 X117.457 Y112.028 E0.01892
G1 X117.457 Y97.31 E0.54817
G1 X116.949 Y97.31 E0.01892
G1 X116.949 Y112.028 E0.54817
G1 X116.442 Y112.028 E0.01892
G1 X116.442 Y97.31 E0.54817
G1 X115.934 Y97.31 E0.01892
G1 X115.934 Y112.028 E0.54817
G1 X115.426 Y112.028 E0.01892
G1 X115.426 Y97.31 E0.54817
G1 X114.918 Y97.31 E0.01892
G1 X114.918 Y112.028 E0.54817
G1 X114.41 Y112.028 E0.01892
G1 X114.41 Y97.31 E0.54817
G1 X113.902 Y97.31 E0.01892
G1 X113.902 Y112.028 E0.54817
G1 X113.394 Y112.028 E0.01892
G1 X113.394 Y97.31 E0.54817
G1 X112.886 Y97.31 E0.01892
G1 X112.886 Y112.028 E0.54817
G1 X112.379 Y112.028 E0.01892
G1 X112.379 Y97.31 E0.54817
G1 X111.871 Y97.31 E0.01892
G1 X111.871 Y112.028 E0.54817
G1 X111.363 Y112.028 E0.01892
G1 X111.363 Y97.31 E0.54817
G1 X110.855 Y97.31 E0.01892
G1 X110.855 Y112.028 E0.54817
G1 X110.347 Y112.028 E0.01892
G1 X110.347 Y97.31 E0.54817
G1 X109.839 Y97.31 E0.01892
G1 X109.839 Y112.028 E0.54817
G1 X109.331 Y112.028 E0.01892
G1 X109.331 Y97.31 E0.54817
G1 X108.824 Y97.31 E0.01892
G1 X108.824 Y112.028 E0.54817
G1 X108.316 Y112.028 E0.01892
G1 X108.316 Y97.31 E0.54817
G1 X107.808 Y97.31 E0.01892
G1 X107.808 Y112.028 E0.54817
G1 X107.3 Y112.028 E0.01892
G1 X107.3 Y97.31 E0.54817
G1 X106.792 Y97.31 E0.01892
G1 X106.792 Y112.028 E0.54817
G1 X106.284 Y112.028 E0.01892
G1 X106.284 Y97.31 E0.54817
G1 X105.776 Y97.31 E0.01892
G1 X105.776 Y112.225 E0.55549
G1 E-0.8 F3000
G1 X225.836 Y94.757 F9000
G1 E0.8 F1800
;TYPE:Internal perimeter
G1 X79.164 Y94.757 E5.46296
G1 X79.164 Y37.685 E2.1257
G1 X225.836 Y37.685 E5.46296
G1 X225.836 Y47.825 E0.37768
G1 X225.836 Y94.757 E1.74803
G1 X226.293 Y95.214 F9000
G1 F1800
G1 X78.707 Y95.214 E5.49701
G1 X78.707 Y37.228 E2.15975
G1 X226.293 Y37.228 E5.49701
G1 X226.293 Y47.825 E0.3947
G1 X226.293 Y95.214 E1.76505
G1 X226.75 Y95.671 F9000
;TYPE:External perimeter
G1 F1800
G1 X78.25 Y95.671 E5.53106
M73 P1 R326
G1 X78.25 Y36.771 E2.1938
G1 X226.75 Y36.771 E5.53106
G1 X226.75 Y47.825 E0.41173
G1 X226.75 Y95.671 E1.78208
;WIPE_START
M204 S3000
G1 X226.404 Y95.471 F9000
;WIPE_END
G1 E-0.8 F3000
M204 S1000
G1 X224.843 Y37.754 F9000
G1 E0.8 F1800
;TYPE:Solid infill
;WIDTH:0.498731
G1 F2400
G1 X225.767 Y38.678 E0.04855
G1 X225.767 Y39.324 F9000
G1 F2400
G1 X224.197 Y37.754 E0.08251
G1 X223.551 Y37.754 F9000
G1 F2400
G1 X225.767 Y39.971 E0.11647
G1 X225.767 Y40.617 F9000
G1 F2400
G1 X222.904 Y37.754 E0.15043
G1 X222.258 Y37.754 F9000
G1 F2400
G1 X225.767 Y41.263 E0.1844
G1 X225.767 Y41.91 F9000
G1 F2400
G1 X221.611 Y37.754 E0.21836
G1 X220.965 Y37.754 F9000
G1 F2400
G1 X225.767 Y42.556 E0.25232
G1 X225.767 Y43.203 F9000
G1 F2400
G1 X220.318 Y37.754 E0.28628
G1 X219.672 Y37.754 F9000
G1 F2400
G1 X225.767 Y43.849 E0.32025
G1 X225.767 Y44.495 F9000
G1 F2400
G1 X219.026 Y37.754 E0.35421
G1 X218.379 Y37.754 F9000
G1 F2400
G1 X225.767 Y45.142 E0.38817
G1 X225.767 Y45.788 F9000
G1 F2400
G1 X217.733 Y37.754 E0.42213
G1 X217.086 Y37.754 F9000
G1 F2400
G1 X225.767 Y46.435 E0.4561
G1 X225.767 Y47.081 F9000
G1 F2400
G1 X216.44 Y37.754 E0.49006
G1 X215.794 Y37.754 F9000
G1 F2400
G1 X225.767 Y47.727 E0.52402
G1 X225.767 Y48.374 F9000
G1 F2400
G1 X215.147 Y37.754 E0.55798
G1 X214.501 Y37.754 F9000
G1 F2400
G1 X225.767 Y49.02 E0.59195
G1 X225.767 Y49.667 F9000
G1 F2400
G1 X213.854 Y37.754 E0.62591
G1 X213.208 Y37.754 F9000
G1 F2400
G1 X225.767 Y50.313 E0.65987
G1 X225.767 Y50.959 F9000
G1 F2400
G1 X212.562 Y37.754 E0.69383
G1 X211.915 Y37.754 F9000
G1 F2400
G1 X225.767 Y51.606 E0.7278
G1 X225.767 Y52.252 F9000
G1 F2400
G1 X211.269 Y37.754 E0.76176
G1 X210.622 Y37.754 F9000
G1 F2400
G1 X225.767 Y52.899 E0.79572
G1 X225.767 Y53.545 F9000
G1 F2400
G1 X209.976 Y37.754 E0.82968
G1 X209.33 Y37.754 F9000
G1 F2400
G1 X225.767 Y54.192 E0.86365
G1 X225.767 Y54.838 F9000
G1 F2400
G1 X208.683 Y37.754 E0.89761
G1 X208.037 Y37.754 F9000
G1 F2400
G1 X225.767 Y55.484 E0.93157
G1 X225.767 Y56.131 F9000
G1 F2400
G1 X207.39 Y37.754 E0.96553
G1 X206.744 Y37.754 F9000
G1 F2400
G1 X225.767 Y56.777 E0.9995
G1 X225.767 Y57.424 F9000
G1 F2400
G1 X206.098 Y37.754 E1.03346
G1 X205.451 Y37.754 F9000
G1 F2400
G1 X225.767 Y58.07 E1.06742
G1 X225.767 Y58.716 F9000
G1 F2400
G1 X204.805 Y37.754 E1.10138
G1 X204.158 Y37.754 F9000
G1 F2400
G1 X225.767 Y59.363 E1.13535
G1 X225.767 Y60.009 F9000
G1 F2400
G1 X203.512 Y37.754 E1.16931
G1 X202.865 Y37.754 F9000
G1 F2400
G1 X225.767 Y60.656 E1.20327
G1 X225.767 Y61.302 F9000
G1 F2400
G1 X202.219 Y37.754 E1.23723
G1 X201.573 Y37.754 F9000
G1 F2400
G1 X225.767 Y61.948 E1.27119
G1 X225.767 Y62.595 F9000
G1 F2400
G1 X200.926 Y37.754 E1.30516
G1 X200.28 Y37.754 F9000
G1 F2400
G1 X225.767 Y63.241 E1.33912
G1 X225.767 Y63.888 F9000
G1 F2400
G1 X199.633 Y37.754 E1.37308
G1 X198.987 Y37.754 F9000
G1 F2400
G1 X225.767 Y64.534 E1.40704
G1 X225.767 Y65.18 F9000
G1 F2400
G1 X198.341 Y37.754 E1.44101
G1 X197.694 Y37.754 F9000
G1 F2400
G1 X225.767 Y65.827 E1.47497
G1 X225.767 Y66.473 F9000
G1 F2400
G1 X197.048 Y37.754 E1.50893
G1 X196.401 Y37.754 F9000
G1 F2400
G1 X225.767 Y67.12 E1.54289
G1 X225.767 Y67.766 F9000
G1 F2400
G1 X195.755 Y37.754 E1.57686
G1 X195.109 Y37.754 F9000
G1 F2400
G1 X225.767 Y68.412 E1.61082
M73 P1 R326
G1 X225.767 Y69.059 F9000
G1 F2400
G1 X194.462 Y37.754 E1.64478
G1 X193.816 Y37.754 F9000
G1 F2400
G1 X225.767 Y69.705 E1.67874
G1 X225.767 Y70.352 F9000
G1 F2400
G1 X193.169 Y37.754 E1.71271
G1 X192.523 Y37.754 F9000
G1 F2400
G1 X225.767 Y70.998 E1.74667
G1 X225.767 Y71.645 F9000
G1 F2400
G1 X191.877 Y37.754 E1.78063
G1 X191.23 Y37.754 F9000
G1 F2400
G1 X225.767 Y72.291 E1.81459
G1 X225.767 Y72.937 F9000
G1 F2400
G1 X190.584 Y37.754 E1.84856
G1 X189.937 Y37.754 F9000
G1 F2400
G1 X225.767 Y73.584 E1.88252
G1 X225.767 Y74.23 F9000
G1 F2400
G1 X189.291 Y37.754 E1.91648
G1 X188.645 Y37.754 F9000
G1 F2400
G1 X225.767 Y74.877 E1.95044
G1 X225.767 Y75.523 F9000
G1 F2400
G1 X187.998 Y37.754 E1.98441
G1 X187.352 Y37.754 F9000
G1 F2400
G1 X225.767 Y76.169 E2.01837
G1 X225.767 Y76.816 F9000
G1 F2400
G1 X186.705 Y37.754 E2.05233
G1 X186.059 Y37.754 F9000
G1 F2400
G1 X225.767 Y77.462 E2.08629
M73 P1 R325
G1 X225.767 Y78.109 F9000
G1 F2400
G1 X185.412 Y37.754 E2.12026
G1 X184.766 Y37.754 F9000
G1 F2400
G1 X225.767 Y78.755 E2.15422
G1 X225.767 Y79.401 F9000
G1 F2400
G1 X184.12 Y37.754 E2.18818
G1 X183.473 Y37.754 F9000
G1 F2400
G1 X225.767 Y80.048 E2.22214
G1 X225.767 Y80.694 F9000
G1 F2400
G1 X182.827 Y37.754 E2.25611
G1 X182.18 Y37.754 F9000
G1 F2400
G1 X225.767 Y81.341 E2.29007
G1 X225.767 Y81.987 F9000
G1 F2400
G1 X181.534 Y37.754 E2.32403
G1 X180.888 Y37.754 F9000
G1 F2400
G1 X225.767 Y82.633 E2.35799
G1 X225.767 Y83.28 F9000
G1 F2400
G1 X180.241 Y37.754 E2.39196
G1 X179.595 Y37.754 F9000
G1 F2400
G1 X225.767 Y83.926 E2.42592
G1 X225.767 Y84.573 F9000
G1 F2400
G1 X178.948 Y37.754 E2.45988
G1 X178.302 Y37.754 F9000
G1 F2400
G1 X225.767 Y85.219 E2.49384
G1 X225.767 Y85.865 F9000
G1 F2400
G1 X177.656 Y37.754 E2.52781
G1 X177.009 Y37.754 F9000
G1 F2400
G1 X225.767 Y86.512 E2.56177
G1 X225.767 Y87.158 F9000
G1 F2400
G1 X176.363 Y37.754 E2.59573
G1 X175.716 Y37.754 F9000
G1 F2400
G1 X225.767 Y87.805 E2.62969
G1 X225.767 Y88.451 F9000
G1 F2400
G1 X175.07 Y37.754 E2.66366
G1 X174.424 Y37.754 F9000
G1 F2400
G1 X225.767 Y89.098 E2.69762
G1 X225.767 Y89.744 F9000
G1 F2400
G1 X173.777 Y37.754 E2.73158
G1 X173.131 Y37.754 F9000
G1 F2400
G1 X225.767 Y90.39 E2.76554
G1 X225.767 Y91.037 F9000
G1 F2400
G1 X172.484 Y37.754 E2.79951
G1 X171.838 Y37.754 F9000
G1 F2400
G1 X225.767 Y91.683 E2.83347
G1 X225.767 Y92.33 F9000
G1 F2400
G1 X171.192 Y37.754 E2.86743
G1 X170.545 Y37.754 F9000
G1 F2400
G1 X225.767 Y92.976 E2.90139
G1 X225.767 Y93.622 F9000
G1 F2400
G1 X169.899 Y37.754 E2.93536
G1 X169.252 Y37.754 F9000
G1 F2400
G1 X225.767 Y94.269 E2.96932
