; generated by SuperSlicer 2.3.57 on 2022-02-01 at 05:01:06 UTC


;
;

;
;
; 

; external perimeters extrusion width = 0.40mm
; perimeters extrusion width = 0.40mm
; infill extrusion width = 0.40mm
; solid infill extrusion width = 0.40mm
; top infill extrusion width = 0.40mm
; first layer extrusion width = 0.48mm


;TYPE:Custom
START_PRINT T_BED=60 T_EXTRUDER=200
M107
G21 ; set units to millimeters
G90 ; use absolute coordinates
M83 ; use relative distances for extrusion
; Filament gcode
M109 S200 ; set temperature and wait for it to be reached
M190 S60 ; set bed temperature and wait for it to be reached
;LAYER_CHANGE
;Z:0.24
;HEIGHT:0.24
G1 Z0.24 F9000
G1 E-0.6 F3000
M204 S1000
G1 X133.102 Y141.93 F9000
G1 E0.6 F1800
;TYPE:Skirt
;WIDTH:0.48
G1 F900
G1 X129.849 Y145.243 E0.19852
G1 X129.233 Y146.226 E0.04959
G1 X128.831 Y147.315 E0.04959
G1 X127.06 Y155.642 E0.36401
G1 X126.949 Y156.591 E0.04085
G1 X126.947 Y164.031 E0.31809
G1 X127.04 Y164.993 E0.04135
G1 X127.316 Y165.981 E0.04385
G1 X127.767 Y166.902 E0.04385
G1 X128.377 Y167.726 E0.04385
G1 X129.122 Y168.423 E0.0436
G1 X129.794 Y168.873 E0.0346
G1 X130.524 Y169.223 E0.0346
G1 X131.29 Y169.463 E0.03435
G1 X132.089 Y169.592 E0.0346
G1 X159.806 Y171.145 E1.18689
G1 X163.759 Y170.732 E0.16996
G1 X165.514 Y170.329 E0.07697
G1 X166.835 Y169.74 E0.06183
G1 X167.528 Y169.334 E0.03435
G1 X168.738 Y168.378 E0.06593
G1 X169.435 Y167.634 E0.0436
G1 X170.171 Y166.658 E0.05224
G1 X171.219 Y165.005 E0.08369
G1 X171.568 Y164.288 E0.0341
G1 X171.815 Y163.524 E0.03435
G1 X176.56 Y143.909 E0.86281
G1 X176.8 Y141.261 E0.11371
G1 X176.569 Y138.634 E0.11272
G1 X175.901 Y136.151 E0.10997
G1 X174.803 Y133.799 E0.11097
G1 X173.313 Y131.674 E0.11097
G1 X171.478 Y129.839 E0.11097
G1 X169.356 Y128.354 E0.11072
G1 X167.004 Y127.257 E0.11097
G1 X164.497 Y126.585 E0.11097
G1 X161.917 Y126.359 E0.11072
G1 X159.401 Y126.572 E0.10797
G1 X157.283 Y127.11 E0.09343
G1 X156.46 Y127.402 E0.03735
G1 X154.425 Y128.378 E0.09648
G1 X133.862 Y141.305 E1.03847
G1 X133.148 Y141.892 E0.03953
G1 X133.284 Y142.057 F9000
M204 S500
G1 X133.419 Y142.222
G1 F900
G1 X133.404 Y142.235 E0.00087
G1 X130.204 Y145.485 E0.19502
G1 X129.621 Y146.409 E0.04671
G1 X129.245 Y147.429 E0.04647
G1 X127.48 Y155.725 E0.36263
G1 X127.378 Y156.575 E0.03662
G1 X127.375 Y164.015 E0.31809
G1 X127.451 Y164.857 E0.03614
G1 X127.699 Y165.782 E0.04095
G1 X128.11 Y166.641 E0.04071
G1 X128.67 Y167.411 E0.04071
G1 X129.36 Y168.066 E0.04071
G1 X129.986 Y168.489 E0.03229
G1 X130.666 Y168.818 E0.03229
G1 X131.386 Y169.045 E0.03229
G1 X132.137 Y169.166 E0.03253
G1 X159.784 Y170.717 E1.18391
G1 X163.689 Y170.309 E0.16788
G1 X165.335 Y169.938 E0.07214
G1 X166.625 Y169.366 E0.06033
G1 X167.264 Y168.995 E0.03157
G1 X168.436 Y168.073 E0.06376
G1 X169.079 Y167.394 E0.03999
G1 X169.813 Y166.423 E0.05205
G1 X170.837 Y164.808 E0.08177
G1 X171.168 Y164.135 E0.03205
G1 X171.397 Y163.427 E0.03181
G1 X176.137 Y143.839 E0.86169
G1 X176.372 Y141.262 E0.11065
G1 X176.152 Y138.739 E0.10825
G1 X175.5 Y136.304 E0.10777
G1 X174.435 Y134.02 E0.10778
G1 X172.99 Y131.955 E0.10777
G1 X171.208 Y130.172 E0.10778
G1 X169.143 Y128.726 E0.10777
G1 X166.859 Y127.66 E0.10777
G1 X164.424 Y127.007 E0.10777
G1 X161.918 Y126.787 E0.10753
G1 X159.468 Y126.996 E0.10513
G1 X157.392 Y127.525 E0.09163
G1 X156.627 Y127.796 E0.0347
G1 X154.638 Y128.75 E0.09429
G1 X134.109 Y141.655 E1.03678
G1 X133.466 Y142.184 E0.03559
G1 E-0.6 F3000
M204 S1000
G1 X134.227 Y149.583 F9000
M204 S500
G1 X134.989 Y156.982
G1 E0.6 F1800
G1 F900
G1 X150.788 Y156.982 E0.67548
G1 X150.943 Y156.887 E0.00778
G1 X151.298 Y156.73 E0.01658
G1 X151.616 Y156.636 E0.0142
G1 X155.64 Y155.992 E0.17422
G1 X155.673 Y155.988 E0.00143
G1 X158.493 Y155.612 E0.12163
G1 X158.619 Y155.601 E0.00541
G1 X159.662 Y155.565 E0.0446
G1 X159.788 Y155.567 E0.00541
G1 X160.198 Y155.594 E0.01757
G1 X162.866 Y155.801 E0.11442
G1 X163.014 Y155.821 E0.00637
G1 X163.185 Y155.854 E0.00743
G1 X163.329 Y155.891 E0.00637
G1 X163.772 Y156.033 E0.01987
G1 X164.055 Y156.163 E0.01333
G1 X164.365 Y156.353 E0.01556
G1 X164.609 Y156.548 E0.01333
G1 X165.007 Y156.952 E0.02426
G1 X165.205 Y157.212 E0.01397
G1 X165.395 Y157.542 E0.0163
G1 X165.521 Y157.844 E0.01397
G1 X165.649 Y158.306 E0.0205
G1 X165.684 Y158.476 E0.00741
G1 X165.711 Y158.676 E0.00865
G1 X165.723 Y158.849 E0.00741
G1 X165.723 Y158.972 E0.00523
G1 X166.014 Y161.329 E0.10155
G1 X165.985 Y161.803 E0.02033
G1 X165.849 Y162.342 E0.02375
G1 X165.651 Y162.774 E0.02033
G1 X165.457 Y163.049 E0.0144
G1 X165.395 Y163.196 E0.0068
G1 X165.205 Y163.526 E0.0163
G1 X165.007 Y163.786 E0.01397
G1 X164.609 Y164.191 E0.02426
G1 X164.365 Y164.385 E0.01333
G1 X164.055 Y164.576 E0.01556
G1 X163.772 Y164.706 E0.01333
G1 X163.329 Y164.847 E0.01989
G1 X163.183 Y164.884 E0.00641
G1 X163.012 Y164.918 E0.00748
G1 X162.863 Y164.938 E0.00641
G1 X159.838 Y165.168 E0.12972
G1 X159.75 Y165.172 E0.00376
G1 X159.647 Y165.173 E0.00439
G1 X159.559 Y165.17 E0.00376
G1 X159.297 Y165.154 E0.01125
G1 X159.117 Y165.131 E0.00776
G1 X158.732 Y165.159 E0.01646
G1 X157.974 Y165.058 E0.03273
G1 X157.741 Y165.004 E0.01021
G1 X157.476 Y164.917 E0.01191
G1 X157.258 Y164.822 E0.01021
G1 X156.53 Y164.421 E0.03551
G1 X151.549 Y163.757 E0.21486
G1 X134.989 Y163.757 E0.70803
G1 X134.044 Y163.365 E0.04373
G1 X133.195 Y162.517 E0.05132
G1 X132.804 Y161.572 E0.04373
G1 X132.804 Y159.167 E0.10283
G1 X133.195 Y158.222 E0.04373
G1 X134.044 Y157.373 E0.05132
G1 X134.934 Y157.005 E0.04116
M204 S1000
G1 X135.004 Y157.207 F9000
M204 S500
G1 X135.074 Y157.41
G1 F900
G1 X150.908 Y157.41 E0.67697
G1 X151.142 Y157.268 E0.01172
G1 X151.446 Y157.133 E0.01421
G1 X151.711 Y157.055 E0.01184
G1 X155.705 Y156.416 E0.17292
G1 X155.733 Y156.412 E0.00119
G1 X158.539 Y156.038 E0.12106
G1 X158.644 Y156.029 E0.00451
G1 X159.666 Y155.994 E0.0437
G1 X159.771 Y155.996 E0.00451
G1 X160.166 Y156.021 E0.01694
G1 X162.821 Y156.227 E0.11383
G1 X162.944 Y156.244 E0.00531
G1 X163.09 Y156.272 E0.00637
G1 X163.21 Y156.303 E0.00531
G1 X163.617 Y156.433 E0.01823
G1 X163.853 Y156.541 E0.01111
G1 X164.118 Y156.705 E0.01334
G1 X164.322 Y156.867 E0.01111
G1 X164.682 Y157.233 E0.02199
G1 X164.847 Y157.45 E0.01164
G1 X165.01 Y157.733 E0.01398
G1 X165.116 Y157.984 E0.01164
G1 X165.232 Y158.406 E0.01872
G1 X165.261 Y158.548 E0.00618
G1 X165.285 Y158.72 E0.00742
G1 X165.294 Y158.864 E0.00618
G1 X165.294 Y158.998 E0.00574
G1 X165.584 Y161.342 E0.10098
G1 X165.559 Y161.737 E0.01694
G1 X165.443 Y162.199 E0.02036
G1 X165.278 Y162.559 E0.01694
G1 X165.08 Y162.841 E0.01471
G1 X165.01 Y163.006 E0.00765
G1 X164.847 Y163.289 E0.01398
G1 X164.682 Y163.505 E0.01164
G1 X164.322 Y163.872 E0.02199
G1 X164.118 Y164.034 E0.01111
G1 X163.853 Y164.197 E0.01333
G1 X163.617 Y164.305 E0.01111
G1 X163.21 Y164.435 E0.01825
G1 X163.089 Y164.466 E0.00534
G1 X162.942 Y164.495 E0.00641
G1 X162.818 Y164.512 E0.00534
G1 X159.813 Y164.74 E0.12887
G1 X159.739 Y164.744 E0.00314
G1 X159.651 Y164.744 E0.00376
G1 X159.578 Y164.742 E0.00314
G1 X159.336 Y164.727 E0.01035
G1 X159.199 Y164.71 E0.00591
G1 X159.142 Y164.699 E0.00251
G1 X158.745 Y164.728 E0.017
G1 X158.05 Y164.635 E0.02999
G1 X157.856 Y164.591 E0.0085
G1 X157.629 Y164.516 E0.01021
G1 X157.447 Y164.437 E0.0085
G1 X156.667 Y164.007 E0.0381
G1 X151.577 Y163.328 E0.21952
G1 X135.074 Y163.328 E0.7056
G1 X134.287 Y163.002 E0.03644
G1 X133.559 Y162.274 E0.04403
G1 X133.232 Y161.487 E0.03644
G1 X133.232 Y159.252 E0.09554
G1 X133.559 Y158.465 E0.03644
G1 X134.287 Y157.736 E0.04403
G1 X135.019 Y157.433 E0.03388
M204 S1000
G1 X135.089 Y157.636 F9000
M204 S500
G1 X135.159 Y157.839
G1 F900
G1 X151.057 Y157.839 E0.67972
G1 X151.151 Y157.763 E0.00515
G1 X151.341 Y157.648 E0.00947
G1 X151.594 Y157.536 E0.01185
G1 X151.806 Y157.473 E0.00947
G1 X155.77 Y156.84 E0.17161
G1 X155.792 Y156.836 E0.00095
G1 X158.564 Y156.467 E0.11959
G1 X158.606 Y156.462 E0.0018
G1 X158.659 Y156.458 E0.00225
G1 X158.701 Y156.455 E0.0018
G1 X159.638 Y156.423 E0.04009
G1 X159.68 Y156.423 E0.0018
G1 X159.733 Y156.424 E0.00225
G1 X159.775 Y156.425 E0.0018
G1 X160.135 Y156.449 E0.01541
G1 X162.775 Y156.653 E0.11324
G1 X162.874 Y156.667 E0.00425
G1 X162.996 Y156.691 E0.00531
G1 X163.092 Y156.715 E0.00425
G1 X163.462 Y156.833 E0.01659
G1 X163.65 Y156.92 E0.00888
G1 X163.872 Y157.056 E0.01111
G1 X164.034 Y157.186 E0.00888
G1 X164.358 Y157.514 E0.01971
G1 X164.49 Y157.688 E0.00931
G1 X164.626 Y157.924 E0.01165
G1 X164.71 Y158.124 E0.00931
G1 X164.815 Y158.506 E0.01694
G1 X164.839 Y158.62 E0.00494
G1 X164.858 Y158.763 E0.00618
G1 X164.866 Y158.878 E0.00494
G1 X164.866 Y159.024 E0.00625
G1 X165.154 Y161.355 E0.10041
G1 X165.134 Y161.672 E0.01356
G1 X165.037 Y162.057 E0.01697
G1 X164.905 Y162.345 E0.01355
G1 X164.702 Y162.632 E0.01502
G1 X164.626 Y162.815 E0.00849
G1 X164.49 Y163.051 E0.01165
G1 X164.358 Y163.224 E0.00931
G1 X164.034 Y163.553 E0.01971
G1 X163.872 Y163.682 E0.00888
G1 X163.65 Y163.818 E0.01111
G1 X163.462 Y163.905 E0.00888
G1 X163.092 Y164.023 E0.01661
G1 X162.995 Y164.048 E0.00427
G1 X162.872 Y164.072 E0.00534
G1 X162.773 Y164.085 E0.00428
G1 X159.787 Y164.313 E0.12802
G1 X159.729 Y164.315 E0.00251
G1 X159.655 Y164.316 E0.00314
G1 X159.597 Y164.314 E0.00251
G1 X159.376 Y164.301 E0.00944
G1 X159.267 Y164.287 E0.00473
G1 X159.142 Y164.263 E0.00542
G1 X159.111 Y164.272 E0.00138
G1 X158.758 Y164.298 E0.01513
G1 X158.126 Y164.213 E0.02725
G1 X157.971 Y164.178 E0.0068
G1 X157.782 Y164.116 E0.00851
G1 X157.636 Y164.052 E0.0068
G1 X156.803 Y163.593 E0.04069
G1 X151.606 Y162.9 E0.22417
G1 X135.159 Y162.9 E0.70317
G1 X134.529 Y162.639 E0.02915
G1 X133.922 Y162.031 E0.03674
G1 X133.661 Y161.401 E0.02915
G1 X133.661 Y159.337 E0.08825
G1 X133.922 Y158.707 E0.02915
G1 X134.529 Y158.1 E0.03674
G1 X135.104 Y157.862 E0.02659
M204 S1000
G1 X135.174 Y158.064 F9000
M204 S500
G1 X135.245 Y158.267
G1 F900
G1 X151.208 Y158.267 E0.68251
G1 X151.397 Y158.115 E0.01039
G1 X151.539 Y158.029 E0.0071
G1 X151.742 Y157.939 E0.00948
G1 X151.901 Y157.892 E0.0071
G1 X155.835 Y157.263 E0.17031
G1 X158.616 Y156.892 E0.11996
G1 X158.647 Y156.889 E0.00135
G1 X158.689 Y156.885 E0.0018
G1 X158.721 Y156.883 E0.00135
G1 X159.648 Y156.852 E0.03964
G1 X159.679 Y156.851 E0.00135
G1 X159.721 Y156.852 E0.0018
G1 X159.753 Y156.853 E0.00135
G1 X160.103 Y156.876 E0.015
G1 X162.73 Y157.08 E0.11265
G1 X162.804 Y157.09 E0.00319
G1 X162.901 Y157.109 E0.00425
G1 X162.973 Y157.127 E0.00319
G1 X163.306 Y157.234 E0.01495
G1 X163.448 Y157.299 E0.00666
G1 X163.625 Y157.408 E0.00889
G1 X163.747 Y157.505 E0.00666
G1 X164.033 Y157.795 E0.01744
G1 X164.132 Y157.925 E0.00698
G1 X164.241 Y158.114 E0.00932
G1 X164.304 Y158.265 E0.00698
G1 X164.399 Y158.607 E0.01516
G1 X164.416 Y158.691 E0.00371
G1 X164.432 Y158.806 E0.00494
G1 X164.437 Y158.893 E0.00371
G1 X164.437 Y159.051 E0.00676
G1 X164.724 Y161.368 E0.09985
G1 X164.709 Y161.606 E0.01017
G1 X164.632 Y161.914 E0.01358
G1 X164.532 Y162.13 E0.01017
G1 X164.313 Y162.44 E0.01622
G1 X164.304 Y162.474 E0.00151
G1 X164.241 Y162.624 E0.00698
G1 X164.132 Y162.813 E0.00932
G1 X164.033 Y162.943 E0.00698
G1 X163.747 Y163.234 E0.01744
G1 X163.625 Y163.331 E0.00666
G1 X163.448 Y163.44 E0.00889
G1 X163.306 Y163.505 E0.00666
G1 X162.973 Y163.611 E0.01496
G1 X162.9 Y163.63 E0.0032
G1 X162.802 Y163.649 E0.00428
G1 X162.728 Y163.659 E0.00321
G1 X159.762 Y163.885 E0.12717
G1 X159.718 Y163.887 E0.00188
G1 X159.66 Y163.887 E0.00251
G1 X159.616 Y163.886 E0.00188
G1 X159.416 Y163.874 E0.00854
G1 X159.334 Y163.863 E0.00355
G1 X159.225 Y163.843 E0.00473
G1 X159.136 Y163.819 E0.00394
G1 X159.036 Y163.848 E0.00448
G1 X158.771 Y163.867 E0.01135
G1 X158.203 Y163.791 E0.02451
G1 X158.086 Y163.765 E0.0051
G1 X157.935 Y163.715 E0.00681
G1 X157.826 Y163.667 E0.0051
G1 X156.939 Y163.179 E0.04327
G1 X151.634 Y162.471 E0.22883
G1 X135.245 Y162.471 E0.70074
G1 X134.772 Y162.276 E0.02186
G1 X134.285 Y161.789 E0.02945
G1 X134.089 Y161.316 E0.02187
G1 X134.089 Y159.422 E0.08096
G1 X134.285 Y158.95 E0.02187
G1 X134.772 Y158.463 E0.02945
G1 X135.189 Y158.29 E0.0193
M204 S1000
G1 X135.26 Y158.493 F9000
M204 S500
G1 X135.33 Y158.696
G1 F900
G1 X151.358 Y158.696 E0.68529
G1 X151.644 Y158.467 E0.01564
G1 X151.738 Y158.41 E0.00473
G1 X151.89 Y158.342 E0.00711
G1 X151.996 Y158.311 E0.00473
G1 X155.9 Y157.687 E0.16901
G1 X158.667 Y157.318 E0.11937
G1 X158.688 Y157.315 E0.0009
G1 X158.741 Y157.311 E0.00225
G1 X159.657 Y157.28 E0.03919
G1 X159.678 Y157.28 E0.0009
G1 X159.731 Y157.281 E0.00225
G1 X160.071 Y157.303 E0.0146
G1 X162.684 Y157.506 E0.11206
G1 X162.734 Y157.512 E0.00212
G1 X162.807 Y157.527 E0.00319
G1 X162.855 Y157.539 E0.00212
G1 X163.151 Y157.634 E0.01331
G1 X163.246 Y157.677 E0.00444
G1 X163.379 Y157.759 E0.00667
G1 X163.46 Y157.824 E0.00444
G1 X163.709 Y158.076 E0.01516
G1 X163.775 Y158.163 E0.00466
G1 X163.856 Y158.305 E0.00699
G1 X163.898 Y158.405 E0.00466
G1 X163.982 Y158.707 E0.01338
G1 X163.993 Y158.763 E0.00247
G1 X164.005 Y158.849 E0.00371
G1 X164.009 Y158.907 E0.00247
G1 X164.009 Y159.077 E0.00727
G1 X164.293 Y161.381 E0.09928
G1 X164.284 Y161.54 E0.00678
G1 X164.226 Y161.771 E0.0102
G1 X164.159 Y161.915 E0.00678
G1 X163.92 Y162.254 E0.01772
G1 X163.898 Y162.333 E0.00354
G1 X163.856 Y162.434 E0.00466
G1 X163.775 Y162.575 E0.00699
G1 X163.709 Y162.662 E0.00466
G1 X163.46 Y162.915 E0.01516
G1 X163.379 Y162.98 E0.00444
G1 X163.246 Y163.061 E0.00667
G1 X163.151 Y163.105 E0.00444
G1 X162.855 Y163.199 E0.01332
G1 X162.806 Y163.212 E0.00214
G1 X162.733 Y163.226 E0.00321
G1 X162.683 Y163.233 E0.00214
G1 X159.737 Y163.457 E0.12632
G1 X159.708 Y163.458 E0.00125
G1 X159.664 Y163.459 E0.00188
G1 X159.634 Y163.458 E0.00125
G1 X159.456 Y163.447 E0.00763
G1 X159.401 Y163.44 E0.00236
G1 X159.32 Y163.424 E0.00355
G1 X159.266 Y163.41 E0.00236
G1 X159.145 Y163.37 E0.00545
G1 X158.96 Y163.424 E0.00824
G1 X158.784 Y163.436 E0.00756
G1 X158.279 Y163.369 E0.02177
G1 X158.201 Y163.351 E0.0034
G1 X158.088 Y163.314 E0.00511
G1 X158.015 Y163.282 E0.0034
G1 X157.076 Y162.765 E0.04586
G1 X151.663 Y162.043 E0.23348
G1 X135.33 Y162.043 E0.69832
G1 X135.015 Y161.912 E0.01458
G1 X134.648 Y161.546 E0.02217
G1 X134.518 Y161.231 E0.01458
G1 X134.518 Y159.508 E0.07367
G1 X134.648 Y159.193 E0.01458
G1 X135.015 Y158.826 E0.02217
G1 X135.274 Y158.719 E0.01201
M204 S1000
G1 X135.345 Y158.921 F9000
M204 S500
G1 X135.415 Y159.124
G1 F900
G1 X151.508 Y159.124 E0.68807
G1 X151.89 Y158.819 E0.02088
G1 X151.937 Y158.79 E0.00237
G1 X152.038 Y158.745 E0.00474
G1 X152.092 Y158.73 E0.00237
G1 X155.966 Y158.11 E0.16776
G1 X158.729 Y157.742 E0.11918
G1 X158.761 Y157.739 E0.00135
G1 X159.666 Y157.709 E0.03874
G1 X159.708 Y157.709 E0.0018
G1 X160.04 Y157.73 E0.01419
G1 X162.639 Y157.932 E0.11147
G1 X162.663 Y157.935 E0.00106
G1 X162.712 Y157.945 E0.00212
G1 X162.736 Y157.951 E0.00106
G1 X162.996 Y158.034 E0.01166
G1 X163.043 Y158.056 E0.00222
G1 X163.132 Y158.11 E0.00445
G1 X163.173 Y158.143 E0.00222
G1 X163.384 Y158.358 E0.01289
G1 X163.417 Y158.401 E0.00233
G1 X163.472 Y158.495 E0.00467
G1 X163.493 Y158.546 E0.00233
G1 X163.565 Y158.807 E0.01159
G1 X163.571 Y158.835 E0.00124
G1 X163.578 Y158.893 E0.00247
G1 X163.58 Y158.921 E0.00124
G1 X163.58 Y159.103 E0.00777
G1 X163.863 Y161.395 E0.09871
G1 X163.858 Y161.474 E0.00339
G1 X163.82 Y161.628 E0.00681
G1 X163.787 Y161.7 E0.00339
G1 X163.527 Y162.067 E0.01922
G1 X163.493 Y162.193 E0.00557
G1 X163.472 Y162.243 E0.00233
G1 X163.417 Y162.338 E0.00467
G1 X163.384 Y162.381 E0.00233
G1 X163.173 Y162.596 E0.01289
G1 X163.132 Y162.628 E0.00222
G1 X163.043 Y162.683 E0.00445
G1 X162.996 Y162.704 E0.00222
G1 X162.736 Y162.787 E0.01167
G1 X162.712 Y162.794 E0.00107
G1 X162.663 Y162.803 E0.00214
G1 X162.638 Y162.806 E0.00107
G1 X159.712 Y163.029 E0.12548
G1 X159.668 Y163.03 E0.00188
G1 X159.496 Y163.02 E0.00736
G1 X159.469 Y163.017 E0.00118
G1 X159.414 Y163.006 E0.00236
G1 X159.388 Y162.999 E0.00118
G1 X159.227 Y162.946 E0.00723
G1 X159.2 Y162.935 E0.00123
G1 X159.139 Y162.905 E0.00291
G1 X159.056 Y162.95 E0.00407
G1 X158.885 Y162.999 E0.00761
G1 X158.796 Y163.006 E0.00378
G1 X158.355 Y162.947 E0.01902
G1 X158.317 Y162.938 E0.0017
