; generated by SuperSlicer 2.3.57 on 2022-03-02 at 21:38:55 UTC


;
;

;
;
; 

; external perimeters extrusion width = 0.40mm
; perimeters extrusion width = 0.45mm
; infill extrusion width = 0.72mm
; solid infill extrusion width = 0.56mm
; top infill extrusion width = 0.40mm
; support material extrusion width = 0.42mm
; first layer extrusion width = 0.48mm

; object:{"name":"Sign3_1","id":"Sign3_1.stl id:0 copy 0","object_center":[152.500000,150.000000,0.000000],"boundingbox_center":[152.500000,150.000000,2.500000],"boundingbox_size":[153.600000,98.600000,5.000000]}
; plater:{"center":[152.500000,150.000000,0.000000],"boundingbox_center":[152.500000,150.000000,2.500000],"boundingbox_size":[153.600000,98.600000,5.000000]}

;TYPE:Custom
START_PRINT T_BED=60 T_EXTRUDER=200
M107
G21 ; set units to millimeters
G90 ; use absolute coordinates
M83 ; use relative distances for extrusion
; Filament gcode
M104 S200 ; set temperature
M109 S200 ; set temperature and wait for it to be reached
M190 S60 ; set bed temperature and wait for it to be reached
M107
;LAYER_CHANGE
;Z:0.24
;HEIGHT:0.24
G1 Z0.24 F9000
G1 E-0.8 F3000
G1 X73.782 Y97.767 F9000
G1 E0.8 F1800
; External perimeter
;Skirt
SET_VELOCITY_LIMIT ACCEL=300 ACCEL_TO_DECEL=3000 SQUARE_CORNER_VELOCITY=5

; Support material

;TYPE:Skirt
;WIDTH:0.48
G1 X73.111 Y98.343 E0.03781
G1 X72.598 Y99.063 E0.03781
G1 X72.274 Y99.886 E0.03781
G1 X72.157 Y100.762 E0.03781
G1 X72.157 Y199.221 E4.20966
G1 X72.315 Y200.262 E0.045
G1 X72.767 Y201.218 E0.0452
G1 X73.343 Y201.889 E0.03781
G1 X74.067 Y202.404 E0.03801
G1 X74.895 Y202.728 E0.03801
G1 X75.776 Y202.843 E0.03801
G1 X229.217 Y202.843 E6.5604
G1 X230.262 Y202.685 E0.0452
G1 X231.218 Y202.233 E0.0452
G1 X231.886 Y201.661 E0.03761
G1 X232.397 Y200.945 E0.03761
G1 X232.723 Y200.128 E0.03761
G1 X232.842 Y199.257 E0.03761
G1 X232.842 Y100.732 E4.21248
G1 X232.76 Y100.03 E0.03019
G1 X232.545 Y99.358 E0.03019
G1 X232.207 Y98.743 E0.02999
G1 X231.753 Y98.202 E0.03019
G1 X231.208 Y97.761 E0.02999
G1 X230.584 Y97.43 E0.03019
G1 X229.907 Y97.227 E0.03019
G1 X229.205 Y97.157 E0.03019
G1 X75.783 Y97.157 E6.5596
G1 X74.738 Y97.315 E0.0452
G1 X73.837 Y97.741 E0.04264
G1 X74.024 Y98.121 F9000
G1 F1800
G1 X73.429 Y98.629 E0.03344
G1 X72.975 Y99.266 E0.03344
G1 X72.689 Y99.994 E0.03344
G1 X72.586 Y100.773 E0.03362
G1 X72.586 Y199.217 E4.20901
G1 X72.724 Y200.134 E0.03963
G1 X73.121 Y200.976 E0.03982
G1 X73.633 Y201.574 E0.03362
G1 X74.27 Y202.027 E0.03344
G1 X75.002 Y202.314 E0.03362
G1 X75.782 Y202.414 E0.03362
G1 X229.213 Y202.414 E6.56
G1 X230.134 Y202.276 E0.03982
G1 X230.976 Y201.879 E0.03982
G1 X231.568 Y201.374 E0.03325
G1 X232.023 Y200.738 E0.03344
G1 X232.309 Y200.015 E0.03325
G1 X232.414 Y199.244 E0.03325
G1 X232.414 Y100.747 E4.21129
G1 X232.343 Y100.128 E0.02666
G1 X232.156 Y99.538 E0.02647
G1 X231.857 Y98.991 E0.02666
G1 X231.457 Y98.512 E0.02666
G1 X230.973 Y98.119 E0.02666
G1 X230.422 Y97.827 E0.02666
G1 X229.825 Y97.647 E0.02666
G1 X229.204 Y97.586 E0.02666
G1 X75.787 Y97.586 E6.55943
G1 X74.866 Y97.724 E0.03982
G1 X74.078 Y98.096 E0.03725
; INIT printing object Sign3_1.stl id:0 copy 0
G1 E-0.8 F3000
; printing object Sign3_1.stl id:0 copy 0
G1 X80.903 Y163.303 F9000
G1 E0.8 F1800
; External perimeter
;Perimeter
SET_VELOCITY_LIMIT ACCEL=2000 ACCEL_TO_DECEL=2000 SQUARE_CORNER_VELOCITY=5

; Overhang perimeter

;TYPE:Internal perimeter
G1 X80.903 Y171.497 E0.35034
G1 X224.097 Y171.497 E6.12232
G1 X224.097 Y163.303 E0.35034
G1 X80.963 Y163.303 E6.11976
G1 X81.332 Y163.732 F9000
G1 F1800
G1 X81.332 Y171.068 E0.3137
G1 X223.668 Y171.068 E6.08568
G1 X223.668 Y163.732 E0.3137
G1 X81.392 Y163.732 E6.08312
G1 X81.76 Y164.16 F9000
; External perimeter
;ExternalPerimeter
SET_VELOCITY_LIMIT ACCEL=1000 ACCEL_TO_DECEL=1000 SQUARE_CORNER_VELOCITY=5

; Perimeter

;TYPE:External perimeter
G1 F1800
G1 X81.76 Y170.64 E0.27706
G1 X81.88 Y170.64 E0.00458
G1 X82.12 Y170.64 E0.00971
G1 X223.24 Y170.64 E6.03365
G1 X223.24 Y170.52 E0.00458
G1 X223.24 Y170.28 E0.00971
G1 X223.24 Y164.16 E0.26166
G1 X223.12 Y164.16 E0.00458
G1 X222.88 Y164.16 E0.00971
G1 X81.82 Y164.16 E6.03109
;WIPE_START
G1 X81.36 Y164.16 F9000
;WIPE_END
G1 X80.903 Y128.503
; External perimeter
;Perimeter
SET_VELOCITY_LIMIT ACCEL=2000 ACCEL_TO_DECEL=2000 SQUARE_CORNER_VELOCITY=5

; Overhang perimeter

;TYPE:Internal perimeter
G1 F1800
G1 X80.903 Y136.697 E0.35034
G1 X224.097 Y136.697 E6.12232
G1 X224.097 Y128.503 E0.35034
G1 X80.963 Y128.503 E6.11976
G1 X81.332 Y128.932 F9000
G1 F1800
G1 X81.332 Y136.268 E0.3137
G1 X223.668 Y136.268 E6.08568
G1 X223.668 Y128.932 E0.3137
G1 X81.392 Y128.932 E6.08312
G1 X81.76 Y129.36 F9000
; External perimeter
;ExternalPerimeter
SET_VELOCITY_LIMIT ACCEL=1000 ACCEL_TO_DECEL=1000 SQUARE_CORNER_VELOCITY=5

; Perimeter

;TYPE:External perimeter
G1 F1800
G1 X81.76 Y135.84 E0.27706
G1 X81.88 Y135.84 E0.00458
G1 X82.12 Y135.84 E0.00971
G1 X223.24 Y135.84 E6.03365
G1 X223.24 Y135.72 E0.00458
G1 X223.24 Y135.48 E0.00971
G1 X223.24 Y129.36 E0.26166
G1 X223.12 Y129.36 E0.00458
G1 X222.88 Y129.36 E0.00971
G1 X81.82 Y129.36 E6.03109
;WIPE_START
G1 X81.36 Y129.36 F9000
;WIPE_END
G1 E-0.8 F3000
G1 X228.103 Y198.103 F9000
G1 E0.8 F1800
; External perimeter
;Perimeter
SET_VELOCITY_LIMIT ACCEL=2000 ACCEL_TO_DECEL=2000 SQUARE_CORNER_VELOCITY=5

; Overhang perimeter

;TYPE:Internal perimeter
G1 X76.897 Y198.103 E6.46488
G1 X76.897 Y101.897 E4.11333
G1 X228.103 Y101.897 E6.46488
G1 X228.103 Y198.043 E4.11077
G1 X228.532 Y198.532 F9000
G1 F1800
G1 X76.468 Y198.532 E6.50152
G1 X76.468 Y101.468 E4.14997
G1 X228.532 Y101.468 E6.50152
G1 X228.532 Y198.472 E4.14741
G1 X228.96 Y198.96 F9000
; External perimeter
;ExternalPerimeter
SET_VELOCITY_LIMIT ACCEL=1000 ACCEL_TO_DECEL=1000 SQUARE_CORNER_VELOCITY=5

; Perimeter

;TYPE:External perimeter
G1 F1800
G1 X76.04 Y198.96 E6.53816
G1 X76.04 Y198.84 E0.00458
G1 X76.04 Y198.6 E0.00971
G1 X76.04 Y101.04 E4.17122
G1 X76.16 Y101.04 E0.00458
G1 X76.4 Y101.04 E0.00971
G1 X228.96 Y101.04 E6.52277
G1 X228.96 Y101.16 E0.00458
G1 X228.96 Y101.4 E0.00971
G1 X228.96 Y198.9 E4.16866
;WIPE_START
G1 X228.614 Y198.76 F9000
;WIPE_END
G1 X228.039 Y102.827
; External perimeter
;SolidInfill
SET_VELOCITY_LIMIT ACCEL=2000 ACCEL_TO_DECEL=2000 SQUARE_CORNER_VELOCITY=5

; Bridge infill

;TYPE:Solid infill
;WIDTH:0.476843
G1 F2400
G1 X227.357 Y102.145 E0.04096
G1 X226.751 Y102.145 E0.02574
G1 X227.855 Y103.249 E0.0663
G1 X227.855 Y103.855 E0.02574
G1 X226.145 Y102.145 E0.1027
G1 X225.539 Y102.145 E0.02574
G1 X227.855 Y104.461 E0.1391
G1 X227.855 Y105.067 E0.02574
G1 X224.933 Y102.145 E0.1755
G1 X224.327 Y102.145 E0.02574
G1 X227.855 Y105.673 E0.2119
G1 X227.855 Y106.279 E0.02574
G1 X223.721 Y102.145 E0.2483
G1 X223.115 Y102.145 E0.02574
G1 X227.855 Y106.885 E0.2847
G1 X227.855 Y107.491 E0.02574
G1 X222.509 Y102.145 E0.3211
G1 X221.903 Y102.145 E0.02574
G1 X227.855 Y108.097 E0.3575
G1 X227.855 Y108.703 E0.02574
G1 X221.297 Y102.145 E0.3939
G1 X220.691 Y102.145 E0.02574
G1 X227.855 Y109.309 E0.4303
G1 X227.855 Y109.915 E0.02574
G1 X220.085 Y102.145 E0.4667
G1 X219.479 Y102.145 E0.02574
G1 X227.855 Y110.521 E0.5031
G1 X227.855 Y111.127 E0.02574
G1 X218.873 Y102.145 E0.5395
G1 X218.267 Y102.145 E0.02574
G1 X227.855 Y111.733 E0.5759
G1 X227.855 Y112.339 E0.02574
G1 X217.661 Y102.145 E0.6123
G1 X217.055 Y102.145 E0.02574
G1 X227.855 Y112.945 E0.6487
G1 X227.855 Y113.551 E0.02574
G1 X216.449 Y102.145 E0.6851
G1 X215.843 Y102.145 E0.02574
G1 X227.855 Y114.157 E0.7215
G1 X227.855 Y114.763 E0.02574
G1 X215.237 Y102.145 E0.7579
G1 X214.631 Y102.145 E0.02574
G1 X227.855 Y115.369 E0.7943
G1 X227.855 Y115.975 E0.02574
G1 X214.025 Y102.145 E0.8307
G1 X213.419 Y102.145 E0.02574
G1 X227.855 Y116.581 E0.8671
G1 X227.855 Y117.187 E0.02574
G1 X212.813 Y102.145 E0.9035
G1 X212.207 Y102.145 E0.02574
G1 X227.855 Y117.793 E0.9399
G1 X227.855 Y118.399 E0.02574
G1 X211.601 Y102.145 E0.9763
G1 X210.995 Y102.145 E0.02574
G1 X227.855 Y119.005 E1.0127
G1 X227.855 Y119.611 E0.02574
G1 X210.389 Y102.145 E1.0491
G1 X209.783 Y102.145 E0.02574
G1 X227.855 Y120.217 E1.0855
G1 X227.855 Y120.823 E0.02574
G1 X209.177 Y102.145 E1.1219
G1 X208.571 Y102.145 E0.02574
G1 X227.855 Y121.429 E1.1583
G1 X227.855 Y122.035 E0.02574
G1 X207.965 Y102.145 E1.1947
G1 X207.359 Y102.145 E0.02574
G1 X227.855 Y122.641 E1.2311
G1 X227.855 Y123.247 E0.02574
G1 X206.753 Y102.145 E1.2675
G1 X206.147 Y102.145 E0.02574
G1 X227.855 Y123.853 E1.3039
G1 X227.855 Y124.459 E0.02574
G1 X205.541 Y102.145 E1.3403
G1 X204.935 Y102.145 E0.02574
G1 X227.855 Y125.065 E1.3767
G1 X227.855 Y125.671 E0.02574
G1 X204.329 Y102.145 E1.4131
G1 X203.723 Y102.145 E0.02574
G1 X227.855 Y126.277 E1.4495
G1 X227.855 Y126.883 E0.02574
G1 X203.117 Y102.145 E1.4859
G1 X202.511 Y102.145 E0.02574
G1 X227.855 Y127.489 E1.5223
G1 X227.855 Y128.094 E0.02574
G1 X201.906 Y102.145 E1.5587
G1 X201.3 Y102.145 E0.02574
G1 X227.855 Y128.7 E1.5951
G1 X227.855 Y129.306 E0.02574
G1 X200.694 Y102.145 E1.6315
G1 X200.088 Y102.145 E0.02574
G1 X227.855 Y129.912 E1.6679
G1 X227.855 Y130.518 E0.02574
G1 X199.482 Y102.145 E1.7043
G1 X198.876 Y102.145 E0.02574
G1 X227.855 Y131.124 E1.7407
G1 X227.855 Y131.73 E0.02574
G1 X198.27 Y102.145 E1.7771
G1 X197.664 Y102.145 E0.02574
G1 X223.773 Y128.255 E1.56831
G1 X224.345 Y128.255 E0.02433
G1 X224.345 Y128.827 E0.02433
G1 X227.855 Y132.336 E0.21078
G1 X227.855 Y132.942 E0.02574
G1 X224.345 Y129.433 E0.21078
G1 X224.345 Y130.039 E0.02574
G1 X227.855 Y133.548 E0.21078
G1 X227.855 Y134.154 E0.02574
G1 X224.345 Y130.645 E0.21078
G1 X224.345 Y131.251 E0.02574
G1 X227.855 Y134.76 E0.21078
G1 X227.855 Y135.366 E0.02574
G1 X224.345 Y131.857 E0.21078
G1 X224.345 Y132.463 E0.02574
G1 X227.855 Y135.972 E0.21078
G1 X227.855 Y136.578 E0.02574
G1 X224.345 Y133.069 E0.21078
G1 X224.345 Y133.675 E0.02574
G1 X227.855 Y137.184 E0.21078
G1 X227.855 Y137.79 E0.02574
G1 X224.345 Y134.281 E0.21078
G1 X224.345 Y134.887 E0.02574
G1 X227.855 Y138.396 E0.21078
G1 X227.855 Y139.002 E0.02574
G1 X224.345 Y135.493 E0.21078
G1 X224.345 Y136.099 E0.02574
G1 X227.855 Y139.608 E0.21078
G1 X227.855 Y140.214 E0.02574
G1 X224.345 Y136.705 E0.21078
G1 X224.345 Y136.945 E0.01021
G1 X223.98 Y136.945 E0.01553
G1 X227.855 Y140.82 E0.23274
G1 X227.855 Y141.426 E0.02574
G1 X223.374 Y136.945 E0.26914
G1 X222.768 Y136.945 E0.02574
G1 X227.855 Y142.032 E0.30554
G1 X227.855 Y142.638 E0.02574
G1 X222.162 Y136.945 E0.34194
G1 X221.556 Y136.945 E0.02574
G1 X227.855 Y143.244 E0.37834
G1 X227.855 Y143.85 E0.02574
G1 X220.95 Y136.945 E0.41474
G1 X220.344 Y136.945 E0.02574
G1 X227.855 Y144.456 E0.45114
G1 X227.855 Y145.062 E0.02574
G1 X219.738 Y136.945 E0.48754
G1 X219.132 Y136.945 E0.02574
G1 X227.855 Y145.668 E0.52394
G1 X227.855 Y146.274 E0.02574
G1 X218.526 Y136.945 E0.56034
G1 X217.92 Y136.945 E0.02574
G1 X227.855 Y146.88 E0.59674
G1 X227.855 Y147.486 E0.02574
G1 X217.314 Y136.945 E0.63314
G1 X216.708 Y136.945 E0.02574
G1 X227.855 Y148.092 E0.66954
G1 X227.855 Y148.698 E0.02574
G1 X216.102 Y136.945 E0.70594
G1 X215.496 Y136.945 E0.02574
G1 X227.855 Y149.304 E0.74234
G1 X227.855 Y149.91 E0.02574
G1 X214.89 Y136.945 E0.77874
G1 X214.284 Y136.945 E0.02574
G1 X227.855 Y150.516 E0.81514
G1 X227.855 Y151.122 E0.02574
G1 X213.678 Y136.945 E0.85154
G1 X213.072 Y136.945 E0.02574
G1 X227.855 Y151.728 E0.88794
G1 X227.855 Y152.334 E0.02574
G1 X212.466 Y136.945 E0.92434
G1 X211.86 Y136.945 E0.02574
G1 X227.855 Y152.94 E0.96074
G1 X227.855 Y153.546 E0.02574
G1 X211.254 Y136.945 E0.99714
G1 X210.648 Y136.945 E0.02574
G1 X227.855 Y154.152 E1.03354
G1 X227.855 Y154.758 E0.02574
G1 X210.042 Y136.945 E1.06994
G1 X209.436 Y136.945 E0.02574
G1 X227.855 Y155.364 E1.10634
G1 X227.855 Y155.97 E0.02574
G1 X208.83 Y136.945 E1.14274
G1 X208.224 Y136.945 E0.02574
G1 X227.855 Y156.576 E1.17914
G1 X227.855 Y157.182 E0.02574
G1 X207.618 Y136.945 E1.21554
G1 X207.012 Y136.945 E0.02574
G1 X227.855 Y157.788 E1.25194
G1 X227.855 Y158.394 E0.02574
G1 X206.406 Y136.945 E1.28834
G1 X205.8 Y136.945 E0.02574
G1 X227.855 Y159 E1.32474
G1 X227.855 Y159.606 E0.02574
G1 X205.194 Y136.945 E1.36114
G1 X204.588 Y136.945 E0.02574
G1 X227.855 Y160.212 E1.39754
G1 X227.855 Y160.818 E0.02574
G1 X203.982 Y136.945 E1.43394
G1 X203.376 Y136.945 E0.02574
G1 X227.855 Y161.424 E1.47034
G1 X227.855 Y162.03 E0.02574
G1 X202.77 Y136.945 E1.50674
G1 X202.164 Y136.945 E0.02574
G1 X227.855 Y162.636 E1.54314
G1 X227.855 Y163.242 E0.02574
G1 X201.558 Y136.945 E1.57954
G1 X200.952 Y136.945 E0.02574
G1 X227.855 Y163.848 E1.61594
G1 X227.855 Y164.453 E0.02574
G1 X200.347 Y136.945 E1.65234
G1 X199.741 Y136.945 E0.02574
G1 X227.855 Y165.059 E1.68874
G1 X227.855 Y165.665 E0.02574
G1 X199.135 Y136.945 E1.72514
G1 X198.529 Y136.945 E0.02574
G1 X227.855 Y166.271 E1.76154
G1 X227.855 Y166.877 E0.02574
G1 X197.923 Y136.945 E1.79794
G1 X197.317 Y136.945 E0.02574
G1 X223.426 Y163.055 E1.56831
G1 X222.82 Y163.055 E0.02574
G1 X196.711 Y136.945 E1.56831
G1 X196.105 Y136.945 E0.02574
G1 X222.214 Y163.055 E1.56831
G1 X221.608 Y163.055 E0.02574
G1 X195.499 Y136.945 E1.56831
G1 X194.893 Y136.945 E0.02574
G1 X221.002 Y163.055 E1.56831
G1 X220.396 Y163.055 E0.02574
G1 X194.287 Y136.945 E1.56831
G1 X193.681 Y136.945 E0.02574
G1 X219.79 Y163.055 E1.56831
G1 X219.184 Y163.055 E0.02574
G1 X193.075 Y136.945 E1.56831
G1 X192.469 Y136.945 E0.02574
G1 X218.578 Y163.055 E1.56831
G1 X217.972 Y163.055 E0.02574
G1 X191.863 Y136.945 E1.56831
G1 X191.257 Y136.945 E0.02574
G1 X217.366 Y163.055 E1.56831
G1 X216.76 Y163.055 E0.02574
G1 X190.651 Y136.945 E1.56831
G1 X190.045 Y136.945 E0.02574
G1 X216.154 Y163.055 E1.56831
G1 X215.548 Y163.055 E0.02574
G1 X189.439 Y136.945 E1.56831
G1 X188.833 Y136.945 E0.02574
G1 X214.942 Y163.055 E1.56831
G1 X214.336 Y163.055 E0.02574
G1 X188.227 Y136.945 E1.56831
G1 X187.621 Y136.945 E0.02574
G1 X213.73 Y163.055 E1.56831
G1 X213.124 Y163.055 E0.02574
G1 X187.015 Y136.945 E1.56831
G1 X186.409 Y136.945 E0.02574
G1 X212.518 Y163.055 E1.56831
G1 X211.912 Y163.055 E0.02574
G1 X185.803 Y136.945 E1.56831
G1 X185.197 Y136.945 E0.02574
G1 X211.306 Y163.055 E1.56831
G1 X210.7 Y163.055 E0.02574
G1 X184.591 Y136.945 E1.56831
G1 X183.985 Y136.945 E0.02574
G1 X210.094 Y163.055 E1.56831
G1 X209.488 Y163.055 E0.02574
G1 X183.379 Y136.945 E1.56831
G1 X182.773 Y136.945 E0.02574
G1 X208.882 Y163.055 E1.56831
G1 X208.276 Y163.055 E0.02574
G1 X182.167 Y136.945 E1.56831
G1 X181.561 Y136.945 E0.02574
G1 X207.67 Y163.055 E1.56831
G1 X207.064 Y163.055 E0.02574
G1 X180.955 Y136.945 E1.56831
G1 X180.349 Y136.945 E0.02574
G1 X206.458 Y163.055 E1.56831
G1 X205.852 Y163.055 E0.02574
G1 X179.743 Y136.945 E1.56831
G1 X179.137 Y136.945 E0.02574
G1 X205.246 Y163.055 E1.56831
G1 X204.64 Y163.055 E0.02574
G1 X178.531 Y136.945 E1.56831
G1 X177.925 Y136.945 E0.02574
G1 X204.034 Y163.055 E1.56831
G1 X203.428 Y163.055 E0.02574
G1 X177.319 Y136.945 E1.56831
G1 X176.713 Y136.945 E0.02574
G1 X202.822 Y163.055 E1.56831
G1 X202.216 Y163.055 E0.02574
G1 X176.107 Y136.945 E1.56831
G1 X175.501 Y136.945 E0.02574
G1 X201.61 Y163.055 E1.56831
G1 X201.004 Y163.055 E0.02574
G1 X174.895 Y136.945 E1.56831
G1 X174.289 Y136.945 E0.02574
G1 X200.398 Y163.055 E1.56831
G1 X199.792 Y163.055 E0.02574
G1 X173.683 Y136.945 E1.56831
G1 X173.077 Y136.945 E0.02574
G1 X199.186 Y163.055 E1.56831
G1 X198.58 Y163.055 E0.02574
G1 X172.471 Y136.945 E1.56831
G1 X171.865 Y136.945 E0.02574
G1 X197.974 Y163.055 E1.56831
G1 X197.368 Y163.055 E0.02574
G1 X171.259 Y136.945 E1.56831
G1 X170.653 Y136.945 E0.02574
G1 X196.762 Y163.055 E1.56831
G1 X196.156 Y163.055 E0.02574
G1 X170.047 Y136.945 E1.56831
G1 X169.441 Y136.945 E0.02574
G1 X195.55 Y163.055 E1.56831
G1 X194.944 Y163.055 E0.02574
G1 X168.835 Y136.945 E1.56831
G1 X168.229 Y136.945 E0.02574
G1 X194.338 Y163.055 E1.56831
G1 X193.732 Y163.055 E0.02574
G1 X167.623 Y136.945 E1.56831
G1 X167.017 Y136.945 E0.02574
G1 X193.126 Y163.055 E1.56831
G1 X192.52 Y163.055 E0.02574
G1 X166.411 Y136.945 E1.56831
G1 X165.805 Y136.945 E0.02574
G1 X191.914 Y163.055 E1.56831
G1 X191.308 Y163.055 E0.02574
G1 X165.199 Y136.945 E1.56831
G1 X164.593 Y136.945 E0.02574
