; generated by SuperSlicer 2.3.57 on 2022-02-23 at 22:51:43 UTC


;
;

;
;
; 

; external perimeters extrusion width = 0.40mm
; perimeters extrusion width = 0.45mm
; infill extrusion width = 0.72mm
; solid infill extrusion width = 0.56mm
; top infill extrusion width = 0.40mm
; support material extrusion width = 0.42mm
; first layer extrusion width = 0.48mm

; external perimeters extrusion width = 0.20mm
; perimeters extrusion width = 0.45mm
; infill extrusion width = 0.72mm
; solid infill extrusion width = 0.56mm
; top infill extrusion width = 0.48mm
; support material extrusion width = 0.42mm
; first layer extrusion width = 0.48mm

; external perimeters extrusion width = 0.40mm
; perimeters extrusion width = 0.45mm
; infill extrusion width = 0.72mm
; solid infill extrusion width = 0.56mm
; top infill extrusion width = 0.40mm
; support material extrusion width = 0.42mm
; first layer extrusion width = 0.48mm

; external perimeters extrusion width = 0.40mm
; perimeters extrusion width = 0.45mm
; infill extrusion width = 0.72mm
; solid infill extrusion width = 0.56mm
; top infill extrusion width = 0.40mm
; support material extrusion width = 0.42mm
; first layer extrusion width = 0.48mm

; object:{"name":"Sign","id":"Sign.stl id:0 copy 0","object_center":[152.500000,150.000000,0.000000],"boundingbox_center":[152.500000,150.000000,8.400000],"boundingbox_size":[109.952080,60.043602,16.799999]}
; plater:{"center":[152.500000,150.000000,0.000000],"boundingbox_center":[152.500000,150.000000,8.400000],"boundingbox_size":[109.952080,60.043602,16.799999]}

;TYPE:Custom
START_PRINT T_BED=60 T_EXTRUDER=220
M107
G21 ; set units to millimeters
G90 ; use absolute coordinates
M83 ; use relative distances for extrusion
; Filament gcode
M109 S220 ; set temperature and wait for it to be reached
M190 S60 ; set bed temperature and wait for it to be reached
;LAYER_CHANGE
;Z:0.24
;HEIGHT:0.24
G1 Z0.24 F9000
G1 E-0.8 F3000
G1 X95.919 Y117.653 F9000
G1 E0.8 F1800
; External perimeter
;Skirt
SET_VELOCITY_LIMIT ACCEL=300 ACCEL_TO_DECEL=3000 SQUARE_CORNER_VELOCITY=5

; Support material

;TYPE:Skirt
;WIDTH:0.48
G1 X95.432 Y118.104 E0.02838
G1 X94.928 Y118.732 E0.03442
G1 X94.581 Y119.325 E0.0294
G1 X94.301 Y120.01 E0.03161
G1 X94.125 Y120.727 E0.0316
G1 X94.057 Y121.408 E0.02923
G1 X94.053 Y164.864 E1.85801
G1 X94.169 Y165.899 E0.04454
G1 X94.559 Y167.028 E0.05103
G1 X95.085 Y167.894 E0.04334
G1 X95.702 Y168.57 E0.03915
G1 X96.45 Y169.137 E0.04015
G1 X97.278 Y169.551 E0.03955
G1 X135.975 Y183.296 E1.75576
G1 X137.305 Y183.531 E0.05775
G1 X167.732 Y183.523 E1.30094
G1 X168.435 Y183.453 E0.03019
G1 X207.914 Y169.471 E1.79067
G1 X208.542 Y169.142 E0.0303
G1 X209.117 Y168.728 E0.0303
G1 X209.994 Y167.782 E0.05516
G1 X210.353 Y167.21 E0.02887
G1 X210.665 Y166.496 E0.03332
G1 X210.862 Y165.752 E0.03292
G1 X210.94 Y165.055 E0.02997
G1 X210.945 Y121.442 E1.86468
G1 X210.835 Y120.532 E0.0392
G1 X210.488 Y119.473 E0.04764
G1 X210.015 Y118.648 E0.04065
G1 X209.426 Y117.957 E0.03883
G1 X208.683 Y117.357 E0.04085
G1 X207.697 Y116.848 E0.04744
G1 X206.769 Y116.587 E0.04123
G1 X205.877 Y116.507 E0.03828
G1 X99.11 Y116.507 E4.56485
G1 X98.101 Y116.614 E0.04341
G1 X96.972 Y116.988 E0.05085
G1 X95.969 Y117.621 E0.05069
G1 X96.2 Y117.976 F9000
G1 F1800
G1 X95.749 Y118.391 E0.02622
G1 X95.285 Y118.969 E0.03171
G1 X94.709 Y120.144 E0.05592
G1 X94.485 Y121.432 E0.0559
G1 X94.481 Y164.849 E1.85632
G1 X94.567 Y165.715 E0.03721
G1 X94.844 Y166.618 E0.0404
G1 X95.363 Y167.545 E0.04543
G1 X95.929 Y168.195 E0.03683
G1 X96.646 Y168.754 E0.03891
G1 X97.427 Y169.15 E0.0374
G1 X136.114 Y182.89 E1.75532
G1 X137.314 Y183.102 E0.0521
G1 X167.733 Y183.095 E1.30058
G1 X168.353 Y183.032 E0.02666
G1 X207.725 Y169.086 E1.78583
G1 X208.84 Y168.4 E0.05598
G1 X209.64 Y167.541 E0.05019
G1 X209.971 Y167.014 E0.02662
G1 X210.261 Y166.354 E0.0308
G1 X210.442 Y165.666 E0.03042
G1 X210.513 Y165.014 E0.02804
G1 X210.517 Y121.467 E1.86189
G1 X210.418 Y120.63 E0.03602
G1 X210.098 Y119.651 E0.04407
G1 X209.665 Y118.896 E0.03718
G1 X209.131 Y118.267 E0.03529
G1 X208.451 Y117.717 E0.03737
G1 X207.535 Y117.245 E0.04407
G1 X206.69 Y117.008 E0.03754
G1 X205.877 Y116.935 E0.03491
G1 X99.114 Y116.935 E4.56466
G1 X98.198 Y117.031 E0.03941
G1 X97.164 Y117.371 E0.04652
G1 X96.251 Y117.944 E0.04609
; INIT printing object Sign.stl id:0 copy 0
G1 E-0.8 F3000
; printing object Sign.stl id:0 copy 0
G1 X137.818 Y178.792 F9000
G1 E0.8 F1800
; External perimeter
;Perimeter
SET_VELOCITY_LIMIT ACCEL=2000 ACCEL_TO_DECEL=2000 SQUARE_CORNER_VELOCITY=5

; Overhang perimeter

;TYPE:Internal perimeter
G1 X137.809 Y171.664 E0.30474
G1 X137.705 Y171.164 E0.02184
G1 X137.385 Y170.731 E0.02305
G1 X136.97 Y170.466 E0.02104
G1 X136.606 Y170.386 E0.01593
G1 X129.44 Y169.829 E0.30731
G1 X121.793 Y169.008 E0.32884
G1 X114.175 Y167.955 E0.32881
G1 X106.593 Y166.669 E0.32881
G1 X99.094 Y165.161 E0.32703
G1 X99.001 Y165.132 E0.00416
G1 X98.952 Y165.107 E0.00237
G1 X98.907 Y165.074 E0.00237
G1 X98.869 Y165.034 E0.00237
G1 X98.838 Y164.988 E0.00237
G1 X98.815 Y164.937 E0.00237
G1 X98.801 Y164.884 E0.00237
G1 X98.792 Y164.778 E0.00455
G1 X98.792 Y121.625 E1.845
G1 X98.8 Y121.527 E0.00422
G1 X98.812 Y121.477 E0.0022
G1 X98.832 Y121.429 E0.0022
G1 X98.859 Y121.385 E0.0022
G1 X98.892 Y121.346 E0.0022
G1 X98.931 Y121.313 E0.0022
G1 X98.975 Y121.286 E0.0022
G1 X99.023 Y121.266 E0.0022
G1 X99.073 Y121.254 E0.0022
G1 X99.171 Y121.246 E0.00422
G1 X205.829 Y121.246 E4.56021
G1 X205.927 Y121.254 E0.00422
G1 X205.977 Y121.266 E0.0022
G1 X206.025 Y121.286 E0.0022
G1 X206.069 Y121.313 E0.0022
G1 X206.108 Y121.346 E0.0022
G1 X206.141 Y121.385 E0.0022
G1 X206.168 Y121.429 E0.0022
G1 X206.188 Y121.477 E0.0022
G1 X206.2 Y121.527 E0.0022
G1 X206.208 Y121.625 E0.00422
G1 X206.208 Y164.778 E1.845
G1 X206.199 Y164.884 E0.00455
G1 X206.185 Y164.937 E0.00237
G1 X206.162 Y164.988 E0.00237
G1 X206.131 Y165.034 E0.00237
G1 X206.093 Y165.074 E0.00237
G1 X206.048 Y165.107 E0.00237
G1 X205.999 Y165.132 E0.00237
G1 X205.906 Y165.161 E0.00416
G1 X198.407 Y166.669 E0.32703
G1 X190.825 Y167.955 E0.32881
G1 X183.207 Y169.008 E0.32881
G1 X175.56 Y169.829 E0.32884
G1 X168.397 Y170.386 E0.30716
G1 X168.032 Y170.464 E0.01594
G1 X167.629 Y170.723 E0.02049
G1 X167.323 Y171.111 E0.02115
G1 X167.191 Y171.643 E0.02341
G1 X167.182 Y178.784 E0.30532
G1 X137.878 Y178.792 E1.25292
G1 X137.39 Y179.22 F9000
G1 F1800
G1 X137.381 Y171.709 E0.32117
G1 X137.305 Y171.344 E0.01594
G1 X137.087 Y171.049 E0.01564
G1 X136.804 Y170.868 E0.01439
G1 X136.543 Y170.811 E0.0114
G1 X129.401 Y170.256 E0.3063
G1 X121.741 Y169.434 E0.32939
G1 X114.11 Y168.378 E0.32937
G1 X106.515 Y167.09 E0.32937
G1 X98.989 Y165.576 E0.32822
G1 X98.841 Y165.531 E0.00664
G1 X98.726 Y165.473 E0.00549
G1 X98.623 Y165.397 E0.00549
G1 X98.534 Y165.304 E0.00549
G1 X98.462 Y165.197 E0.00549
G1 X98.41 Y165.08 E0.00549
G1 X98.377 Y164.956 E0.00549
G1 X98.364 Y164.796 E0.00689
G1 X98.364 Y121.608 E1.84649
G1 X98.375 Y121.46 E0.00638
G1 X98.403 Y121.344 E0.00509
G1 X98.449 Y121.234 E0.00508
G1 X98.511 Y121.133 E0.00508
G1 X98.588 Y121.042 E0.00508
G1 X98.679 Y120.965 E0.00509
G1 X98.78 Y120.903 E0.00508
G1 X98.89 Y120.857 E0.00508
G1 X99.005 Y120.83 E0.00508
G1 X99.154 Y120.818 E0.00638
G1 X205.846 Y120.818 E4.56165
G1 X205.995 Y120.83 E0.00638
G1 X206.11 Y120.857 E0.00509
G1 X206.22 Y120.903 E0.00508
G1 X206.321 Y120.965 E0.00508
G1 X206.412 Y121.042 E0.00509
G1 X206.489 Y121.133 E0.00508
G1 X206.551 Y121.234 E0.00508
G1 X206.597 Y121.344 E0.00508
G1 X206.625 Y121.46 E0.00508
G1 X206.636 Y121.608 E0.00638
G1 X206.636 Y164.796 E1.84649
G1 X206.623 Y164.956 E0.00689
G1 X206.59 Y165.08 E0.00549
G1 X206.537 Y165.197 E0.00549
G1 X206.466 Y165.304 E0.00549
G1 X206.377 Y165.396 E0.00549
G1 X206.274 Y165.473 E0.00549
G1 X206.159 Y165.531 E0.00549
G1 X206.011 Y165.576 E0.00664
G1 X198.485 Y167.09 E0.32822
G1 X190.89 Y168.378 E0.32937
G1 X183.259 Y169.434 E0.32937
G1 X175.599 Y170.256 E0.32939
G1 X168.459 Y170.811 E0.30621
G1 X168.198 Y170.866 E0.01139
G1 X167.921 Y171.044 E0.01407
G1 X167.717 Y171.304 E0.01414
G1 X167.619 Y171.695 E0.01724
G1 X167.61 Y179.212 E0.32137
G1 X137.45 Y179.22 E1.28952
G1 X137.037 Y179.471 F9000
; External perimeter
;ExternalPerimeter
SET_VELOCITY_LIMIT ACCEL=1000 ACCEL_TO_DECEL=1000 SQUARE_CORNER_VELOCITY=5

; Perimeter

;TYPE:External perimeter
G1 F1800
G1 X136.973 Y179.344 E0.00608
G1 X136.961 Y179.298 E0.00205
G1 X136.953 Y171.753 E0.32257
G1 X136.905 Y171.523 E0.01005
G1 X136.79 Y171.368 E0.00824
G1 X136.637 Y171.27 E0.00775
G1 X136.481 Y171.236 E0.00686
G1 X129.361 Y170.682 E0.3053
G1 X121.689 Y169.859 E0.32994
G1 X114.045 Y168.802 E0.32993
G1 X106.437 Y167.512 E0.32993
G1 X98.883 Y165.992 E0.32942
G1 X98.68 Y165.93 E0.00911
G1 X98.5 Y165.839 E0.0086
G1 X98.339 Y165.719 E0.0086
G1 X98.2 Y165.574 E0.0086
G1 X98.087 Y165.407 E0.0086
G1 X98.004 Y165.224 E0.0086
G1 X97.954 Y165.029 E0.0086
G1 X97.935 Y164.814 E0.00922
G1 X97.935 Y121.592 E1.84799
G1 X97.951 Y121.392 E0.00854
G1 X97.994 Y121.211 E0.00797
G1 X98.066 Y121.039 E0.00797
G1 X98.163 Y120.88 E0.00797
G1 X98.284 Y120.738 E0.00797
G1 X98.426 Y120.617 E0.00797
G1 X98.585 Y120.52 E0.00797
G1 X98.757 Y120.449 E0.00797
G1 X98.938 Y120.405 E0.00797
G1 X99.137 Y120.389 E0.00854
G1 X205.863 Y120.389 E4.56309
G1 X206.062 Y120.405 E0.00854
G1 X206.243 Y120.449 E0.00797
G1 X206.415 Y120.52 E0.00797
G1 X206.574 Y120.617 E0.00797
G1 X206.716 Y120.738 E0.00797
G1 X206.837 Y120.88 E0.00797
G1 X206.934 Y121.039 E0.00797
G1 X207.006 Y121.211 E0.00797
G1 X207.049 Y121.392 E0.00797
G1 X207.065 Y121.592 E0.00854
G1 X207.065 Y164.814 E1.84799
G1 X207.046 Y165.029 E0.00922
G1 X206.996 Y165.224 E0.0086
G1 X206.913 Y165.407 E0.0086
G1 X206.8 Y165.574 E0.0086
G1 X206.661 Y165.719 E0.0086
G1 X206.5 Y165.839 E0.0086
G1 X206.32 Y165.93 E0.0086
G1 X206.117 Y165.992 E0.00911
G1 X198.563 Y167.512 E0.32942
G1 X190.955 Y168.802 E0.32993
G1 X183.311 Y169.859 E0.32993
G1 X175.639 Y170.682 E0.32994
G1 X168.52 Y171.236 E0.30526
G1 X168.364 Y171.269 E0.00684
G1 X168.213 Y171.366 E0.00766
G1 X168.11 Y171.497 E0.00712
G1 X168.047 Y171.748 E0.01107
G1 X168.039 Y179.288 E0.32237
G1 X167.998 Y179.414 E0.00567
G1 X167.92 Y179.521 E0.00567
G1 X167.812 Y179.599 E0.00567
G1 X167.686 Y179.64 E0.00567
G1 X137.403 Y179.649 E1.29479
G1 X137.249 Y179.625 E0.00665
G1 X137.131 Y179.565 E0.00566
G1 X137.08 Y179.513 E0.0031
;WIPE_START
G1 X137.102 Y179.344 F9000
;WIPE_END
G1 X206.143 Y122.185
; External perimeter
;SolidInfill
SET_VELOCITY_LIMIT ACCEL=2000 ACCEL_TO_DECEL=2000 SQUARE_CORNER_VELOCITY=5

; Bridge infill

;TYPE:Solid infill
;WIDTH:0.477953
G1 F2400
G1 X205.462 Y121.503 E0.04106
G1 X204.855 Y121.503 E0.0258
G1 X205.959 Y122.606 E0.06646
G1 X205.959 Y123.212 E0.0258
G1 X204.249 Y121.503 E0.10294
G1 X203.643 Y121.503 E0.0258
G1 X205.959 Y123.818 E0.13943
G1 X205.959 Y124.424 E0.0258
G1 X203.037 Y121.503 E0.17592
G1 X202.431 Y121.502 E0.0258
G1 X205.959 Y125.03 E0.2124
G1 X205.959 Y125.636 E0.0258
G1 X201.825 Y121.502 E0.24889
G1 X201.219 Y121.502 E0.0258
G1 X205.959 Y126.242 E0.28538
G1 X205.959 Y126.848 E0.0258
G1 X200.613 Y121.502 E0.32187
G1 X200.007 Y121.502 E0.0258
G1 X205.959 Y127.454 E0.35835
G1 X205.959 Y128.06 E0.0258
G1 X199.401 Y121.502 E0.39484
G1 X198.795 Y121.502 E0.0258
G1 X205.959 Y128.666 E0.43133
G1 X205.959 Y129.272 E0.0258
G1 X198.189 Y121.502 E0.46782
G1 X197.583 Y121.502 E0.0258
G1 X205.959 Y129.878 E0.5043
G1 X205.959 Y130.484 E0.0258
G1 X196.977 Y121.502 E0.54079
G1 X196.371 Y121.502 E0.0258
G1 X205.959 Y131.09 E0.57728
G1 X205.959 Y131.696 E0.0258
G1 X195.765 Y121.502 E0.61377
G1 X195.159 Y121.502 E0.0258
G1 X205.959 Y132.302 E0.65025
G1 X205.959 Y132.908 E0.0258
G1 X194.553 Y121.502 E0.68674
G1 X193.947 Y121.502 E0.0258
G1 X205.959 Y133.514 E0.72323
G1 X205.959 Y134.12 E0.0258
G1 X193.341 Y121.502 E0.75972
G1 X192.735 Y121.502 E0.0258
G1 X205.959 Y134.726 E0.7962
G1 X205.959 Y135.332 E0.0258
G1 X192.129 Y121.502 E0.83269
G1 X191.523 Y121.502 E0.0258
G1 X205.959 Y135.938 E0.86918
G1 X205.959 Y136.544 E0.0258
G1 X190.917 Y121.502 E0.90567
G1 X190.311 Y121.502 E0.0258
G1 X205.959 Y137.15 E0.94215
G1 X205.959 Y137.756 E0.0258
G1 X189.705 Y121.502 E0.97864
G1 X189.099 Y121.501 E0.0258
G1 X205.959 Y138.362 E1.01513
G1 X205.959 Y138.968 E0.0258
G1 X188.493 Y121.501 E1.05162
G1 X187.887 Y121.501 E0.0258
G1 X205.959 Y139.574 E1.0881
G1 X205.959 Y140.18 E0.0258
G1 X187.281 Y121.501 E1.12459
G1 X186.675 Y121.501 E0.0258
G1 X205.959 Y140.786 E1.16108
G1 X205.959 Y141.392 E0.0258
G1 X186.069 Y121.501 E1.19757
G1 X185.463 Y121.501 E0.0258
G1 X205.959 Y141.998 E1.23405
G1 X205.959 Y142.604 E0.0258
G1 X184.857 Y121.501 E1.27054
G1 X184.251 Y121.501 E0.0258
G1 X205.959 Y143.21 E1.30703
G1 X205.959 Y143.816 E0.0258
G1 X183.645 Y121.501 E1.34351
G1 X183.038 Y121.501 E0.0258
G1 X205.959 Y144.422 E1.38
G1 X205.959 Y145.028 E0.0258
G1 X182.432 Y121.501 E1.41649
G1 X181.826 Y121.501 E0.0258
G1 X205.959 Y145.634 E1.45298
G1 X205.959 Y146.24 E0.0258
G1 X181.22 Y121.501 E1.48946
G1 X180.614 Y121.501 E0.0258
G1 X205.959 Y146.846 E1.52595
G1 X205.959 Y147.452 E0.0258
G1 X180.008 Y121.501 E1.56244
G1 X179.402 Y121.501 E0.0258
G1 X205.959 Y148.058 E1.59893
G1 X205.959 Y148.664 E0.0258
G1 X178.796 Y121.501 E1.63541
G1 X178.19 Y121.501 E0.0258
G1 X205.959 Y149.27 E1.6719
G1 X205.959 Y149.876 E0.0258
G1 X177.584 Y121.501 E1.70839
G1 X176.978 Y121.501 E0.0258
G1 X205.959 Y150.482 E1.74488
G1 X205.959 Y151.088 E0.0258
G1 X176.372 Y121.501 E1.78136
G1 X175.766 Y121.501 E0.0258
G1 X205.959 Y151.694 E1.81785
G1 X205.959 Y152.3 E0.0258
G1 X175.16 Y121.5 E1.85434
G1 X174.554 Y121.5 E0.0258
G1 X205.959 Y152.906 E1.89083
G1 X205.959 Y153.512 E0.0258
G1 X173.948 Y121.5 E1.92731
G1 X173.342 Y121.5 E0.0258
G1 X205.959 Y154.118 E1.9638
G1 X205.959 Y154.724 E0.0258
G1 X172.736 Y121.5 E2.00029
G1 X172.13 Y121.5 E0.0258
G1 X205.959 Y155.33 E2.03678
G1 X205.959 Y155.935 E0.0258
G1 X171.524 Y121.5 E2.07326
G1 X170.918 Y121.5 E0.0258
G1 X205.959 Y156.541 E2.10975
G1 X205.959 Y157.147 E0.0258
G1 X170.312 Y121.5 E2.14624
G1 X169.706 Y121.5 E0.0258
G1 X205.959 Y157.753 E2.18273
G1 X205.959 Y158.359 E0.0258
G1 X169.1 Y121.5 E2.21921
G1 X168.494 Y121.5 E0.0258
G1 X205.959 Y158.965 E2.2557
G1 X205.959 Y159.571 E0.0258
G1 X167.888 Y121.5 E2.29219
G1 X167.282 Y121.5 E0.0258
G1 X205.959 Y160.177 E2.32868
G1 X205.959 Y160.783 E0.0258
G1 X166.676 Y121.5 E2.36516
G1 X166.07 Y121.5 E0.0258
G1 X205.959 Y161.389 E2.40165
G1 X205.959 Y161.995 E0.0258
G1 X165.464 Y121.5 E2.43814
G1 X164.858 Y121.5 E0.0258
G1 X205.959 Y162.601 E2.47463
G1 X205.959 Y163.207 E0.0258
G1 X164.252 Y121.5 E2.51111
G1 X163.646 Y121.5 E0.0258
G1 X205.959 Y163.813 E2.5476
G1 X205.959 Y164.419 E0.0258
G1 X163.04 Y121.5 E2.58409
G1 X162.434 Y121.5 E0.0258
G1 X205.844 Y164.91 E2.61362
G1 X205.34 Y165.012 E0.02189
G1 X161.828 Y121.5 E2.61977
G1 X161.222 Y121.499 E0.0258
G1 X204.836 Y165.114 E2.62591
G1 X204.332 Y165.216 E0.02189
G1 X160.615 Y121.499 E2.63206
G1 X160.009 Y121.499 E0.0258
G1 X203.828 Y165.318 E2.6382
G1 X203.324 Y165.42 E0.02189
G1 X159.403 Y121.499 E2.64435
G1 X158.797 Y121.499 E0.0258
G1 X202.82 Y165.522 E2.65049
G1 X202.316 Y165.624 E0.02189
G1 X158.191 Y121.499 E2.65664
G1 X157.585 Y121.499 E0.0258
G1 X201.812 Y165.726 E2.66278
G1 X201.308 Y165.828 E0.02189
G1 X156.979 Y121.499 E2.66893
G1 X156.373 Y121.499 E0.0258
G1 X200.804 Y165.93 E2.67507
G1 X200.3 Y166.032 E0.02189
G1 X155.767 Y121.499 E2.68122
G1 X155.161 Y121.499 E0.0258
G1 X199.796 Y166.134 E2.68737
G1 X199.292 Y166.236 E0.02189
G1 X154.555 Y121.499 E2.69351
G1 X153.949 Y121.499 E0.0258
G1 X198.788 Y166.338 E2.69966
G1 X198.361 Y166.425 E0.01854
G1 X198.282 Y166.438 E0.00342
G1 X153.343 Y121.499 E2.70567
G1 X152.737 Y121.499 E0.0258
G1 X197.764 Y166.526 E2.71096
G1 X197.246 Y166.614 E0.02237
G1 X152.131 Y121.499 E2.71626
G1 X151.525 Y121.499 E0.0258
G1 X196.728 Y166.702 E2.72155
G1 X196.21 Y166.789 E0.02237
G1 X150.919 Y121.499 E2.72684
G1 X150.313 Y121.499 E0.0258
G1 X195.692 Y166.877 E2.73213
G1 X195.173 Y166.965 E0.02237
G1 X149.707 Y121.499 E2.73742
