; generated by SuperSlicer 2.3.57 on 2022-02-20 at 18:15:05 UTC


;
;

;
;
; 

; external perimeters extrusion width = 0.20mm
; perimeters extrusion width = 0.23mm
; infill extrusion width = 0.36mm
; solid infill extrusion width = 0.28mm
; top infill extrusion width = 0.20mm
; support material extrusion width = 0.21mm
; first layer extrusion width = 0.24mm

; external perimeters extrusion width = 0.20mm
; perimeters extrusion width = 0.23mm
; infill extrusion width = 0.36mm
; solid infill extrusion width = 0.20mm
; top infill extrusion width = 0.20mm
; support material extrusion width = 0.21mm
; first layer extrusion width = 0.24mm

; external perimeters extrusion width = 0.18mm
; perimeters extrusion width = 0.23mm
; infill extrusion width = 0.36mm
; solid infill extrusion width = 0.28mm
; top infill extrusion width = 0.20mm
; support material extrusion width = 0.21mm
; first layer extrusion width = 0.24mm

; object:{"name":"LogoBoardsMountain","id":"LogoBoardsMountain id:0 copy 0","object_center":[152.500001,150.000001,0.000000],"boundingbox_center":[152.500001,150.000001,2.424427],"boundingbox_size":[28.546921,18.210571,4.848854]}
; plater:{"center":[152.500001,150.000001,0.000000],"boundingbox_center":[152.500001,150.000001,2.424427],"boundingbox_size":[28.546921,18.210571,4.848854]}

;TYPE:Custom
START_PRINT T_BED=60 T_EXTRUDER=210
M107
G21 ; set units to millimeters
G90 ; use absolute coordinates
M83 ; use relative distances for extrusion
; Filament gcode
M104 S210 ; set temperature
M109 S210 ; set temperature and wait for it to be reached
M190 S60 ; set bed temperature and wait for it to be reached
;LAYER_CHANGE
;Z:0.1
;HEIGHT:0.1
G1 Z0.1 F9000
G1 E-0.6 F3000
G1 X136.128 Y138.496 F9000
G1 E0.6 F1800
; External perimeter
;Skirt
SET_VELOCITY_LIMIT ACCEL=300 ACCEL_TO_DECEL=3000 SQUARE_CORNER_VELOCITY=5

; Support material

;TYPE:Skirt
;WIDTH:0.24
G1 X135.832 Y138.792 E0.00381
G1 X135.575 Y139.123 E0.00381
G1 X135.362 Y139.483 E0.00381
G1 X135.195 Y139.868 E0.00381
G1 X135.079 Y140.27 E0.00381
G1 X135.013 Y140.688 E0.00385
G1 X134.899 Y146.25 E0.05054
G1 X135.031 Y152.121 E0.05336
G1 X135.133 Y152.847 E0.00666
G1 X135.39 Y153.529 E0.00662
G1 X135.826 Y154.184 E0.00715
G1 X136.404 Y154.718 E0.00715
G1 X146.349 Y161.723 E0.11052
G1 X146.814 Y161.989 E0.00487
G1 X147.311 Y162.175 E0.00483
G1 X147.73 Y162.266 E0.00389
G1 X148.16 Y162.302 E0.00393
G1 X153.624 Y162.298 E0.04964
G1 X154.827 Y162.23 E0.01095
G1 X157.469 Y161.965 E0.02413
G1 X157.886 Y161.893 E0.00385
G1 X158.291 Y161.769 E0.00385
G1 X160.685 Y160.751 E0.02364
G1 X168.744 Y155.425 E0.08776
G1 X169.149 Y155.055 E0.00499
G1 X169.489 Y154.624 E0.00499
G1 X169.753 Y154.142 E0.00499
G1 X169.934 Y153.623 E0.00499
G1 X170.027 Y153.082 E0.00499
G1 X170.04 Y152.432 E0.00591
G1 X169.97 Y140.955 E0.10428
G1 X169.902 Y140.324 E0.00576
G1 X169.741 Y139.78 E0.00515
G1 X169.487 Y139.268 E0.00519
G1 X169.153 Y138.81 E0.00515
G1 X168.745 Y138.415 E0.00515
G1 X168.276 Y138.096 E0.00515
G1 X167.76 Y137.86 E0.00515
G1 X167.212 Y137.716 E0.00515
G1 X166.647 Y137.667 E0.00515
G1 X138.287 Y137.667 E0.25767
G1 X137.533 Y137.763 E0.00691
G1 X136.82 Y138.027 E0.00691
G1 X136.46 Y138.24 E0.00381
G1 X136.152 Y138.478 E0.00353
G1 X136.284 Y138.65 F9000
G1 F1800
G1 X136.003 Y138.929 E0.0036
G1 X135.759 Y139.241 E0.0036
G1 X135.557 Y139.582 E0.0036
G1 X135.4 Y139.946 E0.0036
G1 X135.29 Y140.326 E0.0036
G1 X135.23 Y140.718 E0.0036
G1 X135.117 Y146.247 E0.05024
G1 X135.249 Y152.107 E0.05325
G1 X135.341 Y152.779 E0.00616
G1 X135.577 Y153.415 E0.00616
G1 X135.986 Y154.035 E0.00675
G1 X136.531 Y154.54 E0.00675
G1 X146.469 Y161.541 E0.11045
G1 X146.903 Y161.789 E0.00455
G1 X147.372 Y161.965 E0.00455
G1 X147.763 Y162.05 E0.00364
G1 X148.167 Y162.084 E0.00368
G1 X153.62 Y162.08 E0.04954
G1 X154.806 Y162.012 E0.0108
G1 X157.445 Y161.748 E0.02409
G1 X157.839 Y161.68 E0.00364
G1 X158.218 Y161.563 E0.0036
G1 X160.571 Y160.564 E0.02323
G1 X168.598 Y155.262 E0.0874
G1 X168.976 Y154.921 E0.00463
G1 X169.293 Y154.523 E0.00463
G1 X169.544 Y154.074 E0.00467
G1 X169.715 Y153.595 E0.00463
G1 X169.808 Y153.072 E0.00482
G1 X169.821 Y152.433 E0.00582
G1 X169.752 Y140.964 E0.10421
G1 X169.694 Y140.397 E0.00518
G1 X169.546 Y139.882 E0.00486
G1 X169.312 Y139.401 E0.00486
G1 X169.002 Y138.97 E0.00482
G1 X168.62 Y138.595 E0.00486
G1 X168.179 Y138.292 E0.00486
G1 X167.693 Y138.068 E0.00486
G1 X167.18 Y137.932 E0.00482
G1 X166.647 Y137.885 E0.00486
G1 X138.294 Y137.886 E0.25761
G1 X137.599 Y137.972 E0.00636
G1 X136.938 Y138.213 E0.0064
G1 X136.595 Y138.412 E0.0036
G1 X136.308 Y138.632 E0.00329
; INIT printing object LogoBoardsMountain id:0 copy 0
G1 E-0.6 F3000
; printing object LogoBoardsMountain id:0 copy 0
G1 X154.76 Y157.078 F9000
G1 E0.6 F1800
; External perimeter
;Perimeter
SET_VELOCITY_LIMIT ACCEL=2000 ACCEL_TO_DECEL=2000 SQUARE_CORNER_VELOCITY=5

; Overhang perimeter

;TYPE:Internal perimeter
G1 X153.529 Y158.231 E0.01532
G1 X150.608 Y155.837 E0.03432
G1 X148.168 Y158.249 E0.03118
G1 X139.434 Y152.01 E0.09752
G1 X139.49 Y151.861 E0.00145
G1 X139.848 Y151.898 E0.00327
G1 X140.543 Y151.9 E0.00631
G1 X141.022 Y151.866 E0.00436
G1 X141.42 Y151.788 E0.00369
G1 X142.263 Y151.479 E0.00816
G1 X142.388 Y151.453 E0.00116
G1 X143.159 Y151.45 E0.007
G1 X143.741 Y151.511 E0.00532
G1 X144.472 Y151.389 E0.00673
G1 X145.718 Y151.387 E0.01132
G1 X146.055 Y151.394 E0.00306
G1 X146.165 Y151.414 E0.00101
G1 X146.709 Y151.641 E0.00536
G1 X147.005 Y151.733 E0.00282
G1 X147.32 Y151.778 E0.00289
G1 X147.65 Y151.772 E0.003
G1 X148.049 Y151.698 E0.00369
G1 X148.758 Y151.521 E0.00664
G1 X149.218 Y151.367 E0.0044
G1 X149.342 Y151.34 E0.00116
G1 X149.644 Y151.329 E0.00274
G1 X150.192 Y151.359 E0.00499
G1 X150.635 Y151.437 E0.00409
G1 X150.989 Y151.558 E0.0034
G1 X151.432 Y151.749 E0.00439
G1 X151.786 Y151.856 E0.00336
G1 X152.066 Y151.896 E0.00257
G1 X152.416 Y151.865 E0.0032
G1 X152.642 Y151.786 E0.00218
G1 X153.134 Y151.531 E0.00503
G1 X153.273 Y151.487 E0.00133
G1 X153.477 Y151.454 E0.00187
G1 X153.729 Y151.45 E0.00229
G1 X154.129 Y151.501 E0.00367
G1 X154.858 Y151.667 E0.00679
G1 X155.112 Y151.687 E0.00232
G1 X155.469 Y151.631 E0.00328
G1 X155.846 Y151.48 E0.0037
G1 X155.96 Y151.479 E0.00104
G1 X156.468 Y151.538 E0.00465
G1 X157.663 Y151.584 E0.01086
G1 X158.062 Y151.558 E0.00363
G1 X158.667 Y151.452 E0.00558
G1 X159.29 Y151.395 E0.00569
G1 X159.633 Y151.405 E0.00312
G1 X159.992 Y151.476 E0.00332
G1 X160.833 Y151.713 E0.00795
G1 X161.422 Y152.022 E0.00604
G1 X162.127 Y152.275 E0.0068
G1 X162.516 Y152.358 E0.00362
G1 X163.195 Y152.391 E0.00617
G1 X163.254 Y152.403 E0.00055
G1 X163.28 Y152.412 E0.00025
G1 X163.584 Y152.595 E0.00322
G1 X163.861 Y152.717 E0.00275
G1 X164.161 Y152.752 E0.00275
G1 X164.374 Y152.726 E0.00194
G1 X164.658 Y152.646 E0.00268
G1 X164.784 Y152.633 E0.00116
G1 X164.846 Y152.641 E0.00057
G1 X165.219 Y152.746 E0.00352
G1 X162.286 Y154.809 E0.03258
G1 X159.225 Y157.059 E0.03452
G1 X157.756 Y155.68 E0.01831
G1 X157.101 Y155.889 E0.00624
G1 X157.074 Y155.76 E0.0012
G1 X155.012 Y157.026 E0.02199
G1 X154.776 Y157.186 E0.00259
G1 X154.764 Y157.108 E0.00072
G1 X156.924 Y156.108 F9000
G1 F1800
G1 X155.13 Y157.21 E0.01912
G1 X154.611 Y157.562 E0.0057
G1 X154.605 Y157.522 E0.00036
G1 X153.539 Y158.521 E0.01328
G1 X150.622 Y156.13 E0.03427
G1 X148.19 Y158.534 E0.03106
G1 X138.737 Y151.781 E0.10555
G1 X138.773 Y151.532 E0.00229
G1 X139.266 Y151.618 E0.00455
G1 X139.859 Y151.679 E0.00542
G1 X140.535 Y151.681 E0.00614
G1 X140.993 Y151.649 E0.00417
G1 X141.362 Y151.577 E0.00341
G1 X142.203 Y151.269 E0.00814
G1 X142.365 Y151.234 E0.00151
G1 X143.17 Y151.232 E0.00731
G1 X143.734 Y151.291 E0.00516
G1 X144.453 Y151.17 E0.00662
G1 X145.72 Y151.168 E0.01151
G1 X146.077 Y151.176 E0.00324
G1 X146.227 Y151.203 E0.00139
G1 X146.783 Y151.435 E0.00548
G1 X147.053 Y151.519 E0.00256
G1 X147.333 Y151.559 E0.00257
G1 X147.628 Y151.554 E0.00267
G1 X148.003 Y151.484 E0.00347
G1 X148.697 Y151.311 E0.0065
G1 X149.159 Y151.156 E0.00443
G1 X149.315 Y151.122 E0.00145
G1 X149.646 Y151.11 E0.00301
G1 X150.217 Y151.142 E0.0052
G1 X150.69 Y151.225 E0.00436
G1 X151.067 Y151.354 E0.00363
G1 X151.507 Y151.543 E0.00435
G1 X151.833 Y151.642 E0.0031
G1 X152.071 Y151.676 E0.00219
G1 X152.37 Y151.65 E0.00272
G1 X152.555 Y151.585 E0.00179
G1 X153.05 Y151.328 E0.00507
G1 X153.223 Y151.274 E0.00164
G1 X153.457 Y151.236 E0.00216
G1 X153.741 Y151.231 E0.00258
G1 X154.167 Y151.285 E0.00391
G1 X154.891 Y151.451 E0.00674
G1 X155.104 Y151.467 E0.00194
G1 X155.41 Y151.419 E0.00282
G1 X155.78 Y151.271 E0.00362
G1 X155.835 Y151.262 E0.00051
G1 X155.972 Y151.26 E0.00124
G1 X156.485 Y151.32 E0.0047
G1 X157.66 Y151.366 E0.01068
G1 X158.036 Y151.341 E0.00342
G1 X158.638 Y151.235 E0.00555
G1 X159.283 Y151.176 E0.00589
G1 X159.658 Y151.188 E0.00341
G1 X160.043 Y151.263 E0.00356
G1 X160.915 Y151.509 E0.00823
G1 X161.51 Y151.822 E0.00611
G1 X162.187 Y152.065 E0.00653
G1 X162.544 Y152.141 E0.00332
G1 X163.221 Y152.174 E0.00615
G1 X163.312 Y152.191 E0.00085
G1 X163.374 Y152.214 E0.0006
G1 X163.684 Y152.401 E0.00329
G1 X163.919 Y152.503 E0.00233
G1 X164.161 Y152.532 E0.00221
G1 X164.33 Y152.511 E0.00155
G1 X164.616 Y152.431 E0.00269
G1 X164.787 Y152.412 E0.00157
G1 X164.891 Y152.427 E0.00095
G1 X165.767 Y152.674 E0.00827
G1 X165.189 Y153.035 E0.00619
G1 X162.414 Y154.987 E0.03083
G1 X159.208 Y157.343 E0.03615
G1 X157.7 Y155.927 E0.01879
G1 X157.201 Y156.087 E0.00476
G1 X157.155 Y156.379 E0.00269
G1 X156.982 Y156.384 E0.00157
G1 X156.93 Y156.138 E0.00229
G1 X154.451 Y157.966 F9000
; External perimeter
;ExternalPerimeter
SET_VELOCITY_LIMIT ACCEL=1000 ACCEL_TO_DECEL=1000 SQUARE_CORNER_VELOCITY=5

; Perimeter

;TYPE:External perimeter
G1 F1800
G1 X153.548 Y158.812 E0.01124
G1 X153.502 Y158.774 E0.0005
G1 X153.409 Y158.698 E0.00105
G1 X150.636 Y156.424 E0.03258
G1 X150.593 Y156.466 E0.0005
G1 X150.508 Y156.551 E0.00104
G1 X148.213 Y158.819 E0.02931
G1 X148.164 Y158.784 E0.00051
G1 X148.067 Y158.714 E0.00105
G1 X138.532 Y151.903 E0.10646
G1 X138.478 Y151.903 E0.00049
G1 X138.478 Y151.843 E0.00049
G1 X138.478 Y151.723 E0.00103
G1 X138.478 Y151.6 E0.00113
G1 X138.538 Y151.6 E0.00049
G1 X138.542 Y151.6 E-0.00001
G1 X138.551 Y151.54 E0.00051
G1 X138.568 Y151.421 E0.00105
G1 X138.578 Y151.356 E0.0006
G1 X138.598 Y151.306 E0.00049
G1 X138.618 Y151.283 E0.00027
G1 X139.296 Y151.402 E0.00626
G1 X139.871 Y151.461 E0.00525
G1 X140.528 Y151.463 E0.00597
G1 X140.964 Y151.432 E0.00398
G1 X141.303 Y151.366 E0.00313
G1 X142.142 Y151.058 E0.00812
G1 X142.342 Y151.016 E0.00186
G1 X143.181 Y151.013 E0.00762
G1 X143.727 Y151.071 E0.00499
G1 X144.435 Y150.952 E0.00652
G1 X145.722 Y150.95 E0.0117
G1 X146.099 Y150.958 E0.00342
G1 X146.289 Y150.992 E0.00176
G1 X146.858 Y151.23 E0.0056
G1 X147.101 Y151.306 E0.00231
G1 X147.347 Y151.341 E0.00225
G1 X147.605 Y151.336 E0.00235
G1 X147.956 Y151.27 E0.00324
G1 X148.636 Y151.101 E0.00636
G1 X149.101 Y150.945 E0.00446
G1 X149.287 Y150.905 E0.00173
G1 X149.648 Y150.892 E0.00328
G1 X150.242 Y150.924 E0.00541
G1 X150.745 Y151.012 E0.00464
G1 X151.146 Y151.15 E0.00386
G1 X151.582 Y151.338 E0.00431
G1 X151.881 Y151.428 E0.00283
G1 X152.077 Y151.456 E0.0018
G1 X152.324 Y151.435 E0.00225
G1 X152.469 Y151.384 E0.0014
G1 X152.967 Y151.125 E0.0051
G1 X153.173 Y151.061 E0.00196
G1 X153.438 Y151.018 E0.00244
G1 X153.753 Y151.012 E0.00286
G1 X154.206 Y151.07 E0.00415
G1 X154.923 Y151.234 E0.00669
G1 X155.095 Y151.247 E0.00156
G1 X155.352 Y151.207 E0.00237
G1 X155.721 Y151.06 E0.0036
G1 X155.816 Y151.043 E0.00088
G1 X155.983 Y151.042 E0.00152
G1 X156.502 Y151.102 E0.00475
G1 X157.657 Y151.147 E0.0105
G1 X158.01 Y151.124 E0.00321
G1 X158.609 Y151.018 E0.00553
G1 X159.277 Y150.957 E0.00609
G1 X159.683 Y150.97 E0.00369
G1 X160.093 Y151.051 E0.0038
G1 X160.996 Y151.305 E0.00852
G1 X161.599 Y151.621 E0.00618
G1 X162.247 Y151.854 E0.00626
G1 X162.573 Y151.923 E0.00303
G1 X163.247 Y151.956 E0.00613
G1 X163.37 Y151.98 E0.00114
G1 X163.469 Y152.015 E0.00095
G1 X163.785 Y152.206 E0.00336
G1 X163.977 Y152.29 E0.00191
G1 X164.16 Y152.312 E0.00168
G1 X164.287 Y152.296 E0.00116
G1 X164.574 Y152.216 E0.00271
G1 X164.79 Y152.192 E0.00198
G1 X164.936 Y152.212 E0.00134
G1 X165.605 Y152.401 E0.00632
G1 X165.999 Y152.427 E0.00359
G1 X166.057 Y152.451 E0.00057
G1 X166.117 Y152.51 E0.00076
G1 X166.46 Y152.51 E0.00312
G1 X166.592 Y152.536 E0.00122
G1 X166.592 Y152.596 E0.00051
G1 X166.592 Y152.693 E0.00085
G1 X166.533 Y152.706 E0.00051
G1 X166.483 Y152.718 E0.00043
G1 X166.19 Y152.718 E0.00266
G1 X165.727 Y152.957 E0.00474
G1 X165.309 Y153.217 E0.00447
G1 X162.541 Y155.164 E0.03075
G1 X159.19 Y157.627 E0.03778
G1 X159.147 Y157.586 E0.00051
G1 X159.059 Y157.504 E0.00105
G1 X157.644 Y156.175 E0.01764
G1 X157.396 Y156.254 E0.00237
G1 X157.386 Y156.313 E0.00053
G1 X157.368 Y156.432 E0.00107
G1 X157.225 Y157.337 E0.00832
G1 X157.188 Y157.816 E0.00436
G1 X157.107 Y158.223 E0.00377
G1 X157.092 Y158.164 E0.00005
G1 X157.063 Y158.048 E0.00059
G1 X157.042 Y157.96 E0.00083
G1 X156.921 Y157.154 E0.0074
G1 X156.774 Y156.457 E0.00647
G1 X156.723 Y156.488 E0.00042
G1 X156.62 Y156.551 E0.00097
G1 X155.249 Y157.393 E0.01462
G1 X154.775 Y157.715 E0.0052
G1 X154.678 Y158.192 E0.00442
G1 X154.561 Y158.575 E0.00364
G1 X154.547 Y158.605 E0.0003
G1 X154.538 Y158.546 E0.00005
G1 X154.52 Y158.427 E0.00059
G1 X154.455 Y157.996 E0.00396
;WIPE_START
G1 X154.346 Y157.796 F9000
;WIPE_END
G1 X154.604 Y157.688
G1 E0.00001 F1800
; External perimeter
;GapFill
SET_VELOCITY_LIMIT ACCEL=2000 ACCEL_TO_DECEL=2000 SQUARE_CORNER_VELOCITY=5

; Skirt

;TYPE:Gap fill
;WIDTH:0.156664
G1 X154.592 Y157.777 E0.0005
;WIDTH:0.121873
G1 X154.586 Y157.977 E0.00083
;WIDTH:0.0663658
G1 X154.585 Y158.05 E0.00014
G1 E-0.6 F3000
G1 X157.092 Y157.481 F9000
G1 E0.6 F1800
;WIDTH:0.080284
G1 X157.086 Y157.322 E0.00039
;WIDTH:0.12795
G1 X157.087 Y157.126 E0.00087
;WIDTH:0.180523
G1 X157.083 Y156.961 E0.00109
;WIDTH:0.246712
G1 X157.079 Y156.8 E0.00151
;WIDTH:0.312347
G1 X157.075 Y156.639 E0.00195
;WIDTH:0.365643
G1 X157.071 Y156.482 E0.00224
G1 X164.358 Y153.311 F9000
; External perimeter
;SolidInfill
SET_VELOCITY_LIMIT ACCEL=2000 ACCEL_TO_DECEL=2000 SQUARE_CORNER_VELOCITY=5

; Bridge infill

;TYPE:Solid infill
;WIDTH:0.242728
G1 F2400
G1 X163.895 Y152.848 E0.00602
G1 X163.827 Y152.84 E0.00063
G1 X163.526 Y152.708 E0.00302
G1 X163.335 Y152.596 E0.00204
G1 X164.11 Y153.371 E0.01007
G1 X163.928 Y153.499 E0.00204
G1 X162.94 Y152.511 E0.01284
G1 X162.611 Y152.491 E0.00303
G1 X163.747 Y153.627 E0.01476
G1 X163.565 Y153.754 E0.00204
G1 X162.24 Y152.429 E0.01722
G1 X162.092 Y152.397 E0.00139
G1 X161.791 Y152.289 E0.00294
G1 X163.384 Y153.882 E0.02069
G1 X163.202 Y154.01 E0.00204
G1 X161.288 Y152.095 E0.02488
G1 X160.786 Y151.832 E0.0052
G1 X160.688 Y151.804 E0.00094
G1 X163.021 Y154.137 E0.03032
G1 X162.839 Y154.265 E0.00204
G1 X160.257 Y151.683 E0.03356
G1 X159.962 Y151.599 E0.00282
G1 X159.841 Y151.576 E0.00113
G1 X162.658 Y154.392 E0.03661
G1 X162.477 Y154.52 E0.00204
G1 X159.484 Y151.528 E0.03889
G1 X159.294 Y151.522 E0.00175
G1 X159.18 Y151.532 E0.00105
G1 X162.295 Y154.648 E0.04049
G1 X162.212 Y154.706 E0.00094
G1 X162.116 Y154.777 E0.0011
G1 X158.896 Y151.558 E0.04183
G1 X158.683 Y151.577 E0.00197
G1 X158.618 Y151.589 E0.00061
G1 X161.937 Y154.908 E0.04313
G1 X161.759 Y155.039 E0.00203
G1 X158.356 Y151.635 E0.04423
G1 X158.093 Y151.682 E0.00245
G1 X161.581 Y155.17 E0.04533
G1 X161.403 Y155.301 E0.00203
G1 X157.804 Y151.702 E0.04677
G1 X157.665 Y151.711 E0.00129
G1 X157.498 Y151.705 E0.00153
G1 X161.225 Y155.432 E0.04843
G1 X161.047 Y155.563 E0.00203
G1 X157.177 Y151.693 E0.05029
G1 X156.855 Y151.68 E0.00296
G1 X160.869 Y155.694 E0.05216
G1 X160.691 Y155.825 E0.00203
G1 X156.534 Y151.668 E0.05402
G1 X156.46 Y151.665 E0.00068
G1 X156.197 Y151.64 E0.00243
G1 X160.512 Y155.955 E0.05608
G1 X160.334 Y156.086 E0.00203
G1 X155.859 Y151.611 E0.05815
G1 X155.639 Y151.7 E0.00218
G1 X160.156 Y156.217 E0.05871
G1 X159.978 Y156.348 E0.00203
G1 X155.4 Y151.77 E0.05949
G1 X155.133 Y151.812 E0.00249
G1 X159.8 Y156.479 E0.06065
G1 X159.622 Y156.61 E0.00203
