; generated by SuperSlicer 2.5.59 on 2022-11-23 at 18:42:32 UTC


;
;

;
;
; 

; external perimeters extrusion width = 0.40mm
; perimeters extrusion width = 0.46mm
; infill extrusion width = 0.64mm
; solid infill extrusion width = 0.56mm
; top infill extrusion width = 0.40mm
; support material extrusion width = 0.46mm
; first layer extrusion width = 0.50mm

; external perimeters extrusion width = 0.40mm
; perimeters extrusion width = 0.46mm
; infill extrusion width = 0.64mm
; solid infill extrusion width = 0.56mm
; top infill extrusion width = 0.40mm
; support material extrusion width = 0.46mm
; first layer extrusion width = 0.50mm

; object:{"name":"Body1","id":"Body1.stl id:0 copy 0","object_center":[130.500000,150.000000,0.000000],"boundingbox_center":[130.500000,150.000000,2.250000],"boundingbox_size":[38.000000,90.000000,4.500000]}
; object:{"name":"Body1","id":"Body1.stl id:1 copy 0","object_center":[174.500000,150.000000,0.000000],"boundingbox_center":[174.500000,150.000000,2.250000],"boundingbox_size":[38.000000,90.000000,4.500000]}
; plater:{"center":[152.500000,150.000000,0.000000],"boundingbox_center":[152.500000,150.000000,2.250000],"boundingbox_size":[82.000000,90.000000,4.500000]}

M73 P0 R24


; Pre-Processed for Cancel-Object support by preprocess_cancellation v0.2.0
; 2 known objects
EXCLUDE_OBJECT_DEFINE NAME=Body1_stl_id_0_copy_0 CENTER=124.073,159.267 POLYGON=[[107.407,102.492],[107.407,197.508],[153.593,197.508],[153.593,102.492]]
EXCLUDE_OBJECT_DEFINE NAME=Body1_stl_id_1_copy_0 CENTER=180.906,159.916 POLYGON=[[154.157,102.492],[154.157,197.508],[194.843,197.508],[194.843,102.492]]
;TYPE:Custom
START_PRINT T_BED=60 T_EXTRUDER=200
M107
G21 ; set units to millimeters
G90 ; use absolute coordinates
M83 ; use relative distances for extrusion
; Filament gcode
;_TOOLCHANGE 0
M104 S200 ; set temperature
M109 S200 ; set temperature and wait for it to be reached
M190 S60 ; set bed temperature and wait for it to be reached
M107
;LAYER_CHANGE
;Z:0.2
;HEIGHT:0.2
G1 Z0.2 F9000
G92 E0
M73 P0 R24
G1 E-0.8 F3000
M204 S1000
G1 X114.496 Y101.482 F9000
G1 E0.8 F1800
;TYPE:Skirt
;WIDTH:0.52
G1 X113.905 Y103.089 E0.06657
G1 X103.718 Y187.583 E3.3086
G1 X103.691 Y196.466 E0.34534
G1 X103.835 Y197.489 E0.04012
G1 X104.673 Y198.982 E0.06657
G1 X106.091 Y199.941 E0.06657
G1 X108.841 Y200.983 E0.11431
G1 X110.157 Y201.223 E0.05201
G1 X194.843 Y201.223 E3.29225
G1 X197.064 Y200.487 E0.09097
G1 X198.164 Y199.174 E0.06657
G1 X198.559 Y197.508 E0.06657
G1 X198.53 Y180.13 E0.67557
G1 X195.13 Y152.935 E1.06546
G1 X188.339 Y102.001 E1.99764
M73 P1 R24
G1 X187.635 Y100.271 E0.07261
G1 X186.322 Y99.171 E0.06657
G1 X184.656 Y98.776 E0.06657
G1 X120.344 Y98.776 E2.5002
G1 X119.028 Y99.017 E0.05201
G1 X116.278 Y100.059 E0.11431
G1 X114.496 Y101.482 E0.08865
G1 X114.954 Y101.659 F9000
G1 F1800
G1 X114.379 Y103.146 E0.06199
G1 X104.192 Y187.641 E3.3086
G1 X104.169 Y196.466 E0.34312
G1 X104.952 Y198.579 E0.08758
G1 X106.26 Y199.495 E0.06209
G1 X109.01 Y200.537 E0.11431
G1 X110.157 Y200.746 E0.04533
G1 X194.843 Y200.746 E3.29225
G1 X196.602 Y200.227 E0.0713
G1 X197.688 Y199.056 E0.06209
G1 X198.082 Y197.508 E0.06209
G1 X198.056 Y180.19 E0.67327
G1 X194.657 Y152.998 E1.06531
G1 X187.866 Y102.064 E1.99764
G1 X187.375 Y100.733 E0.05515
G1 X186.204 Y99.647 E0.06209
G1 X184.656 Y99.254 E0.06209
G1 X120.344 Y99.254 E2.5002
M73 P2 R24
G1 X119.197 Y99.463 E0.04533
G1 X116.447 Y100.505 E0.11431
G1 X114.954 Y101.659 E0.07335
G1 E-0.8 F3000
; printing object Body1.stl id:0 copy 0
EXCLUDE_OBJECT_START NAME=Body1_stl_id_0_copy_0
G1 X111.721 Y194.174 F9000
G1 E0.8 F1800
;TYPE:Support material interface
;WIDTH:0.5

G1 X111.721 Y194.469 E0.011
G1 X112.031 Y194.779 E0.01631
G1 X113.491 Y194.779 E0.05438
G1 X113.491 Y197.508 E0.10166
G1 X110.157 Y197.508 E0.12419
G1 X110.157 Y194.174 E0.12419
G1 X111.721 Y194.174 E0.05827
G1 X111.783 Y194.692 F9000
G1 F1800
G1 X110.468 Y194.692 E0.04899
G1 X110.468 Y195.2 E0.01892
G1 X113.18 Y195.2 E0.10103
G1 X113.18 Y195.708 E0.01892
G1 X110.468 Y195.708 E0.10103
G1 X110.468 Y196.216 E0.01892
G1 X113.18 Y196.216 E0.10103
G1 X113.18 Y196.724 E0.01892
G1 X110.271 Y196.724 E0.10835
G1 E-0.8 F3000
G1 X130.531 Y196.724 F9000
G1 E0.8 F1800

G1 X130.531 Y194.779 E0.07245
G1 X132.969 Y194.779 E0.09081
G1 X133.279 Y194.469 E0.01631
G1 X133.279 Y194.174 E0.011
G1 X133.865 Y194.174 E0.02184
G1 X133.865 Y197.508 E0.12419
G1 X130.531 Y197.508 E0.12419
G1 X130.531 Y196.724 E0.02921
G1 E-0.8 F3000
G1 X133.751 Y194.692 F9000
G1 E0.8 F1800

G1 X133.495 Y194.692 E0.00953
G1 X133.098 Y195.089 E0.02092
G1 X130.842 Y195.089 E0.08403
G1 X130.842 Y195.2 E0.00412
G1 X133.554 Y195.2 E0.10103
G1 X133.554 Y195.708 E0.01892
G1 X130.842 Y195.708 E0.10103
G1 X130.842 Y196.216 E0.01892
G1 X133.554 Y196.216 E0.10103
G1 X133.554 Y196.724 E0.01892
G1 X130.645 Y196.724 E0.10835
G1 E-0.8 F3000
G1 X116.887 Y183.925 F9000
G1 E0.8 F1800

G1 X116.279 Y183.925 E0.02266
G1 X116.279 Y182.107 E0.06774
G1 X115.969 Y181.797 E0.01631
G1 X112.031 Y181.797 E0.14667
G1 X111.721 Y182.107 E0.01631
G1 X111.721 Y183.925 E0.06774
G1 X110.157 Y183.925 E0.05827
G1 X110.157 Y180.591 E0.12419
G1 X116.887 Y180.591 E0.25066
G1 X116.887 Y183.925 E0.12419
G1 E-0.8 F3000
G1 X110.271 Y180.98 F9000
G1 E0.8 F1800

G1 X116.576 Y180.98 E0.23483
G1 X116.576 Y181.488 E0.01892
G1 X110.468 Y181.488 E0.22751
G1 X110.468 Y181.996 E0.01892
G1 X111.411 Y181.996 E0.03512
G1 X111.411 Y182.503 E0.01892
G1 X110.468 Y182.503 E0.03512
G1 X110.468 Y183.011 E0.01892
G1 X111.411 Y183.011 E0.03512
G1 X111.411 Y183.519 E0.01892
G1 X110.271 Y183.519 E0.04244
G1 E-0.8 F3000
G1 X127.135 Y183.519 F9000
G1 E0.8 F1800

G1 X127.135 Y180.591 E0.10905
G1 X133.865 Y180.591 E0.25066
G1 X133.865 Y183.925 E0.12419
G1 X133.279 Y183.925 E0.02184
G1 X133.279 Y183.531 E0.01469
G1 X132.969 Y183.221 E0.01631
G1 X129.031 Y183.221 E0.14667
G1 X128.721 Y183.531 E0.01631
G1 X128.721 Y183.925 E0.01469
G1 X127.135 Y183.925 E0.05909
G1 X127.135 Y183.519 E0.01513
G1 E-0.8 F3000
G1 X133.751 Y180.98 F9000
G1 E0.8 F1800

G1 X127.446 Y180.98 E0.23483
G1 X127.446 Y181.488 E0.01892
G1 X133.554 Y181.488 E0.22751
G1 X133.554 Y181.996 E0.01892
G1 X127.446 Y181.996 E0.22751
G1 X127.446 Y182.503 E0.01892
G1 X133.554 Y182.503 E0.22751
G1 X133.554 Y183.011 E0.01892
G1 X127.446 Y183.011 E0.22751
G1 X127.446 Y183.519 E0.01892
G1 X128.607 Y183.519 E0.04325
G1 E-0.8 F3000
G1 X116.887 Y160.156 F9000
G1 E0.8 F1800

G1 X113.553 Y160.156 E0.12419
G1 X113.553 Y158.8 E0.05051
G1 X114.031 Y159.279 E0.0252
G1 X116.887 Y159.279 E0.10636
G1 X116.887 Y160.156 E0.03269
G1 X116.773 Y159.649 F9000
G1 F1800
G1 X113.667 Y159.649 E0.11567
G1 E-0.8 F3000
G1 X147.509 Y112.617 F9000
G1 E0.8 F1800

G1 X147.509 Y110.779 E0.06849
G1 X148.969 Y110.779 E0.05438
G1 X149.279 Y110.469 E0.01631
G1 X149.279 Y109.283 E0.04416
G1 X150.843 Y109.283 E0.05827
G1 X150.843 Y112.617 E0.12419
G1 X147.509 Y112.617 E0.12419
G1 E-0.8 F3000
G1 X150.729 Y109.879 F9000
G1 E0.8 F1800

G1 X149.589 Y109.879 E0.04244
G1 X149.589 Y110.386 E0.01892
G1 X150.532 Y110.386 E0.03512
G1 X150.532 Y110.894 E0.01892
G1 X149.293 Y110.894 E0.04616
G1 X149.098 Y111.089 E0.01027
G1 X147.82 Y111.089 E0.0476
G1 X147.82 Y111.402 E0.01165
G1 X150.532 Y111.402 E0.10103
G1 X150.532 Y111.91 E0.01892
G1 X147.623 Y111.91 E0.10835
G1 E-0.8 F3000
G1 X149.279 Y105.826 F9000
G1 E0.8 F1800

G1 X149.279 Y105.531 E0.01099
G1 X148.969 Y105.221 E0.01631
G1 X147.509 Y105.221 E0.05438
G1 X147.509 Y102.492 E0.10166
G1 X150.843 Y102.492 E0.12419
G1 X150.843 Y105.826 E0.12419
G1 X149.279 Y105.826 E0.05827
G1 E-0.8 F3000
G1 X150.729 Y103.276 F9000
G1 E0.8 F1800

G1 X147.82 Y103.276 E0.10835
G1 X147.82 Y103.784 E0.01892
G1 X150.532 Y103.784 E0.10103
G1 X150.532 Y104.292 E0.01892
G1 X147.82 Y104.292 E0.10103
G1 X147.82 Y104.8 E0.01892
G1 X150.532 Y104.8 E0.10103
G1 X150.532 Y105.308 E0.01892
G1 X149.217 Y105.308 E0.04899
G1 E-0.8 F3000
G1 X123.678 Y105.221 F9000
M73 P3 R23
G1 E0.8 F1800

G1 X121.031 Y105.221 E0.09859
G1 X120.426 Y105.826 E0.03186
G1 X120.344 Y105.826 E0.00307
G1 X120.344 Y102.492 E0.12419
G1 X123.678 Y102.492 E0.12419
G1 X123.678 Y105.221 E0.10166
G1 X123.564 Y103.276 F9000
G1 F1800
G1 X120.655 Y103.276 E0.10835
G1 X120.655 Y103.784 E0.01892
G1 X123.367 Y103.784 E0.10103
G1 X123.367 Y104.292 E0.01892
G1 X120.655 Y104.292 E0.10103
G1 X120.655 Y104.8 E0.01892
G1 X123.564 Y104.8 E0.10835
G1 E-0.8 F3000
G1 X111.721 Y188.028 F9000
G1 E0.8 F1800
;TYPE:Support material
G1 X111.721 Y193.467 E0.20256
G1 X109.45 Y193.467 E0.08461
G1 X109.45 Y196.466 E0.11174
G1 X107.407 Y196.466 E0.07608
G1 X107.407 Y188.028 E0.3143
G1 X111.721 Y188.028 E0.16069
G1 X111.201 Y193.352 F9000
G1 F1800
G1 X111.201 Y188.339 E0.18672
G1 X110.693 Y188.339 E0.01892
G1 X110.693 Y193.156 E0.1794
G1 X110.185 Y193.156 E0.01892
G1 X110.185 Y188.339 E0.1794
G1 X109.677 Y188.339 E0.01892
G1 X109.677 Y193.156 E0.1794
G1 X109.17 Y193.156 E0.01892
G1 X109.17 Y188.339 E0.1794
G1 X108.662 Y188.339 E0.01892
G1 X108.662 Y196.156 E0.29114
G1 X108.154 Y196.156 E0.01892
G1 X108.154 Y188.142 E0.29846
G1 E-0.8 F3000
G1 X133.279 Y188.142 F9000
G1 E0.8 F1800
G1 X133.279 Y188.028 E0.00426
G1 X136.615 Y188.028 E0.12426
G1 X136.615 Y196.466 E0.3143
G1 X134.572 Y196.466 E0.07608
G1 X134.572 Y193.467 E0.11174
G1 X133.279 Y193.467 E0.04818
G1 X133.279 Y188.142 E0.1983
G1 X136.087 Y196.352 F9000
G1 F1800
G1 X136.087 Y188.339 E0.29846
G1 X135.579 Y188.339 E0.01892
G1 X135.579 Y196.156 E0.29114
G1 X135.071 Y196.156 E0.01892
G1 X135.071 Y188.339 E0.29114
G1 X134.563 Y188.339 E0.01892
G1 X134.563 Y193.156 E0.1794
G1 X134.055 Y193.156 E0.01892
G1 X134.055 Y188.142 E0.18672
G1 E-0.8 F3000
G1 X120.721 Y111.972 F9000
G1 E0.8 F1800
G1 X117.594 Y111.972 E0.11649
G1 X117.594 Y103.533 E0.3143
G1 X119.637 Y103.533 E0.07608
G1 X119.637 Y106.533 E0.11174
G1 X120.721 Y106.533 E0.0404
G1 X120.721 Y111.972 E0.20256
G1 X120.343 Y111.857 F9000
G1 F1800
G1 X120.343 Y106.844 E0.18672
G1 X119.835 Y106.844 E0.01892
G1 X119.835 Y111.661 E0.1794
G1 X119.327 Y111.661 E0.01892
G1 X119.327 Y106.844 E0.1794
G1 X119.326 Y103.844 E0.11174
G1 X118.819 Y103.844 E0.01888
G1 X118.819 Y111.661 E0.29114
G1 X118.311 Y111.661 E0.01892
G1 X118.311 Y103.648 E0.29846
G1 E-0.8 F3000
G1 X149.279 Y106.533 F9000
G1 E0.8 F1800
G1 X151.55 Y106.533 E0.08461
G1 X151.55 Y103.533 E0.11174
G1 X153.593 Y103.533 E0.07608
G1 X153.593 Y111.576 E0.29956
G1 X151.55 Y111.576 E0.07608
G1 X151.55 Y108.576 E0.11174
G1 X149.279 Y108.576 E0.08461
G1 X149.279 Y106.533 E0.07608
G1 X152.846 Y111.462 F9000
G1 F1800
G1 X152.846 Y103.844 E0.28373
G1 X152.338 Y103.844 E0.01892
G1 X152.338 Y111.265 E0.27641
G1 X151.861 Y111.265 E0.01778
G1 X151.861 Y108.265 E0.11174
G1 X151.83 Y108.265 E0.00114
G1 X151.83 Y106.844 E0.05293
G1 X151.323 Y106.844 E0.01892
G1 X151.323 Y108.265 E0.05293
G1 X150.815 Y108.265 E0.01892
G1 X150.815 Y106.844 E0.05293
G1 X150.307 Y106.844 E0.01892
G1 X150.307 Y108.265 E0.05293
G1 X149.799 Y108.265 E0.01892
G1 X149.799 Y106.648 E0.06025
G1 E-0.8 F3000
G1 X122.716 Y190.126 F9000
G1 E0.8 F1800
;TYPE:Internal perimeter
;WIDTH:0.564382
G1 X122.718 Y190.021 E0.00444
G1 X122.718 Y158.479 E1.34034
M73 P4 R23
G1 X122.647 Y158.307 E0.0079
;WIDTH:0.528614
G1 X122.576 Y158.135 E0.00736
;WIDTH:0.492847
G1 X122.505 Y157.963 E0.00682
;WIDTH:0.457079
G1 X122.434 Y157.791 E0.00628
G1 X121.957 Y157.422 E0.02034
G1 X121.521 Y157.336 E0.015
G1 X115.664 Y157.336 E0.19768
G1 X115.664 Y155.664 E0.05642
G1 X121.521 Y155.664 E0.19768
G1 X121.957 Y155.578 E0.015
G1 X122.434 Y155.209 E0.02034
G1 X122.502 Y155.089 E0.00465
;WIDTH:0.49658
G1 X122.57 Y154.969 E0.00509
;WIDTH:0.536082
G1 X122.638 Y154.849 E0.00554
;WIDTH:0.564382
G1 X122.705 Y154.729 E0.00586
G1 X122.718 Y154.521 E0.00884
G1 X122.718 Y109.979 E1.89274
G1 X122.704 Y109.743 E0.01
;WIDTH:0.528614
G1 X122.691 Y109.508 E0.00932
;WIDTH:0.492847
G1 X122.678 Y109.273 E0.00863
;WIDTH:0.457079
G1 X122.664 Y109.038 E0.00795
G1 X122.664 Y107.164 E0.06325
G1 X147.336 Y107.164 E0.83264
G1 X147.336 Y108 E0.02821
G1 X147.336 Y108.836 E0.02821
G1 X124.479 Y108.836 E0.7714
G1 X124.281 Y108.853 E0.00669
G1 X123.994 Y108.944 E0.01016
G1 X123.546 Y109.319 E0.01972
G1 X123.48 Y109.484 E0.006
;WIDTH:0.492847
G1 X123.414 Y109.649 E0.00651
;WIDTH:0.528614
G1 X123.348 Y109.814 E0.00703
;WIDTH:0.575583
G1 X123.282 Y109.979 E0.00771
G1 X123.282 Y154.521 E1.9334
G1 X123.279 Y154.65 E0.00559
G1 X123.277 Y154.779 E0.00559
G1 X123.291 Y154.962 E0.00797
;WIDTH:0.536082
G1 X123.306 Y155.145 E0.00738
;WIDTH:0.49658
G1 X123.321 Y155.328 E0.00679
;WIDTH:0.457079
G1 X123.336 Y155.511 E0.0062
G1 X123.336 Y157.489 E0.06677
G1 X123.322 Y157.737 E0.00836
;WIDTH:0.492847
G1 X123.309 Y157.984 E0.00908
;WIDTH:0.528614
G1 X123.296 Y158.231 E0.0098
;WIDTH:0.570028
G1 X123.282 Y158.479 E0.01064
G1 X123.282 Y190.021 E1.35485
G1 X123.284 Y190.126 E0.00449
G1 X123.335 Y190.242 E0.00546
;WIDTH:0.532378
G1 X123.386 Y190.359 E0.00507
;WIDTH:0.494729
G1 X123.437 Y190.475 E0.00468
;WIDTH:0.457079
G1 X123.488 Y190.592 E0.00429
G1 X123.729 Y190.884 E0.01279
G1 X124.066 Y191.087 E0.01327
G1 X124.479 Y191.164 E0.01416
G1 X129.521 Y191.164 E0.17019
G1 X129.719 Y191.147 E0.00669
G1 X130.006 Y191.056 E0.01016
G1 X130.454 Y190.681 E0.01972
G1 X130.517 Y190.568 E0.00436
;WIDTH:0.496581
G1 X130.58 Y190.455 E0.00478
;WIDTH:0.536082
G1 X130.643 Y190.342 E0.0052
;WIDTH:0.575584
G1 X130.705 Y190.229 E0.00561
G1 X130.718 Y190.021 E0.00903
G1 X130.718 Y187.62 E0.10425
G1 X130.718 Y185.218 E0.10425
G1 X131.282 Y185.218 E0.0245
G1 X131.282 Y190.021 E0.2085
G1 X131.279 Y190.15 E0.00559
G1 X131.277 Y190.279 E0.00559
G1 X131.291 Y190.45 E0.00744
;WIDTH:0.536082
G1 X131.306 Y190.62 E0.00689
;WIDTH:0.496581
G1 X131.321 Y190.791 E0.00633
;WIDTH:0.457079
G1 X131.336 Y190.962 E0.00578
G1 X131.336 Y192.836 E0.06325
G1 X113.664 Y192.836 E0.5964
G1 X113.664 Y190.962 E0.06325
G1 X113.678 Y190.727 E0.00795
;WIDTH:0.492847
G1 X113.691 Y190.492 E0.00863
;WIDTH:0.528614
G1 X113.704 Y190.257 E0.00932
;WIDTH:0.575585
G1 X113.718 Y190.021 E0.01022
G1 X113.718 Y184.076 E0.25805
G1 X114.282 Y184.076 E0.0245
G1 X114.282 Y190.021 E0.25805
G1 X114.295 Y190.229 E0.00903
G1 X114.357 Y190.342 E0.00561
;WIDTH:0.536083
G1 X114.42 Y190.455 E0.0052
;WIDTH:0.496581
G1 X114.483 Y190.568 E0.00478
;WIDTH:0.457079
G1 X114.546 Y190.681 E0.00436
G1 X114.994 Y191.056 E0.01972
G1 X115.479 Y191.164 E0.01675
G1 X121.521 Y191.164 E0.20394
G1 X121.934 Y191.087 E0.01416
G1 X122.271 Y190.884 E0.01327
G1 X122.512 Y190.592 E0.01279
G1 X122.563 Y190.475 E0.00429
;WIDTH:0.494729
G1 X122.614 Y190.359 E0.00468
;WIDTH:0.532378
G1 X122.665 Y190.242 E0.00507
;WIDTH:0.564382
G1 X122.716 Y190.126 E0.0054
G1 X121.64 Y190.697 F9000
;WIDTH:0.457079
G1 F1800
G1 X121.971 Y190.539 E0.01238
G1 X122.116 Y190.364 E0.00768
G1 X122.207 Y190.021 E0.01195
G1 X122.207 Y158.479 E1.06453
G1 X122.069 Y158.066 E0.01468
G1 X121.783 Y157.845 E0.0122
G1 X121.521 Y157.793 E0.009
G1 X115.207 Y157.793 E0.2131
G1 X115.207 Y155.207 E0.08727
G1 X121.521 Y155.207 E0.2131
G1 X121.783 Y155.155 E0.009
G1 X122.069 Y154.934 E0.0122
G1 X122.197 Y154.64 E0.01082
G1 X122.207 Y154.521 E0.00401
G1 X122.207 Y106.707 E1.61367
G1 X147.793 Y106.707 E0.86349
G1 X147.793 Y109.293 E0.08727
G1 X124.479 Y109.293 E0.78683
G1 X124.188 Y109.358 E0.01005
G1 X123.919 Y109.583 E0.01183
G1 X123.793 Y109.979 E0.01402
G1 X123.793 Y190.021 E2.70134
M73 P5 R23
G1 X123.884 Y190.364 E0.01195
G1 X124.029 Y190.539 E0.00768
G1 X124.231 Y190.661 E0.00796
G1 X124.479 Y190.707 E0.0085
G1 X129.521 Y190.707 E0.17019
G1 X129.812 Y190.642 E0.01005
G1 X130.081 Y190.417 E0.01183
G1 X130.197 Y190.14 E0.01015
G1 X130.207 Y190.021 E0.00401
G1 X130.207 Y184.707 E0.17935
G1 X131.793 Y184.707 E0.05352
G1 X131.793 Y193.293 E0.28976
G1 X113.207 Y193.293 E0.62725
G1 X113.207 Y183.566 E0.32828
G1 X114.793 Y183.566 E0.05352
G1 X114.793 Y190.021 E0.21787
G1 X114.803 Y190.14 E0.00401
G1 X114.919 Y190.417 E0.01015
G1 X115.188 Y190.642 E0.01183
G1 X115.479 Y190.707 E0.01005
G1 X121.521 Y190.707 E0.20394
G1 X121.64 Y190.697 E0.00401
G1 X121.671 Y190.194 F9000
;TYPE:External perimeter
