; generated by SuperSlicer 2.5.59 on 2022-12-10 at 02:53:46 UTC


;
;

;
;
; 

; external perimeters extrusion width = 0.40mm
; perimeters extrusion width = 0.46mm
; infill extrusion width = 0.64mm
; solid infill extrusion width = 0.56mm
; top infill extrusion width = 0.40mm
; first layer extrusion width = 0.50mm

; external perimeters extrusion width = 0.40mm
; perimeters extrusion width = 0.46mm
; infill extrusion width = 0.64mm
; solid infill extrusion width = 0.56mm
; top infill extrusion width = 0.40mm
; first layer extrusion width = 0.50mm

; object:{"name":"Skadis_Universal_Hook(5)","id":"Skadis_Universal_Hook(5).stl id:0 copy 0","object_center":[137.899963,150.000000,0.000000],"boundingbox_center":[137.899963,150.000000,2.250000],"boundingbox_size":[23.200073,35.000000,4.500000]}
; object:{"name":"Skadis_Universal_Hook(5)","id":"Skadis_Universal_Hook(5).stl id:1 copy 0","object_center":[167.100037,150.000000,0.000000],"boundingbox_center":[167.100037,150.000000,2.250000],"boundingbox_size":[23.200073,35.000000,4.500000]}
; plater:{"center":[152.500000,150.000000,0.000000],"boundingbox_center":[152.500000,150.000000,2.250000],"boundingbox_size":[52.400147,35.000000,4.500000]}

M73 P0 R13


; Pre-Processed for Cancel-Object support by preprocess_cancellation v0.2.0
; 2 known objects
EXCLUDE_OBJECT_DEFINE NAME=Skadis_Universal_Hook_5_stl_id_0_copy_0 CENTER=135.986,155.820 POLYGON=[[126.5,132.7],[126.5,167.3],[149.3,167.3],[149.3,132.7]]
EXCLUDE_OBJECT_DEFINE NAME=Skadis_Universal_Hook_5_stl_id_1_copy_0 CENTER=165.186,155.820 POLYGON=[[155.7,132.7],[155.7,167.3],[178.5,167.3],[178.5,132.7]]
;TYPE:Custom
START_PRINT T_BED=60 T_EXTRUDER=200
M107
G21 ; set units to millimeters
G90 ; use absolute coordinates
M83 ; use relative distances for extrusion
; Filament gcode
PRESSURE_ADVANCE_SELECT FILAMENT=PLA
;_TOOLCHANGE 0
M104 S200 ; set temperature
M109 S200 ; set temperature and wait for it to be reached
M190 S60 ; set bed temperature and wait for it to be reached
M107
;LAYER_CHANGE
;Z:0.2
;HEIGHT:0.2
G1 Z0.2 F9000
G92 E0
M73 P0 R13
G1 E-0.8 F3000
M204 S1000
G1 X126.02 Y130.697 F9000
G1 E0.8 F1800
;TYPE:Skirt
;WIDTH:0.52
G1 X125.468 Y132.318 E0.06521
G1 X123.268 Y155.318 E0.8799
G1 X123.298 Y165.679 E0.39458
G1 X123.658 Y167.08 E0.0551
G1 X124.36 Y168.316 E0.05414
G1 X125.231 Y169.243 E0.04844
G1 X126.309 Y169.956 E0.04923
G1 X127.562 Y170.407 E0.05069
G1 X128.74 Y170.548 E0.04519
M73 P0 R12
G1 X175.192 Y170.548 E1.76904
G1 X175.797 Y170.5 E0.0231
G1 X176.784 Y170.222 E0.03906
G1 X177.787 Y169.609 E0.04475
G1 X180.488 Y166.675 E0.15186
G1 X180.856 Y166.202 E0.02283
G1 X181.355 Y165.274 E0.04011
G1 X181.628 Y164.397 E0.035
G1 X181.748 Y163.397 E0.03835
G1 X181.748 Y159.107 E0.1634
G1 X177.775 Y132.055 E1.04126
G1 X177.079 Y130.379 E0.0691
G1 X175.766 Y129.279 E0.06521
G1 X174.1 Y128.884 E0.06521
G1 X129.505 Y128.884 E1.6983
G1 X128.963 Y128.92 E0.02068
G1 X127.972 Y129.153 E0.03878
G1 X126.02 Y130.697 E0.09477
G1 X126.482 Y130.862 F9000
G1 F1800
G1 X125.943 Y132.363 E0.06073
G1 X123.743 Y155.363 E0.8799
G1 X123.77 Y165.612 E0.3903
G1 X124.096 Y166.891 E0.05025
G1 X124.734 Y168.021 E0.04943
G1 X125.547 Y168.885 E0.04519
G1 X126.513 Y169.525 E0.04413
G1 X127.678 Y169.945 E0.04715
G1 X128.74 Y170.071 E0.04072
G1 X175.192 Y170.071 E1.76904
M73 P1 R12
G1 X175.732 Y170.027 E0.02063
G1 X176.593 Y169.785 E0.03405
G1 X177.477 Y169.246 E0.03943
G1 X180.133 Y166.356 E0.14948
G1 X180.468 Y165.924 E0.02083
G1 X180.92 Y165.077 E0.03655
G1 X181.158 Y164.313 E0.0305
G1 X181.271 Y163.397 E0.03513
G1 X181.271 Y159.107 E0.1634
G1 X177.304 Y132.125 E1.03859
G1 X176.819 Y130.841 E0.05225
G1 X175.648 Y129.755 E0.06082
G1 X174.1 Y129.361 E0.06082
G1 X129.505 Y129.361 E1.6983
G1 X129.01 Y129.395 E0.0189
G1 X128.125 Y129.605 E0.03462
G1 X126.482 Y130.862 E0.07881
G1 E-0.8 F3000
; printing object Skadis_Universal_Hook(5).stl id:0 copy 0
EXCLUDE_OBJECT_START NAME=Skadis_Universal_Hook_5_stl_id_0_copy_0
G1 X138.669 Y159.931 F9000
G1 E0.8 F1800
;TYPE:Internal perimeter
;WIDTH:0.5
G1 X147.668 Y159.932 E0.32835
G1 X147.668 Y163.293 E0.12265
G1 X147.647 Y163.414 E0.00446
G1 X146.831 Y164.326 E0.04465
G1 X146.831 Y160.669 E0.13344
G1 X138.669 Y160.669 E0.29778
G1 X138.668 Y164.996 E0.15788
G1 X138.648 Y165.14 E0.00531
G1 X138.593 Y165.295 E0.006
G1 X138.521 Y165.411 E0.00499
G1 X138.375 Y165.544 E0.0072
G1 X138.242 Y165.616 E0.00549
G1 X138.16 Y165.643 E0.00318
G1 X137.981 Y165.668 E0.00657
G1 X128.823 Y165.668 E0.33416
G1 X128.636 Y165.64 E0.00688
G1 X128.463 Y165.57 E0.00683
G1 X128.32 Y165.457 E0.00664
G1 X128.257 Y165.378 E0.00366
G1 X128.168 Y165.204 E0.00714
G1 X128.141 Y165.064 E0.00522
G1 X128.132 Y156.774 E0.30245
G1 X128.969 Y156.774 E0.03053
G1 X128.968 Y161.541 E0.17393
G1 X128.993 Y161.926 E0.01406
G1 X129.076 Y162.342 E0.01548
G1 X129.217 Y162.778 E0.01672
G1 X129.529 Y163.363 E0.02421
G1 X129.969 Y163.891 E0.02507
G1 X130.492 Y164.305 E0.02431
G1 X130.904 Y164.527 E0.01709
G1 X131.31 Y164.684 E0.0159
G1 X131.714 Y164.781 E0.01515
G1 X132.095 Y164.827 E0.01399
G1 X134.548 Y164.832 E0.08952
G1 X134.977 Y164.798 E0.01571
G1 X135.411 Y164.71 E0.01614
G1 X136.001 Y164.481 E0.0231
G1 X136.41 Y164.232 E0.01746
G1 X136.762 Y163.948 E0.01653
G1 X137.093 Y163.601 E0.01749
G1 X137.453 Y163.055 E0.02384
G1 X137.642 Y162.613 E0.01756
G1 X137.764 Y162.176 E0.01654
G1 X137.827 Y161.727 E0.01654
G1 X137.832 Y138.457 E0.84903
G1 X137.803 Y138.038 E0.01532
G1 X137.707 Y137.581 E0.01705
G1 X137.545 Y137.144 E0.017
G1 X137.331 Y136.742 E0.01663
G1 X137.063 Y136.365 E0.01688
G1 X136.739 Y136.03 E0.017
G1 X136.38 Y135.748 E0.01665
G1 X135.959 Y135.498 E0.01787
G1 X135.315 Y135.266 E0.02498
G1 X134.903 Y135.192 E0.01529
G1 X134.541 Y135.168 E0.01321
G1 X130.331 Y135.168 E0.15359
G1 X130.331 Y133.773 E0.05089
G1 X143.736 Y133.765 E0.48908
M73 P2 R12
G1 X143.736 Y134.968 E0.04392
G1 X138.669 Y134.969 E0.18487
G1 X138.669 Y159.931 E0.91075
G1 X139.126 Y159.474 F9000
G1 F1800
G1 X148.125 Y159.475 E0.32835
G1 X148.125 Y163.334 E0.14082
G1 X148.09 Y163.528 E0.00718
G1 X148.021 Y163.68 E0.00611
G1 X147.974 Y163.746 E0.00295
G1 X146.374 Y165.524 E0.08726
G1 X146.374 Y161.126 E0.16045
G1 X139.126 Y161.126 E0.26443
G1 X139.125 Y165.027 E0.14233
G1 X139.095 Y165.249 E0.00819
G1 X139.007 Y165.495 E0.00954
G1 X138.925 Y165.641 E0.00608
G1 X138.875 Y165.706 E0.00301
G1 X138.642 Y165.919 E0.01151
G1 X138.425 Y166.037 E0.00902
G1 X138.263 Y166.09 E0.00621
G1 X138.013 Y166.125 E0.00922
G1 X128.788 Y166.126 E0.33658
G1 X128.515 Y166.084 E0.01008
G1 X128.231 Y165.97 E0.01115
G1 X128.124 Y165.897 E0.00472
G1 X127.994 Y165.783 E0.00631
G1 X127.871 Y165.626 E0.00728
G1 X127.732 Y165.355 E0.0111
G1 X127.704 Y165.254 E0.00383
G1 X127.684 Y165.109 E0.00535
G1 X127.675 Y156.317 E0.32078
G1 X129.426 Y156.317 E0.0639
G1 X129.425 Y161.526 E0.19006
G1 X129.447 Y161.866 E0.01242
G1 X129.519 Y162.226 E0.01341
G1 X129.639 Y162.598 E0.01427
G1 X129.91 Y163.107 E0.02102
G1 X130.29 Y163.562 E0.02163
G1 X130.744 Y163.921 E0.02111
G1 X131.096 Y164.111 E0.01459
G1 X131.447 Y164.247 E0.01374
G1 X131.795 Y164.33 E0.01305
G1 X132.122 Y164.37 E0.01204
G1 X134.531 Y164.375 E0.08787
G1 X134.914 Y164.345 E0.01402
G1 X135.281 Y164.27 E0.01369
G1 X135.798 Y164.069 E0.02022
G1 X136.147 Y163.858 E0.01488
G1 X136.452 Y163.611 E0.01432
G1 X136.734 Y163.315 E0.01492
G1 X137.049 Y162.838 E0.02086
G1 X137.21 Y162.461 E0.01496
G1 X137.316 Y162.083 E0.01433
G1 X137.37 Y161.695 E0.01427
G1 X137.375 Y138.473 E0.8473
G1 X137.349 Y138.101 E0.01358
G1 X137.266 Y137.708 E0.01466
M73 P3 R12
G1 X137.127 Y137.331 E0.01466
G1 X136.942 Y136.982 E0.01441
G1 X136.711 Y136.658 E0.01453
G1 X136.432 Y136.37 E0.01462
G1 X136.121 Y136.126 E0.01442
G1 X135.763 Y135.913 E0.01518
G1 X135.196 Y135.709 E0.022
G1 X134.847 Y135.646 E0.01295
G1 X134.526 Y135.625 E0.01172
G1 X129.875 Y135.625 E0.16972
G1 X129.874 Y133.317 E0.08424
G1 X144.193 Y133.307 E0.52244
G1 X144.193 Y135.425 E0.07728
G1 X139.126 Y135.426 E0.18487
G1 X139.126 Y159.474 E0.8774
G1 X139.583 Y159.017 F9000
;TYPE:External perimeter
G1 F1800
G1 X148.497 Y159.018 E0.32525
G1 X148.536 Y159.034 E0.00154
G1 X148.565 Y159.066 E0.00156
G1 X148.582 Y159.137 E0.00266
G1 X148.582 Y163.375 E0.15464
G1 X148.53 Y163.665 E0.01075
G1 X148.419 Y163.91 E0.00983
G1 X148.331 Y164.033 E0.00552
G1 X146.077 Y166.538 E0.12296
G1 X146.025 Y166.576 E0.00234
G1 X145.976 Y166.575 E0.00178
G1 X145.931 Y166.538 E0.00211
G1 X145.917 Y166.477 E0.00229
G1 X145.917 Y161.583 E0.17854
G1 X139.583 Y161.583 E0.23109
G1 X139.582 Y165.058 E0.12678
M73 P4 R12
G1 X139.541 Y165.359 E0.01107
G1 X139.424 Y165.685 E0.01267
G1 X139.308 Y165.893 E0.00868
G1 X139.213 Y166.017 E0.00571
G1 X138.909 Y166.294 E0.01499
G1 X138.607 Y166.458 E0.01255
G1 X138.366 Y166.537 E0.00924
G1 X138.044 Y166.582 E0.01188
G1 X128.753 Y166.583 E0.33899
G1 X128.393 Y166.527 E0.01328
G1 X128.016 Y166.376 E0.01484
G1 X127.844 Y166.26 E0.00757
G1 X127.661 Y166.098 E0.00889
G1 X127.484 Y165.874 E0.01043
G1 X127.305 Y165.522 E0.01441
G1 X127.256 Y165.348 E0.0066
G1 X127.227 Y165.141 E0.00762
G1 X127.217 Y155.86 E0.33863
G1 X129.883 Y155.86 E0.09728
G1 X129.882 Y161.511 E0.2062
G1 X129.902 Y161.806 E0.01079
G1 X129.962 Y162.111 E0.01133
G1 X130.062 Y162.419 E0.01181
G1 X130.292 Y162.85 E0.01782
G1 X130.611 Y163.233 E0.01819
G1 X130.996 Y163.538 E0.01792
G1 X131.288 Y163.695 E0.01209
G1 X131.584 Y163.81 E0.01159
G1 X131.875 Y163.88 E0.01094
G1 X132.15 Y163.912 E0.0101
G1 X134.513 Y163.918 E0.08623
G1 X134.85 Y163.891 E0.01233
G1 X135.152 Y163.83 E0.01124
G1 X135.595 Y163.658 E0.01734
G1 X135.883 Y163.483 E0.0123
G1 X136.141 Y163.274 E0.01212
G1 X136.375 Y163.029 E0.01234
G1 X136.645 Y162.62 E0.01787
G1 X136.778 Y162.309 E0.01237
G1 X136.867 Y161.989 E0.01211
G1 X136.913 Y161.663 E0.01199
G1 X136.918 Y138.488 E0.84557
G1 X136.896 Y138.164 E0.01184
G1 X136.826 Y137.835 E0.01227
G1 X136.709 Y137.518 E0.01232
G1 X136.552 Y137.223 E0.0122
G1 X136.358 Y136.951 E0.01219
G1 X136.125 Y136.71 E0.01224
G1 X135.862 Y136.503 E0.0122
G1 X135.568 Y136.329 E0.01249
G1 X135.077 Y136.152 E0.01902
G1 X134.791 Y136.101 E0.01061
G1 X134.511 Y136.082 E0.01023
G1 X129.511 Y136.082 E0.18243
G1 X129.436 Y136.052 E0.00294
G1 X129.417 Y135.963 E0.00333
G1 X129.417 Y132.86 E0.11323
G1 X144.65 Y132.85 E0.5558
G1 X144.65 Y135.882 E0.11064
G1 X139.583 Y135.883 E0.18487
G1 X139.583 Y159.017 E0.84405
;WIPE_START
M204 S3000
G1 X139.583 Y159.417 F9000
;WIPE_END
M204 S1000
G1 X138.278 Y160.3
;TYPE:Gap fill
;WIDTH:0.44144
G1 F1800
G1 X138.459 Y160.3 E0.00574
;WIDTH:0.360084
G1 X142.75 Y160.3 E0.10864
G1 X147.041 Y160.3 E0.10864
;WIDTH:0.400152
G1 X147.189 Y160.346 E0.00441
;WIDTH:0.547685
G1 X147.249 Y160.458 E0.00514
;WIDTH:0.459328
G1 X147.25 Y161.844 E0.04606
G1 X147.25 Y163.23 E0.04606
;WIDTH:0.396338
G1 X147.228 Y163.391 E0.00458
;WIDTH:0.333773
G1 X147.198 Y163.6 E0.00491
G1 E-0.8 F3000
G1 X138.6 Y163.983 F9000
G1 E0.8 F1800
;TYPE:Solid infill
;WIDTH:0.52135
G1 F2400
G1 X137.545 Y162.928 E0.05673
G1 X137.314 Y163.344 F9000
G1 F2400
G1 X138.6 Y164.629 E0.06915
G1 X138.523 Y165.199 F9000
G1 F2400
G1 X137.054 Y163.73 E0.07903
G1 X136.718 Y164.041 F9000
G1 F2400
G1 X138.223 Y165.545 E0.08095
G1 X137.631 Y165.599 F9000
G1 F2400
G1 X136.369 Y164.337 E0.06789
G1 X135.967 Y164.581 F9000
G1 F2400
G1 X136.984 Y165.599 E0.05476
G1 X135.941 Y165.091 F9000
;TYPE:Gap fill
;WIDTH:0.743148
G1 F1800
G1 X135.797 Y165.126 E0.0083
;WIDTH:0.657972
G1 X135.652 Y165.161 E0.00729
;WIDTH:0.613711
G1 X135.525 Y165.182 E0.00589
G1 X135.289 Y165.206 E0.01083
;WIDTH:0.497794
G1 X135.052 Y165.23 E0.00863
G1 X135.024 Y165.232 E0.00101
G1 X134.798 Y165.241 E0.00821
;WIDTH:0.458608
G1 X134.572 Y165.25 E0.0075
G1 X134.556 Y165.25 E0.00055
G1 X132.081 Y165.247 E0.0821
G1 X132.057 Y165.247 E0.00082
G1 X131.853 Y165.234 E0.00678
;WIDTH:0.513604
G1 X131.649 Y165.222 E0.00768
G1 X131.621 Y165.22 E0.00104
G1 X131.511 Y165.207 E0.00418
;WIDTH:0.553274
G1 X131.401 Y165.194 E0.00453
;WIDTH:0.588061
G1 X131.29 Y165.181 E0.00484
;WIDTH:0.621593
G1 X131.143 Y165.162 E0.00687
;WIDTH:0.587436
G1 X131.006 Y165.14 E0.00602
;WIDTH:0.686414
G1 X130.869 Y165.118 E0.00711
G1 X130.802 Y165.4 F9000
;TYPE:Solid infill
;WIDTH:0.575582
G1 F2400
G1 X128.414 Y163.013 E0.14184
G1 X128.207 Y163.452 F9000
G1 F2400
G1 X130.355 Y165.6 E0.12757
G1 X129.709 Y165.6 F9000
G1 F2400
G1 X128.208 Y164.099 E0.08913
G1 X128.209 Y164.746 F9000
G1 F2400
G1 X129.062 Y165.6 E0.0507
G1 E-0.8 F3000
G1 X128.703 Y162.929 F9000
G1 E0.8 F1800
;TYPE:Gap fill
;WIDTH:0.718979
G1 X128.673 Y162.785 E0.00794
;WIDTH:0.64839
G1 X128.643 Y162.641 E0.00711
;WIDTH:0.600196
G1 X128.613 Y162.446 E0.00879
;WIDTH:0.57112
G1 X128.59 Y162.221 E0.00954
;WIDTH:0.483186
G1 X128.568 Y161.996 E0.00795
G1 X128.566 Y161.967 E0.00101
G1 X128.56 Y161.764 E0.00714
;WIDTH:0.45344
G1 X128.553 Y161.561 E0.00665
G1 X128.553 Y161.548 E0.00044
G1 X128.552 Y159.37 E0.07137
G1 X128.551 Y157.192 E0.07137
G1 X128.551 Y157.088 E0.0034
G1 X128.551 Y156.985 E0.0034
G1 E-0.8 F3000
G1 X138.116 Y162.952 F9000
G1 E0.8 F1800
;WIDTH:0.674797
G1 X138.143 Y162.778 E0.0089
;WIDTH:0.62397
G1 X138.159 Y162.656 E0.00571
G1 X138.185 Y162.471 E0.00865
;WIDTH:0.532754
G1 X138.21 Y162.286 E0.0073
G1 X138.213 Y162.254 E0.00129
G1 X138.23 Y162.012 E0.00945
;WIDTH:0.459563
G1 X138.247 Y161.771 E0.00804
G1 X138.248 Y161.742 E0.00098
G1 X138.248 Y161.1 E0.02135
G1 X138.248 Y160.458 E0.02135
G1 X138.278 Y160.3 E0.00536
G1 X138.248 Y160.141 E0.00538
G1 X138.25 Y138.45 E0.72141
M73 P5 R12
G1 X138.25 Y138.436 E0.00047
G1 X138.243 Y138.215 E0.00735
;WIDTH:0.493428
G1 X138.235 Y137.994 E0.00795
G1 X138.22 Y137.838 E0.00563
;WIDTH:0.528513
G1 X138.207 Y137.714 E0.00485
;WIDTH:0.563201
G1 X138.194 Y137.59 E0.00519
;WIDTH:0.597889
G1 X138.181 Y137.465 E0.00554
;WIDTH:0.630602
G1 X138.165 Y137.365 E0.00475
G1 X138.133 Y137.222 E0.00689
;WIDTH:0.68937
G1 X138.101 Y137.078 E0.00758
G1 E-0.8 F3000
G1 X138.4 Y134.761 F9000
G1 E0.8 F1800
;TYPE:Solid infill
;WIDTH:0.480375
G1 F2400
G1 X137.476 Y133.837 E0.04578
G1 X136.83 Y133.838 F9000
G1 F2400
G1 X138.6 Y135.608 E0.08776
G1 X138.6 Y136.254 F9000
G1 F2400
G1 X136.184 Y133.838 E0.11978
G1 X135.538 Y133.839 F9000
G1 F2400
G1 X138.6 Y136.901 E0.1518
G1 X138.107 Y137.054 F9000
G1 F2400
G1 X134.892 Y133.839 E0.15936
G1 X134.246 Y133.839 F9000
G1 F2400
G1 X135.761 Y135.354 E0.07508
G1 X134.906 Y135.145 F9000
G1 F2400
G1 X133.6 Y133.84 E0.06472
G1 X132.954 Y133.84 F9000
G1 F2400
G1 X134.214 Y135.1 E0.06244
G1 X133.567 Y135.1 F9000
G1 F2400
G1 X132.308 Y133.841 E0.06242
G1 X131.662 Y133.841 F9000
G1 F2400
G1 X132.921 Y135.1 E0.0624
G1 X132.274 Y135.1 F9000
G1 F2400
G1 X131.016 Y133.842 E0.06237
G1 X130.4 Y133.871 F9000
G1 F2400
G1 X131.628 Y135.1 E0.06089
G1 X130.982 Y135.1 F9000
G1 F2400
G1 X130.4 Y134.518 E0.02884
G1 E-0.8 F3000
G1 X138.422 Y134.369 F9000
G1 E0.8 F1800
;TYPE:Gap fill
;WIDTH:0.825402
G1 X138.617 Y134.369 E0.01218
G1 X138.812 Y134.369 E0.01218
G1 X140.973 Y134.368 E0.13497
G1 X143.134 Y134.367 E0.13497
G1 X143.33 Y134.367 E0.01222
G1 X143.525 Y134.367 E0.01222
G1 E-0.8 F3000
; stop printing object Skadis_Universal_Hook(5).stl id:0 copy 0
EXCLUDE_OBJECT_END NAME=Skadis_Universal_Hook_5_stl_id_0_copy_0
; printing object Skadis_Universal_Hook(5).stl id:1 copy 0
EXCLUDE_OBJECT_START NAME=Skadis_Universal_Hook_5_stl_id_1_copy_0
G1 X167.869 Y159.931 F9000
G1 E0.8 F1800
;TYPE:Internal perimeter
;WIDTH:0.5
G1 X176.868 Y159.932 E0.32835
G1 X176.868 Y163.293 E0.12265
G1 X176.847 Y163.414 E0.00446
G1 X176.031 Y164.326 E0.04465
G1 X176.031 Y160.669 E0.13344
G1 X167.869 Y160.669 E0.29778
G1 X167.868 Y164.996 E0.15788
G1 X167.848 Y165.14 E0.00531
G1 X167.793 Y165.295 E0.006
G1 X167.721 Y165.411 E0.00499
G1 X167.575 Y165.544 E0.0072
G1 X167.443 Y165.616 E0.00549
G1 X167.36 Y165.643 E0.00318
G1 X167.181 Y165.668 E0.00657
G1 X158.023 Y165.668 E0.33416
G1 X157.836 Y165.64 E0.00688
G1 X157.663 Y165.57 E0.00683
G1 X157.52 Y165.457 E0.00664
G1 X157.457 Y165.378 E0.00366
G1 X157.369 Y165.204 E0.00714
G1 X157.341 Y165.064 E0.00522
G1 X157.332 Y156.774 E0.30245
