; generated by SuperSlicer 2.4 on 2022-11-15 at 21:24:04 UTC


;
;

;
;
; 

; external perimeters extrusion width = 0.40mm
; perimeters extrusion width = 0.46mm
; infill extrusion width = 0.64mm
; solid infill extrusion width = 0.56mm
; top infill extrusion width = 0.40mm
; support material extrusion width = 0.46mm
; first layer extrusion width = 0.50mm

; external perimeters extrusion width = 0.40mm
; perimeters extrusion width = 0.46mm
; infill extrusion width = 0.64mm
; solid infill extrusion width = 0.56mm
; top infill extrusion width = 0.40mm
; support material extrusion width = 0.46mm
; first layer extrusion width = 0.50mm

; external perimeters extrusion width = 0.40mm
; perimeters extrusion width = 0.46mm
; infill extrusion width = 0.64mm
; solid infill extrusion width = 0.56mm
; top infill extrusion width = 0.40mm
; support material extrusion width = 0.46mm
; first layer extrusion width = 0.50mm

; external perimeters extrusion width = 0.40mm
; perimeters extrusion width = 0.46mm
; infill extrusion width = 0.64mm
; solid infill extrusion width = 0.56mm
; top infill extrusion width = 0.40mm
; support material extrusion width = 0.46mm
; first layer extrusion width = 0.50mm

; object:{"name":"Ikea_Skådis_-_holder_for_caliper","id":"Ikea_Skådis_-_holder_for_caliper.stl id:0 copy 0","object_center":[153.081009,150.884068,0.000000],"boundingbox_center":[153.081009,150.884068,15.682597],"boundingbox_size":[42.173032,61.119877,31.365194]}
; object:{"name":"TS100","id":"TS100.stl id:1 copy 0","object_center":[117.150118,157.027225,0.000000],"boundingbox_center":[117.150118,157.027225,7.500000],"boundingbox_size":[20.053486,38.581612,15.000000]}
; object:{"name":"TS100_tip_holder","id":"TS100_tip_holder.stl id:2 copy 0","object_center":[187.667522,150.884069,0.000000],"boundingbox_center":[187.667522,150.884069,10.000000],"boundingbox_size":[15.000000,30.000000,20.000000]}
; object:{"name":"better_TS100_skadis_","id":"better_TS100_skadis_.stl id:3 copy 0","object_center":[187.227626,124.930994,0.000000],"boundingbox_center":[187.227626,124.930994,10.375000],"boundingbox_size":[21.297999,12.750000,20.750000]}
; plater:{"center":[152.500000,150.000000,0.000000],"boundingbox_center":[152.500000,150.000000,15.682597],"boundingbox_size":[90.753251,62.888013,31.365194]}

M73 P0 R93


; Pre-Processed for Cancel-Object support by preprocess_cancellation v0.2.0
; 4 known objects
EXCLUDE_OBJECT_DEFINE NAME=Ikea_Skådis___holder_for_caliper_stl_id_0_copy_0 CENTER=149.784,148.780 POLYGON=[[132.223,120.324],[132.223,181.244],[173.966,181.244],[173.966,120.324]]
EXCLUDE_OBJECT_DEFINE NAME=TS100_tip_holder_stl_id_2_copy_0 CENTER=187.731,144.585 POLYGON=[[180.368,136.085],[180.368,170.699],[194.967,170.699],[194.967,136.085]]
EXCLUDE_OBJECT_DEFINE NAME=better_TS100_skadis__stl_id_3_copy_0 CENTER=190.203,124.881 POLYGON=[[170.829,118.756],[170.829,131.106],[200.209,131.106],[200.209,118.756]]
EXCLUDE_OBJECT_DEFINE NAME=TS100_stl_id_1_copy_0 CENTER=117.168,164.011 POLYGON=[[107.323,133.795],[107.323,176.118],[126.976,176.118],[126.976,133.795]]
;TYPE:Custom
START_PRINT T_BED=60 T_EXTRUDER=200
M107
G21 ; set units to millimeters
G90 ; use absolute coordinates
M83 ; use relative distances for extrusion
; Filament gcode
;_TOOLCHANGE 0
M104 S200 ; set temperature
M109 S200 ; set temperature and wait for it to be reached
M190 S60 ; set bed temperature and wait for it to be reached
M107
;LAYER_CHANGE
;Z:0.2
;HEIGHT:0.2
G1 Z0.2 F9000
G92 E0
G1 E-0.8 F3000
M204 S1000
G1 X108.229 Y131.323 F9000
G1 E0.8 F1800
;TYPE:Skirt
;WIDTH:0.52
G1 X107.415 Y132.83 E0.06657
G1 X103.635 Y146.889 E0.56596
G1 X103.508 Y147.854 E0.03783
G1 X103.508 Y162.751 E0.57916
G1 X103.578 Y164.296 E0.06012
G1 X103.881 Y166.854 E0.10014
G1 X104.457 Y169.548 E0.1071
G1 X105.353 Y172.342 E0.11405
G1 X106.451 Y174.868 E0.1071
G1 X107.09 Y176.089 E0.05356
G1 X108.411 Y178.24 E0.09813
G1 X109.412 Y179.272 E0.05593
G1 X111.007 Y179.897 E0.06657
G1 X144.045 Y184.577 E1.2972
G1 X162.002 Y185.058 E0.69836
M73 P0 R93
G1 X168.968 Y185.06 E0.27079
G1 X170.431 Y184.759 E0.05807
G1 X195.278 Y174.115 E1.05086
G1 X196.828 Y172.873 E0.07719
G1 X197.483 Y171.291 E0.06657
G1 X203.924 Y131.078 E1.58326
G1 X203.924 Y118.784 E0.47794
G1 X203.263 Y116.668 E0.08618
G1 X201.99 Y115.523 E0.06657
G1 X200.338 Y115.071 E0.06657
G1 X196.162 Y114.925 E0.16245
G1 X170.631 Y115.074 E0.99254
G1 X134.973 Y116.977 E1.38822
G1 X133.4 Y117.421 E0.06356
G1 X109.232 Y130.529 E1.06884
G1 X108.229 Y131.323 E0.04975
G1 X108.657 Y131.564 F9000
G1 F1800
G1 X107.876 Y132.954 E0.06199
G1 X104.096 Y147.013 E0.56596
G1 X103.985 Y147.854 E0.03297
G1 X103.985 Y162.751 E0.57916
G1 X104.053 Y164.252 E0.05838
G1 X104.353 Y166.787 E0.09925
G1 X104.961 Y169.586 E0.11137
G1 X105.796 Y172.164 E0.10531
G1 X106.874 Y174.648 E0.10531
G1 X107.502 Y175.849 E0.05267
G1 X108.811 Y177.98 E0.09723
G1 X109.597 Y178.818 E0.04463
G1 X111.074 Y179.425 E0.06209
G1 X144.112 Y184.105 E1.2972
G1 X162.014 Y184.581 E0.69622
G1 X168.968 Y184.583 E0.27032
G1 X170.243 Y184.321 E0.05061
G1 X195.09 Y173.676 E1.05086
G1 X196.376 Y172.681 E0.06324
G1 X197.012 Y171.215 E0.06209
G1 X203.447 Y131.078 E1.58031
G1 X203.447 Y118.784 E0.47794
G1 X202.987 Y117.121 E0.06709
G1 X201.855 Y115.995 E0.06209
G1 X200.321 Y115.547 E0.06209
G1 X196.145 Y115.402 E0.16245
G1 X170.657 Y115.55 E0.99091
G1 X134.999 Y117.453 E1.38822
G1 X133.627 Y117.84 E0.0554
G1 X109.459 Y130.948 E1.06884
G1 X108.657 Y131.564 E0.03933
G1 E-0.8 F3000
; printing object Ikea_Skådis_-_holder_for_caliper.stl id:0 copy 0
EXCLUDE_OBJECT_START NAME=Ikea_Skådis___holder_for_caliper_stl_id_0_copy_0
G1 X143.517 Y148.154 F9000
G1 E0.8 F1800
;TYPE:Support material
;WIDTH:0.5
G1 X146.934 Y148.154 E0.12727
G1 X146.934 Y137.903 E0.38182
G1 X150.351 Y137.903 E0.12727
G1 X150.351 Y134.486 E0.12727
G1 X159.228 Y134.486 E0.33063
G1 X159.228 Y137.903 E0.12727
G1 X161.018 Y137.903 E0.06667
G1 X161.018 Y150.636 E0.47424
G1 X161.018 Y151.133 E0.01851
G1 X161.018 Y153.614 E0.09242
G1 X155.811 Y153.614 E0.19394
G1 X155.811 Y163.865 E0.38182
G1 X152.394 Y163.865 E0.12727
G1 X152.394 Y167.282 E0.12727
G1 X148.977 Y167.282 E0.12727
G1 X148.977 Y170.699 E0.12727
G1 X140.1 Y170.699 E0.33063
G1 X140.1 Y154.988 E0.58518
G1 X143.517 Y154.988 E0.12727
G1 X143.517 Y148.154 E0.25455
G1 X160.699 Y153.5 F9000
G1 F1800
G1 X160.699 Y138.214 E0.56934
G1 X160.191 Y138.214 E0.01892
G1 X160.191 Y153.303 E0.56202
G1 X159.683 Y153.303 E0.01892
G1 X159.683 Y138.214 E0.56202
G1 X159.175 Y138.214 E0.01892
G1 X159.175 Y153.303 E0.56202
G1 X158.668 Y153.303 E0.01892
G1 X158.668 Y134.797 E0.6893
G1 X158.16 Y134.797 E0.01892
G1 X158.16 Y153.303 E0.6893
G1 X157.652 Y153.303 E0.01892
G1 X157.652 Y134.797 E0.6893
G1 X157.144 Y134.797 E0.01892
G1 X157.144 Y153.303 E0.6893
G1 X156.636 Y153.303 E0.01892
G1 X156.636 Y134.797 E0.6893
G1 X156.128 Y134.797 E0.01892
G1 X156.128 Y153.303 E0.6893
G1 X155.62 Y153.303 E0.01892
G1 X155.62 Y134.797 E0.6893
G1 X155.112 Y134.797 E0.01892
G1 X155.112 Y163.554 E1.07111
G1 X154.605 Y163.554 E0.01892
G1 X154.605 Y134.797 E1.07111
M73 P1 R93
G1 X154.097 Y134.797 E0.01892
G1 X154.097 Y163.554 E1.07111
G1 X153.589 Y163.554 E0.01892
G1 X153.589 Y134.797 E1.07111
G1 X153.081 Y134.797 E0.01892
G1 X153.081 Y163.554 E1.07111
G1 X152.573 Y163.554 E0.01892
G1 X152.573 Y134.797 E1.07111
G1 X152.065 Y134.797 E0.01892
G1 X152.065 Y166.971 E1.19839
G1 X151.557 Y166.971 E0.01892
G1 X151.557 Y134.797 E1.19839
G1 X151.05 Y134.797 E0.01892
G1 X151.05 Y166.971 E1.19839
G1 X150.542 Y166.971 E0.01892
G1 X150.542 Y138.214 E1.07111
G1 X150.034 Y138.214 E0.01892
G1 X150.034 Y166.971 E1.07111
G1 X149.526 Y166.971 E0.01892
G1 X149.526 Y138.214 E1.07111
G1 X149.018 Y138.214 E0.01892
G1 X149.018 Y166.971 E1.07111
G1 X148.666 Y166.971 E0.01312
G1 X148.666 Y170.388 E0.12727
G1 X148.51 Y170.388 E0.0058
G1 X148.51 Y138.214 E1.19839
G1 X148.002 Y138.214 E0.01892
G1 X148.002 Y170.388 E1.19839
G1 X147.494 Y170.388 E0.01892
G1 X147.494 Y138.214 E1.19839
G1 X147.245 Y138.214 E0.0093
G1 X147.245 Y148.465 E0.38182
G1 X146.987 Y148.465 E0.00962
G1 X146.987 Y170.388 E0.81657
G1 X146.479 Y170.388 E0.01892
G1 X146.479 Y148.465 E0.81657
G1 X145.971 Y148.465 E0.01892
G1 X145.971 Y170.388 E0.81657
G1 X145.463 Y170.388 E0.01892
G1 X145.463 Y148.465 E0.81657
G1 X144.955 Y148.465 E0.01892
G1 X144.955 Y170.388 E0.81657
G1 X144.447 Y170.388 E0.01892
G1 X144.447 Y148.465 E0.81657
G1 X143.939 Y148.465 E0.01892
G1 X143.939 Y170.388 E0.81657
G1 X143.432 Y170.388 E0.01892
G1 X143.432 Y155.299 E0.56202
G1 X142.924 Y155.299 E0.01892
G1 X142.924 Y170.388 E0.56202
G1 X142.416 Y170.388 E0.01892
G1 X142.416 Y155.299 E0.56202
G1 X141.908 Y155.299 E0.01892
G1 X141.908 Y170.388 E0.56202
G1 X141.4 Y170.388 E0.01892
G1 X141.4 Y155.299 E0.56202
G1 X140.892 Y155.299 E0.01892
G1 X140.892 Y170.585 E0.56934
G1 E-0.8 F3000
G1 X167.803 Y180.18 F9000
G1 E0.8 F1800
;TYPE:Internal perimeter
G1 X163.261 Y180.18 E0.1692
G1 X163.261 Y121.588 E2.18231
G1 X167.803 Y121.588 E0.1692
G1 X167.803 Y149.643 E1.04493
G1 X168.003 Y149.643 E0.00745
G1 X168.003 Y151.715 E0.07716
G1 X167.803 Y151.715 E0.00745
G1 X167.803 Y180.18 E1.06022
G1 X168.26 Y180.637 F9000
G1 F1800
G1 X162.804 Y180.637 E0.20325
G1 X162.804 Y121.131 E2.21636
M73 P1 R92
G1 X168.26 Y121.131 E0.20325
G1 X168.26 Y149.186 E1.04493
G1 X168.46 Y149.186 E0.00745
G1 X168.46 Y152.172 E0.11121
G1 X168.26 Y152.172 E0.00745
G1 X168.26 Y180.637 E1.06022
G1 E-0.8 F3000
G1 X168.718 Y120.816 F9000
G1 E0.8 F1800
;TYPE:External perimeter
G1 X168.718 Y148.729 E1.03964
G1 X168.918 Y148.729 E0.00745
G1 X168.918 Y152.629 E0.14526
G1 X168.718 Y152.629 E0.00745
G1 X168.718 Y181.094 E1.06022
G1 X162.346 Y181.094 E0.2373
G1 X162.346 Y120.674 E2.25041
G1 X168.718 Y120.674 E0.2373
G1 X168.718 Y120.816 E0.0053
;WIPE_START
M204 S3000
G1 X168.371 Y121.016 F9000
;WIPE_END
M204 S1000
G1 X166.811 Y121.657
;TYPE:Solid infill
;WIDTH:0.48732
G1 F2400
G1 X167.735 Y122.581 E0.04744
G1 X167.735 Y123.227 F9000
G1 F2400
G1 X166.164 Y121.657 E0.08062
G1 X165.518 Y121.657 F9000
G1 F2400
G1 X167.735 Y123.874 E0.11381
G1 X167.735 Y124.52 F9000
G1 F2400
G1 X164.872 Y121.657 E0.14699
G1 X164.225 Y121.657 F9000
G1 F2400
G1 X167.735 Y125.166 E0.18018
G1 X167.735 Y125.813 F9000
G1 F2400
G1 X163.579 Y121.657 E0.21336
G1 X163.329 Y122.054 F9000
G1 F2400
G1 X167.735 Y126.459 E0.22618
G1 X167.735 Y127.106 F9000
G1 F2400
G1 X163.329 Y122.7 E0.22618
G1 X163.329 Y123.346 F9000
G1 F2400
G1 X167.735 Y127.752 E0.22618
G1 X167.735 Y128.398 F9000
G1 F2400
G1 X163.329 Y123.993 E0.22618
G1 X163.329 Y124.639 F9000
G1 F2400
G1 X167.735 Y129.045 E0.22618
G1 X167.735 Y129.691 F9000
G1 F2400
G1 X163.329 Y125.286 E0.22618
G1 X163.329 Y125.932 F9000
G1 F2400
G1 X167.735 Y130.338 E0.22618
G1 X167.735 Y130.984 F9000
G1 F2400
G1 X163.329 Y126.578 E0.22618
G1 X163.329 Y127.225 F9000
G1 F2400
G1 X167.735 Y131.63 E0.22618
G1 X167.735 Y132.277 F9000
G1 F2400
G1 X163.329 Y127.871 E0.22618
G1 X163.329 Y128.518 F9000
G1 F2400
G1 X167.735 Y132.923 E0.22618
G1 X167.735 Y133.57 F9000
G1 F2400
G1 X163.329 Y129.164 E0.22618
G1 X163.329 Y129.81 F9000
G1 F2400
G1 X167.735 Y134.216 E0.22618
G1 X167.735 Y134.863 F9000
G1 F2400
G1 X163.329 Y130.457 E0.22618
G1 X163.329 Y131.103 F9000
G1 F2400
G1 X167.735 Y135.509 E0.22618
G1 X167.735 Y136.155 F9000
G1 F2400
G1 X163.329 Y131.75 E0.22618
G1 X163.329 Y132.396 F9000
G1 F2400
G1 X167.735 Y136.802 E0.22618
G1 X167.735 Y137.448 F9000
G1 F2400
G1 X163.329 Y133.042 E0.22618
G1 X163.329 Y133.689 F9000
G1 F2400
G1 X167.735 Y138.095 E0.22618
G1 X167.735 Y138.741 F9000
G1 F2400
G1 X163.329 Y134.335 E0.22618
G1 X163.329 Y134.982 F9000
G1 F2400
G1 X167.735 Y139.387 E0.22618
G1 X167.735 Y140.034 F9000
G1 F2400
G1 X163.329 Y135.628 E0.22618
G1 X163.329 Y136.275 F9000
G1 F2400
G1 X167.735 Y140.68 E0.22618
G1 X167.735 Y141.327 F9000
G1 F2400
G1 X163.329 Y136.921 E0.22618
G1 X163.329 Y137.567 F9000
G1 F2400
G1 X167.735 Y141.973 E0.22618
G1 X167.735 Y142.619 F9000
G1 F2400
G1 X163.329 Y138.214 E0.22618
G1 X163.329 Y138.86 F9000
G1 F2400
G1 X167.735 Y143.266 E0.22618
G1 X167.735 Y143.912 F9000
G1 F2400
G1 X163.329 Y139.507 E0.22618
G1 X163.329 Y140.153 F9000
G1 F2400
G1 X167.735 Y144.559 E0.22618
G1 X167.735 Y145.205 F9000
G1 F2400
G1 X163.329 Y140.799 E0.22618
G1 X163.329 Y141.446 F9000
G1 F2400
G1 X167.735 Y145.851 E0.22618
G1 X167.735 Y146.498 F9000
G1 F2400
G1 X163.329 Y142.092 E0.22618
G1 X163.329 Y142.739 F9000
G1 F2400
G1 X167.735 Y147.144 E0.22618
G1 X167.735 Y147.791 F9000
G1 F2400
G1 X163.329 Y143.385 E0.22618
G1 X163.329 Y144.031 F9000
G1 F2400
G1 X167.735 Y148.437 E0.22618
G1 X167.735 Y149.083 F9000
G1 F2400
G1 X163.329 Y144.678 E0.22618
G1 X163.329 Y145.324 F9000
G1 F2400
G1 X167.935 Y149.93 E0.23645
G1 X167.935 Y150.576 F9000
G1 F2400
G1 X163.329 Y145.971 E0.23645
G1 X163.329 Y146.617 F9000
G1 F2400
G1 X167.935 Y151.223 E0.23645
G1 X167.735 Y151.669 F9000
G1 F2400
G1 X163.329 Y147.263 E0.22618
G1 X163.329 Y147.91 F9000
G1 F2400
G1 X167.735 Y152.316 E0.22618
G1 X167.735 Y152.962 F9000
G1 F2400
G1 X163.329 Y148.556 E0.22618
G1 X163.329 Y149.203 F9000
G1 F2400
G1 X167.735 Y153.608 E0.22618
G1 X167.735 Y154.255 F9000
G1 F2400
G1 X163.329 Y149.849 E0.22618
G1 X163.329 Y150.495 F9000
G1 F2400
G1 X167.735 Y154.901 E0.22618
G1 X167.735 Y155.548 F9000
G1 F2400
G1 X163.329 Y151.142 E0.22618
G1 X163.329 Y151.788 F9000
G1 F2400
G1 X167.735 Y156.194 E0.22618
G1 X167.735 Y156.84 F9000
G1 F2400
G1 X163.329 Y152.435 E0.22618
G1 X163.329 Y153.081 F9000
G1 F2400
G1 X167.735 Y157.487 E0.22618
G1 X167.735 Y158.133 F9000
G1 F2400
G1 X163.329 Y153.728 E0.22618
G1 X163.329 Y154.374 F9000
G1 F2400
G1 X167.735 Y158.78 E0.22618
G1 X167.735 Y159.426 F9000
G1 F2400
G1 X163.329 Y155.02 E0.22618
G1 X163.329 Y155.667 F9000
G1 F2400
G1 X167.735 Y160.072 E0.22618
G1 X167.735 Y160.719 F9000
G1 F2400
G1 X163.329 Y156.313 E0.22618
G1 X163.329 Y156.96 F9000
G1 F2400
G1 X167.735 Y161.365 E0.22618
G1 X167.735 Y162.012 F9000
G1 F2400
G1 X163.329 Y157.606 E0.22618
G1 X163.329 Y158.252 F9000
G1 F2400
G1 X167.735 Y162.658 E0.22618
G1 X167.735 Y163.304 F9000
G1 F2400
G1 X163.329 Y158.899 E0.22618
G1 X163.329 Y159.545 F9000
G1 F2400
G1 X167.735 Y163.951 E0.22618
G1 X167.735 Y164.597 F9000
G1 F2400
G1 X163.329 Y160.192 E0.22618
G1 X163.329 Y160.838 F9000
G1 F2400
G1 X167.735 Y165.244 E0.22618
G1 X167.735 Y165.89 F9000
G1 F2400
G1 X163.329 Y161.484 E0.22618
G1 X163.329 Y162.131 F9000
G1 F2400
G1 X167.735 Y166.536 E0.22618
G1 X167.735 Y167.183 F9000
G1 F2400
G1 X163.329 Y162.777 E0.22618
G1 X163.329 Y163.424 F9000
G1 F2400
G1 X167.735 Y167.829 E0.22618
G1 X167.735 Y168.476 F9000
G1 F2400
G1 X163.329 Y164.07 E0.22618
G1 X163.329 Y164.716 F9000
G1 F2400
G1 X167.735 Y169.122 E0.22618
G1 X167.735 Y169.769 F9000
G1 F2400
G1 X163.329 Y165.363 E0.22618
G1 X163.329 Y166.009 F9000
G1 F2400
G1 X167.735 Y170.415 E0.22618
G1 X167.735 Y171.061 F9000
G1 F2400
G1 X163.329 Y166.656 E0.22618
M73 P2 R92
G1 X163.329 Y167.302 F9000
G1 F2400
G1 X167.735 Y171.708 E0.22618
G1 X167.735 Y172.354 F9000
G1 F2400
G1 X163.329 Y167.948 E0.22618
G1 X163.329 Y168.595 F9000
G1 F2400
G1 X167.735 Y173.001 E0.22618
G1 X167.735 Y173.647 F9000
G1 F2400
G1 X163.329 Y169.241 E0.22618
G1 X163.329 Y169.888 F9000
G1 F2400
G1 X167.735 Y174.293 E0.22618
G1 X167.735 Y174.94 F9000
G1 F2400
G1 X163.329 Y170.534 E0.22618
G1 X163.329 Y171.18 F9000
G1 F2400
G1 X167.735 Y175.586 E0.22618
G1 X167.735 Y176.233 F9000
G1 F2400
G1 X163.329 Y171.827 E0.22618
G1 X163.329 Y172.473 F9000
G1 F2400
G1 X167.735 Y176.879 E0.22618
G1 X167.735 Y177.525 F9000
G1 F2400
G1 X163.329 Y173.12 E0.22618
G1 X163.329 Y173.766 F9000
G1 F2400
G1 X167.735 Y178.172 E0.22618
G1 X167.735 Y178.818 F9000
G1 F2400
G1 X163.329 Y174.413 E0.22618
G1 X163.329 Y175.059 F9000
G1 F2400
G1 X167.735 Y179.465 E0.22618
G1 X167.735 Y180.111 F9000
G1 F2400
G1 X163.329 Y175.705 E0.22618
G1 X163.329 Y176.352 F9000
G1 F2400
G1 X167.089 Y180.111 E0.19301
G1 X166.442 Y180.111 F9000
G1 F2400
G1 X163.329 Y176.998 E0.15982
G1 X163.329 Y177.645 F9000
G1 F2400
G1 X165.796 Y180.111 E0.12664
