; generated by SuperSlicer 2.3.57 on 2022-04-01 at 17:20:24 UTC


;
;

;
;
; 

; external perimeters extrusion width = 0.15mm
; perimeters extrusion width = 0.17mm
; infill extrusion width = 0.27mm
; solid infill extrusion width = 0.21mm
; top infill extrusion width = 0.15mm
; support material extrusion width = 0.16mm
; first layer extrusion width = 0.18mm

; object:{"name":"Untitled","id":"Untitled.stl id:0 copy 0","object_center":[165.000000,165.000000,0.000000],"boundingbox_center":[165.000000,165.000000,2.000000],"boundingbox_size":[53.990265,53.990295,4.000000]}
; plater:{"center":[165.000000,165.000000,0.000000],"boundingbox_center":[165.000000,165.000000,2.000000],"boundingbox_size":[53.990265,53.990295,4.000000]}

;TYPE:Custom
START_PRINT T_BED=60 T_EXTRUDER=230
M107
G21 ; set units to millimeters
G90 ; use absolute coordinates
M83 ; use relative distances for extrusion
; Filament gcode
M104 S230 ; set temperature
M109 S230 ; set temperature and wait for it to be reached
M190 S60 ; set bed temperature and wait for it to be reached
M107
;LAYER_CHANGE
;Z:0.1
;HEIGHT:0.1
G1 Z0.1 F9000
G1 E-0.8 F3000
G1 X143.496 Y143.886 F9000
G1 E0.8 F1800
; External perimeter
;Skirt
SET_VELOCITY_LIMIT ACCEL=300 ACCEL_TO_DECEL=3000 SQUARE_CORNER_VELOCITY=5

; Support material

;TYPE:Skirt
;WIDTH:0.18
G1 X142.085 Y145.427 E0.01377
G1 X140.957 Y146.829 E0.01186
G1 X139.868 Y148.367 E0.01242
G1 X138.821 Y150.071 E0.01318
G1 X137.978 Y151.656 E0.01183
G1 X137.196 Y153.371 E0.01242
G1 X136.488 Y155.241 E0.01318
G1 X135.956 Y156.956 E0.01183
G1 X135.509 Y158.791 E0.01245
G1 X135.178 Y160.65 E0.01245
G1 X134.973 Y162.435 E0.01184
G1 X134.868 Y164.431 E0.01318
G1 X134.891 Y166.316 E0.01242
G1 X135.024 Y168.107 E0.01184
G1 X135.295 Y170.088 E0.01318
G1 X135.671 Y171.934 E0.01242
G1 X136.138 Y173.672 E0.01186
G1 X136.808 Y175.651 E0.01377
G1 X137.491 Y177.311 E0.01183
G1 X138.279 Y178.935 E0.01189
G1 X139.306 Y180.748 E0.01374
G1 X140.288 Y182.251 E0.01184
G1 X141.417 Y183.766 E0.01245
G1 X142.639 Y185.206 E0.01245
G1 X143.884 Y186.501 E0.01184
G1 X145.427 Y187.915 E0.01379
G1 X146.829 Y189.043 E0.01186
G1 X148.367 Y190.132 E0.01242
G1 X150.071 Y191.179 E0.01318
G1 X151.656 Y192.023 E0.01184
G1 X153.371 Y192.804 E0.01242
G1 X155.241 Y193.512 E0.01318
G1 X156.956 Y194.044 E0.01184
G1 X158.791 Y194.491 E0.01245
G1 X160.651 Y194.822 E0.01245
G1 X162.435 Y195.027 E0.01184
G1 X164.431 Y195.132 E0.01317
G1 X166.316 Y195.109 E0.01242
G1 X168.107 Y194.976 E0.01184
G1 X170.088 Y194.705 E0.01317
G1 X171.934 Y194.329 E0.01242
G1 X173.677 Y193.86 E0.01189
G1 X175.651 Y193.192 E0.01374
G1 X177.311 Y192.509 E0.01184
G1 X178.935 Y191.721 E0.01189
G1 X180.748 Y190.694 E0.01374
G1 X182.251 Y189.712 E0.01184
G1 X183.766 Y188.583 E0.01245
G1 X185.206 Y187.361 E0.01245
G1 X186.501 Y186.116 E0.01184
G1 X187.912 Y184.577 E0.01376
G1 X189.043 Y183.171 E0.01189
G1 X190.132 Y181.633 E0.01242
G1 X191.179 Y179.929 E0.01318
G1 X192.022 Y178.344 E0.01183
G1 X192.804 Y176.629 E0.01242
G1 X193.512 Y174.759 E0.01318
G1 X194.044 Y173.044 E0.01184
G1 X194.491 Y171.209 E0.01245
G1 X194.822 Y169.35 E0.01245
G1 X195.027 Y167.565 E0.01184
G1 X195.132 Y165.569 E0.01317
G1 X195.109 Y163.684 E0.01242
G1 X194.976 Y161.893 E0.01184
G1 X194.705 Y159.912 E0.01317
G1 X194.329 Y158.066 E0.01242
G1 X193.86 Y156.323 E0.01189
G1 X193.192 Y154.349 E0.01374
G1 X192.509 Y152.689 E0.01183
G1 X191.721 Y151.065 E0.01189
G1 X190.694 Y149.252 E0.01374
G1 X189.712 Y147.749 E0.01183
G1 X188.583 Y146.234 E0.01245
G1 X187.361 Y144.794 E0.01245
G1 X186.114 Y143.496 E0.01186
G1 X184.574 Y142.085 E0.01377
G1 X183.171 Y140.957 E0.01186
G1 X181.633 Y139.868 E0.01242
G1 X179.929 Y138.821 E0.01318
G1 X178.344 Y137.977 E0.01184
G1 X176.625 Y137.195 E0.01245
G1 X174.861 Y136.521 E0.01245
G1 X173.146 Y135.985 E0.01184
G1 X171.205 Y135.508 E0.01318
G1 X169.349 Y135.178 E0.01242
G1 X167.561 Y134.973 E0.01186
G1 X165.515 Y134.867 E0.0135
G1 X163.68 Y134.891 E0.0121
G1 X161.889 Y135.025 E0.01183
G1 X159.908 Y135.296 E0.01318
G1 X158.066 Y135.671 E0.01239
G1 X156.323 Y136.14 E0.01189
G1 X154.345 Y136.81 E0.01377
G1 X152.685 Y137.493 E0.01184
G1 X150.986 Y138.319 E0.01245
G1 X149.342 Y139.249 E0.01245
G1 X147.836 Y140.229 E0.01184
G1 X146.162 Y141.477 E0.01376
G1 X144.791 Y142.642 E0.01186
G1 X143.512 Y143.871 E0.01169
G1 X143.622 Y143.985 F9000
G1 F1800
G1 X143.607 Y144 E0.00014
G1 X142.209 Y145.526 E0.01364
G1 X141.085 Y146.922 E0.01181
G1 X140.001 Y148.452 E0.01236
G1 X138.961 Y150.146 E0.0131
G1 X138.119 Y151.728 E0.01181
G1 X137.342 Y153.434 E0.01236
G1 X136.639 Y155.288 E0.01307
G1 X136.108 Y157 E0.01181
G1 X135.664 Y158.825 E0.01239
G1 X135.334 Y160.675 E0.01239
G1 X135.131 Y162.453 E0.0118
G1 X135.026 Y164.432 E0.01306
G1 X135.049 Y166.311 E0.01238
G1 X135.182 Y168.095 E0.0118
G1 X135.451 Y170.063 E0.01309
G1 X135.826 Y171.9 E0.01236
G1 X136.292 Y173.635 E0.01184
G1 X136.955 Y175.591 E0.01361
G1 X137.637 Y177.248 E0.01181
G1 X138.421 Y178.865 E0.01184
G1 X139.439 Y180.662 E0.01361
G1 X140.419 Y182.162 E0.01181
G1 X141.543 Y183.668 E0.01238
G1 X142.758 Y185.101 E0.01239
G1 X143.998 Y186.392 E0.0118
G1 X145.526 Y187.791 E0.01366
G1 X146.926 Y188.918 E0.01184
G1 X148.452 Y189.999 E0.01233
G1 X150.146 Y191.039 E0.0131
G1 X151.728 Y191.881 E0.01181
G1 X153.434 Y192.658 E0.01236
G1 X155.288 Y193.361 E0.01307
G1 X157 Y193.892 E0.01181
G1 X158.825 Y194.336 E0.01238
G1 X160.675 Y194.666 E0.01239
G1 X162.453 Y194.869 E0.0118
G1 X164.432 Y194.974 E0.01306
G1 X166.311 Y194.951 E0.01239
G1 X168.095 Y194.818 E0.0118
G1 X170.063 Y194.549 E0.01309
G1 X171.9 Y194.174 E0.01236
G1 X173.635 Y193.708 E0.01184
G1 X175.591 Y193.045 E0.01361
G1 X177.248 Y192.363 E0.01181
G1 X178.865 Y191.579 E0.01184
G1 X180.662 Y190.561 E0.01361
G1 X182.162 Y189.581 E0.01181
G1 X183.668 Y188.457 E0.01239
G1 X185.101 Y187.242 E0.01239
G1 X186.392 Y186.002 E0.0118
G1 X187.791 Y184.474 E0.01366
G1 X188.918 Y183.074 E0.01184
G1 X189.999 Y181.548 E0.01233
G1 X191.039 Y179.854 E0.0131
G1 X191.881 Y178.272 E0.01181
G1 X192.658 Y176.566 E0.01236
G1 X193.361 Y174.712 E0.01307
G1 X193.892 Y173 E0.01181
G1 X194.336 Y171.175 E0.01238
G1 X194.666 Y169.325 E0.01239
G1 X194.869 Y167.547 E0.0118
G1 X194.974 Y165.568 E0.01306
G1 X194.951 Y163.689 E0.01239
G1 X194.818 Y161.905 E0.0118
G1 X194.549 Y159.937 E0.01309
G1 X194.174 Y158.1 E0.01236
G1 X193.708 Y156.365 E0.01184
G1 X193.045 Y154.409 E0.01361
G1 X192.363 Y152.752 E0.01181
G1 X191.581 Y151.139 E0.01181
G1 X190.561 Y149.338 E0.01364
G1 X189.583 Y147.841 E0.01178
G1 X188.457 Y146.332 E0.01241
G1 X187.242 Y144.899 E0.01239
G1 X186 Y143.607 E0.01181
G1 X184.474 Y142.209 E0.01364
G1 X183.074 Y141.082 E0.01184
G1 X181.548 Y140.001 E0.01233
G1 X179.854 Y138.961 E0.0131
G1 X178.272 Y138.119 E0.01181
G1 X176.566 Y137.342 E0.01236
G1 X174.712 Y136.639 E0.01307
G1 X173 Y136.108 E0.01181
G1 X171.175 Y135.664 E0.01238
G1 X169.325 Y135.334 E0.01239
G1 X167.544 Y135.13 E0.01181
G1 X165.516 Y135.026 E0.01338
G1 X163.689 Y135.049 E0.01204
G1 X161.902 Y135.183 E0.01181
G1 X159.937 Y135.451 E0.01307
G1 X158.1 Y135.826 E0.01236
G1 X156.365 Y136.292 E0.01184
G1 X154.405 Y136.957 E0.01364
G1 X152.748 Y137.639 E0.01181
G1 X151.058 Y138.46 E0.01239
G1 X149.423 Y139.386 E0.01238
G1 X147.923 Y140.362 E0.0118
G1 X146.265 Y141.598 E0.01363
G1 X144.896 Y142.761 E0.01184
G1 X143.638 Y143.969 E0.01149
; INIT printing object Untitled.stl id:0 copy 0
G1 E-0.8 F3000
; printing object Untitled.stl id:0 copy 0
G1 X145.946 Y146.367 F9000
G1 E0.8 F1800
; External perimeter
;Perimeter
SET_VELOCITY_LIMIT ACCEL=2000 ACCEL_TO_DECEL=2000 SQUARE_CORNER_VELOCITY=5

; Overhang perimeter

;TYPE:Internal perimeter
G1 X147.128 Y145.229 E0.01081
G1 X148.405 Y144.146 E0.01104
G1 X149.747 Y143.145 E0.01104
G1 X151.15 Y142.23 E0.01104
G1 X152.607 Y141.406 E0.01104
G1 X154.113 Y140.674 E0.01104
G1 X155.662 Y140.038 E0.01104
G1 X157.247 Y139.501 E0.01104
G1 X158.864 Y139.065 E0.01104
G1 X160.504 Y138.731 E0.01104
G1 X162.163 Y138.5 E0.01104
G1 X163.832 Y138.374 E0.01104
G1 X165.506 Y138.353 E0.01104
G1 X165.919 Y138.374 E0.00272
G1 X167.178 Y138.438 E0.00831
G1 X168.842 Y138.627 E0.01104
G1 X170.49 Y138.92 E0.01104
G1 X172.117 Y139.317 E0.01104
G1 X173.716 Y139.814 E0.01104
G1 X175.28 Y140.411 E0.01104
G1 X176.804 Y141.105 E0.01104
G1 X178.281 Y141.893 E0.01104
G1 X179.705 Y142.773 E0.01104
G1 X181.072 Y143.74 E0.01104
G1 X182.375 Y144.791 E0.01104
G1 X183.61 Y145.922 E0.01104
G1 X184.771 Y147.128 E0.01104
G1 X185.854 Y148.405 E0.01104
G1 X186.855 Y149.747 E0.01104
G1 X187.77 Y151.15 E0.01104
G1 X188.594 Y152.607 E0.01104
G1 X189.326 Y154.113 E0.01104
G1 X189.962 Y155.662 E0.01104
G1 X190.499 Y157.247 E0.01104
G1 X190.935 Y158.864 E0.01104
G1 X191.269 Y160.504 E0.01104
G1 X191.5 Y162.163 E0.01104
G1 X191.626 Y163.832 E0.01104
G1 X191.646 Y165.506 E0.01104
G1 X191.562 Y167.178 E0.01104
G1 X191.373 Y168.842 E0.01104
G1 X191.08 Y170.49 E0.01104
G1 X190.683 Y172.117 E0.01104
G1 X190.186 Y173.716 E0.01104
G1 X189.589 Y175.28 E0.01104
G1 X188.895 Y176.804 E0.01104
G1 X188.107 Y178.281 E0.01104
G1 X187.227 Y179.705 E0.01104
G1 X186.26 Y181.072 E0.01104
G1 X185.209 Y182.375 E0.01104
G1 X184.078 Y183.61 E0.01104
G1 X182.872 Y184.771 E0.01104
G1 X181.595 Y185.854 E0.01104
G1 X180.253 Y186.855 E0.01104
G1 X178.85 Y187.77 E0.01104
G1 X177.393 Y188.594 E0.01104
G1 X175.887 Y189.326 E0.01104
G1 X174.338 Y189.962 E0.01104
G1 X172.753 Y190.499 E0.01104
G1 X171.136 Y190.935 E0.01104
G1 X169.496 Y191.269 E0.01104
G1 X167.837 Y191.5 E0.01104
G1 X166.168 Y191.626 E0.01104
G1 X164.494 Y191.647 E0.01104
G1 X162.822 Y191.562 E0.01104
G1 X161.158 Y191.373 E0.01104
G1 X159.51 Y191.08 E0.01104
G1 X157.883 Y190.683 E0.01104
G1 X156.284 Y190.186 E0.01104
G1 X154.72 Y189.589 E0.01104
G1 X153.196 Y188.895 E0.01104
G1 X151.719 Y188.107 E0.01104
G1 X150.295 Y187.227 E0.01104
G1 X148.928 Y186.26 E0.01104
G1 X147.625 Y185.209 E0.01104
G1 X146.39 Y184.078 E0.01104
G1 X145.229 Y182.872 E0.01104
G1 X144.146 Y181.595 E0.01104
G1 X143.145 Y180.253 E0.01104
G1 X142.23 Y178.85 E0.01104
G1 X141.406 Y177.393 E0.01104
G1 X140.674 Y175.887 E0.01104
G1 X140.038 Y174.338 E0.01104
G1 X139.501 Y172.753 E0.01104
G1 X139.065 Y171.136 E0.01104
G1 X138.731 Y169.496 E0.01104
G1 X138.5 Y167.837 E0.01104
G1 X138.374 Y166.168 E0.01104
G1 X138.354 Y164.494 E0.01104
G1 X138.438 Y162.822 E0.01104
G1 X138.627 Y161.158 E0.01104
G1 X138.92 Y159.51 E0.01104
G1 X139.317 Y157.883 E0.01104
G1 X139.814 Y156.284 E0.01104
G1 X140.411 Y154.72 E0.01104
G1 X141.105 Y153.196 E0.01104
G1 X141.893 Y151.719 E0.01104
G1 X142.773 Y150.295 E0.01104
G1 X143.74 Y148.928 E0.01104
G1 X144.791 Y147.625 E0.01104
G1 X145.93 Y146.382 E0.01111
G1 X145.82 Y146.268 F9000
; External perimeter
;ExternalPerimeter
SET_VELOCITY_LIMIT ACCEL=1000 ACCEL_TO_DECEL=1000 SQUARE_CORNER_VELOCITY=5

; Perimeter

;TYPE:External perimeter
G1 F1800
G1 X147.022 Y145.111 E0.011
G1 X148.306 Y144.022 E0.0111
G1 X149.656 Y143.015 E0.0111
G1 X151.067 Y142.095 E0.0111
G1 X152.533 Y141.265 E0.0111
G1 X154.048 Y140.529 E0.0111
G1 X155.606 Y139.89 E0.0111
G1 X157.201 Y139.35 E0.0111
G1 X158.827 Y138.91 E0.0111
G1 X160.478 Y138.574 E0.0111
G1 X162.146 Y138.342 E0.0111
G1 X163.825 Y138.216 E0.0111
G1 X165.509 Y138.195 E0.0111
G1 X165.927 Y138.216 E0.00276
G1 X167.191 Y138.28 E0.00835
G1 X168.865 Y138.47 E0.0111
G1 X170.523 Y138.765 E0.0111
G1 X172.159 Y139.164 E0.0111
G1 X173.768 Y139.664 E0.0111
G1 X175.341 Y140.265 E0.0111
G1 X176.874 Y140.963 E0.0111
G1 X178.36 Y141.756 E0.0111
G1 X179.793 Y142.641 E0.0111
G1 X181.168 Y143.614 E0.0111
G1 X182.479 Y144.671 E0.0111
G1 X183.721 Y145.809 E0.0111
G1 X184.889 Y147.022 E0.0111
G1 X185.978 Y148.306 E0.0111
G1 X186.985 Y149.656 E0.0111
G1 X187.905 Y151.067 E0.0111
G1 X188.735 Y152.533 E0.0111
G1 X189.471 Y154.048 E0.0111
G1 X190.11 Y155.606 E0.0111
G1 X190.651 Y157.201 E0.0111
G1 X191.09 Y158.827 E0.0111
G1 X191.426 Y160.477 E0.0111
G1 X191.658 Y162.146 E0.0111
G1 X191.784 Y163.825 E0.0111
G1 X191.805 Y165.509 E0.0111
G1 X191.72 Y167.191 E0.0111
G1 X191.53 Y168.865 E0.0111
G1 X191.235 Y170.523 E0.0111
G1 X190.836 Y172.159 E0.0111
G1 X190.336 Y173.768 E0.0111
G1 X189.735 Y175.341 E0.0111
G1 X189.037 Y176.874 E0.0111
G1 X188.244 Y178.36 E0.0111
G1 X187.359 Y179.793 E0.0111
G1 X186.386 Y181.168 E0.0111
G1 X185.329 Y182.479 E0.0111
G1 X184.191 Y183.721 E0.0111
G1 X182.978 Y184.889 E0.0111
G1 X181.694 Y185.978 E0.0111
G1 X180.344 Y186.985 E0.0111
G1 X178.933 Y187.905 E0.0111
G1 X177.467 Y188.735 E0.0111
G1 X175.952 Y189.471 E0.0111
G1 X174.394 Y190.11 E0.0111
G1 X172.799 Y190.65 E0.0111
G1 X171.173 Y191.09 E0.0111
G1 X169.523 Y191.426 E0.0111
G1 X167.854 Y191.658 E0.0111
G1 X166.175 Y191.784 E0.0111
G1 X164.491 Y191.805 E0.0111
G1 X162.809 Y191.72 E0.0111
G1 X161.135 Y191.53 E0.0111
G1 X159.477 Y191.235 E0.0111
G1 X157.841 Y190.836 E0.0111
G1 X156.232 Y190.336 E0.0111
G1 X154.659 Y189.735 E0.0111
G1 X153.126 Y189.037 E0.0111
G1 X151.64 Y188.244 E0.0111
G1 X150.207 Y187.359 E0.0111
G1 X148.832 Y186.386 E0.0111
G1 X147.521 Y185.329 E0.0111
G1 X146.279 Y184.191 E0.0111
G1 X145.111 Y182.978 E0.0111
G1 X144.022 Y181.694 E0.0111
G1 X143.015 Y180.344 E0.0111
G1 X142.095 Y178.933 E0.0111
G1 X141.265 Y177.467 E0.0111
G1 X140.529 Y175.952 E0.0111
G1 X139.89 Y174.394 E0.0111
G1 X139.349 Y172.799 E0.0111
G1 X138.91 Y171.173 E0.0111
G1 X138.574 Y169.523 E0.0111
G1 X138.342 Y167.854 E0.0111
G1 X138.216 Y166.175 E0.0111
G1 X138.195 Y164.491 E0.0111
G1 X138.28 Y162.809 E0.0111
G1 X138.47 Y161.135 E0.0111
G1 X138.765 Y159.477 E0.0111
G1 X139.164 Y157.841 E0.0111
G1 X139.664 Y156.232 E0.0111
G1 X140.265 Y154.659 E0.0111
G1 X140.963 Y153.126 E0.0111
G1 X141.756 Y151.64 E0.0111
G1 X142.641 Y150.207 E0.0111
G1 X143.614 Y148.832 E0.0111
G1 X144.671 Y147.521 E0.0111
G1 X145.804 Y146.284 E0.01106
;WIPE_START
G1 X145.965 Y146.307 F9000
;WIPE_END
G1 X182.391 Y144.838
; External perimeter
;SolidInfill
SET_VELOCITY_LIMIT ACCEL=2000 ACCEL_TO_DECEL=2000 SQUARE_CORNER_VELOCITY=5

; Bridge infill

;TYPE:Solid infill
;WIDTH:0.180528
G1 F2400
G1 X183.662 Y146.109 E0.01188
G1 X184.703 Y147.19 E0.00992
G1 X185.732 Y148.403 E0.01052
G1 X181.667 Y144.338 E0.038
G1 X181.017 Y143.813 E0.00553
G1 X180.68 Y143.575 E0.00273
G1 X186.413 Y149.309 E0.0536
G1 X186.78 Y149.8 E0.00405
G1 X186.966 Y150.085 E0.00225
G1 X179.913 Y143.032 E0.06594
G1 X179.655 Y142.85 E0.00209
G1 X179.266 Y142.61 E0.00302
G1 X187.386 Y150.73 E0.07592
G1 X187.691 Y151.197 E0.00369
G1 X187.771 Y151.339 E0.00108
G1 X178.68 Y142.248 E0.08499
G1 X178.235 Y141.973 E0.00346
G1 X178.119 Y141.912 E0.00086
G1 X188.064 Y151.856 E0.09297
G1 X188.356 Y152.373 E0.00392
G1 X177.639 Y141.655 E0.1002
G1 X177.158 Y141.398 E0.0036
G1 X188.611 Y152.852 E0.10708
G1 X188.823 Y153.288 E0.0032
G1 X176.689 Y141.154 E0.11344
G1 X176.278 Y140.967 E0.00299
G1 X189.035 Y153.724 E0.11927
G1 X189.246 Y154.159 E0.00319
G1 X175.866 Y140.779 E0.12509
G1 X175.454 Y140.591 E0.00299
G1 X189.402 Y154.539 E0.13039
G1 X189.558 Y154.919 E0.00272
G1 X175.066 Y140.428 E0.13548
G1 X174.704 Y140.29 E0.00257
G1 X189.714 Y155.3 E0.14033
G1 X189.87 Y155.68 E0.00272
G1 X174.341 Y140.151 E0.14517
G1 X173.979 Y140.013 E0.00257
G1 X189.986 Y156.02 E0.14965
G1 X190.101 Y156.359 E0.00237
G1 X173.623 Y139.882 E0.15405
G1 X173.298 Y139.78 E0.00225
G1 X190.216 Y156.698 E0.15817
G1 X190.331 Y157.037 E0.00237
G1 X172.972 Y139.679 E0.16228
G1 X172.647 Y139.578 E0.00225
G1 X190.436 Y157.367 E0.16631
G1 X190.519 Y157.674 E0.0021
G1 X172.321 Y139.476 E0.17013
G1 X172.093 Y139.405 E0.00158
G1 X172.004 Y139.384 E0.0006
G1 X190.602 Y157.981 E0.17387
G1 X190.685 Y158.288 E0.0021
G1 X171.708 Y139.311 E0.17741
G1 X171.411 Y139.239 E0.00202
G1 X190.768 Y158.595 E0.18096
G1 X190.849 Y158.901 E0.00209
G1 X171.115 Y139.167 E0.18449
G1 X170.819 Y139.095 E0.00202
G1 X190.906 Y159.183 E0.1878
G1 X190.964 Y159.464 E0.0019
G1 X170.522 Y139.023 E0.19111
G1 X170.471 Y139.01 E0.00035
G1 X170.245 Y138.97 E0.00152
G1 X191.021 Y159.746 E0.19423
G1 X191.078 Y160.027 E0.0019
G1 X169.973 Y138.922 E0.19732
G1 X169.7 Y138.873 E0.00183
G1 X191.136 Y160.309 E0.2004
