; generated by SuperSlicer 2.3.57 on 2022-03-26 at 20:00:11 UTC


;
;

;
;
; 

; external perimeters extrusion width = 0.40mm
; perimeters extrusion width = 0.45mm
; infill extrusion width = 0.72mm
; solid infill extrusion width = 0.56mm
; top infill extrusion width = 0.40mm
; support material extrusion width = 0.42mm
; first layer extrusion width = 0.48mm

; object:{"name":"Cross_Stitch_Spool","id":"Cross_Stitch_Spool.stl id:0 copy 0","object_center":[152.500000,133.625442,0.000000],"boundingbox_center":[152.500000,133.625442,0.500000],"boundingbox_size":[50.000000,26.800000,1.000000]}
; object:{"name":"Cross_Stitch_Spool","id":"Cross_Stitch_Spool.stl id:1 copy 0","object_center":[152.500000,166.374558,0.000000],"boundingbox_center":[152.500000,166.374558,0.500000],"boundingbox_size":[50.000000,26.800000,1.000000]}
; object:{"name":"Cross_Stitch_Spool","id":"Cross_Stitch_Spool.stl id:2 copy 0","object_center":[96.500000,133.625442,0.000000],"boundingbox_center":[96.500000,133.625442,0.500000],"boundingbox_size":[50.000000,26.800000,1.000000]}
; object:{"name":"Cross_Stitch_Spool","id":"Cross_Stitch_Spool.stl id:3 copy 0","object_center":[96.500000,166.374558,0.000000],"boundingbox_center":[96.500000,166.374558,0.500000],"boundingbox_size":[50.000000,26.800000,1.000000]}
; object:{"name":"Cross_Stitch_Spool","id":"Cross_Stitch_Spool.stl id:4 copy 0","object_center":[152.500000,100.876326,0.000000],"boundingbox_center":[152.500000,100.876326,0.500000],"boundingbox_size":[50.000000,26.800000,1.000000]}
; object:{"name":"Cross_Stitch_Spool","id":"Cross_Stitch_Spool.stl id:5 copy 0","object_center":[96.500000,100.876326,0.000000],"boundingbox_center":[96.500000,100.876326,0.500000],"boundingbox_size":[50.000000,26.800000,1.000000]}
; object:{"name":"Cross_Stitch_Spool","id":"Cross_Stitch_Spool.stl id:6 copy 0","object_center":[152.500000,199.123674,0.000000],"boundingbox_center":[152.500000,199.123674,0.500000],"boundingbox_size":[50.000000,26.800000,1.000000]}
; object:{"name":"Cross_Stitch_Spool","id":"Cross_Stitch_Spool.stl id:7 copy 0","object_center":[208.500000,133.625442,0.000000],"boundingbox_center":[208.500000,133.625442,0.500000],"boundingbox_size":[50.000000,26.800000,1.000000]}
; object:{"name":"Cross_Stitch_Spool","id":"Cross_Stitch_Spool.stl id:8 copy 0","object_center":[208.500000,166.374558,0.000000],"boundingbox_center":[208.500000,166.374558,0.500000],"boundingbox_size":[50.000000,26.800000,1.000000]}
; object:{"name":"Cross_Stitch_Spool","id":"Cross_Stitch_Spool.stl id:9 copy 0","object_center":[96.500000,199.123674,0.000000],"boundingbox_center":[96.500000,199.123674,0.500000],"boundingbox_size":[50.000000,26.800000,1.000000]}
; plater:{"center":[152.500000,150.000000,0.000000],"boundingbox_center":[152.500000,150.000000,0.500000],"boundingbox_size":[162.000000,125.047348,1.000000]}

;TYPE:Custom
START_PRINT T_BED=60 T_EXTRUDER=200
M107
G21 ; set units to millimeters
G90 ; use absolute coordinates
M83 ; use relative distances for extrusion
; Filament gcode
M104 S200 ; set temperature
M109 S200 ; set temperature and wait for it to be reached
M190 S60 ; set bed temperature and wait for it to be reached
;LAYER_CHANGE
;Z:0.24
;HEIGHT:0.24
G1 Z0.24 F9000
G1 E-0.8 F3000
G1 X70.38 Y85.813 F9000
G1 E0.8 F1800
; External perimeter
;Skirt
SET_VELOCITY_LIMIT ACCEL=300 ACCEL_TO_DECEL=3000 SQUARE_CORNER_VELOCITY=5

; Support material

;TYPE:Skirt
;WIDTH:0.48
G1 X69.612 Y86.475 E0.04337
G1 X69.024 Y87.158 E0.03853
G1 X68.674 Y87.695 E0.02738
G1 X68.244 Y88.624 E0.04378
G1 X68.053 Y89.366 E0.03276
G1 X67.957 Y90.386 E0.04377
G1 X67.957 Y209.373 E5.08735
G1 X68.117 Y210.636 E0.05443
G1 X68.559 Y211.818 E0.05396
G1 X69.263 Y212.891 E0.05487
G1 X70.208 Y213.835 E0.05712
G1 X70.917 Y214.365 E0.03784
G1 X71.706 Y214.826 E0.03908
G1 X72.962 Y215.378 E0.05863
G1 X74.952 Y215.913 E0.08815
G1 X75.812 Y216.032 E0.03711
G1 X76.822 Y216.06 E0.0432
G1 X172.379 Y216.015 E4.08555
G1 X174.537 Y215.83 E0.09262
G1 X176.002 Y215.479 E0.0644
G1 X176.851 Y215.172 E0.03859
G1 X177.804 Y214.712 E0.04524
G1 X233.837 Y181.944 E2.77533
G1 X234.591 Y181.46 E0.0383
G1 X235.205 Y180.945 E0.03426
G1 X235.976 Y180.092 E0.04916
G1 X236.328 Y179.551 E0.02758
G1 X236.759 Y178.618 E0.04397
G1 X236.978 Y177.691 E0.04072
G1 X237.043 Y176.846 E0.03622
G1 X237.03 Y123.142 E2.29616
G1 X236.823 Y121.901 E0.05379
G1 X236.511 Y121.08 E0.03753
G1 X236.22 Y120.552 E0.02578
G1 X235.725 Y119.843 E0.03698
G1 X235.056 Y119.142 E0.04145
G1 X233.68 Y118.135 E0.07289
G1 X177.612 Y85.347 E2.77702
G1 X176.578 Y84.833 E0.04938
G1 X175.079 Y84.318 E0.06777
G1 X173.622 Y84.016 E0.06361
G1 X172.107 Y83.94 E0.06485
G1 X76.513 Y83.986 E4.08717
G1 X74.505 Y84.162 E0.08619
G1 X73.187 Y84.462 E0.05777
G1 X72.154 Y84.826 E0.04685
G1 X71.257 Y85.253 E0.04247
G1 X70.43 Y85.781 E0.04193
G1 X70.66 Y86.141 F9000
G1 F1800
G1 X70.642 Y86.152 E0.00088
G1 X69.918 Y86.775 E0.04085
G1 X69.366 Y87.417 E0.03622
G1 X69.054 Y87.895 E0.0244
G1 X68.65 Y88.76 E0.04083
G1 X68.476 Y89.437 E0.02986
G1 X68.386 Y90.392 E0.04103
G1 X68.386 Y209.367 E5.08683
G1 X68.534 Y210.534 E0.0503
G1 X68.943 Y211.627 E0.04988
G1 X69.594 Y212.62 E0.05079
G1 X70.47 Y213.496 E0.05297
G1 X71.153 Y214.008 E0.03649
G1 X71.911 Y214.449 E0.03749
G1 X73.1 Y214.972 E0.05555
G1 X75.025 Y215.491 E0.08524
G1 X75.847 Y215.605 E0.03548
G1 X76.835 Y215.631 E0.04227
G1 X172.378 Y215.587 E4.08498
G1 X174.451 Y215.41 E0.08895
G1 X175.857 Y215.076 E0.06177
G1 X177.588 Y214.342 E0.08038
G1 X233.617 Y181.576 E2.77512
G1 X234.335 Y181.116 E0.03648
G1 X234.923 Y180.623 E0.03277
G1 X235.634 Y179.834 E0.04544
G1 X235.944 Y179.36 E0.02421
G1 X236.347 Y178.499 E0.04065
G1 X236.552 Y177.642 E0.03766
G1 X236.614 Y176.89 E0.03228
G1 X236.614 Y124.257 E2.25035
G1 X236.592 Y122.951 E0.05584
G1 X236.454 Y122.166 E0.03407
G1 X236.083 Y121.174 E0.04528
G1 X235.593 Y120.383 E0.03977
G1 X234.666 Y119.366 E0.05884
G1 X233.45 Y118.497 E0.06391
G1 X177.39 Y85.713 E2.77665
G1 X176.413 Y85.228 E0.04661
G1 X174.969 Y84.732 E0.06531
G1 X173.571 Y84.442 E0.06105
G1 X172.107 Y84.368 E0.06267
G1 X76.533 Y84.414 E4.08631
G1 X74.588 Y84.582 E0.08348
G1 X73.308 Y84.873 E0.05611
G1 X72.332 Y85.216 E0.04423
G1 X71.467 Y85.626 E0.04092
G1 X70.71 Y86.109 E0.03838
; INIT printing object Cross_Stitch_Spool.stl id:0 copy 0
G1 E-0.8 F3000
; printing object Cross_Stitch_Spool.stl id:0 copy 0
G1 X168.017 Y142.921 F9000
G1 E0.8 F1800
; External perimeter
;Perimeter
SET_VELOCITY_LIMIT ACCEL=2000 ACCEL_TO_DECEL=2000 SQUARE_CORNER_VELOCITY=5

; Overhang perimeter

;TYPE:Internal perimeter
G1 X137.001 Y142.903 E1.32611
G1 X136.972 Y143.979 E0.04602
G1 X136.952 Y144.08 E0.00441
G1 X136.84 Y144.374 E0.01344
G1 X136.638 Y144.677 E0.01558
G1 X136.513 Y144.815 E0.00797
G1 X136.36 Y144.963 E0.0091
G1 X135.956 Y145.269 E0.02168
G1 X135.457 Y145.556 E0.0246
G1 X135.197 Y145.678 E0.0123
G1 X134.581 Y145.909 E0.02813
G1 X133.897 Y146.099 E0.03033
G1 X133.543 Y146.171 E0.01545
G1 X133.326 Y146.208 E0.00941
G1 X132.87 Y146.25 E0.0196
G1 X132.15 Y146.234 E0.03079
G1 X131.707 Y146.17 E0.01912
G1 X131.002 Y146.01 E0.03091
G1 X130.35 Y145.798 E0.02931
G1 X130.061 Y145.682 E0.01331
G1 X129.795 Y145.556 E0.01259
G1 X129.296 Y145.269 E0.02462
G1 X128.901 Y144.969 E0.02121
G1 X128.606 Y144.666 E0.01809
G1 X128.411 Y144.373 E0.01503
G1 X128.299 Y144.081 E0.0134
G1 X128.277 Y143.97 E0.00484
G1 X128.268 Y143.82 E0.00639
G1 X128.268 Y123.203 E0.88152
G1 X128.307 Y122.829 E0.01606
G1 X128.325 Y122.767 E0.00274
G1 X128.45 Y122.528 E0.01156
G1 X128.665 Y122.27 E0.01432
G1 X128.797 Y122.148 E0.00768
G1 X128.948 Y122.026 E0.00831
G1 X129.349 Y121.774 E0.02026
G1 X129.828 Y121.549 E0.02263
G1 X130.378 Y121.355 E0.02493
G1 X130.661 Y121.279 E0.01254
G1 X131.296 Y121.149 E0.02772
G1 X131.953 Y121.074 E0.02826
G1 X132.628 Y121.045 E0.02891
G1 X133.336 Y121.074 E0.03029
G1 X133.667 Y121.107 E0.0142
G1 X134.339 Y121.222 E0.02916
G1 X134.962 Y121.379 E0.02749
G1 X135.519 Y121.585 E0.02538
G1 X135.999 Y121.822 E0.0229
G1 X136.382 Y122.084 E0.01982
G1 X136.669 Y122.349 E0.01672
G1 X136.854 Y122.6 E0.01332
G1 X136.956 Y122.848 E0.01146
G1 X136.975 Y122.933 E0.00375
G1 X136.983 Y123.054 E0.00518
G1 X136.983 Y124.33 E0.05454
G1 X167.999 Y124.348 E1.32611
G1 X168.028 Y123.272 E0.04602
G1 X168.048 Y123.171 E0.00441
G1 X168.16 Y122.877 E0.01344
G1 X168.362 Y122.574 E0.01558
G1 X168.487 Y122.436 E0.00797
G1 X168.64 Y122.288 E0.0091
G1 X169.044 Y121.981 E0.02168
G1 X169.543 Y121.695 E0.0246
G1 X169.811 Y121.569 E0.01266
G1 X170.099 Y121.453 E0.01329
G1 X170.759 Y121.239 E0.02966
G1 X171.092 Y121.155 E0.01469
G1 X171.68 Y121.042 E0.02558
G1 X172.137 Y121 E0.01966
G1 X172.612 Y121 E0.02029
G1 X173.07 Y121.042 E0.01966
G1 X173.658 Y121.155 E0.02558
G1 X173.99 Y121.239 E0.01467
G1 X174.65 Y121.453 E0.02965
G1 X174.931 Y121.566 E0.01294
G1 X175.479 Y121.843 E0.02627
G1 X175.697 Y121.976 E0.01091
G1 X176.099 Y122.282 E0.0216
G1 X176.394 Y122.585 E0.01809
G1 X176.599 Y122.892 E0.0158
G1 X176.653 Y123.014 E0.00568
G1 X176.697 Y123.152 E0.00621
G1 X176.719 Y123.266 E0.00494
G1 X176.727 Y123.879 E0.02624
G1 X169.864 Y127.89 E0.33985
G1 X169.64 Y128.151 E0.01474
G1 X169.542 Y128.407 E0.01171
G1 X169.504 Y128.665 E0.01114
G1 X169.565 Y128.937 E0.01194
G1 X169.702 Y129.222 E0.0135
G1 X170.064 Y129.502 E0.01956
G1 X170.407 Y129.639 E0.01581
G1 X170.696 Y129.701 E0.01264
G1 X171.003 Y129.707 E0.01311
G1 X171.304 Y129.656 E0.01308
G1 X171.526 Y129.57 E0.01016
G1 X175.317 Y127.388 E0.18701
G1 X175.542 Y127.289 E0.01052
G1 X175.63 Y127.264 E0.0039
G1 X175.929 Y127.217 E0.01295
G1 X176.07 Y127.21 E0.00602
G1 X176.203 Y127.212 E0.0057
G1 X176.506 Y127.255 E0.0131
G1 X176.732 Y127.309 E0.0099
G1 X176.732 Y140.264 E0.55391
G1 X176.306 Y140.256 E0.0182
G1 X176.131 Y140.231 E0.00753
G1 X175.629 Y140.087 E0.02236
G1 X175.465 Y140.019 E0.00755
G1 X171.758 Y137.732 E0.18627
G1 X171.497 Y137.618 E0.01214
G1 X171.262 Y137.559 E0.01039
G1 X170.939 Y137.527 E0.01389
G1 X170.594 Y137.553 E0.01477
G1 X170.307 Y137.628 E0.0127
G1 X170.065 Y137.727 E0.01119
G1 X169.743 Y138.036 E0.01908
G1 X169.599 Y138.423 E0.01763
G1 X169.599 Y138.732 E0.01324
G1 X169.699 Y139.054 E0.0144
G1 X169.886 Y139.29 E0.01285
G1 X170.107 Y139.464 E0.01206
G1 X176.732 Y143.26 E0.32643
G1 X176.732 Y144.061 E0.03423
G1 X176.718 Y144.269 E0.00892
G1 X176.665 Y144.502 E0.01022
G1 X176.55 Y144.723 E0.01066
G1 X176.343 Y144.972 E0.01383
G1 X176.043 Y145.23 E0.01692
G1 X175.651 Y145.477 E0.01979
G1 X175.172 Y145.702 E0.02263
G1 X174.622 Y145.896 E0.02493
G1 X174.339 Y145.972 E0.01254
G1 X173.704 Y146.102 E0.02772
G1 X173.047 Y146.177 E0.02826
G1 X172.372 Y146.205 E0.02891
G1 X171.664 Y146.177 E0.03029
G1 X171.333 Y146.144 E0.0142
G1 X170.661 Y146.029 E0.02916
G1 X170.038 Y145.872 E0.02749
G1 X169.481 Y145.666 E0.02538
G1 X169.001 Y145.429 E0.0229
G1 X168.618 Y145.167 E0.01982
G1 X168.331 Y144.902 E0.01672
G1 X168.146 Y144.651 E0.01332
G1 X168.044 Y144.403 E0.01146
G1 X168.025 Y144.317 E0.00375
G1 X168.017 Y144.197 E0.00518
G1 X168.017 Y142.981 E0.05197
G1 X167.588 Y143.349 F9000
; External perimeter
;ExternalPerimeter
SET_VELOCITY_LIMIT ACCEL=1000 ACCEL_TO_DECEL=1000 SQUARE_CORNER_VELOCITY=5

; Perimeter

;TYPE:External perimeter
G1 F1800
G1 X137.418 Y143.331 E1.28995
G1 X137.415 Y143.451 E0.00462
G1 X137.408 Y143.691 E0.00975
G1 X137.399 Y144.027 E0.01436
G1 X137.365 Y144.199 E0.00749
G1 X137.224 Y144.571 E0.01702
G1 X136.977 Y144.94 E0.01899
G1 X136.821 Y145.113 E0.00996
G1 X136.639 Y145.289 E0.01083
G1 X136.193 Y145.627 E0.02393
G1 X135.655 Y145.936 E0.02652
G1 X135.363 Y146.073 E0.01379
G1 X134.713 Y146.317 E0.02969
G1 X133.997 Y146.516 E0.03177
G1 X133.622 Y146.592 E0.01634
G1 X133.383 Y146.634 E0.01041
G1 X132.885 Y146.679 E0.02138
G1 X132.114 Y146.662 E0.03295
G1 X131.629 Y146.592 E0.02098
G1 X130.888 Y146.423 E0.03247
G1 X130.204 Y146.201 E0.03076
G1 X129.89 Y146.075 E0.01448
G1 X129.597 Y145.936 E0.01386
G1 X129.058 Y145.627 E0.02653
G1 X128.616 Y145.291 E0.02376
G1 X128.271 Y144.937 E0.02116
G1 X128.028 Y144.571 E0.01877
G1 X127.886 Y144.199 E0.01701
G1 X127.851 Y144.024 E0.00764
G1 X127.84 Y143.833 E0.00817
G1 X127.84 Y123.18 E0.88303
G1 X127.885 Y122.746 E0.01867
G1 X127.926 Y122.607 E0.0062
G1 X128.091 Y122.289 E0.01532
G1 X128.353 Y121.974 E0.0175
G1 X128.516 Y121.824 E0.00949
G1 X128.698 Y121.677 E0.00998
G1 X129.142 Y121.397 E0.02247
G1 X129.665 Y121.152 E0.02468
G1 X130.251 Y120.945 E0.02654
G1 X130.562 Y120.862 E0.0138
G1 X131.229 Y120.726 E0.02908
G1 X131.919 Y120.646 E0.02972
G1 X132.628 Y120.617 E0.03033
G1 X133.366 Y120.646 E0.03159
G1 X133.724 Y120.682 E0.01537
G1 X134.428 Y120.802 E0.03052
G1 X135.09 Y120.969 E0.02919
G1 X135.689 Y121.191 E0.02731
G1 X136.216 Y121.451 E0.02514
G1 X136.649 Y121.748 E0.02245
G1 X136.99 Y122.062 E0.01983
G1 X137.23 Y122.388 E0.0173
G1 X137.367 Y122.719 E0.0153
G1 X137.401 Y122.873 E0.00675
G1 X137.412 Y123.04 E0.00715
G1 X137.412 Y123.902 E0.03683
G1 X137.532 Y123.902 E0.0046
G1 X137.772 Y123.902 E0.00973
G1 X167.582 Y123.92 E1.27456
G1 X167.585 Y123.8 E0.00462
G1 X167.592 Y123.56 E0.00975
G1 X167.601 Y123.224 E0.01436
G1 X167.635 Y123.052 E0.00749
G1 X167.776 Y122.68 E0.01702
G1 X168.023 Y122.311 E0.01899
G1 X168.179 Y122.138 E0.00996
G1 X168.361 Y121.962 E0.01083
G1 X168.807 Y121.624 E0.02393
G1 X169.345 Y121.315 E0.02652
G1 X169.639 Y121.176 E0.01391
G1 X169.953 Y121.05 E0.01445
G1 X170.64 Y120.827 E0.0309
G1 X170.999 Y120.736 E0.01582
G1 X171.619 Y120.617 E0.02701
G1 X172.118 Y120.572 E0.0214
G1 X172.632 Y120.572 E0.02197
G1 X173.13 Y120.617 E0.0214
G1 X173.751 Y120.736 E0.02702
G1 X174.109 Y120.827 E0.01581
G1 X174.796 Y121.05 E0.03088
G1 X175.107 Y121.175 E0.01435
G1 X175.688 Y121.468 E0.02779
G1 X175.939 Y121.622 E0.01258
G1 X176.384 Y121.96 E0.0239
G1 X176.729 Y122.314 E0.02116
G1 X176.976 Y122.685 E0.01905
G1 X177.054 Y122.861 E0.00822
G1 X177.113 Y123.045 E0.00827
G1 X177.147 Y123.221 E0.00767
G1 X177.158 Y124.123 E0.03857
G1 X170.143 Y128.223 E0.34743
G1 X170.014 Y128.374 E0.00846
G1 X169.959 Y128.516 E0.00654
G1 X169.939 Y128.649 E0.00573
G1 X169.972 Y128.795 E0.00642
G1 X170.044 Y128.945 E0.0071
G1 X170.279 Y129.127 E0.01267
G1 X170.532 Y129.228 E0.01168
G1 X170.746 Y129.274 E0.00933
G1 X170.97 Y129.278 E0.00961
G1 X171.19 Y129.24 E0.00953
G1 X171.341 Y129.182 E0.00692
G1 X175.123 Y127.005 E0.18658
G1 X175.396 Y126.885 E0.01274
G1 X175.537 Y126.845 E0.00626
G1 X175.885 Y126.79 E0.01508
G1 X176.062 Y126.781 E0.00759
G1 X176.236 Y126.784 E0.00745
G1 X176.587 Y126.833 E0.01512
G1 X176.737 Y126.869 E0.00662
G1 X177.01 Y126.978 E0.01256
G1 X177.1 Y127.034 E0.00451
G1 X177.16 Y127.085 E0.00339
G1 X177.16 Y140.553 E0.5758
G1 X177.11 Y140.588 E0.00259
G1 X176.991 Y140.628 E0.00541
G1 X176.574 Y140.69 E0.01798
G1 X176.272 Y140.684 E0.01295
G1 X176.042 Y140.651 E0.00992
G1 X175.487 Y140.492 E0.02467
G1 X175.27 Y140.402 E0.01005
G1 X171.559 Y138.112 E0.18646
G1 X171.359 Y138.025 E0.00933
G1 X171.188 Y137.982 E0.0075
G1 X170.934 Y137.957 E0.01094
G1 X170.665 Y137.977 E0.01152
G1 X170.443 Y138.035 E0.00982
G1 X170.303 Y138.092 E0.00647
G1 X170.11 Y138.277 E0.01142
G1 X170.027 Y138.5 E0.01015
G1 X170.027 Y138.667 E0.00714
G1 X170.085 Y138.85 E0.00822
G1 X170.191 Y138.985 E0.00731
G1 X170.348 Y139.108 E0.00855
G1 X177.058 Y142.953 E0.33064
G1 X177.16 Y143.057 E0.00625
G1 X177.16 Y144.075 E0.04352
G1 X177.143 Y144.331 E0.01096
G1 X177.071 Y144.651 E0.01402
G1 X176.909 Y144.962 E0.015
G1 X176.649 Y145.273 E0.01732
G1 X176.299 Y145.576 E0.0198
G1 X175.858 Y145.854 E0.0223
G1 X175.335 Y146.099 E0.02468
G1 X174.749 Y146.305 E0.02654
G1 X174.438 Y146.389 E0.0138
G1 X173.771 Y146.525 E0.02908
G1 X173.081 Y146.605 E0.02972
G1 X172.372 Y146.634 E0.03033
G1 X171.634 Y146.604 E0.03159
G1 X171.276 Y146.569 E0.01537
G1 X170.572 Y146.449 E0.03052
G1 X169.91 Y146.282 E0.02919
G1 X169.311 Y146.06 E0.02731
G1 X168.784 Y145.8 E0.02514
G1 X168.351 Y145.503 E0.02245
G1 X168.01 Y145.189 E0.01983
G1 X167.77 Y144.863 E0.0173
G1 X167.633 Y144.532 E0.0153
G1 X167.599 Y144.378 E0.00675
G1 X167.588 Y144.211 E0.00715
