; generated by SuperSlicer 2.3.55 on 2021-05-10 at 21:46:27 UTC

; 

; external perimeters extrusion width = 0.40mm
; perimeters extrusion width = 0.40mm
; infill extrusion width = 0.40mm
; solid infill extrusion width = 0.40mm
; top infill extrusion width = 0.40mm
; first layer extrusion width = 0.40mm


M140 S70 ; set bed temperature
M104 S245 ; set temperature
;TYPE:Custom
START_PRINT T_BED=70 T_EXTRUDER=245
M107
G21 ; set units to millimeters
G90 ; use absolute coordinates
M82 ; use absolute distances for extrusion
G92 E0
; Filament gcode
M109 S245 ; set temperature and wait for it to be reached
M190 S70 ; set bed temperature and wait for it to be reached
M107
;LAYER_CHANGE
;Z:0.24
;HEIGHT:0.24
G1 Z0.240000 F9000.000
G1 E-1.00000 F2100.000
G1 X108.350 Y151.745 F9000.000
G1 E0.00000 F2100.000
;TYPE:Skirt
;WIDTH:0.4
G1 F900.000
M204 P500
G1 X109.278 Y151.185 E0.03769
G1 X110.292 Y150.819 E0.07518
G1 X111.364 Y150.657 E0.11288
G1 X218.356 Y150.650 E3.83331
G1 X219.779 Y150.838 E3.88323
G1 X221.106 Y151.387 E3.93316
G1 X222.247 Y152.259 E3.98309
G1 X223.124 Y153.395 E4.03301
G1 X223.678 Y154.720 E4.08294
G1 X223.873 Y156.142 E4.13287
G1 X223.694 Y157.567 E4.18279
G1 X223.151 Y158.902 E4.23292
G1 X222.289 Y160.044 E4.28265
G1 X206.890 Y175.434 E5.03970
G1 X206.140 Y176.009 E5.07257
G1 X205.297 Y176.449 E5.10563
G1 X204.391 Y176.739 E5.13870
G1 X203.455 Y176.868 E5.17157
G1 X126.824 Y176.875 E7.83625
G1 X125.694 Y176.757 E7.87575
G1 X124.980 Y176.556 E7.90158
G1 X124.293 Y176.258 E7.92760
G1 X123.653 Y175.870 E7.95362
G1 X123.072 Y175.399 E7.97965
G1 X107.672 Y160.003 E8.73686
G1 X107.054 Y159.235 E8.77114
G1 X106.583 Y158.369 E8.80541
G1 X106.273 Y157.433 E8.83969
G1 X106.135 Y156.457 E8.87396
G1 X106.185 Y155.375 E8.91166
G1 X106.446 Y154.323 E8.94935
G1 X106.908 Y153.342 E8.98704
G1 X107.548 Y152.474 E9.02453
G1 X108.305 Y151.785 E9.06014
G1 X108.539 Y152.043 F9000.000
G1 F900.000
G1 X109.439 Y151.494 E9.09681
G1 X110.396 Y151.153 E9.13213
G1 X111.400 Y151.004 E9.16744
G1 X218.356 Y150.998 E12.88660
G1 X219.700 Y151.177 E12.93375
G1 X220.946 Y151.697 E12.98071
G1 X222.020 Y152.525 E13.02786
G1 X222.839 Y153.599 E13.07482
G1 X223.352 Y154.848 E13.12179
G1 X223.524 Y156.193 E13.16894
G1 X223.341 Y157.537 E13.21609
G1 X222.815 Y158.787 E13.26325
G1 X222.034 Y159.806 E13.30788
G1 X206.662 Y175.171 E14.06365
G1 X205.954 Y175.714 E14.09468
G1 X205.158 Y176.130 E14.12591
G1 X204.308 Y176.400 E14.15694
G1 X203.418 Y176.521 E14.18816
G1 X126.824 Y176.527 E16.85156
G1 X125.781 Y176.419 E16.88804
G1 X124.450 Y175.947 E16.93713
G1 X123.301 Y175.137 E16.98602
G1 X107.928 Y159.767 E17.74193
G1 X107.347 Y159.046 E17.77413
G1 X106.902 Y158.228 E17.80652
G1 X106.610 Y157.343 E17.83892
G1 X106.482 Y156.421 E17.87131
G1 X106.533 Y155.406 E17.90663
G1 X106.779 Y154.427 E17.94175
G1 X107.214 Y153.509 E17.97706
G1 X107.820 Y152.694 E18.01237
G1 X108.494 Y152.083 E18.04402
G92 E0
G1 E-1.00000 F2100.000
G1 X159.708 Y170.221 F9000.000
G1 E0.00000 F2100.000
;TYPE:Perimeter
G1 F900.000
G1 X160.213 Y169.785 E0.02318
G1 X160.506 Y169.396 E0.04014
G1 X160.730 Y168.962 E0.05709
G1 X160.878 Y168.498 E0.07404
G1 X160.946 Y168.015 E0.09099
G1 X160.897 Y167.350 E0.11418
G1 X161.113 Y167.235 E0.12272
G1 X163.296 Y169.370 E0.22889
G1 X163.684 Y169.608 E0.24471
G1 X164.104 Y169.782 E0.26053
G1 X164.546 Y169.888 E0.27636
G1 X165.000 Y169.924 E0.29218
G1 X165.454 Y169.888 E0.30800
G1 X165.896 Y169.782 E0.32382
G1 X166.316 Y169.608 E0.33965
G1 X166.704 Y169.370 E0.35547
G1 X168.887 Y167.235 E0.46164
G1 X169.103 Y167.350 E0.47018
G1 X169.054 Y168.015 E0.49336
G1 X169.122 Y168.498 E0.51032
G1 X169.270 Y168.962 E0.52727
G1 X169.494 Y169.396 E0.54422
G1 X169.787 Y169.785 E0.56117
G1 X170.292 Y170.221 E0.58436
G1 X170.221 Y170.456 E0.59290
G1 X159.779 Y170.456 E0.95598
G1 X159.725 Y170.278 E0.96243
G92 E0
G1 E-1.00000 F2100.000
G1 X175.198 Y160.175 F9000.000
G1 E0.00000 F2100.000
G1 F900.000
G1 X175.247 Y159.510 E0.02318
G1 X175.179 Y159.027 E0.04014
G1 X175.031 Y158.563 E0.05709
G1 X174.807 Y158.130 E0.07404
G1 X174.514 Y157.740 E0.09099
G1 X174.009 Y157.305 E0.11418
G1 X174.081 Y157.070 E0.12272
G1 X178.726 Y157.070 E0.28426
G1 X178.106 Y157.599 E0.31262
G1 X175.415 Y160.291 E0.44498
G1 X175.251 Y160.203 E0.45143
G1 X175.623 Y160.575 F9000.000
G1 F900.000
G1 X170.131 Y166.067 E0.72149
G1 X169.870 Y166.377 E0.73559
G1 X169.652 Y166.746 E0.75050
G1 X169.499 Y167.147 E0.76541
G1 X169.415 Y167.567 E0.78032
G1 X169.403 Y167.996 E0.79523
G1 X169.463 Y168.420 E0.81013
G1 X169.593 Y168.829 E0.82504
G1 X169.790 Y169.209 E0.83995
G1 X170.048 Y169.552 E0.85486
G1 X170.360 Y169.847 E0.86977
G1 X170.716 Y170.085 E0.88468
G1 X171.107 Y170.260 E0.89958
G1 X171.523 Y170.367 E0.91449
G1 X171.927 Y170.401 E0.92859
G1 X194.208 Y170.401 E1.70338
G1 X194.612 Y170.367 E1.71748
G1 X195.027 Y170.260 E1.73239
G1 X195.418 Y170.085 E1.74730
G1 X195.775 Y169.847 E1.76221
G1 X196.086 Y169.552 E1.77711
G1 X196.344 Y169.209 E1.79202
G1 X196.541 Y168.829 E1.80693
G1 X196.671 Y168.420 E1.82184
G1 X196.731 Y167.996 E1.83675
G1 X196.719 Y167.567 E1.85166
G1 X196.635 Y167.147 E1.86656
G1 X196.483 Y166.746 E1.88147
G1 X196.265 Y166.377 E1.89638
G1 X187.792 Y157.855 E2.31425
G1 X187.162 Y157.400 E2.34125
G1 X186.793 Y157.247 E2.35516
G1 X186.026 Y157.124 E2.38216
G1 X180.108 Y157.124 E2.58795
G1 X179.342 Y157.247 E2.61494
G1 X178.972 Y157.400 E2.62886
G1 X178.343 Y157.855 E2.65585
G1 X175.666 Y160.533 E2.78752
G1 X175.912 Y160.779 F9000.000
;TYPE:External perimeter
G1 F900.000
G1 X170.388 Y166.303 E3.05916
G1 X169.967 Y166.898 E3.08450
G1 X169.763 Y167.606 E3.11014
G1 X169.804 Y168.342 E3.13578
G1 X170.086 Y169.023 E3.16141
G1 X170.578 Y169.573 E3.18705
G1 X170.885 Y169.779 E3.19991
G1 X171.223 Y169.930 E3.21278
G1 X171.941 Y170.053 E3.23812
G1 X194.193 Y170.053 E4.01188
G1 X194.912 Y169.930 E4.03723
G1 X195.557 Y169.573 E4.06287
G1 X195.826 Y169.319 E4.07573
G1 X196.218 Y168.695 E4.10137
G1 X196.382 Y167.976 E4.12700
G1 X196.372 Y167.606 E4.13987
G1 X196.167 Y166.898 E4.16550
G1 X195.746 Y166.303 E4.19085
G1 X187.555 Y158.111 E4.59368
G1 X187.004 Y157.712 E4.61735
G1 X186.685 Y157.580 E4.62935
G1 X186.013 Y157.473 E4.65302
G1 X180.122 Y157.473 E4.85786
G1 X179.450 Y157.580 E4.88153
G1 X179.131 Y157.712 E4.89354
G1 X178.580 Y158.111 E4.91720
G1 X175.954 Y160.737 E5.04631
G1 X175.526 Y160.676 F9000.000
G92 E0
G1 E-1.00000 F2100.000
G1 X187.408 Y157.070 F9000.000
G1 E0.00000 F2100.000
;TYPE:Perimeter
G1 F900.000
G1 X192.054 Y157.070 E0.16155
G1 X192.125 Y157.305 E0.17009
G1 X191.620 Y157.740 E0.19327
G1 X191.327 Y158.130 E0.21022
G1 X191.103 Y158.563 E0.22717
G1 X190.955 Y159.027 E0.24413
G1 X190.887 Y159.510 E0.26108
G1 X190.936 Y160.175 E0.28426
G1 X190.720 Y160.291 E0.29280
G1 X188.028 Y157.599 E0.42516
G1 X187.454 Y157.109 E0.45143
G92 E0
G1 E-1.00000 F2100.000
G1 X191.427 Y158.697 F9000.000
G1 E0.00000 F2100.000
G1 F900.000
G1 X191.296 Y159.105 E0.01491
G1 X191.236 Y159.530 E0.02982
G1 X191.248 Y159.958 E0.04472
G1 X191.332 Y160.379 E0.05963
G1 X191.485 Y160.779 E0.07454
G1 X191.703 Y161.148 E0.08945
G1 X191.965 Y161.458 E0.10355
G1 X199.348 Y168.841 E0.46663
G1 X199.977 Y169.296 E0.49362
G1 X200.346 Y169.450 E0.50754
G1 X201.134 Y169.574 E0.53528
G1 X201.923 Y169.450 E0.56303
G1 X202.292 Y169.296 E0.57694
G1 X202.921 Y168.841 E0.60394
G1 X210.305 Y161.458 E0.96704
G1 X210.784 Y160.779 E0.99593
G1 X210.937 Y160.379 E1.01083
G1 X211.020 Y159.958 E1.02574
G1 X211.032 Y159.530 E1.04065
G1 X210.973 Y159.105 E1.05556
G1 X210.842 Y158.697 E1.07047
G1 X210.646 Y158.316 E1.08537
G1 X210.388 Y157.973 E1.10028
G1 X210.076 Y157.679 E1.11519
G1 X209.720 Y157.440 E1.13010
G1 X209.328 Y157.265 E1.14501
G1 X208.913 Y157.158 E1.15992
G1 X208.509 Y157.124 E1.17402
G1 X193.356 Y157.158 E1.70095
G1 X192.941 Y157.265 E1.71586
G1 X192.549 Y157.440 E1.73077
G1 X192.193 Y157.679 E1.74568
G1 X191.881 Y157.973 E1.76058
G1 X191.454 Y158.643 E1.78822
G1 X191.764 Y158.803 F9000.000
;TYPE:External perimeter
G1 F900.000
G1 X191.637 Y159.183 E1.80213
G1 X191.596 Y159.919 E1.82777
G1 X191.800 Y160.627 E1.85341
G1 X192.221 Y161.222 E1.87875
G1 X199.584 Y168.585 E2.24084
G1 X200.135 Y168.985 E2.26451
G1 X200.454 Y169.117 E2.27652
G1 X201.134 Y169.225 E2.30046
G1 X201.814 Y169.117 E2.32440
G1 X202.134 Y168.985 E2.33641
G1 X202.685 Y168.585 E2.36007
G1 X210.048 Y161.222 E2.72219
G1 X210.469 Y160.627 E2.74751
G1 X210.673 Y159.919 E2.77315
G1 X210.632 Y159.183 E2.79878
G1 X210.519 Y158.830 E2.81165
G1 X210.127 Y158.206 E2.83728
G1 X209.551 Y157.746 E2.86292
G1 X209.213 Y157.595 E2.87579
G1 X208.494 Y157.473 E2.90113
G1 X193.774 Y157.473 E3.41299
G1 X193.056 Y157.595 E3.43833
G1 X192.718 Y157.746 E3.45120
G1 X192.142 Y158.206 E3.47683
G1 X191.791 Y158.750 E3.49933
G1 X191.733 Y158.805 F9000.000
G92 E0
G1 E-1.00000 F2100.000
G1 X197.248 Y167.235 F9000.000
G1 E0.00000 F2100.000
;TYPE:Perimeter
G1 F900.000
G1 X199.111 Y169.098 E0.09162
G1 X199.818 Y169.608 E0.12194
G1 X200.238 Y169.782 E0.13776
G1 X200.681 Y169.888 E0.15358
G1 X201.134 Y169.924 E0.16941
G1 X201.588 Y169.888 E0.18523
G1 X202.031 Y169.782 E0.20105
G1 X202.451 Y169.608 E0.21688
G1 X203.158 Y169.098 E0.24720
G1 X210.562 Y161.694 E0.61129
G1 X210.851 Y161.351 E0.62690
G1 X211.099 Y160.931 E0.64385
G1 X211.273 Y160.475 E0.66080
G1 X211.368 Y159.997 E0.67775
G1 X211.382 Y159.510 E0.69471
G1 X211.314 Y159.027 E0.71166
G1 X211.165 Y158.563 E0.72861
G1 X210.942 Y158.130 E0.74556
G1 X210.649 Y157.740 E0.76252
G1 X210.144 Y157.305 E0.78570
G1 X210.215 Y157.070 E0.79424
G1 X216.184 Y157.070 E1.00182
G1 X202.798 Y170.456 E1.66009
G1 X195.914 Y170.456 E1.89950
G1 X195.842 Y170.221 E1.90804
G1 X196.347 Y169.785 E1.93122
G1 X196.640 Y169.396 E1.94817
G1 X196.864 Y168.962 E1.96513
G1 X197.012 Y168.498 E1.98208
G1 X197.080 Y168.015 E1.99903
G1 X197.031 Y167.350 E2.02221
G1 X197.195 Y167.263 E2.02867
G92 E0
G1 E-1.00000 F2100.000
G1 X174.802 Y160.379 F9000.000
G1 E0.00000 F2100.000
G1 F900.000
G1 X174.886 Y159.958 E0.01491
G1 X174.898 Y159.530 E0.02982
G1 X174.838 Y159.105 E0.04473
G1 X174.708 Y158.697 E0.05963
G1 X174.511 Y158.316 E0.07454
G1 X174.253 Y157.973 E0.08945
G1 X173.942 Y157.679 E0.10436
G1 X173.585 Y157.440 E0.11927
G1 X173.194 Y157.265 E0.13417
G1 X172.779 Y157.158 E0.14908
G1 X172.375 Y157.124 E0.16319
G1 X157.221 Y157.158 E0.69012
G1 X156.806 Y157.265 E0.70503
G1 X156.415 Y157.440 E0.71994
G1 X156.058 Y157.679 E0.73484
G1 X155.747 Y157.973 E0.74975
G1 X155.489 Y158.316 E0.76466
G1 X155.292 Y158.697 E0.77957
G1 X155.162 Y159.105 E0.79448
G1 X155.102 Y159.530 E0.80938
G1 X155.114 Y159.958 E0.82429
G1 X155.198 Y160.379 E0.83920
G1 X155.351 Y160.779 E0.85411
G1 X155.568 Y161.148 E0.86902
G1 X155.830 Y161.458 E0.88312
G1 X163.213 Y168.841 E1.24620
G1 X163.842 Y169.296 E1.27319
G1 X164.212 Y169.450 E1.28711
G1 X165.000 Y169.574 E1.31485
G1 X165.788 Y169.450 E1.34260
G1 X166.158 Y169.296 E1.35651
G1 X166.787 Y168.841 E1.38351
G1 X174.170 Y161.458 E1.74658
G1 X174.432 Y161.148 E1.76069
G1 X174.781 Y160.435 E1.78832
G1 X174.455 Y160.310 F9000.000
;TYPE:External perimeter
G1 F900.000
G1 X174.549 Y159.549 E1.81499
G1 X174.385 Y158.830 E1.84063
G1 X174.215 Y158.502 E1.85349
G1 X173.993 Y158.206 E1.86635
G1 X173.416 Y157.746 E1.89199
G1 X173.078 Y157.595 E1.90485
G1 X172.360 Y157.473 E1.93020
G1 X157.280 Y157.503 E2.45458
G1 X156.584 Y157.746 E2.48022
G1 X156.007 Y158.206 E2.50586
G1 X155.615 Y158.830 E2.53149
G1 X155.451 Y159.549 E2.55713
G1 X155.534 Y160.282 E2.58277
G1 X155.666 Y160.627 E2.59563
G1 X156.087 Y161.222 E2.62098
G1 X163.450 Y168.585 E2.98307
G1 X164.001 Y168.985 E3.00674
G1 X164.320 Y169.117 E3.01874
G1 X165.000 Y169.225 E3.04268
G1 X165.680 Y169.117 E3.06663
G1 X165.999 Y168.985 E3.07863
G1 X166.550 Y168.585 E3.10230
G1 X173.913 Y161.222 E3.46439
G1 X174.146 Y160.946 E3.47696
G1 X174.434 Y160.366 E3.49946
G1 X174.486 Y160.306 F9000.000
G92 E0
G1 E-1.00000 F2100.000
G1 X155.991 Y157.305 F9000.000
G1 E0.00000 F2100.000
;TYPE:Perimeter
G1 F900.000
G1 X155.486 Y157.740 E0.02318
G1 X155.193 Y158.130 E0.04014
G1 X154.969 Y158.563 E0.05709
G1 X154.821 Y159.027 E0.07404
G1 X154.753 Y159.510 E0.09099
G1 X154.802 Y160.175 E0.11418
G1 X154.585 Y160.291 E0.12272
G1 X151.894 Y157.599 E0.25507
G1 X151.274 Y157.070 E0.28343
G1 X155.919 Y157.070 E0.44498
G1 X155.973 Y157.247 E0.45143
G92 E0
G1 E-1.00000 F2100.000
G1 X153.511 Y159.709 F9000.000
G1 E0.00000 F2100.000
G1 F900.000
G1 X151.369 Y157.609 E0.10430
G1 X151.028 Y157.400 E0.11822
G1 X150.269 Y157.154 E0.14596
G1 X143.974 Y157.124 E0.36488
G1 X143.207 Y157.247 E0.39187
G1 X142.838 Y157.400 E0.40579
G1 X142.208 Y157.855 E0.43278
G1 X133.735 Y166.377 E0.85065
G1 X133.517 Y166.746 E0.86556
G1 X133.365 Y167.147 E0.88047
G1 X133.281 Y167.567 E0.89538
G1 X133.269 Y167.996 E0.91029
G1 X133.329 Y168.420 E0.92520
G1 X133.459 Y168.829 E0.94010
G1 X133.656 Y169.209 E0.95501
G1 X133.914 Y169.552 E0.96992
G1 X134.225 Y169.847 E0.98483
G1 X134.582 Y170.085 E0.99974
G1 X134.973 Y170.260 E1.01465
G1 X135.388 Y170.367 E1.02955
G1 X135.792 Y170.401 E1.04366
G1 X158.073 Y170.401 E1.81844
G1 X158.477 Y170.367 E1.83254
G1 X158.893 Y170.260 E1.84745
G1 X159.284 Y170.085 E1.86236
G1 X159.640 Y169.847 E1.87727
G1 X159.952 Y169.552 E1.89218
G1 X160.210 Y169.209 E1.90708
G1 X160.407 Y168.829 E1.92199
G1 X160.537 Y168.420 E1.93690
G1 X160.597 Y167.996 E1.95181
G1 X160.585 Y167.567 E1.96672
G1 X160.501 Y167.147 E1.98163
G1 X160.348 Y166.746 E1.99653
G1 X160.130 Y166.377 E2.01144
G1 X159.869 Y166.067 E2.02554
G1 X153.554 Y159.752 E2.33610
G1 X153.307 Y159.998 F9000.000
;TYPE:External perimeter
G1 F900.000
G1 X151.164 Y157.892 E2.44059
G1 X150.869 Y157.712 E2.45259
G1 X150.215 Y157.499 E2.47653
G1 X143.987 Y157.473 E2.69307
G1 X143.315 Y157.580 E2.71674
G1 X142.996 Y157.712 E2.72875
G1 X142.445 Y158.111 E2.75242
G1 X134.020 Y166.579 E3.16777
G1 X133.701 Y167.243 E3.19341
G1 X133.628 Y167.606 E3.20627
G1 X133.670 Y168.342 E3.23191
G1 X133.782 Y168.695 E3.24477
G1 X133.952 Y169.023 E3.25764
G1 X134.443 Y169.573 E3.28327
G1 X135.088 Y169.930 E3.30891
G1 X135.807 Y170.053 E3.33426
G1 X158.059 Y170.053 E4.10802
G1 X158.777 Y169.930 E4.13336
G1 X159.115 Y169.779 E4.14623
G1 X159.422 Y169.573 E4.15909
G1 X159.914 Y169.023 E4.18473
G1 X160.196 Y168.342 E4.21036
G1 X160.237 Y167.606 E4.23600
G1 X160.165 Y167.243 E4.24887
G1 X159.845 Y166.579 E4.27450
G1 X153.350 Y160.041 E4.59499
G1 X153.411 Y159.612 F9000.000
G92 E0
G1 E-1.00000 F2100.000
G1 X142.592 Y157.070 F9000.000
G1 E0.00000 F2100.000
;TYPE:Perimeter
G1 F900.000
G1 X141.972 Y157.599 E0.02836
G1 X139.280 Y160.291 E0.16071
G1 X139.064 Y160.175 E0.16925
G1 X139.113 Y159.510 E0.19244
G1 X139.045 Y159.027 E0.20939
G1 X138.897 Y158.563 E0.22634
G1 X138.673 Y158.130 E0.24329
G1 X138.380 Y157.740 E0.26025
G1 X137.875 Y157.305 E0.28343
G1 X137.946 Y157.070 E0.29197
G1 X142.532 Y157.070 E0.45143
G92 E0
G1 E-1.00000 F2100.000
G1 X138.573 Y158.697 F9000.000
G1 E0.00000 F2100.000
G1 F900.000
G1 X138.377 Y158.316 E0.01491
G1 X138.119 Y157.973 E0.02982
G1 X137.807 Y157.679 E0.04472
G1 X137.451 Y157.440 E0.05963
G1 X137.059 Y157.265 E0.07454
G1 X136.644 Y157.158 E0.08945
G1 X121.491 Y157.124 E0.61638
G1 X121.087 Y157.158 E0.63049
G1 X120.672 Y157.265 E0.64539
G1 X120.280 Y157.440 E0.66030
G1 X119.924 Y157.679 E0.67521
G1 X119.612 Y157.973 E0.69012
G1 X119.354 Y158.316 E0.70503
G1 X119.158 Y158.697 E0.71993
G1 X119.027 Y159.105 E0.73484
G1 X118.968 Y159.530 E0.74975
G1 X118.980 Y159.958 E0.76466
G1 X119.064 Y160.380 E0.77961
G1 X119.216 Y160.779 E0.79448
G1 X119.434 Y161.148 E0.80938
G1 X119.696 Y161.458 E0.82349
G1 X127.079 Y168.841 E1.18656
G1 X127.708 Y169.296 E1.21356
G1 X128.077 Y169.450 E1.22747
G1 X128.866 Y169.574 E1.25522
G1 X129.654 Y169.450 E1.28296
G1 X130.023 Y169.296 E1.29688
G1 X130.652 Y168.841 E1.32387
G1 X138.035 Y161.458 E1.68695
G1 X138.297 Y161.148 E1.70105
G1 X138.515 Y160.779 E1.71596
G1 X138.668 Y160.379 E1.73087
G1 X138.752 Y159.958 E1.74578
G1 X138.764 Y159.530 E1.76069
G1 X138.592 Y158.754 E1.78832
G1 X138.260 Y158.860 F9000.000
;TYPE:External perimeter
G1 F900.000
