; generated by SuperSlicer 2.3.55 on 2021-05-08 at 06:00:23 UTC

; 

; external perimeters extrusion width = 0.40mm
; perimeters extrusion width = 0.40mm
; infill extrusion width = 0.40mm
; solid infill extrusion width = 0.40mm
; top infill extrusion width = 0.40mm
; support material extrusion width = 0.40mm
; first layer extrusion width = 0.40mm


M140 S70 ; set bed temperature
;TYPE:Custom
START_PRINT T_BED=70 T_EXTRUDER=245
M107
G21 ; set units to millimeters
G90 ; use absolute coordinates
M82 ; use absolute distances for extrusion
G92 E0
; Filament gcode
M109 S245 ; set temperature and wait for it to be reached
M190 S70 ; set bed temperature and wait for it to be reached
;LAYER_CHANGE
;Z:0.24
;HEIGHT:0.24
G1 Z0.240000 F9000.000
G1 E-1.00000 F2100.000
G1 X96.155 Y129.038 F9000.000
G1 E0.00000 F2100.000
;TYPE:Skirt
;WIDTH:0.4
G1 F900.000
G1 X96.827 Y128.594 E0.02804
G1 X97.557 Y128.252 E0.05607
G1 X98.330 Y128.020 E0.08411
G1 X99.522 Y127.888 E0.12582
G1 X197.113 Y127.888 E3.51937
G1 X205.633 Y128.047 E3.81567
G1 X206.606 Y128.163 E3.84975
G1 X207.661 Y128.497 E3.88824
G1 X208.624 Y129.033 E3.92654
G1 X209.461 Y129.748 E3.96483
G1 X210.139 Y130.616 E4.00313
G1 X210.740 Y131.913 E4.05285
G1 X210.989 Y133.322 E4.10258
G1 X210.994 Y149.821 E4.67633
G1 X210.855 Y151.036 E4.71884
G1 X210.454 Y152.185 E4.76115
G1 X203.160 Y166.199 E5.31052
G1 X202.720 Y166.797 E5.33635
G1 X199.511 Y170.513 E5.50706
G1 X198.334 Y171.334 E5.55698
G1 X196.990 Y171.823 E5.60671
G1 X195.789 Y171.955 E5.64871
G1 X109.281 Y171.955 E8.65686
G1 X108.185 Y171.844 E8.69516
G1 X106.791 Y171.359 E8.74649
G1 X105.575 Y170.522 E8.79781
G1 X105.053 Y169.978 E8.82404
G1 X101.910 Y166.148 E8.99633
G1 X94.606 Y152.150 E9.54536
G1 X94.138 Y150.848 E9.59349
G1 X94.006 Y149.661 E9.63500
G1 X94.006 Y133.382 E10.20109
G1 X94.097 Y132.412 E10.23496
G1 X94.302 Y131.626 E10.26320
G1 X94.618 Y130.884 E10.29123
G1 X95.038 Y130.196 E10.31927
G1 X95.554 Y129.576 E10.34731
G1 X96.110 Y129.078 E10.37326
G1 X96.342 Y129.337 F9000.000
G1 F900.000
G1 X96.999 Y128.897 E10.40076
G1 X97.691 Y128.574 E10.42731
G1 X98.418 Y128.357 E10.45367
G1 X99.522 Y128.236 E10.49229
G1 X197.113 Y128.236 E13.88584
G1 X205.613 Y128.395 E14.18146
G1 X206.500 Y128.496 E14.21250
G1 X207.502 Y128.808 E14.24898
G1 X208.420 Y129.316 E14.28546
G1 X209.213 Y129.994 E14.32174
G1 X209.857 Y130.822 E14.35822
G1 X210.415 Y132.039 E14.40479
G1 X210.641 Y133.354 E14.45117
G1 X210.645 Y149.832 E15.02417
G1 X210.513 Y150.968 E15.06395
G1 X210.134 Y152.048 E15.10374
G1 X202.870 Y166.005 E15.65088
G1 X199.289 Y170.244 E15.84381
G1 X198.179 Y171.022 E15.89096
G1 X196.899 Y171.486 E15.93831
G1 X195.789 Y171.607 E15.97712
G1 X109.281 Y171.607 E18.98527
G1 X108.259 Y171.504 E19.02097
G1 X106.937 Y171.043 E19.06967
G1 X105.791 Y170.247 E19.11818
G1 X102.189 Y165.940 E19.31343
G1 X94.916 Y151.991 E19.86045
G1 X94.475 Y150.756 E19.90606
G1 X94.355 Y149.657 E19.94448
G1 X94.355 Y133.388 E20.51021
G1 X94.433 Y132.510 E20.54085
G1 X94.621 Y131.770 E20.56740
G1 X94.916 Y131.066 E20.59395
G1 X95.308 Y130.417 E20.62031
G1 X95.795 Y129.829 E20.64686
G1 X96.298 Y129.377 E20.67037
G92 E0
G1 E-1.00000 F2100.000
G1 X121.832 Y163.232 F9000.000
G1 E0.00000 F2100.000
;TYPE:Support material
G1 F900.000
G1 X121.832 Y159.537 E0.12850
G1 X121.135 Y159.537 E0.15274
G1 X121.135 Y163.075 E0.27579
G1 X120.438 Y163.075 E0.30002
G1 X120.438 Y159.537 E0.42307
G1 X119.741 Y159.537 E0.44731
G1 X119.741 Y163.075 E0.57036
G1 X119.044 Y163.075 E0.59459
G1 X119.044 Y159.537 E0.71764
G1 X118.347 Y159.537 E0.74188
G1 X118.347 Y166.433 E0.98166
G1 X117.650 Y166.433 E1.00590
G1 X117.650 Y159.537 E1.24569
G1 X116.954 Y159.537 E1.26992
G1 X116.954 Y166.433 E1.50971
G1 X116.257 Y166.433 E1.53394
G1 X116.257 Y159.537 E1.77373
G1 X115.922 Y159.537 E1.78535
G1 X115.560 Y159.323 E1.80000
G1 X115.560 Y166.433 E2.04722
G1 X114.863 Y166.433 E2.07146
G1 X114.863 Y158.173 E2.35866
G1 X114.166 Y157.023 E2.40541
G1 X114.166 Y166.433 E2.73259
G1 X113.469 Y166.433 E2.75683
G1 X113.469 Y155.874 E3.12399
G1 X112.772 Y154.724 E3.17074
G1 X112.772 Y166.433 E3.57788
G1 X112.075 Y166.433 E3.60211
G1 X112.075 Y153.574 E4.04923
G1 X111.378 Y152.425 E4.09598
G1 X111.378 Y166.433 E4.58307
G1 X110.681 Y166.433 E4.60731
G1 X110.681 Y151.275 E5.13438
G1 X110.122 Y150.353 E5.17188
G1 X109.984 Y150.353 E5.17668
G1 X109.984 Y166.433 E5.73581
G1 X109.287 Y166.433 E5.76005
G1 X109.287 Y150.353 E6.31919
G1 X108.590 Y150.353 E6.34343
G1 X108.590 Y163.075 E6.78583
G1 X107.893 Y163.075 E6.81007
G1 X107.893 Y150.353 E7.25247
G1 X107.196 Y150.353 E7.27671
G1 X107.196 Y163.075 E7.71911
G1 X106.499 Y163.075 E7.74334
G1 X106.499 Y150.196 E8.19120
G92 E0
G1 E-1.00000 F2100.000
G1 X198.501 Y163.232 F9000.000
G1 E0.00000 F2100.000
G1 F900.000
G1 X198.501 Y150.353 E0.44786
G1 X197.804 Y150.353 E0.47209
G1 X197.804 Y163.075 E0.91450
G1 X197.107 Y163.075 E0.93873
G1 X197.107 Y150.353 E1.38114
G1 X196.410 Y150.353 E1.40537
G1 X196.410 Y163.075 E1.84777
G1 X195.789 Y163.075 E1.86938
G1 X195.789 Y166.433 E1.98611
G1 X195.713 Y166.433 E1.98875
G1 X195.713 Y150.353 E2.54789
G1 X195.016 Y150.353 E2.57212
G1 X195.016 Y166.433 E3.13126
G1 X194.319 Y166.433 E3.15550
G1 X194.319 Y151.275 E3.68257
G1 X193.622 Y152.425 E3.72932
G1 X193.622 Y166.433 E4.21641
G1 X192.925 Y166.433 E4.24065
G1 X192.925 Y153.574 E4.68776
G1 X192.228 Y154.724 E4.73452
G1 X192.228 Y166.433 E5.14165
G1 X191.531 Y166.433 E5.16589
G1 X191.531 Y155.874 E5.53305
G1 X190.834 Y157.023 E5.57980
G1 X190.834 Y166.433 E5.90698
G1 X190.137 Y166.433 E5.93122
G1 X190.137 Y158.173 E6.21842
G1 X189.440 Y159.323 E6.26517
G1 X189.440 Y166.433 E6.51240
G1 X188.743 Y166.433 E6.53663
G1 X188.743 Y159.537 E6.77642
G1 X188.046 Y159.537 E6.80065
G1 X188.046 Y166.433 E7.04044
G1 X187.349 Y166.433 E7.06467
G1 X187.349 Y159.537 E7.30446
G1 X186.653 Y159.537 E7.32870
G1 X186.653 Y166.433 E7.56848
G1 X186.424 Y166.433 E7.57644
G1 X186.424 Y163.075 E7.69317
G1 X185.956 Y163.075 E7.70945
G1 X185.956 Y159.537 E7.83250
G1 X185.259 Y159.537 E7.85674
G1 X185.259 Y163.075 E7.97979
G1 X184.562 Y163.075 E8.00402
G1 X184.562 Y159.537 E8.12707
G1 X183.865 Y159.537 E8.15131
G1 X183.865 Y163.075 E8.27436
G1 X183.168 Y163.075 E8.29859
G1 X183.168 Y159.380 E8.42710
G92 E0
G1 E-1.00000 F2100.000
G1 X109.287 Y149.804 F9000.000
G1 E0.00000 F2100.000
G1 F900.000
G1 X109.287 Y148.976 E0.02880
G1 X108.590 Y147.826 E0.07555
G1 X108.590 Y149.647 E0.13888
G1 X107.893 Y149.647 E0.16311
G1 X107.893 Y146.676 E0.26642
G1 X107.196 Y145.527 E0.31317
G1 X107.196 Y149.647 E0.45645
G1 X106.499 Y149.647 E0.48069
G1 X106.499 Y144.377 E0.66395
G1 X105.802 Y143.227 E0.71070
G1 X105.802 Y149.647 E0.93394
G1 X105.105 Y149.647 E0.95817
G1 X105.105 Y142.078 E1.22139
G1 X104.408 Y140.928 E1.26814
G1 X104.408 Y149.647 E1.57133
G1 X103.711 Y149.647 E1.59557
G1 X103.711 Y139.778 E1.93874
G1 X103.104 Y138.777 E1.97946
G1 X103.548 Y137.988 E2.01093
G1 X103.711 Y137.988 E2.01659
G1 X103.711 Y133.567 E2.17032
G1 X103.014 Y133.567 E2.19456
G1 X103.014 Y149.647 E2.75370
G1 X102.317 Y149.647 E2.77793
G1 X102.317 Y133.567 E3.33707
G1 X101.620 Y133.567 E3.36131
G1 X101.620 Y149.647 E3.92045
G1 X100.923 Y149.647 E3.94468
G1 X100.923 Y133.567 E4.50382
G1 X100.226 Y133.567 E4.52806
G1 X100.226 Y149.647 E5.08720
G1 X99.529 Y149.647 E5.11143
G1 X99.529 Y133.411 E5.67602
G1 X107.893 Y138.145 F9000.000
G1 F900.000
G1 X107.893 Y133.567 E5.83520
G1 X107.196 Y133.567 E5.85944
G1 X107.196 Y137.988 E6.01317
G1 X106.499 Y137.988 E6.03740
G1 X106.499 Y133.567 E6.19113
G1 X105.802 Y133.567 E6.21537
G1 X105.802 Y137.988 E6.36909
G1 X105.105 Y137.988 E6.39333
G1 X105.105 Y133.567 E6.54706
G1 X104.408 Y133.567 E6.57129
G1 X104.408 Y138.145 E6.73047
G92 E0
G1 E-1.00000 F2100.000
G1 X205.471 Y149.804 F9000.000
G1 E0.00000 F2100.000
G1 F900.000
G1 X205.471 Y133.567 E0.56459
G1 X204.774 Y133.567 E0.58883
G1 X204.774 Y149.647 E1.14797
G1 X204.077 Y149.647 E1.17220
G1 X204.077 Y133.567 E1.73134
G1 X203.380 Y133.567 E1.75558
G1 X203.380 Y149.647 E2.31472
G1 X202.683 Y149.647 E2.33895
G1 X202.683 Y133.567 E2.89809
G1 X201.986 Y133.567 E2.92233
G1 X201.986 Y149.647 E3.48147
G1 X201.289 Y149.647 E3.50571
G1 X201.289 Y139.778 E3.84888
G1 X200.592 Y140.928 E3.89563
G1 X200.592 Y149.647 E4.19882
G1 X199.895 Y149.647 E4.22306
G1 X199.895 Y142.078 E4.48627
G1 X199.198 Y143.227 E4.53302
G1 X199.198 Y149.647 E4.75626
G1 X198.501 Y149.647 E4.78050
G1 X198.501 Y144.377 E4.96376
G1 X197.804 Y145.527 E5.01051
G1 X197.804 Y149.647 E5.15379
G1 X197.107 Y149.647 E5.17803
G1 X197.107 Y146.676 E5.28133
G1 X196.410 Y147.826 E5.32808
G1 X196.410 Y149.647 E5.39141
G1 X195.713 Y149.647 E5.41564
G1 X195.713 Y148.673 E5.44951
G92 E0
G1 E-1.00000 F2100.000
G1 X201.289 Y138.145 F9000.000
G1 E0.00000 F2100.000
G1 F900.000
G1 X201.289 Y133.567 E0.15918
G1 X200.592 Y133.567 E0.18342
G1 X200.592 Y137.988 E0.33714
G1 X199.895 Y137.988 E0.36138
G1 X199.895 Y133.567 E0.51511
G1 X199.198 Y133.567 E0.53934
G1 X199.198 Y137.988 E0.69307
G1 X198.501 Y137.988 E0.71731
G1 X198.501 Y133.567 E0.87103
G1 X197.804 Y133.567 E0.89527
G1 X197.804 Y137.988 E1.04900
G1 X197.107 Y137.988 E1.07323
G1 X197.107 Y133.411 E1.23241
G92 E0
G1 E-1.00000 F2100.000
G1 X159.975 Y151.880 F9000.000
G1 E0.00000 F2100.000
;TYPE:Perimeter
G1 F900.000
G1 X154.152 Y142.279 E0.39044
G1 X153.663 Y141.873 E0.41256
G1 X153.357 Y141.752 E0.42399
G1 X151.935 Y141.714 E0.47347
G1 X151.643 Y141.752 E0.48370
G1 X151.337 Y141.873 E0.49512
G1 X151.068 Y142.057 E0.50648
G1 X150.655 Y142.547 E0.52876
G1 X145.178 Y151.581 E0.89611
G1 X145.010 Y151.918 E0.90921
G1 X144.809 Y152.613 E0.93437
G1 X144.762 Y153.000 E0.94793
G1 X144.789 Y153.783 E0.97516
G1 X144.975 Y154.523 E1.00171
G1 X145.322 Y155.161 E1.02697
G1 X145.840 Y155.630 E1.05126
G1 X146.164 Y155.768 E1.06350
G1 X146.477 Y155.811 E1.07448
G1 X158.523 Y155.811 E1.49336
G1 X158.836 Y155.768 E1.50434
G1 X159.160 Y155.630 E1.51657
G1 X159.441 Y155.422 E1.52875
G1 X159.678 Y155.161 E1.54099
G1 X160.025 Y154.523 E1.56624
G1 X160.138 Y154.162 E1.57940
G1 X160.245 Y153.393 E1.60641
G1 X160.191 Y152.613 E1.63359
G1 X159.996 Y151.936 E1.65810
G1 X159.668 Y152.053 F9000.000
;TYPE:External perimeter
G1 F900.000
G1 X153.904 Y142.527 E2.04527
G1 X153.708 Y142.326 E2.05502
G1 X153.269 Y142.092 E2.07232
G1 X151.957 Y142.063 E2.11796
G1 X151.502 Y142.183 E2.13433
G1 X151.292 Y142.326 E2.14317
G1 X150.946 Y142.739 E2.16188
G1 X145.483 Y151.751 E2.52836
G1 X145.337 Y152.040 E2.53961
G1 X145.153 Y152.673 E2.56256
G1 X145.110 Y153.024 E2.57485
G1 X145.134 Y153.735 E2.59958
G1 X145.301 Y154.399 E2.62337
G1 X145.600 Y154.949 E2.64514
G1 X146.014 Y155.325 E2.66462
G1 X146.501 Y155.463 E2.68219
G1 X158.499 Y155.463 E3.09940
G1 X158.742 Y155.429 E3.10794
G1 X159.206 Y155.162 E3.12655
G1 X159.400 Y154.949 E3.13658
G1 X159.699 Y154.399 E3.15835
G1 X159.800 Y154.077 E3.17007
G1 X159.896 Y153.381 E3.19450
G1 X159.847 Y152.673 E3.21916
G1 X159.688 Y152.110 E3.23953
G1 X159.677 Y152.042 F9000.000
G92 E0
G1 E-1.00000 F2100.000
G1 X161.277 Y151.147 F9000.000
G1 E0.00000 F2100.000
;TYPE:Perimeter
G1 F900.000
G1 X163.100 Y154.154 E0.12228
G1 X163.566 Y154.686 E0.14690
G1 X163.878 Y154.873 E0.15953
G1 X164.229 Y154.975 E0.17226
G1 X164.597 Y154.975 E0.18504
G1 X164.948 Y154.873 E0.19777
G1 X165.260 Y154.686 E0.21040
G1 X165.504 Y154.453 E0.22214
G1 X170.857 Y145.645 E0.58053
G1 X171.073 Y144.912 E0.60712
G1 X171.120 Y144.525 E0.62068
G1 X171.093 Y143.742 E0.64791
G1 X170.907 Y143.002 E0.67446
G1 X170.754 Y142.666 E0.68729
G1 X170.323 Y142.103 E0.71194
G1 X170.042 Y141.895 E0.72411
G1 X169.718 Y141.757 E0.73634
G1 X169.405 Y141.714 E0.74732
G1 X159.421 Y141.714 E1.09449
G1 X159.109 Y141.757 E1.10547
G1 X158.785 Y141.895 E1.11770
G1 X158.503 Y142.103 E1.12988
G1 X158.073 Y142.666 E1.15453
G1 X157.806 Y143.363 E1.18046
G1 X157.733 Y143.742 E1.19389
G1 X157.706 Y144.525 E1.22112
G1 X157.842 Y145.291 E1.24817
G1 X158.123 Y145.944 E1.27291
G1 X161.245 Y151.095 E1.48237
G1 X161.543 Y150.915 F9000.000
;TYPE:External perimeter
G1 F900.000
G1 X163.390 Y153.961 E1.60625
G1 X163.779 Y154.407 E1.62681
G1 X164.019 Y154.551 E1.63654
G1 X164.279 Y154.627 E1.64597
G1 X164.547 Y154.627 E1.65530
G1 X164.808 Y154.551 E1.66473
G1 X165.252 Y154.212 E1.68415
G1 X170.538 Y145.503 E2.03843
G1 X170.729 Y144.852 E2.06202
G1 X170.772 Y144.501 E2.07431
G1 X170.748 Y143.790 E2.09904
G1 X170.581 Y143.127 E2.12283
G1 X170.447 Y142.834 E2.13404
G1 X170.088 Y142.363 E2.15461
G1 X169.624 Y142.096 E2.17323
G1 X169.381 Y142.063 E2.18176
G1 X159.445 Y142.063 E2.52725
G1 X159.202 Y142.096 E2.53579
G1 X158.738 Y142.363 E2.55441
G1 X158.379 Y142.834 E2.57498
G1 X158.145 Y143.448 E2.59786
G1 X158.079 Y143.790 E2.60997
G1 X158.055 Y144.501 E2.63470
G1 X158.175 Y145.190 E2.65901
G1 X158.427 Y145.774 E2.68115
G1 X161.512 Y150.863 E2.88809
G1 X161.351 Y151.265 F9000.000
G92 E0
G1 E-1.00000 F2100.000
G1 X168.657 Y152.517 F9000.000
G1 E0.00000 F2100.000
;TYPE:Perimeter
G1 F900.000
G1 X168.588 Y153.000 E0.01698
G1 X168.615 Y153.783 E0.04421
G1 X168.801 Y154.523 E0.07076
G1 X168.954 Y154.859 E0.08359
G1 X169.385 Y155.422 E0.10824
G1 X169.667 Y155.630 E0.12041
G1 X169.990 Y155.768 E0.13264
G1 X170.303 Y155.811 E0.14363
G1 X182.106 Y155.811 E0.55403
G1 X182.419 Y155.768 E0.56501
G1 X182.742 Y155.630 E0.57725
G1 X183.024 Y155.422 E0.58942
G1 X183.454 Y154.859 E0.61407
G1 X183.721 Y154.162 E0.64000
G1 X183.827 Y153.393 E0.66701
G1 X183.821 Y153.000 E0.68067
G1 X183.695 Y152.271 E0.70640
G1 X183.404 Y151.581 E0.73244
G1 X177.927 Y142.546 E1.09983
G1 X177.515 Y142.057 E1.12206
G1 X177.245 Y141.873 E1.13342
G1 X176.940 Y141.752 E1.14484
G1 X176.648 Y141.714 E1.15507
G1 X175.469 Y141.752 E1.19609
G1 X175.164 Y141.873 E1.20751
G1 X174.894 Y142.057 E1.21887
G1 X174.644 Y142.318 E1.23145
G1 X169.005 Y151.581 E1.60853
G1 X168.837 Y151.918 E1.62164
G1 X168.671 Y152.458 E1.64128
G1 X169.010 Y152.537 F9000.000
;TYPE:External perimeter
G1 F900.000
G1 X168.930 Y153.381 E1.67077
G1 X169.027 Y154.077 E1.69519
G1 X169.127 Y154.399 E1.70691
G1 X169.426 Y154.949 E1.72868
G1 X169.620 Y155.162 E1.73871
G1 X170.084 Y155.429 E1.75733
G1 X170.327 Y155.463 E1.76586
G1 X182.325 Y155.429 E2.18305
G1 X182.789 Y155.162 E2.20167
G1 X183.148 Y154.692 E2.22224
G1 X183.382 Y154.077 E2.24512
G1 X183.479 Y153.381 E2.26955
G1 X183.472 Y153.024 E2.28196
G1 X183.356 Y152.353 E2.30566
G1 X183.100 Y151.751 E2.32840
G1 X177.636 Y142.737 E2.69492
G1 X177.291 Y142.326 E2.71359
G1 X177.081 Y142.183 E2.72243
G1 X176.626 Y142.063 E2.73880
G1 X175.557 Y142.092 E2.77597
G1 X175.118 Y142.326 E2.79327
G1 X174.923 Y142.527 E2.80302
G1 X169.309 Y151.751 E3.17848
G1 X169.024 Y152.479 E3.20566
G1 X168.877 Y152.578 F9000.000
G92 E0
G1 E-1.00000 F2100.000
G1 X181.705 Y145.944 F9000.000
G1 E0.00000 F2100.000
;TYPE:Perimeter
G1 F900.000
G1 X186.682 Y154.154 E0.33383
G1 X187.149 Y154.686 E0.35844
G1 X187.461 Y154.873 E0.37108
G1 X187.812 Y154.975 E0.38381
G1 X188.180 Y154.975 E0.39659
G1 X188.531 Y154.873 E0.40932
G1 X188.843 Y154.686 E0.42195
G1 X189.303 Y154.163 E0.44619
G1 X194.286 Y145.944 E0.78040
G1 X194.455 Y145.606 E0.79354
G1 X194.653 Y144.925 E0.81819
G1 X194.703 Y144.509 E0.83276
G1 X194.676 Y143.741 E0.85948
G1 X194.490 Y143.002 E0.88600
G1 X194.155 Y142.383 E0.91045
G1 X193.906 Y142.103 E0.92349
G1 X193.624 Y141.895 E0.93566
G1 X193.301 Y141.758 E0.94789
G1 X192.988 Y141.714 E0.95888
G1 X183.004 Y141.714 E1.30604
G1 X182.691 Y141.757 E1.31703
G1 X182.367 Y141.895 E1.32926
G1 X181.849 Y142.364 E1.35355
G1 X181.655 Y142.666 E1.36605
G1 X181.389 Y143.363 E1.39198
G1 X181.316 Y143.742 E1.40541
G1 X181.289 Y144.525 E1.43265
G1 X181.424 Y145.291 E1.45969
G1 X181.678 Y145.891 E1.48235
G1 X181.988 Y145.732 F9000.000
;TYPE:External perimeter
G1 F900.000
G1 X186.973 Y153.961 E1.81690
G1 X187.361 Y154.407 E1.83747
G1 X187.601 Y154.551 E1.84719
G1 X187.862 Y154.627 E1.85662
G1 X188.130 Y154.627 E1.86595
G1 X188.390 Y154.551 E1.87538
G1 X188.630 Y154.407 E1.88511
G1 X189.022 Y153.955 E1.90590
G1 X193.982 Y145.774 E2.23858
G1 X194.128 Y145.485 E2.24985
G1 X194.311 Y144.857 E2.27258
