; generated by SuperSlicer 2.4 on 2022-09-09 at 18:57:41 UTC


;
;

;
;
; 

; external perimeters extrusion width = 0.40mm
; perimeters extrusion width = 0.50mm
; infill extrusion width = 0.72mm
; solid infill extrusion width = 0.56mm
; top infill extrusion width = 0.40mm
; support material extrusion width = 0.50mm

; external perimeters extrusion width = 0.40mm
; perimeters extrusion width = 0.50mm
; infill extrusion width = 0.72mm
; solid infill extrusion width = 0.56mm
; top infill extrusion width = 0.40mm
; support material extrusion width = 0.50mm

; object:{"name":"Pebble_Time_Ver_v2","id":"Pebble_Time_Ver_v2.stl id:0 copy 0","object_center":[175.500000,150.000119,0.000000],"boundingbox_center":[175.500000,150.000119,19.000000],"boundingbox_size":[29.999998,63.377140,38.000000]}
; object:{"name":"Watch_Stand_Base_v2","id":"Watch_Stand_Base_v2.stl id:1 copy 0","object_center":[134.500001,150.000002,0.000000],"boundingbox_center":[134.500001,150.000002,5.000001],"boundingbox_size":[39.999998,69.472553,10.000001]}
; plater:{"center":[152.500000,150.000002,0.000000],"boundingbox_center":[152.500000,150.000002,19.000000],"boundingbox_size":[75.999997,69.472553,38.000000]}

M73 P0 R93
;TYPE:Custom
START_PRINT T_BED=60 T_EXTRUDER=200
M107
G21 ; set units to millimeters
G90 ; use absolute coordinates
M83 ; use relative distances for extrusion
; Filament gcode
;_TOOLCHANGE 0
M104 S200 ; set temperature
M109 S200 ; set temperature and wait for it to be reached
M190 S60 ; set bed temperature and wait for it to be reached
M107
;LAYER_CHANGE
;Z:0.2
;HEIGHT:0.2
G1 Z0.2 F9000
G92 E0
G1 E-0.8 F3000
M204 S1000
G1 X113.423 Y121.082 F9000
G1 E0.8 F1800
;TYPE:Skirt
;WIDTH:0.52
G1 X112.179 Y122.497 E0.07323
G1 X111.784 Y124.163 E0.06657
G1 X111.784 Y163.126 E1.51471
G1 X112.56 Y165.398 E0.09332
G1 X127.571 Y184.826 E0.9545
G1 X128.514 Y185.868 E0.05463
G1 X129.852 Y186.904 E0.06577
G1 X131.438 Y187.499 E0.06586
G1 X158.922 Y191.036 E1.07726
G1 X192.078 Y191.036 E1.28899
G1 X194.299 Y190.3 E0.09097
G1 X195.399 Y188.987 E0.06657
G1 X195.794 Y187.321 E0.06657
G1 X195.784 Y168.725 E0.72291
G1 X193.205 Y133.991 E1.35404
G1 X192.922 Y132.818 E0.04691
G1 X191.909 Y131.437 E0.06657
G1 X177.909 Y119.515 E0.71488
G1 X167.19 Y112.338 E0.5015
G1 X165.129 Y111.714 E0.08372
G1 X128.316 Y111.87 E1.43116
G1 X126.71 Y112.243 E0.06407
G1 X125.862 Y112.696 E0.03739
G1 X113.423 Y121.082 E0.58322
G1 X113.69 Y121.478 F9000
G1 F1800
G1 X112.655 Y122.615 E0.05977
G1 X112.261 Y124.163 E0.06209
G1 X112.261 Y163.126 E1.51471
G1 X112.937 Y165.106 E0.08134
G1 X127.949 Y184.535 E0.9545
G1 X128.829 Y185.51 E0.05106
G1 X130.117 Y186.507 E0.06335
G1 X131.5 Y187.026 E0.05741
G1 X158.922 Y190.559 E1.07487
G1 X192.078 Y190.559 E1.28899
G1 X193.837 Y190.04 E0.0713
G1 X194.923 Y188.869 E0.06209
G1 X195.317 Y187.321 E0.06209
G1 X195.308 Y168.761 E0.72154
G1 X192.73 Y134.026 E1.35404
G1 X192.523 Y133.104 E0.03675
G1 X191.6 Y131.8 E0.06209
G1 X177.6 Y119.878 E0.71488
G1 X166.925 Y112.735 E0.49933
G1 X165.129 Y112.191 E0.07297
G1 X128.318 Y112.347 E1.43107
G1 X126.919 Y112.672 E0.05584
G1 X126.129 Y113.091 E0.03477
G1 X113.69 Y121.478 E0.58322
M73 P0 R93
G1 E-0.8 F3000
; printing object Pebble_Time_Ver_v2.stl id:0 copy 0
G1 X172.043 Y122.343 F9000
G1 E0.8 F1800
;TYPE:Support material interface
;WIDTH:0.5

G1 X175.5 Y122.343 E0.12876
G1 X175.5 Y124.649 E0.08588
G1 X174.66 Y124.164 E0.03613
G1 X173.837 Y124.385 E0.03174
G1 X173.019 Y125.801 E0.0609
G1 X172.043 Y125.801 E0.03637
G1 X172.043 Y122.343 E0.12876
G1 E-0.8 F3000
G1 X175.386 Y123.083 F9000
G1 E0.8 F1800

G1 X172.354 Y123.083 E0.11293
G1 X172.354 Y123.591 E0.01892
G1 X175.189 Y123.591 E0.10561
G1 X175.189 Y124.099 E0.01892
G1 X175.169 Y124.099 E0.00076
G1 X174.704 Y123.83 E0.02
G1 X173.702 Y124.099 E0.03864
G1 X172.354 Y124.099 E0.05021
G1 X172.354 Y124.607 E0.01892
G1 X173.35 Y124.607 E0.03709
G1 X173.056 Y125.115 E0.02184
G1 X172.157 Y125.115 E0.03349
G1 E-0.8 F3000
G1 X168.586 Y122.343 F9000
G1 E0.8 F1800

G1 X165.382 Y122.343 E0.11934
G1 X166.612 Y120.213 E0.09163
G1 X166.391 Y119.39 E0.03174
G1 X165.519 Y118.886 E0.03752
G1 X168.586 Y118.886 E0.11424
G1 X168.586 Y122.343 E0.12876
G1 E-0.8 F3000
G1 X168.472 Y119.528 F9000
G1 E0.8 F1800

G1 X166.75 Y119.528 E0.06413
G1 X166.886 Y120.036 E0.01958
G1 X168.275 Y120.036 E0.05174
G1 X168.275 Y120.544 E0.01892
G1 X166.78 Y120.544 E0.0557
G1 X166.486 Y121.052 E0.02184
G1 X168.275 Y121.052 E0.06662
G1 X168.275 Y121.56 E0.01892
G1 X165.966 Y121.56 E0.086
G1 E-0.8 F3000
G1 X165.129 Y118.661 F9000
G1 E0.8 F1800

G1 X163.402 Y117.664 E0.07429
G1 X162.578 Y117.885 E0.03174
G1 X162 Y118.886 E0.04309
G1 X161.672 Y118.886 E0.01223
G1 X161.672 Y115.429 E0.12876
G1 X165.129 Y115.429 E0.12876
G1 X165.129 Y118.661 E0.12038
G1 E-0.8 F3000
G1 X165.015 Y115.973 F9000
G1 E0.8 F1800

G1 X161.982 Y115.973 E0.11293
G1 X161.982 Y116.481 E0.01892
G1 X164.818 Y116.481 E0.10561
G1 X164.818 Y116.989 E0.01892
G1 X161.982 Y116.989 E0.10561
G1 X161.982 Y117.497 E0.01892
G1 X164.818 Y117.497 E0.10561
G1 X164.818 Y118.005 E0.01892
G1 X164.22 Y118.005 E0.02228
G1 X162.377 Y118.005 F9000
G1 F1800
G1 X161.786 Y118.005 E0.02202
G1 E-0.8 F3000
G1 X192.078 Y169 F9000
G1 E0.8 F1800
;TYPE:Support material
G1 X192.078 Y187.321 E0.68236
G1 X183.121 Y187.321 E0.33361
G1 X183.121 Y183.864 E0.12876
G1 X179.664 Y183.864 E0.12876
G1 X179.664 Y174.667 E0.34253
G1 X189.947 Y174.667 E0.38298
G1 X190.579 Y174.035 E0.03328
G1 X190.579 Y170.5 E0.13168
G1 X192.078 Y169 E0.07899
G1 X191.752 Y187.206 F9000
G1 F1800
G1 X191.752 Y169.766 E0.64958
G1 X191.244 Y170.274 E0.02675
G1 X191.244 Y187.01 E0.62334
G1 X190.736 Y187.01 E0.01892
G1 X190.736 Y174.318 E0.47274
G1 X190.228 Y174.825 E0.02675
G1 X190.228 Y187.01 E0.45383
G1 X189.72 Y187.01 E0.01892
G1 X189.72 Y174.978 E0.44814
G1 X189.212 Y174.978 E0.01892
G1 X189.212 Y187.01 E0.44814
G1 X188.705 Y187.01 E0.01892
G1 X188.705 Y174.978 E0.44814
G1 X188.197 Y174.978 E0.01892
G1 X188.197 Y187.01 E0.44814
G1 X187.689 Y187.01 E0.01892
G1 X187.689 Y174.978 E0.44814
G1 X187.181 Y174.978 E0.01892
G1 X187.181 Y187.01 E0.44814
G1 X186.673 Y187.01 E0.01892
G1 X186.673 Y174.978 E0.44814
G1 X186.165 Y174.978 E0.01892
G1 X186.165 Y187.01 E0.44814
G1 X185.657 Y187.01 E0.01892
G1 X185.657 Y174.978 E0.44814
G1 X185.149 Y174.978 E0.01892
G1 X185.149 Y187.01 E0.44814
M73 P1 R92
G1 X184.642 Y187.01 E0.01892
G1 X184.642 Y174.978 E0.44814
G1 X184.134 Y174.978 E0.01892
G1 X184.134 Y187.01 E0.44814
G1 X183.626 Y187.01 E0.01892
G1 X183.626 Y174.978 E0.44814
G1 X183.118 Y174.978 E0.01892
G1 X183.118 Y183.553 E0.31938
G1 X182.61 Y183.553 E0.01892
G1 X182.61 Y174.978 E0.31938
G1 X182.102 Y174.978 E0.01892
G1 X182.102 Y183.553 E0.31938
G1 X181.594 Y183.553 E0.01892
G1 X181.594 Y174.978 E0.31938
G1 X181.087 Y174.978 E0.01892
G1 X181.087 Y183.553 E0.31938
G1 X180.579 Y183.553 E0.01892
G1 X180.579 Y174.978 E0.31938
G1 X180.071 Y174.978 E0.01892
G1 X180.071 Y183.749 E0.3267
G1 E-0.8 F3000
G1 X171.336 Y183.749 F9000
G1 E0.8 F1800
G1 X171.336 Y183.864 E0.00426
G1 X167.879 Y183.864 E0.12876
G1 X167.879 Y187.321 E0.12876
G1 X158.922 Y187.321 E0.33361
G1 X158.922 Y169 E0.68237
G1 X160.421 Y170.5 E0.07899
G1 X160.421 Y174.035 E0.13168
G1 X161.053 Y174.667 E0.03328
G1 X171.336 Y174.667 E0.38298
G1 X171.336 Y183.749 E0.33828
G1 X170.929 Y183.749 F9000
G1 F1800
G1 X170.929 Y174.978 E0.3267
G1 X170.421 Y174.978 E0.01892
G1 X170.421 Y183.553 E0.31938
G1 X169.913 Y183.553 E0.01892
G1 X169.913 Y174.978 E0.31938
G1 X169.406 Y174.978 E0.01892
G1 X169.406 Y183.553 E0.31938
G1 X168.898 Y183.553 E0.01892
G1 X168.898 Y174.978 E0.31938
G1 X168.39 Y174.978 E0.01892
G1 X168.39 Y183.553 E0.31938
G1 X167.882 Y183.553 E0.01892
G1 X167.882 Y174.978 E0.31938
G1 X167.374 Y174.978 E0.01892
G1 X167.374 Y187.01 E0.44814
G1 X166.866 Y187.01 E0.01892
G1 X166.866 Y174.978 E0.44814
G1 X166.358 Y174.978 E0.01892
G1 X166.358 Y187.01 E0.44814
G1 X165.851 Y187.01 E0.01892
G1 X165.851 Y174.978 E0.44814
G1 X165.343 Y174.978 E0.01892
G1 X165.343 Y187.01 E0.44814
G1 X164.835 Y187.01 E0.01892
G1 X164.835 Y174.978 E0.44814
G1 X164.327 Y174.978 E0.01892
G1 X164.327 Y187.01 E0.44814
G1 X163.819 Y187.01 E0.01892
G1 X163.819 Y174.978 E0.44814
G1 X163.311 Y174.978 E0.01892
G1 X163.311 Y187.01 E0.44814
G1 X162.803 Y187.01 E0.01892
G1 X162.803 Y174.978 E0.44814
G1 X162.295 Y174.978 E0.01892
G1 X162.295 Y187.01 E0.44814
G1 X161.788 Y187.01 E0.01892
G1 X161.788 Y174.978 E0.44814
G1 X161.28 Y174.978 E0.01892
G1 X161.28 Y187.01 E0.44814
G1 X160.772 Y187.01 E0.01892
G1 X160.772 Y174.825 E0.45383
G1 X160.264 Y174.318 E0.02675
G1 X160.264 Y187.01 E0.47274
G1 X159.756 Y187.01 E0.01892
G1 X159.756 Y170.274 E0.62334
G1 X159.248 Y169.766 E0.02675
G1 X159.248 Y187.206 E0.64958
G1 E-0.8 F3000
G1 X160.421 Y122.645 F9000
G1 E0.8 F1800
G1 X158.922 Y122.243 E0.05783
G1 X158.922 Y116.594 E0.21041
G1 X160.964 Y116.594 E0.07608
G1 X160.964 Y119.594 E0.11174
G1 X161.88 Y119.594 E0.03412
G1 X161.758 Y119.805 E0.00909
G1 X161.517 Y120.223 E0.01797
G1 X160.794 Y121.476 E0.0539
G1 X160.495 Y121.993 E0.02226
G1 X160.421 Y122.268 E0.01058
G1 X160.421 Y122.645 E0.01404
G1 X161.28 Y120.405 F9000
G1 F1800
G1 X161.28 Y119.904 E0.01866
G1 X160.772 Y119.904 E0.01892
G1 X160.772 Y120.892 E0.03679
G1 X160.525 Y121.32 E0.01842
G1 X160.264 Y121.772 E0.01941
G1 X160.264 Y116.904 E0.18129
G1 X159.756 Y116.904 E0.01892
G1 X159.756 Y122.145 E0.19518
G1 X159.248 Y122.009 E0.01958
G1 X159.248 Y116.708 E0.19743
G1 E-0.8 F3000
G1 X165.836 Y116.708 F9000
G1 E0.8 F1800
G1 X165.836 Y116.594 E0.00426
G1 X166.499 Y116.594 E0.0247
G1 X166.243 Y117.037 E0.01909
G1 X165.836 Y117.742 E0.03031
G1 X165.836 Y116.708 E0.03853
G1 E-0.8 F3000
G1 X187.564 Y170.753 F9000
G1 E0.8 F1800
;TYPE:Internal perimeter
G1 X187.564 Y138.848 E1.18834
G1 X164.6 Y125.589 E0.98765
G1 X163.436 Y126.262 E0.05007
G1 X163.436 Y170.753 E1.65713
G1 X187.564 Y170.753 E0.89869
G1 X187.107 Y170.296 F9000
G1 F1800
G1 X187.107 Y139.112 E1.16149
G1 X164.6 Y126.117 E0.96799
G1 X163.893 Y126.525 E0.03041
G1 X163.893 Y170.296 E1.63028
G1 X187.107 Y170.296 E0.86464
G1 X186.7 Y169.889 F9000
;TYPE:External perimeter
;WIDTH:0.4
G1 F1800
G1 X186.7 Y139.347 E0.88869
G1 X164.6 Y126.587 E0.74253
G1 X164.3 Y126.76 E0.01008
G1 X164.3 Y169.889 E1.25492
G1 X186.7 Y169.889 E0.65178
;WIPE_START
M204 S3000
G1 X187.1 Y169.889 F9000
;WIPE_END
G1 E-0.8 F3000
M204 S1000
G1 X173.464 Y129.816 F9000
G1 E0.8 F1800
;TYPE:Internal perimeter
;WIDTH:0.5
G1 X175.014 Y127.131 E0.11546
G1 X188.436 Y134.88 E0.57726
G1 X188.436 Y172.525 E1.4021
G1 X162.564 Y172.525 E0.96362
G1 X162.564 Y123.523 E1.82512
G1 X163.528 Y124.079 E0.04144
G1 X173.464 Y129.816 E0.42733
G1 X173.297 Y129.192 F9000
G1 F1800
G1 X174.847 Y126.507 E0.11546
G1 X188.893 Y134.617 E0.60411
G1 X188.893 Y172.982 E1.42895
G1 X162.107 Y172.982 E0.99767
G1 X162.107 Y122.572 E1.87756
G1 X163.588 Y120.007 E0.11033
G1 X164.269 Y120.4 E0.02927
G1 X162.719 Y123.084 E0.11546
G1 X163.756 Y123.683 E0.04462
G1 X173.297 Y129.192 E0.41031
G1 X173.148 Y128.635 F9000
;TYPE:External perimeter
;WIDTH:0.4
G1 F1800
G1 X174.698 Y125.951 E0.0902
G1 X189.3 Y134.382 E0.49063
G1 X189.3 Y173.389 E1.13501
M73 P1 R92
G1 X161.7 Y173.389 E0.80309
G1 X161.7 Y122.463 E1.4818
G1 X163.439 Y119.451 E0.10121
G1 X163.942 Y119.741 E0.01688
G1 X164.825 Y120.251 E0.02968
G1 X163.275 Y122.935 E0.0902
G1 X163.96 Y123.331 E0.02301
G1 X173.148 Y128.635 E0.3087
;WIPE_START
M204 S3000
G1 X173.494 Y128.835 F9000
;WIPE_END
M204 S1000
G1 X173.484 Y130.273
;TYPE:Gap fill
;WIDTH:0.393518
G1 F1800
G1 X173.333 Y130.186 E0.00501
G1 X169.124 Y127.756 E0.13885
G1 X164.915 Y125.326 E0.13885
G1 X164.818 Y125.28 E0.00304
;WIDTH:0.320356
G1 X164.722 Y125.234 E0.00241
G1 X163.022 Y126.216 F9000
;WIDTH:0.3995
G1 F1800
G1 X163.011 Y126.352 E0.00398
;WIDTH:0.493529
G1 X163 Y126.489 E0.00503
G1 X163 Y170.999 E1.63438
G1 E-0.8 F3000
G1 X187.118 Y170.812 F9000
G1 E0.8 F1800
;TYPE:Solid infill
;WIDTH:0.499833
G1 F2400
G1 X188.154 Y171.848 E0.05509
G1 X188.154 Y172.243 E0.01484
G1 X187.817 Y172.243 E0.01266
G1 X186.609 Y171.035 E0.06425
G1 X185.878 Y171.035 E0.0275
G1 X187.086 Y172.243 E0.06425
G1 X186.355 Y172.243 E0.0275
G1 X185.147 Y171.035 E0.06425
G1 X184.416 Y171.035 E0.0275
G1 X185.623 Y172.243 E0.06425
G1 X184.892 Y172.243 E0.0275
G1 X183.684 Y171.035 E0.06425
G1 X182.953 Y171.035 E0.0275
G1 X184.161 Y172.243 E0.06425
G1 X183.43 Y172.243 E0.0275
G1 X182.222 Y171.035 E0.06425
G1 X181.49 Y171.035 E0.0275
G1 X182.698 Y172.243 E0.06425
G1 X181.967 Y172.243 E0.0275
G1 X180.759 Y171.035 E0.06425
G1 X180.028 Y171.035 E0.0275
G1 X181.236 Y172.243 E0.06425
G1 X180.505 Y172.243 E0.0275
G1 X179.297 Y171.035 E0.06425
G1 X178.565 Y171.035 E0.0275
G1 X179.773 Y172.243 E0.06425
G1 X179.042 Y172.243 E0.0275
G1 X177.834 Y171.035 E0.06425
G1 X177.103 Y171.035 E0.0275
G1 X178.311 Y172.243 E0.06425
G1 X177.58 Y172.243 E0.0275
G1 X176.372 Y171.035 E0.06425
G1 X175.64 Y171.035 E0.0275
G1 X176.848 Y172.243 E0.06425
G1 X176.117 Y172.243 E0.0275
G1 X174.909 Y171.035 E0.06425
G1 X174.178 Y171.035 E0.0275
G1 X175.386 Y172.243 E0.06425
G1 X174.655 Y172.243 E0.0275
G1 X173.447 Y171.035 E0.06425
G1 X172.715 Y171.035 E0.0275
G1 X173.923 Y172.243 E0.06425
G1 X173.192 Y172.243 E0.0275
G1 X171.984 Y171.035 E0.06425
G1 X171.253 Y171.035 E0.0275
G1 X172.461 Y172.243 E0.06425
G1 X171.73 Y172.243 E0.0275
G1 X170.522 Y171.035 E0.06425
G1 X169.79 Y171.035 E0.0275
G1 X170.998 Y172.243 E0.06425
G1 X170.267 Y172.243 E0.0275
G1 X169.059 Y171.035 E0.06425
G1 X168.328 Y171.035 E0.0275
G1 X169.536 Y172.243 E0.06425
G1 X168.804 Y172.243 E0.0275
G1 X167.597 Y171.035 E0.06425
G1 X166.865 Y171.035 E0.0275
G1 X168.073 Y172.243 E0.06425
G1 X167.342 Y172.243 E0.0275
G1 X166.134 Y171.035 E0.06425
G1 X165.403 Y171.035 E0.0275
G1 X166.611 Y172.243 E0.06425
G1 X165.879 Y172.243 E0.0275
G1 X164.672 Y171.035 E0.06425
G1 X163.94 Y171.035 E0.0275
G1 X165.148 Y172.243 E0.06425
G1 X164.417 Y172.243 E0.0275
G1 X163.422 Y171.248 E0.05293
G1 X162.846 Y171.248 E0.02165
G1 X162.846 Y171.403 E0.00585
G1 X163.686 Y172.243 E0.04466
G1 X162.954 Y172.243 E0.0275
G1 X162.624 Y171.912 E0.01759
G1 E-0.8 F3000
G1 X188 Y170.999 F9000
M73 P2 R92
G1 E0.8 F1800
;TYPE:Gap fill
;WIDTH:0.493529
G1 X188 Y170.887 E0.00414
G1 X188 Y170.774 E0.00414
G1 X188 Y139.075 E1.16396
G1 X187.989 Y138.938 E0.00503
;WIDTH:0.399498
G1 X187.978 Y138.802 E0.00398
G1 E-0.8 F3000
G1 X185.877 Y133.472 F9000
G1 E0.8 F1800
;TYPE:Solid infill
;WIDTH:0.53486
G1 F2400
G1 X188.154 Y135.749 E0.12957
G1 X188.154 Y136.48 E0.02943
G1 X184.755 Y133.081 E0.19347
G1 X183.024 Y132.082 E0.0804
G1 X188.154 Y137.211 E0.29194
G1 X188.154 Y137.942 E0.02943
G1 X181.294 Y131.083 E0.39041
G1 X179.564 Y130.084 E0.0804
G1 X188.029 Y138.549 E0.48177
G1 X187.662 Y138.579 E0.01484
G1 X186.871 Y138.122 E0.03672
G1 X177.834 Y129.085 E0.51435
G1 X176.104 Y128.086 E0.0804
G1 X185.141 Y137.123 E0.51435
G1 X183.411 Y136.124 E0.0804
G1 X175.002 Y127.716 E0.47858
G1 X174.734 Y128.179 E0.02154
G1 X181.681 Y135.126 E0.39535
G1 X179.951 Y134.127 E0.0804
G1 X174.467 Y128.643 E0.31211
G1 X174.199 Y129.106 E0.02154
G1 X178.22 Y133.128 E0.22887
G1 X176.49 Y132.129 E0.0804
G1 X173.931 Y129.57 E0.14564
G1 X173.727 Y129.924 E0.01647
G1 X173.911 Y130.031 E0.00856
G1 X173.82 Y130.189 E0.00737
G1 X175.368 Y131.737 E0.0881
G1 E-0.8 F3000
G1 X187.454 Y134.633 F9000
G1 E0.8 F1800
;TYPE:Gap fill
;WIDTH:0.15492
G1 X187.575 Y134.726 E0.00139
;WIDTH:0.20075
G1 X187.696 Y134.819 E0.00196
;WIDTH:0.246579
G1 X187.817 Y134.912 E0.00253
;WIDTH:0.292408
G1 X187.938 Y135.005 E0.0031
;WIDTH:0.324005
G1 X188.06 Y135.098 E0.0035
G1 X188.207 Y135.243 E0.00474
G1 E-0.8 F3000
G1 X162.624 Y123.739 F9000
G1 E0.8 F1800
;TYPE:Solid infill
;WIDTH:0.606453
G1 F2400
G1 X164.314 Y125.429 E0.10906
G1 X163.85 Y125.697 E0.02443
G1 X162.846 Y124.693 E0.0648
G1 X162.846 Y125.424 E0.03337
G1 X163.549 Y126.127 E0.04538
G1 X164.725 Y125.232 F9000
;TYPE:Gap fill
;WIDTH:0.329103
G1 F1800
G1 X164.62 Y125.137 E0.00332
G1 X164.506 Y125.05 E0.00334
;WIDTH:0.282927
G1 X164.393 Y124.963 E0.0028
;WIDTH:0.240258
G1 X164.279 Y124.876 E0.0023
