; generated by SuperSlicer 2.4 on 2022-09-09 at 23:39:38 UTC


;
;

;
;
; 

; external perimeters extrusion width = 0.40mm
; perimeters extrusion width = 0.50mm
; infill extrusion width = 0.72mm
; solid infill extrusion width = 0.56mm
; top infill extrusion width = 0.40mm
; support material extrusion width = 0.50mm

; object:{"name":"Time_Charging_Stand","id":"Time_Charging_Stand.STL id:0 copy 0","object_center":[152.500000,150.000000,0.000000],"boundingbox_center":[152.500000,150.000000,22.500000],"boundingbox_size":[45.000000,85.585785,45.000000]}
; plater:{"center":[152.500000,150.000000,0.000000],"boundingbox_center":[152.500000,150.000000,22.500000],"boundingbox_size":[45.000000,85.585785,45.000000]}

M73 P0 R80
;TYPE:Custom
START_PRINT T_BED=60 T_EXTRUDER=200
M107
G21 ; set units to millimeters
G90 ; use absolute coordinates
M83 ; use relative distances for extrusion
; Filament gcode
;_TOOLCHANGE 0
M104 S200 ; set temperature
M109 S200 ; set temperature and wait for it to be reached
M190 S60 ; set bed temperature and wait for it to be reached
M107
;LAYER_CHANGE
;Z:0.2
;HEIGHT:0.2
G1 Z0.2 F9000
G92 E0
M73 P0 R80
G1 E-0.8 F3000
M204 S1000
G1 X128.121 Y105.371 F9000
G1 E0.8 F1800
;TYPE:Skirt
;WIDTH:0.52
G1 X127.452 Y106.274 E0.04281
G1 X127.046 Y107.398 E0.04549
G1 X126.957 Y108.216 E0.03134
G1 X126.951 Y168.034 E2.27802
G1 X127.062 Y168.946 E0.03498
G1 X127.618 Y170.246 E0.05385
G1 X128.148 Y170.91 E0.03235
G1 X151.883 Y194.645 E1.27831
G1 X152.54 Y195.171 E0.03203
G1 X153.863 Y195.734 E0.05477
G1 X155.636 Y195.734 E0.06752
G1 X156.87 Y195.229 E0.05076
G1 X157.619 Y194.648 E0.03613
G1 X164.674 Y187.592 E0.37999
G1 X165.261 Y186.835 E0.03646
G1 X165.757 Y185.625 E0.04982
G1 X177.985 Y116.848 E2.66027
G1 X178.043 Y116.198 E0.02485
G1 X178.043 Y108.216 E0.30395
G1 X177.954 Y107.398 E0.03136
G1 X177.548 Y106.274 E0.04549
G1 X176.879 Y105.371 E0.04281
G1 X176.12 Y104.769 E0.0369
G1 X174.74 Y104.241 E0.05625
G1 X173.99 Y104.164 E0.02873
G1 X131.01 Y104.164 E1.63677
G1 X130.114 Y104.271 E0.03438
G1 X128.88 Y104.769 E0.05066
G1 X128.121 Y105.371 E0.0369
G1 X128.464 Y105.703 F9000
G1 F1800
G1 X127.869 Y106.507 E0.03807
G1 X127.515 Y107.486 E0.03965
G1 X127.434 Y108.216 E0.02798
G1 X127.428 Y168.034 E2.27802
G1 X127.529 Y168.845 E0.03113
G1 X128.013 Y169.978 E0.04693
G1 X128.485 Y170.572 E0.0289
G1 X152.221 Y194.308 E1.27831
G1 X152.808 Y194.776 E0.02862
G1 X153.962 Y195.268 E0.04774
G1 X155.537 Y195.267 E0.06001
G1 X156.613 Y194.827 E0.04424
G1 X157.281 Y194.31 E0.0322
G1 X164.337 Y187.255 E0.37999
G1 X164.858 Y186.579 E0.03249
G1 X165.291 Y185.524 E0.04342
G1 X177.516 Y116.764 E2.65961
G1 X177.566 Y108.216 E0.32553
G1 X177.485 Y107.486 E0.028
G1 X177.131 Y106.507 E0.03965
G1 X176.536 Y105.703 E0.03807
G1 X175.865 Y105.172 E0.0326
G1 X174.644 Y104.708 E0.04974
G1 X173.99 Y104.641 E0.02504
G1 X131.01 Y104.641 E1.63677
G1 X130.21 Y104.738 E0.03069
G1 X129.135 Y105.172 E0.04416
G1 X128.464 Y105.703 E0.0326
G1 E-0.8 F3000
; printing object Time_Charging_Stand.STL id:0 copy 0
G1 X131.737 Y108.944 F9000
G1 E0.8 F1800
;TYPE:Internal perimeter
;WIDTH:0.5
G1 X173.263 Y108.944 E1.51512
G1 X173.263 Y115.47 E0.23811
G1 X154.788 Y115.47 E0.67407
G1 X154.375 Y115.505 E0.01515
G1 X153.925 Y115.622 E0.01696
G1 X153.526 Y115.803 E0.01597
G1 X151.254 Y117.189 E0.09712
G1 X149.117 Y118.73 E0.09613
G1 X147.105 Y120.431 E0.09613
G1 X145.229 Y122.282 E0.09613
G1 X143.502 Y124.271 E0.09613
G1 X141.932 Y126.387 E0.09613
G1 X140.53 Y128.618 E0.09613
G1 X139.303 Y130.949 E0.09613
G1 X138.26 Y133.369 E0.09613
G1 X137.405 Y135.861 E0.09613
G1 X136.744 Y138.411 E0.09613
G1 X136.282 Y141.005 E0.09613
G1 X136.02 Y143.627 E0.09613
G1 X135.961 Y146.261 E0.09613
G1 X136.104 Y148.891 E0.09613
G1 X136.449 Y151.503 E0.09613
G1 X136.994 Y154.081 E0.09613
G1 X137.735 Y156.609 E0.09613
G1 X138.668 Y159.073 E0.09613
G1 X139.789 Y161.458 E0.09613
G1 X141.089 Y163.749 E0.09613
G1 X142.561 Y165.934 E0.09613
G1 X144.197 Y167.999 E0.09613
G1 X145.972 Y169.916 E0.09531
G1 X160.781 Y184.725 E0.76414
G1 X154.752 Y190.754 E0.31108
G1 X131.731 Y167.733 E1.18789
G1 X131.737 Y108.944 E2.14497
M73 P1 R79
G1 X131.28 Y108.487 F9000
G1 F1800
G1 X173.72 Y108.487 E1.54847
G1 X173.72 Y115.927 E0.27146
G1 X154.808 Y115.927 E0.69003
G1 X154.452 Y115.957 E0.01302
G1 X154.077 Y116.055 E0.01412
G1 X153.74 Y116.208 E0.01352
G1 X151.507 Y117.57 E0.09545
G1 X149.398 Y119.091 E0.09484
G1 X147.413 Y120.769 E0.09484
G1 X145.563 Y122.595 E0.09485
G1 X143.858 Y124.557 E0.09484
G1 X142.31 Y126.645 E0.09484
G1 X140.926 Y128.846 E0.09485
G1 X139.716 Y131.147 E0.09485
G1 X138.686 Y133.533 E0.09484
G1 X137.843 Y135.992 E0.09485
G1 X137.191 Y138.509 E0.09485
G1 X136.735 Y141.068 E0.09484
G1 X136.477 Y143.655 E0.09485
G1 X136.418 Y146.253 E0.09484
G1 X136.559 Y148.849 E0.09485
G1 X136.9 Y151.426 E0.09484
G1 X137.437 Y153.969 E0.09484
G1 X138.169 Y156.464 E0.09485
G1 X139.09 Y158.895 E0.09485
G1 X140.195 Y161.248 E0.09484
G1 X141.478 Y163.509 E0.09485
G1 X142.93 Y165.664 E0.09485
G1 X144.545 Y167.702 E0.09484
G1 X146.301 Y169.599 E0.09435
G1 X161.428 Y184.725 E0.7805
G1 X154.752 Y191.401 E0.34443
G1 X131.274 Y167.922 E1.21147
G1 X131.273 Y160.167 E0.28297
G1 X131.28 Y108.487 E1.88558
G1 X130.94 Y108.099 F9000
;TYPE:External perimeter
;WIDTH:0.4
G1 F1800
G1 X131.031 Y108.08 E0.00263
G1 X173.969 Y108.08 E1.22391
G1 X174.049 Y108.096 E0.00231
G1 X174.11 Y108.145 E0.00223
G1 X174.127 Y108.235 E0.00261
G1 X174.127 Y116.179 E0.22644
G1 X174.11 Y116.269 E0.00261
G1 X174.049 Y116.318 E0.00223
G1 X173.969 Y116.334 E0.00231
G1 X154.825 Y116.334 E0.54568
G1 X154.521 Y116.36 E0.00869
G1 X154.214 Y116.44 E0.00906
G1 X153.93 Y116.568 E0.00886
G1 X151.732 Y117.91 E0.0734
G1 X149.649 Y119.412 E0.0732
G1 X147.688 Y121.07 E0.0732
G1 X145.86 Y122.874 E0.0732
G1 X144.176 Y124.813 E0.0732
G1 X142.646 Y126.875 E0.0732
G1 X141.279 Y129.049 E0.0732
G1 X140.084 Y131.322 E0.0732
G1 X139.066 Y133.68 E0.0732
G1 X138.233 Y136.11 E0.0732
G1 X137.589 Y138.596 E0.0732
G1 X137.138 Y141.124 E0.0732
G1 X136.883 Y143.679 E0.0732
G1 X136.825 Y146.247 E0.0732
G1 X136.965 Y148.811 E0.0732
G1 X137.301 Y151.357 E0.0732
G1 X137.832 Y153.87 E0.0732
G1 X138.555 Y156.334 E0.0732
G1 X139.465 Y158.736 E0.0732
G1 X140.557 Y161.06 E0.0732
G1 X141.824 Y163.294 E0.0732
G1 X143.259 Y165.424 E0.0732
G1 X144.854 Y167.437 E0.0732
G1 X146.595 Y169.317 E0.07304
G1 X161.889 Y184.612 E0.61654
G1 X161.938 Y184.683 E0.00246
G1 X161.937 Y184.765 E0.00233
G1 X161.89 Y184.839 E0.00249
G1 X154.865 Y191.863 E0.28317
G1 X154.792 Y191.911 E0.0025
G1 X154.71 Y191.911 E0.00232
G1 X154.639 Y191.863 E0.00246
G1 X130.93 Y168.154 E0.9557
G1 X130.882 Y168.083 E0.00246
G1 X130.867 Y168.012 E0.00206
G1 X130.866 Y160.166 E0.22363
G1 X130.873 Y108.235 E1.48024
G1 X130.886 Y108.164 E0.00206
G1 X130.94 Y108.099 E0.00242
;WIPE_START
M204 S3000
G1 X131.266 Y108.331 F9000
;WIPE_END
G1 E-0.8 F3000
M204 S1000
G1 X172.158 Y109.004 F9000
G1 E0.8 F1800
;TYPE:Solid infill
;WIDTH:0.548667
G1 F2400
G1 X172.981 Y109.827 E0.04706
G1 X172.981 Y110.558 E0.02957
G1 X171.649 Y109.226 E0.07617
G1 X170.918 Y109.226 E0.02957
G1 X172.981 Y111.289 E0.11799
G1 X172.981 Y112.02 E0.02957
G1 X170.187 Y109.226 E0.15981
G1 X169.455 Y109.226 E0.02957
G1 X172.981 Y112.752 E0.20163
G1 X172.981 Y113.483 E0.02957
G1 X168.724 Y109.226 E0.24345
G1 X167.993 Y109.226 E0.02957
G1 X172.981 Y114.214 E0.28528
G1 X172.981 Y114.945 E0.02957
G1 X167.262 Y109.226 E0.3271
G1 X166.53 Y109.226 E0.02957
G1 X172.493 Y115.188 E0.34098
G1 X171.761 Y115.188 E0.02957
G1 X165.799 Y109.226 E0.34098
G1 X165.068 Y109.226 E0.02957
G1 X171.03 Y115.188 E0.34098
G1 X170.299 Y115.188 E0.02957
G1 X164.337 Y109.226 E0.34098
G1 X163.605 Y109.226 E0.02957
G1 X169.568 Y115.188 E0.34098
G1 X168.836 Y115.188 E0.02957
G1 X162.874 Y109.226 E0.34098
G1 X162.143 Y109.226 E0.02957
G1 X168.105 Y115.188 E0.34098
G1 X167.374 Y115.188 E0.02957
G1 X161.412 Y109.226 E0.34098
G1 X160.68 Y109.226 E0.02957
G1 X166.643 Y115.188 E0.34098
M73 P1 R79
G1 X165.911 Y115.188 E0.02957
G1 X159.949 Y109.226 E0.34098
G1 X159.218 Y109.226 E0.02957
G1 X165.18 Y115.188 E0.34098
G1 X164.449 Y115.188 E0.02957
G1 X158.487 Y109.226 E0.34098
G1 X157.755 Y109.226 E0.02957
G1 X163.718 Y115.188 E0.34098
G1 X162.986 Y115.188 E0.02957
G1 X157.024 Y109.226 E0.34098
G1 X156.293 Y109.226 E0.02957
G1 X162.255 Y115.188 E0.34098
G1 X161.524 Y115.188 E0.02957
G1 X155.562 Y109.226 E0.34098
G1 X154.83 Y109.226 E0.02957
G1 X160.792 Y115.188 E0.34098
G1 X160.061 Y115.188 E0.02957
G1 X154.099 Y109.226 E0.34098
G1 X153.368 Y109.226 E0.02957
G1 X159.33 Y115.188 E0.34098
G1 X158.599 Y115.188 E0.02957
G1 X152.637 Y109.226 E0.34098
G1 X151.905 Y109.226 E0.02957
G1 X157.867 Y115.188 E0.34098
G1 X157.136 Y115.188 E0.02957
G1 X151.174 Y109.226 E0.34098
G1 X150.443 Y109.226 E0.02957
G1 X156.405 Y115.188 E0.34098
G1 X155.674 Y115.188 E0.02957
G1 X149.711 Y109.226 E0.34098
G1 X148.98 Y109.226 E0.02957
G1 X154.942 Y115.188 E0.34098
G1 X154.764 Y115.188 E0.00723
G1 X154.294 Y115.271 E0.01929
G1 X148.249 Y109.226 E0.34572
G1 X147.518 Y109.226 E0.02957
G1 X153.704 Y115.413 E0.35382
G1 X153.394 Y115.553 E0.01378
G1 X153.22 Y115.659 E0.00825
G1 X146.786 Y109.226 E0.36793
G1 X146.055 Y109.226 E0.02957
G1 X152.766 Y115.936 E0.38378
G1 X152.311 Y116.214 E0.02151
G1 X145.324 Y109.226 E0.39962
G1 X144.593 Y109.226 E0.02957
G1 X151.857 Y116.491 E0.41547
G1 X151.403 Y116.768 E0.02151
G1 X143.861 Y109.226 E0.43132
G1 X143.13 Y109.226 E0.02957
G1 X150.959 Y117.054 E0.44772
G1 X150.534 Y117.361 E0.02118
G1 X142.399 Y109.226 E0.46524
G1 X141.668 Y109.226 E0.02957
G1 X150.109 Y117.667 E0.48277
G1 X149.684 Y117.974 E0.02118
G1 X140.936 Y109.226 E0.50029
G1 X140.205 Y109.226 E0.02957
G1 X149.259 Y118.28 E0.51781
G1 X148.943 Y118.508 E0.01576
G1 X148.842 Y118.594 E0.00537
G1 X139.474 Y109.226 E0.53576
G1 X138.743 Y109.226 E0.02957
G1 X148.445 Y118.929 E0.55491
G1 X148.049 Y119.264 E0.02098
G1 X138.011 Y109.226 E0.57407
G1 X137.28 Y109.226 E0.02957
G1 X147.653 Y119.599 E0.59323
G1 X147.257 Y119.934 E0.02098
G1 X136.549 Y109.226 E0.61239
G1 X135.818 Y109.226 E0.02957
G1 X146.864 Y120.273 E0.63177
G1 X146.496 Y120.636 E0.02091
G1 X135.086 Y109.226 E0.65254
G1 X134.355 Y109.226 E0.02957
G1 X146.128 Y120.999 E0.67331
G1 X145.76 Y121.362 E0.02091
G1 X133.624 Y109.226 E0.69408
G1 X132.892 Y109.226 E0.02957
G1 X145.392 Y121.725 E0.71485
G1 X145.024 Y122.089 E0.02091
G1 X132.161 Y109.226 E0.73562
G1 X132.019 Y109.226 E0.00576
G1 X132.019 Y109.815 E0.02381
G1 X144.684 Y122.48 E0.72433
G1 X144.344 Y122.871 E0.02096
G1 X132.019 Y110.546 E0.7049
G1 X132.019 Y111.277 E0.02957
G1 X144.004 Y123.263 E0.68547
G1 X143.664 Y123.654 E0.02096
G1 X132.018 Y112.008 E0.66603
G1 X132.018 Y112.74 E0.02957
G1 X143.324 Y124.045 E0.6466
G1 X143.282 Y124.094 E0.00262
G1 X143.009 Y124.462 E0.01849
G1 X132.018 Y113.471 E0.62859
G1 X132.018 Y114.202 E0.02957
G1 X142.698 Y124.882 E0.61078
G1 X142.387 Y125.301 E0.02114
G1 X132.018 Y114.933 E0.59298
G1 X132.018 Y115.664 E0.02957
G1 X142.075 Y125.721 E0.57517
G1 X141.764 Y126.141 E0.02114
G1 X132.018 Y116.395 E0.55737
G1 X132.018 Y117.127 E0.02957
G1 X141.475 Y126.584 E0.54088
G1 X141.193 Y127.033 E0.02145
G1 X132.018 Y117.858 E0.52474
G1 X132.018 Y118.589 E0.02957
G1 X140.911 Y127.482 E0.50861
G1 X140.629 Y127.931 E0.02145
G1 X132.018 Y119.32 E0.49247
G1 X132.018 Y120.051 E0.02957
G1 X140.346 Y128.38 E0.47633
G1 X140.286 Y128.477 E0.00462
G1 X140.088 Y128.853 E0.01717
G1 X132.018 Y120.783 E0.46154
G1 X132.018 Y121.514 E0.02957
G1 X139.836 Y129.332 E0.44713
G1 X139.584 Y129.811 E0.0219
G1 X132.017 Y122.245 E0.43272
G1 X132.017 Y122.976 E0.02957
G1 X139.332 Y130.29 E0.41831
G1 X139.079 Y130.769 E0.0219
G1 X132.017 Y123.707 E0.4039
G1 X132.017 Y124.438 E0.02957
G1 X138.855 Y131.276 E0.39107
G1 X138.635 Y131.787 E0.0225
G1 X132.017 Y125.17 E0.37847
G1 X132.017 Y125.901 E0.02957
G1 X138.414 Y132.298 E0.36587
G1 X138.194 Y132.809 E0.0225
G1 X132.017 Y126.632 E0.35327
G1 X132.017 Y127.363 E0.02957
G1 X137.977 Y133.323 E0.34087
G1 X137.79 Y133.868 E0.02328
G1 X132.017 Y128.094 E0.33019
G1 X132.017 Y128.826 E0.02957
G1 X137.604 Y134.412 E0.31952
G1 X137.417 Y134.957 E0.02328
G1 X132.017 Y129.557 E0.30884
G1 X132.017 Y130.288 E0.02957
G1 X137.23 Y135.501 E0.29817
G1 X137.135 Y135.78 E0.01189
G1 X137.061 Y136.064 E0.01187
G1 X132.017 Y131.019 E0.28851
G1 X132.016 Y131.75 E0.02957
G1 X136.911 Y136.645 E0.27991
M73 P2 R78
G1 X136.76 Y137.225 E0.02426
G1 X132.016 Y132.481 E0.27131
G1 X132.016 Y133.213 E0.02957
G1 X136.61 Y137.806 E0.26271
G1 X136.469 Y138.351 E0.02276
G1 X136.462 Y138.39 E0.00158
G1 X132.016 Y133.944 E0.25425
G1 X132.016 Y134.675 E0.02957
G1 X136.351 Y139.01 E0.24793
G1 X136.241 Y139.631 E0.02549
G1 X132.016 Y135.406 E0.2416
G1 X132.016 Y136.137 E0.02957
G1 X136.13 Y140.251 E0.23528
G1 X136.019 Y140.872 E0.02549
G1 X132.016 Y136.869 E0.22895
G1 X132.016 Y137.6 E0.02957
G1 X135.946 Y141.53 E0.22478
G1 X135.88 Y142.195 E0.02702
G1 X132.016 Y138.331 E0.22098
G1 X132.016 Y139.062 E0.02957
G1 X135.813 Y142.86 E0.21719
G1 X135.747 Y143.525 E0.02702
G1 X132.016 Y139.793 E0.2134
G1 X132.016 Y140.525 E0.02957
G1 X135.724 Y144.233 E0.21211
G1 X135.708 Y144.949 E0.02893
G1 X132.015 Y141.256 E0.21119
G1 X132.015 Y141.987 E0.02957
G1 X135.692 Y145.664 E0.21028
G1 X135.679 Y146.265 E0.02433
G1 X135.685 Y146.388 E0.00498
G1 X132.015 Y142.718 E0.20989
G1 X132.015 Y143.449 E0.02957
G1 X135.727 Y147.161 E0.2123
G1 X135.769 Y147.935 E0.03132
G1 X132.015 Y144.18 E0.21471
G1 X132.015 Y144.912 E0.02957
G1 X135.812 Y148.708 E0.21712
G1 X135.823 Y148.918 E0.00849
G1 X135.904 Y149.532 E0.02505
G1 X132.015 Y145.643 E0.22242
G1 X132.015 Y146.374 E0.02957
G1 X136.015 Y150.374 E0.22879
G1 X136.127 Y151.217 E0.03437
G1 X132.015 Y147.105 E0.23516
G1 X132.015 Y147.836 E0.02957
G1 X136.289 Y152.111 E0.24445
G1 X136.485 Y153.038 E0.03833
G1 X132.015 Y148.568 E0.25566
G1 X132.015 Y149.299 E0.02957
G1 X136.681 Y153.965 E0.26687
G1 X136.72 Y154.15 E0.00765
G1 X136.963 Y154.978 E0.0349
G1 X132.015 Y150.03 E0.283
G1 X132.015 Y150.761 E0.02957
G1 X137.266 Y156.013 E0.30035
G1 X137.467 Y156.699 E0.02892
G1 X137.618 Y157.096 E0.01714
G1 X132.014 Y151.492 E0.32046
G1 X132.014 Y152.223 E0.02957
G1 X138.064 Y158.273 E0.34597
G1 X138.409 Y159.183 E0.03937
G1 X138.556 Y159.496 E0.01397
G1 X132.014 Y152.955 E0.3741
G1 X132.014 Y153.686 E0.02957
G1 X139.203 Y160.875 E0.41115
G1 X139.538 Y161.588 E0.03184
G1 X140.001 Y162.404 E0.03798
G1 X132.014 Y154.417 E0.45681
G1 X132.014 Y155.148 E0.02957
G1 X141.025 Y164.159 E0.51533
G1 X142.333 Y166.101 E0.0947
G1 X142.707 Y166.573 E0.02436
G1 X132.014 Y155.879 E0.61157
G1 X132.014 Y156.611 E0.02957
G1 X160.256 Y184.852 E1.61518
G1 X159.89 Y185.218 E0.02091
G1 X132.014 Y157.342 E1.59427
G1 X132.014 Y158.073 E0.02957
G1 X159.524 Y185.584 E1.57336
G1 X159.159 Y185.949 E0.02091
G1 X132.014 Y158.804 E1.55246
G1 X132.014 Y159.535 E0.02957
G1 X158.793 Y186.315 E1.53155
G1 X158.427 Y186.68 E0.02091
G1 X132.014 Y160.267 E1.51064
G1 X132.013 Y160.998 E0.02957
G1 X158.062 Y187.046 E1.48974
G1 X157.696 Y187.412 E0.02091
G1 X132.013 Y161.729 E1.46883
G1 X132.013 Y162.46 E0.02957
G1 X157.331 Y187.777 E1.44792
G1 X156.965 Y188.143 E0.02091
G1 X132.013 Y163.191 E1.42702
G1 X132.013 Y163.922 E0.02957
G1 X156.599 Y188.509 E1.40611
G1 X156.234 Y188.874 E0.02091
G1 X132.013 Y164.654 E1.3852
G1 X132.013 Y165.385 E0.02957
G1 X155.868 Y189.24 E1.3643
G1 X155.502 Y189.606 E0.02091
G1 X132.013 Y166.116 E1.34339
G1 X132.013 Y166.847 E0.02957
G1 X155.137 Y189.971 E1.32248
G1 X154.771 Y190.337 E0.02091
G1 X131.79 Y167.356 E1.31429
G1 E-0.8 F3000
G1 X142.797 Y166.832 F9000
G1 E0.8 F1800
;TYPE:Gap fill
;WIDTH:0.323669
G1 X142.887 Y166.934 E0.00306
G1 X143.142 Y167.22 E0.00858
;WIDTH:0.262018
G1 X143.397 Y167.505 E0.0067
;WIDTH:0.208469
G1 X143.651 Y167.791 E0.00506
;WIDTH:0.15492
G1 X143.906 Y168.077 E0.00342
;LAYER_CHANGE
;Z:0.4
;HEIGHT:0.2
; stop printing object Time_Charging_Stand.STL id:0 copy 0
M204 S3000
G1 Z0.4 F9000
G92 E0
; printing object Time_Charging_Stand.STL id:0 copy 0
M204 S2000
G1 X144.383 Y167.7
