; generated by SuperSlicer 2.4 on 2022-11-19 at 04:35:34 UTC


;
;

;
;
; 

; external perimeters extrusion width = 0.40mm
; perimeters extrusion width = 0.46mm
; infill extrusion width = 0.64mm
; solid infill extrusion width = 0.56mm
; top infill extrusion width = 0.40mm
; support material extrusion width = 0.46mm
; first layer extrusion width = 0.50mm

; external perimeters extrusion width = 0.40mm
; perimeters extrusion width = 0.46mm
; infill extrusion width = 0.64mm
; solid infill extrusion width = 0.56mm
; top infill extrusion width = 0.40mm
; support material extrusion width = 0.46mm
; first layer extrusion width = 0.50mm

; external perimeters extrusion width = 0.40mm
; perimeters extrusion width = 0.46mm
; infill extrusion width = 0.64mm
; solid infill extrusion width = 0.56mm
; top infill extrusion width = 0.40mm
; support material extrusion width = 0.46mm
; first layer extrusion width = 0.50mm

; object:{"name":"skadis-keybmountrevised","id":"skadis-keybmountrevised.stl id:0 copy 0","object_center":[142.739644,128.045609,0.000000],"boundingbox_center":[142.739644,128.045609,2.250000],"boundingbox_size":[70.360001,120.574005,4.500000]}
; object:{"name":"skadis-keybmountrevised","id":"skadis-keybmountrevised.stl id:1 copy 0","object_center":[218.618142,128.045609,0.000000],"boundingbox_center":[218.618142,128.045609,2.250000],"boundingbox_size":[70.360001,120.574005,4.500000]}
; object:{"name":"skadis-keybmountrevised","id":"skadis-keybmountrevised.stl id:2 copy 0","object_center":[86.384777,171.952242,0.000000],"boundingbox_center":[86.384777,171.952242,2.250000],"boundingbox_size":[70.360001,120.574005,4.500000]}
; plater:{"center":[152.501459,149.998925,0.000000],"boundingbox_center":[152.501459,149.998925,2.250000],"boundingbox_size":[202.593366,164.480638,4.500000]}

M73 P0 R85


; Pre-Processed for Cancel-Object support by preprocess_cancellation v0.2.0
; 3 known objects
EXCLUDE_OBJECT_DEFINE NAME=skadis_keybmountrevised_stl_id_0_copy_0 CENTER=159.492,121.297 POLYGON=[[107.761,67.959],[107.761,188.131],[177.72,188.131],[177.72,67.959]]
EXCLUDE_OBJECT_DEFINE NAME=skadis_keybmountrevised_stl_id_2_copy_0 CENTER=103.137,165.204 POLYGON=[[51.406,111.865],[51.406,232.038],[121.365,232.038],[121.365,111.865]]
EXCLUDE_OBJECT_DEFINE NAME=skadis_keybmountrevised_stl_id_1_copy_0 CENTER=235.370,121.297 POLYGON=[[183.64,67.959],[183.64,188.131],[253.598,188.131],[253.598,67.959]]
;TYPE:Custom
START_PRINT T_BED=60 T_EXTRUDER=200
M107
G21 ; set units to millimeters
G90 ; use absolute coordinates
M83 ; use relative distances for extrusion
; Filament gcode
;_TOOLCHANGE 0
M104 S200 ; set temperature
M109 S200 ; set temperature and wait for it to be reached
M190 S60 ; set bed temperature and wait for it to be reached
M107
;LAYER_CHANGE
;Z:0.2
;HEIGHT:0.2
G1 Z0.2 F9000
G92 E0
M73 P0 R85
G1 E-0.8 F3000
M204 S1000
G1 X74.974 Y96.231 F9000
G1 E0.8 F1800
;TYPE:Skirt
;WIDTH:0.52
G1 X50.031 Y115.665 E1.22928
G1 X49.405 Y116.285 E0.03426
G1 X48.582 Y117.524 E0.05782
G1 X48.374 Y118.003 E0.02029
G1 X48.107 Y118.935 E0.03771
G1 X48.014 Y120.419 E0.0578
G1 X48.161 Y121.426 E0.03957
G1 X49.25 Y125.779 E0.17442
G1 X49.536 Y126.573 E0.03284
G1 X98.635 Y232.004 E4.52139
G1 X99.385 Y233.155 E0.0534
G1 X100.005 Y233.809 E0.03502
G1 X100.948 Y234.535 E0.04628
G1 X101.55 Y234.847 E0.02634
G1 X102.138 Y235.089 E0.02472
G1 X103.674 Y235.42 E0.06109
G1 X104.613 Y235.428 E0.03653
G1 X109.96 Y234.77 E0.20944
G1 X110.662 Y234.611 E0.02795
G1 X242.895 Y190.704 E5.41667
G1 X243.693 Y190.392 E0.03332
G1 X244.514 Y189.934 E0.03652
G1 X245.449 Y189.193 E0.04639
G1 X245.897 Y188.686 E0.02634
G1 X246.549 Y187.741 E0.04462
G1 X256.08 Y170.17 E0.77711
G1 X256.591 Y168.948 E0.05148
G1 X256.822 Y167.607 E0.05292
G1 X256.838 Y79.177 E3.43777
G1 X256.514 Y77.662 E0.06025
G1 X255.698 Y76.415 E0.05791
G1 X245.657 Y66.236 E0.55587
G1 X244.858 Y65.578 E0.04023
G1 X244.022 Y65.095 E0.03755
G1 X242.6 Y64.643 E0.058
G1 X242.075 Y64.575 E0.02055
G1 X133.361 Y64.564 E4.22637
G1 X131.723 Y64.818 E0.06447
G1 X108.68 Y70.579 E0.92338
G1 X107.724 Y70.923 E0.0395
G1 X106.386 Y71.758 E0.06131
G1 X74.974 Y96.231 E1.54802
G1 X75.268 Y96.607 F9000
G1 F1800
G1 X50.324 Y116.041 E1.22928
G1 X49.778 Y116.582 E0.02986
G1 X49.02 Y117.714 E0.05298
G1 X48.812 Y118.193 E0.02029
G1 X48.579 Y119.006 E0.03287
G1 X48.488 Y120.365 E0.05298
G1 X48.624 Y121.311 E0.03713
G1 X49.713 Y125.663 E0.17442
G1 X49.969 Y126.372 E0.02931
G1 X99.067 Y231.803 E4.52139
G1 X99.768 Y232.871 E0.04967
G1 X100.309 Y233.441 E0.03052
G1 X101.194 Y234.126 E0.04351
G1 X101.731 Y234.406 E0.02355
G1 X102.319 Y234.648 E0.02472
G1 X103.738 Y234.947 E0.05639
G1 X104.557 Y234.955 E0.03184
G1 X109.9 Y234.297 E0.20927
G1 X110.511 Y234.158 E0.02436
G1 X242.745 Y190.252 E5.41667
M73 P1 R85
G1 X243.515 Y189.949 E0.03219
G1 X244.231 Y189.55 E0.03183
G1 X245.111 Y188.856 E0.0436
G1 X245.513 Y188.403 E0.02355
G1 X246.13 Y187.514 E0.04206
G1 X255.66 Y169.942 E0.77711
G1 X256.131 Y168.822 E0.04723
G1 X256.347 Y167.558 E0.04987
G1 X256.361 Y79.178 E3.43587
G1 X256.078 Y77.857 E0.05252
G1 X255.358 Y76.75 E0.05131
G1 X245.317 Y66.571 E0.55587
G1 X244.568 Y65.957 E0.03767
G1 X243.839 Y65.536 E0.03272
G1 X242.537 Y65.116 E0.05315
G1 X242.013 Y65.048 E0.02055
G1 X133.38 Y65.041 E4.22321
G1 X131.838 Y65.281 E0.06068
G1 X108.795 Y71.042 E0.92338
G1 X107.899 Y71.366 E0.03706
G1 X106.679 Y72.134 E0.05604
G1 X75.268 Y96.607 E1.54802
G1 E-0.8 F3000
; printing object skadis-keybmountrevised.stl id:0 copy 0
EXCLUDE_OBJECT_START NAME=skadis_keybmountrevised_stl_id_0_copy_0
G1 X111.155 Y80.187 F9000
G1 E0.8 F1800
;TYPE:Support material interface
;WIDTH:0.5

G1 X111.113 Y80.019 E0.00643
G1 X110.998 Y79.556 E0.01778
G1 X110.882 Y79.094 E0.01774
G1 X110.9 Y79.089 E0.0007
G1 X111.286 Y78.993 E0.0148
G1 X111.383 Y78.969 E0.00372
G1 X111.966 Y78.823 E0.02239
G1 X111.966 Y80.187 E0.0508
G1 X111.155 Y80.187 E0.0302
G1 X111.852 Y79.29 F9000
G1 F1800
G1 X111.377 Y79.29 E0.0177
G1 X111.361 Y79.294 E0.00059
G1 X111.259 Y79.32 E0.00392
G1 X111.299 Y79.481 E0.00617
G1 X111.378 Y79.798 E0.0122
G1 X111.852 Y79.798 E0.01762
G1 E-0.8 F3000
G1 X164.819 Y182.838 F9000
G1 E0.8 F1800
;TYPE:Internal perimeter
G1 X164.884 Y182.341 E0.01866
G1 X164.884 Y132.67 E1.85008
G1 X164.781 Y131.787 E0.03311
G1 X164.454 Y130.882 E0.03582
G1 X163.937 Y130.091 E0.0352
G1 X163.371 Y129.526 E0.02979
G1 X162.58 Y129.009 E0.0352
G1 X161.676 Y128.681 E0.03582
G1 X160.793 Y128.578 E0.03311
G1 X151.969 Y128.578 E0.32865
G1 X151.081 Y128.682 E0.03331
G1 X150.17 Y129.014 E0.03609
G1 X149.374 Y129.54 E0.03557
G1 X148.808 Y130.116 E0.03006
G1 X148.293 Y130.916 E0.03544
G1 X147.973 Y131.829 E0.03606
G1 X147.871 Y132.793 E0.0361
G1 X147.985 Y133.68 E0.03331
G1 X160.193 Y182.512 E1.87475
G1 X160.37 Y182.986 E0.01887
G1 X160.684 Y183.471 E0.02153
G1 X161.099 Y183.875 E0.02154
G1 X161.59 Y184.179 E0.02151
G1 X162.139 Y184.368 E0.02162
G1 X162.734 Y184.432 E0.02229
G1 X163.283 Y184.36 E0.02064
G1 X163.808 Y184.142 E0.02115
G1 X164.257 Y183.797 E0.02112
G1 X164.577 Y183.38 E0.01955
G1 X164.819 Y182.838 E0.02211
G1 X164.374 Y182.713 F9000
G1 F1800
G1 X164.427 Y182.311 E0.01508
G1 X164.427 Y132.696 E1.84799
G1 X164.333 Y131.892 E0.03014
G1 X164.042 Y131.088 E0.03186
G1 X163.58 Y130.381 E0.03146
G1 X163.082 Y129.882 E0.02626
G1 X162.374 Y129.42 E0.03146
G1 X161.57 Y129.129 E0.03186
G1 X160.766 Y129.036 E0.03013
G1 X151.996 Y129.036 E0.32668
G1 X151.187 Y129.13 E0.03032
G1 X150.377 Y129.425 E0.03209
G1 X149.666 Y129.895 E0.03177
G1 X149.167 Y130.402 E0.0265
G1 X148.707 Y131.118 E0.03168
G1 X148.422 Y131.931 E0.03207
G1 X148.331 Y132.788 E0.03212
G1 X148.435 Y133.595 E0.03032
G1 X160.63 Y182.376 E1.8728
G1 X160.781 Y182.78 E0.01605
G1 X161.04 Y183.18 E0.01776
G1 X161.382 Y183.513 E0.01776
G1 X161.787 Y183.763 E0.01774
G1 X162.239 Y183.919 E0.01781
G1 X162.728 Y183.971 E0.01834
G1 X163.164 Y183.914 E0.01636
G1 X163.577 Y183.743 E0.01666
G1 X163.931 Y183.471 E0.01665
G1 X164.182 Y183.145 E0.0153
G1 X164.374 Y182.713 E0.01762
G1 X163.929 Y182.588 F9000
;TYPE:External perimeter
G1 F1800
G1 X163.97 Y182.281 E0.0115
G1 X163.97 Y132.722 E1.84589
G1 X163.886 Y131.998 E0.02716
G1 X163.63 Y131.294 E0.0279
G1 X163.223 Y130.67 E0.02772
G1 X162.792 Y130.239 E0.02272
G1 X162.169 Y129.832 E0.02772
G1 X161.464 Y129.577 E0.0279
G1 X160.74 Y129.493 E0.02716
G1 X152.022 Y129.493 E0.3247
G1 X151.293 Y129.578 E0.02734
G1 X150.584 Y129.836 E0.0281
G1 X149.958 Y130.25 E0.02797
G1 X149.526 Y130.689 E0.02295
G1 X149.12 Y131.32 E0.02793
G1 X148.87 Y132.032 E0.02809
G1 X148.791 Y132.783 E0.02813
G1 X148.885 Y133.51 E0.02733
G1 X161.067 Y182.24 E1.87085
G1 X161.191 Y182.573 E0.01324
G1 X161.396 Y182.888 E0.01399
G1 X161.665 Y183.15 E0.01398
G1 X161.984 Y183.347 E0.01397
G1 X162.339 Y183.47 E0.014
G1 X162.723 Y183.511 E0.01439
G1 X163.044 Y183.469 E0.01207
G1 X163.346 Y183.344 E0.01218
G1 X163.606 Y183.145 E0.01217
G1 X163.786 Y182.91 E0.01104
G1 X163.929 Y182.588 E0.01313
;WIPE_START
M204 S3000
G1 X164.312 Y182.47 F9000
;WIPE_END
G1 E-0.8 F3000
M204 S1000
G1 X133.601 Y74.346 F9000
G1 E0.8 F1800
;TYPE:Internal perimeter
G1 X133.501 Y75.31 E0.03609
G1 X133.615 Y76.197 E0.03331
G1 X145.52 Y123.82 E1.82834
M73 P1 R84
G1 X145.816 Y124.616 E0.03165
G1 X146.318 Y125.388 E0.03428
G1 X146.976 Y126.031 E0.03426
G1 X147.759 Y126.513 E0.03426
G1 X148.628 Y126.813 E0.03424
G1 X149.474 Y126.907 E0.03169
G1 X160.794 Y126.907 E0.42163
G1 X161.676 Y126.803 E0.0331
G1 X162.58 Y126.476 E0.03579
G1 X163.371 Y125.959 E0.03521
G1 X163.937 Y125.393 E0.02978
G1 X164.454 Y124.602 E0.0352
G1 X164.781 Y123.698 E0.03583
G1 X164.884 Y122.816 E0.03308
G1 X164.884 Y75.186 E1.77405
G1 X164.781 Y74.303 E0.03311
G1 X164.453 Y73.398 E0.03584
G1 X163.937 Y72.608 E0.03515
G1 X163.372 Y72.042 E0.02979
G1 X162.58 Y71.525 E0.03523
G1 X161.676 Y71.197 E0.03582
G1 X160.793 Y71.094 E0.03311
G1 X137.599 Y71.094 E0.86389
G1 X136.71 Y71.199 E0.03332
G1 X135.799 Y71.531 E0.03612
G1 X134.992 Y72.064 E0.03604
G1 X134.34 Y72.756 E0.03542
G1 X133.919 Y73.445 E0.03007
G1 X133.601 Y74.346 E0.03559
G1 X134.05 Y74.447 F9000
G1 F1800
G1 X133.961 Y75.305 E0.0321
G1 X134.065 Y76.112 E0.03033
G1 X145.957 Y123.684 E1.82641
G1 X146.227 Y124.41 E0.02882
G1 X146.673 Y125.096 E0.0305
G1 X147.259 Y125.668 E0.03048
G1 X147.956 Y126.097 E0.03049
G1 X148.729 Y126.364 E0.03047
G1 X149.499 Y126.45 E0.02885
G1 X160.767 Y126.45 E0.41969
G1 X161.57 Y126.355 E0.03013
G1 X162.374 Y126.064 E0.03184
G1 X163.082 Y125.602 E0.03147
G1 X163.58 Y125.104 E0.02625
G1 X164.042 Y124.397 E0.03146
G1 X164.333 Y123.592 E0.03186
G1 X164.427 Y122.789 E0.03011
G1 X164.427 Y75.212 E1.77208
G1 X164.333 Y74.408 E0.03013
G1 X164.042 Y73.604 E0.03187
G1 X163.58 Y72.898 E0.03142
G1 X163.082 Y72.399 E0.02627
G1 X162.374 Y71.936 E0.03148
G1 X161.57 Y71.645 E0.03186
G1 X160.766 Y71.552 E0.03014
G1 X137.625 Y71.552 E0.86191
G1 X136.817 Y71.646 E0.03033
G1 X136.006 Y71.942 E0.03213
G1 X135.288 Y72.416 E0.03206
G1 X134.705 Y73.035 E0.03167
G1 X134.334 Y73.642 E0.02651
G1 X134.05 Y74.447 E0.03179
G1 X134.499 Y74.548 F9000
;TYPE:External perimeter
G1 F1800
G1 X134.421 Y75.299 E0.0281
G1 X134.515 Y76.027 E0.02735
G1 X146.395 Y123.549 E1.82447
G1 X146.637 Y124.203 E0.02598
G1 X147.029 Y124.805 E0.02673
G1 X147.542 Y125.305 E0.0267
G1 X148.153 Y125.681 E0.02672
G1 X148.83 Y125.916 E0.0267
G1 X149.524 Y125.993 E0.02601
G1 X160.74 Y125.993 E0.41775
G1 X161.465 Y125.907 E0.02717
G1 X162.169 Y125.652 E0.02789
G1 X162.792 Y125.245 E0.02773
G1 X163.223 Y124.814 E0.02272
G1 X163.63 Y124.191 E0.02772
G1 X163.886 Y123.487 E0.0279
G1 X163.97 Y122.763 E0.02713
G1 X163.97 Y75.238 E1.77011
G1 X163.886 Y74.514 E0.02716
G1 X163.63 Y73.809 E0.02791
G1 X163.223 Y73.187 E0.02769
G1 X162.792 Y72.755 E0.02274
G1 X162.169 Y72.348 E0.02773
G1 X161.464 Y72.093 E0.0279
G1 X160.74 Y72.009 E0.02716
G1 X137.652 Y72.009 E0.85993
G1 X136.923 Y72.094 E0.02734
G1 X136.213 Y72.353 E0.02814
G1 X135.584 Y72.768 E0.02807
G1 X135.07 Y73.314 E0.02793
G1 X134.749 Y73.84 E0.02295
G1 X134.499 Y74.548 E0.02799
;WIPE_START
M204 S3000
G1 X134.123 Y74.682 F9000
;WIPE_END
G1 E-0.8 F3000
M204 S1000
G1 X166.953 Y128.299 F9000
G1 E0.8 F1800
;TYPE:Internal perimeter
G1 X166.953 Y129.037 E0.0275
G1 X166.555 Y129.435 E0.02096
G1 X166.555 Y165.343 E1.33743
G1 X166.813 Y165.892 E0.02258
G1 X167.271 Y166.486 E0.02796
G1 X167.515 Y166.747 E0.01328
G1 X167.832 Y166.987 E0.0148
G1 X168.551 Y167.369 E0.03035
G1 X169.123 Y167.522 E0.02204
G1 X169.659 Y167.573 E0.02005
G1 X172.156 Y167.566 E0.09299
G1 X172.842 Y167.445 E0.02597
G1 X173.286 Y167.284 E0.01757
G1 X173.603 Y167.109 E0.01349
G1 X174.198 Y166.683 E0.02725
G1 X174.664 Y166.143 E0.02659
G1 X174.941 Y165.645 E0.02122
G1 X175.083 Y165.309 E0.0136
G1 X175.161 Y164.971 E0.01292
G1 X175.258 Y164.327 E0.02425
G1 X175.255 Y160.067 E0.15866
G1 X176.085 Y160.071 E0.03092
G1 X176.083 Y167.168 E0.26431
G1 X176.048 Y167.505 E0.01262
G1 X176.03 Y167.573 E0.00262
G1 X175.918 Y167.822 E0.01018
G1 X175.819 Y167.964 E0.00644
G1 X175.695 Y168.096 E0.00676
G1 X175.552 Y168.204 E0.00666
G1 X175.344 Y168.317 E0.00883
G1 X174.969 Y168.393 E0.01427
G1 X166.953 Y168.399 E0.29855
G1 X166.953 Y169.037 E0.02378
G1 X166.555 Y169.435 E0.02096
G1 X166.555 Y184.676 E0.56767
G1 X166.493 Y185.128 E0.01698
G1 X166.387 Y185.385 E0.01037
G1 X166.132 Y185.717 E0.01557
G1 X165.86 Y185.918 E0.01261
G1 X165.55 Y186.042 E0.01242
G1 X165.139 Y186.094 E0.01543
G1 X163.193 Y186.094 E0.07248
G1 X162.843 Y186.138 E0.01317
G1 X160.954 Y186.61 E0.07249
G1 X160.543 Y186.658 E0.01543
G1 X160.221 Y186.614 E0.01211
G1 X159.844 Y186.451 E0.01531
G1 X159.577 Y186.23 E0.01289
G1 X159.407 Y186 E0.01066
G1 X159.236 Y185.577 E0.01702
G1 X131.786 Y75.772 E4.21566
G1 X131.472 Y74.941 E0.03308
G1 X130.935 Y74.143 E0.03583
G1 X130.241 Y73.502 E0.0352
G1 X129.556 Y73.09 E0.02975
G1 X128.671 Y72.783 E0.03492
G1 X127.704 Y72.682 E0.03621
G1 X126.825 Y72.796 E0.033
G1 X109.451 Y77.14 E0.66704
G1 X109.268 Y76.41 E0.02801
G1 X109.234 Y76.113 E0.01114
G1 X109.266 Y75.899 E0.00805
G1 X109.352 Y75.701 E0.00803
G1 X109.486 Y75.533 E0.00798
G1 X109.659 Y75.405 E0.00804
G1 X109.938 Y75.295 E0.01116
G1 X132.883 Y69.558 E0.88093
G1 X133.255 Y69.481 E0.01416
G1 X133.606 Y69.438 E0.01315
G1 X133.985 Y69.423 E0.01415
G1 X165.637 Y69.423 E1.17891
M73 P2 R84
G1 X165.827 Y69.448 E0.00714
G1 X165.933 Y69.462 E0.00399
G1 X166.132 Y69.544 E0.008
G1 X166.303 Y69.675 E0.00804
G1 X166.434 Y69.847 E0.00804
G1 X166.517 Y70.045 E0.008
G1 X166.555 Y70.341 E0.01113
G1 X166.555 Y85.338 E0.55857
G1 X166.814 Y85.892 E0.02276
G1 X167.273 Y86.486 E0.02798
G1 X167.517 Y86.747 E0.01328
G1 X167.834 Y86.987 E0.0148
G1 X168.553 Y87.369 E0.03035
G1 X169.125 Y87.522 E0.02204
G1 X169.659 Y87.573 E0.01999
G1 X171.987 Y87.573 E0.08671
G1 X172.471 Y87.521 E0.01812
G1 X172.865 Y87.437 E0.01501
G1 X173.288 Y87.284 E0.01675
G1 X173.605 Y87.109 E0.01349
G1 X174.2 Y86.683 E0.02725
G1 X174.666 Y86.143 E0.02659
G1 X174.943 Y85.645 E0.02121
G1 X175.085 Y85.309 E0.0136
G1 X175.163 Y84.971 E0.01292
G1 X175.26 Y84.327 E0.02425
G1 X175.257 Y80.063 E0.1588
G1 X176.08 Y80.064 E0.03065
G1 X176.085 Y87.168 E0.26462
G1 X176.05 Y87.505 E0.01259
G1 X176.032 Y87.573 E0.00262
G1 X175.92 Y87.822 E0.01018
G1 X175.821 Y87.964 E0.00644
G1 X175.697 Y88.096 E0.00676
G1 X175.551 Y88.206 E0.0068
G1 X175.406 Y88.287 E0.0062
G1 X175.308 Y88.327 E0.00393
G1 X175.036 Y88.387 E0.01036
G1 X166.953 Y88.4 E0.30106
G1 X166.953 Y89.037 E0.02373
G1 X166.555 Y89.435 E0.02096
G1 X166.555 Y125.238 E1.33353
G1 X166.814 Y125.792 E0.02276
G1 X167.273 Y126.386 E0.02798
G1 X167.517 Y126.647 E0.01329
G1 X167.834 Y126.887 E0.0148
G1 X168.553 Y127.269 E0.03035
G1 X169.125 Y127.422 E0.02204
G1 X169.661 Y127.473 E0.02005
G1 X172.158 Y127.466 E0.09299
G1 X172.844 Y127.345 E0.02597
G1 X173.288 Y127.184 E0.01757
G1 X173.605 Y127.009 E0.01349
G1 X174.2 Y126.583 E0.02725
G1 X174.666 Y126.043 E0.02659
G1 X174.943 Y125.545 E0.02121
G1 X175.085 Y125.209 E0.0136
G1 X175.163 Y124.871 E0.01292
G1 X175.26 Y124.227 E0.02425
G1 X175.257 Y119.968 E0.15863
G1 X176.088 Y119.966 E0.03094
