; generated by SuperSlicer 2.4 on 2022-09-09 at 23:33:10 UTC


;
;

;
;
; 

; external perimeters extrusion width = 0.40mm
; perimeters extrusion width = 0.50mm
; infill extrusion width = 0.72mm
; solid infill extrusion width = 0.56mm
; top infill extrusion width = 0.40mm
; support material extrusion width = 0.50mm

; external perimeters extrusion width = 0.40mm
; perimeters extrusion width = 0.50mm
; infill extrusion width = 0.72mm
; solid infill extrusion width = 0.56mm
; top infill extrusion width = 0.40mm
; support material extrusion width = 0.50mm

; object:{"name":"Pebble_Time_Ver_v2","id":"Pebble_Time_Ver_v2.stl id:0 copy 0","object_center":[175.500001,150.000000,0.000000],"boundingbox_center":[175.500001,150.000000,19.000000],"boundingbox_size":[29.999998,63.377140,38.000000]}
; object:{"name":"Watch_Stand_Base_v2","id":"Watch_Stand_Base_v2.stl id:1 copy 0","object_center":[134.500002,150.000003,0.000000],"boundingbox_center":[134.500002,150.000003,5.000001],"boundingbox_size":[39.999998,69.472553,10.000001]}
; plater:{"center":[152.500001,150.000003,0.000000],"boundingbox_center":[152.500001,150.000003,19.000000],"boundingbox_size":[75.999997,69.472553,38.000000]}

M73 P0 R93
;TYPE:Custom
START_PRINT T_BED=60 T_EXTRUDER=200
M107
G21 ; set units to millimeters
G90 ; use absolute coordinates
M83 ; use relative distances for extrusion
; Filament gcode
;_TOOLCHANGE 0
M104 S200 ; set temperature
M109 S200 ; set temperature and wait for it to be reached
M190 S60 ; set bed temperature and wait for it to be reached
M107
;LAYER_CHANGE
;Z:0.2
;HEIGHT:0.2
G1 Z0.2 F9000
G92 E0
M73 P0 R93
G1 E-0.8 F3000
M204 S1000
G1 X113.425 Y121.068 F9000
G1 E0.8 F1800
;TYPE:Skirt
;WIDTH:0.52
G1 X112.179 Y122.484 E0.0733
G1 X111.784 Y124.15 E0.06657
G1 X111.784 Y163.126 E1.51522
G1 X112.56 Y165.398 E0.09332
G1 X127.571 Y184.826 E0.9545
G1 X128.162 Y185.514 E0.03525
G1 X129.006 Y186.3 E0.04482
G1 X129.852 Y186.904 E0.04043
G1 X131.822 Y187.529 E0.08035
G1 X161.577 Y188.285 E1.15712
G1 X165.129 Y188.286 E0.13807
G1 X167.19 Y187.662 E0.08372
G1 X177.561 Y180.748 E0.48458
G1 X191.909 Y168.563 E0.73181
G1 X192.689 Y167.642 E0.04691
G1 X193.205 Y166.009 E0.06657
G1 X195.794 Y131 E1.36474
G1 X195.794 Y112.679 E0.71222
G1 X195.057 Y110.458 E0.09097
G1 X193.745 Y109.358 E0.06657
G1 X192.078 Y108.964 E0.06657
G1 X158.922 Y108.964 E1.28899
G1 X127.985 Y111.882 E1.20803
G1 X126.715 Y112.237 E0.05128
G1 X125.866 Y112.69 E0.03739
G1 X113.425 Y121.068 E0.58313
G1 X113.691 Y121.464 F9000
G1 F1800
G1 X112.655 Y122.602 E0.05983
G1 X112.261 Y124.15 E0.06209
G1 X112.261 Y163.126 E1.51522
G1 X112.937 Y165.106 E0.08134
G1 X127.949 Y184.535 E0.9545
G1 X128.522 Y185.201 E0.03417
G1 X129.32 Y185.941 E0.04233
G1 X130.117 Y186.507 E0.038
G1 X131.834 Y187.052 E0.07003
G1 X161.589 Y187.808 E1.15712
G1 X165.129 Y187.809 E0.1376
G1 X166.925 Y187.265 E0.07297
G1 X177.296 Y180.351 E0.48458
G1 X191.6 Y168.2 E0.72963
G1 X192.222 Y167.488 E0.03675
G1 X192.73 Y165.974 E0.06209
G1 X195.317 Y131 E1.36336
G1 X195.317 Y112.679 E0.71222
G1 X194.797 Y110.92 E0.0713
G1 X193.626 Y109.835 E0.06209
G1 X192.078 Y109.441 E0.06209
G1 X158.922 Y109.441 E1.28899
G1 X128.03 Y112.357 E1.20628
G1 X126.923 Y112.667 E0.0447
G1 X126.133 Y113.086 E0.03478
G1 X113.691 Y121.464 E0.58313
G1 E-0.8 F3000
; printing object Pebble_Time_Ver_v2.stl id:0 copy 0
G1 X161.672 Y181.114 F9000
G1 E0.8 F1800
;TYPE:Support material interface
;WIDTH:0.5

G1 X162 Y181.114 E0.01223
G1 X162.578 Y182.116 E0.04309
G1 X163.402 Y182.336 E0.03174
G1 X165.129 Y181.339 E0.07429
G1 X165.129 Y184.571 E0.12038
G1 X161.672 Y184.571 E0.12876
G1 X161.672 Y181.114 E0.12876
G1 E-0.8 F3000
G1 X165.015 Y181.996 F9000
G1 E0.8 F1800

G1 X164.22 Y181.996 E0.0296
G1 X162.377 Y181.996 F9000
G1 F1800
G1 X161.982 Y181.996 E0.0147
G1 X161.982 Y182.503 E0.01892
G1 X164.818 Y182.503 E0.10561
G1 X164.818 Y183.011 E0.01892
G1 X161.982 Y183.011 E0.10561
G1 X161.982 Y183.519 E0.01892
G1 X164.818 Y183.519 E0.10561
G1 X164.818 Y184.027 E0.01892
G1 X161.786 Y184.027 E0.11293
G1 E-0.8 F3000
G1 X165.519 Y181.114 F9000
G1 E0.8 F1800

G1 X165.955 Y180.862 E0.01876
G1 X166.391 Y180.61 E0.01876
G1 X166.612 Y179.787 E0.03174
G1 X165.382 Y177.657 E0.09163
G1 X168.586 Y177.657 E0.11934
G1 X168.586 Y181.114 E0.12876
G1 X165.519 Y181.114 E0.11424
G1 E-0.8 F3000
G1 X168.472 Y178.44 F9000
G1 E0.8 F1800

G1 X166.193 Y178.44 E0.08486
G1 X166.486 Y178.948 E0.02184
G1 X168.275 Y178.948 E0.06662
G1 X168.275 Y179.456 E0.01892
G1 X166.78 Y179.456 E0.0557
G1 X166.945 Y179.743 E0.01234
G1 X166.886 Y179.964 E0.00852
G1 X168.275 Y179.964 E0.05174
G1 X168.275 Y180.472 E0.01892
G1 X166.546 Y180.472 E0.06438
G1 E-0.8 F3000
G1 X172.043 Y177.657 F9000
G1 E0.8 F1800

G1 X172.043 Y174.2 E0.12876
G1 X173.019 Y174.2 E0.03637
G1 X173.837 Y175.616 E0.0609
G1 X174.66 Y175.836 E0.03174
G1 X175.5 Y175.351 E0.03613
G1 X175.5 Y177.657 E0.08587
G1 X172.043 Y177.657 E0.12876
G1 E-0.8 F3000
G1 X172.157 Y174.885 F9000
G1 E0.8 F1800

G1 X173.056 Y174.885 E0.03349
G1 X173.35 Y175.393 E0.02184
G1 X172.354 Y175.393 E0.03709
G1 X172.354 Y175.901 E0.01892
G1 X173.702 Y175.901 E0.05021
G1 X174.704 Y176.17 E0.03864
G1 X175.169 Y175.901 E0.02
G1 X175.189 Y175.901 E0.00076
G1 X175.189 Y176.409 E0.01892
G1 X172.354 Y176.409 E0.10561
G1 X172.354 Y176.917 E0.01892
G1 X175.386 Y176.917 E0.11293
G1 E-0.8 F3000
G1 X161.88 Y180.407 F9000
G1 E0.8 F1800
;TYPE:Support material
G1 X160.965 Y180.407 E0.03412
G1 X160.965 Y183.407 E0.11174
G1 X158.922 Y183.407 E0.07608
G1 X158.922 Y177.757 E0.21041
G1 X159.014 Y177.732 E0.00357
G1 X160.421 Y177.355 E0.05426
G1 X160.421 Y177.732 E0.01404
G1 X160.486 Y177.974 E0.00933
G1 X160.495 Y178.007 E0.00125
G1 X160.794 Y178.524 E0.02226
G1 X161.517 Y179.777 E0.0539
G1 X161.88 Y180.407 E0.02705
G1 X161.28 Y180.292 F9000
G1 F1800
G1 X161.28 Y179.988 E0.01134
G1 X161.248 Y179.933 E0.00236
G1 X160.772 Y179.108 E0.03547
G1 X160.772 Y180.096 E0.03679
G1 X160.654 Y180.096 E0.0044
G1 X160.654 Y183.096 E0.11174
G1 X160.264 Y183.096 E0.01451
G1 X160.264 Y178.228 E0.18129
G1 X160.205 Y178.127 E0.00437
G1 X160.186 Y178.055 E0.00277
G1 X160.111 Y177.773 E0.01085
G1 X160.111 Y177.761 E0.00048
G1 X159.756 Y177.855 E0.01367
G1 X159.756 Y183.096 E0.19518
G1 X159.248 Y183.096 E0.01892
G1 X159.248 Y177.788 E0.19769
G1 E-0.8 F3000
G1 X165.836 Y182.258 F9000
G1 E0.8 F1800
G1 X166.217 Y182.917 E0.02835
G1 X166.499 Y183.407 E0.02105
G1 X165.836 Y183.407 E0.0247
G1 X165.836 Y182.258 E0.04278
G1 E-0.8 F3000
G1 X158.922 Y131 F9000
G1 E0.8 F1800
G1 X158.922 Y112.679 E0.68237
G1 X167.879 Y112.679 E0.33361
G1 X167.879 Y116.136 E0.12876
G1 X171.336 Y116.136 E0.12876
G1 X171.336 Y125.333 E0.34254
G1 X161.053 Y125.333 E0.38298
G1 X160.421 Y125.965 E0.03328
G1 X160.421 Y129.5 E0.13168
G1 X158.922 Y131 E0.07899
G1 E-0.8 F3000
G1 X170.929 Y125.219 F9000
G1 E0.8 F1800
G1 X170.929 Y116.447 E0.3267
G1 X170.421 Y116.447 E0.01892
G1 X170.421 Y125.022 E0.31938
G1 X169.913 Y125.022 E0.01892
G1 X169.913 Y116.447 E0.31938
G1 X169.406 Y116.447 E0.01892
G1 X169.406 Y125.022 E0.31938
G1 X168.898 Y125.022 E0.01892
G1 X168.898 Y116.447 E0.31938
G1 X168.39 Y116.447 E0.01892
G1 X168.39 Y125.022 E0.31938
G1 X167.882 Y125.022 E0.01892
G1 X167.882 Y116.447 E0.31938
G1 X167.568 Y116.447 E0.0117
G1 X167.568 Y112.99 E0.12876
G1 X167.374 Y112.99 E0.00721
G1 X167.374 Y125.022 E0.44814
G1 X166.866 Y125.022 E0.01892
G1 X166.866 Y112.99 E0.44814
G1 X166.358 Y112.99 E0.01892
G1 X166.358 Y125.022 E0.44814
G1 X165.851 Y125.022 E0.01892
G1 X165.851 Y112.99 E0.44814
G1 X165.343 Y112.99 E0.01892
G1 X165.343 Y125.022 E0.44814
M73 P1 R93
G1 X164.835 Y125.022 E0.01892
G1 X164.835 Y112.99 E0.44814
G1 X164.327 Y112.99 E0.01892
G1 X164.327 Y125.022 E0.44814
G1 X163.819 Y125.022 E0.01892
G1 X163.819 Y112.99 E0.44814
G1 X163.311 Y112.99 E0.01892
G1 X163.311 Y125.022 E0.44814
G1 X162.803 Y125.022 E0.01892
G1 X162.803 Y112.99 E0.44814
G1 X162.295 Y112.99 E0.01892
G1 X162.295 Y125.022 E0.44814
G1 X161.788 Y125.022 E0.01892
G1 X161.788 Y112.99 E0.44814
G1 X161.28 Y112.99 E0.01892
G1 X161.28 Y125.022 E0.44814
G1 X160.925 Y125.022 E0.01323
G1 X160.772 Y125.175 E0.00804
G1 X160.772 Y112.99 E0.45383
G1 X160.264 Y112.99 E0.01892
G1 X160.264 Y125.683 E0.47275
G1 X160.111 Y125.836 E0.00808
G1 X160.111 Y129.371 E0.13168
G1 X159.756 Y129.726 E0.01867
G1 X159.756 Y112.99 E0.62334
G1 X159.248 Y112.99 E0.01892
G1 X159.248 Y130.512 E0.65261
G1 E-0.8 F3000
G1 X179.664 Y125.333 F9000
G1 E0.8 F1800
G1 X179.664 Y116.136 E0.34254
G1 X183.121 Y116.136 E0.12876
G1 X183.121 Y112.679 E0.12876
G1 X192.078 Y112.679 E0.33361
G1 X192.078 Y131 E0.68237
G1 X190.579 Y129.5 E0.07899
G1 X190.579 Y125.965 E0.13168
G1 X189.947 Y125.333 E0.03328
G1 X179.664 Y125.333 E0.38298
G1 E-0.8 F3000
G1 X191.752 Y130.512 F9000
G1 E0.8 F1800
G1 X191.752 Y112.99 E0.65261
G1 X191.244 Y112.99 E0.01892
G1 X191.244 Y129.726 E0.62334
G1 X190.889 Y129.371 E0.01867
G1 X190.889 Y125.836 E0.13168
G1 X190.736 Y125.683 E0.00808
G1 X190.736 Y112.99 E0.47275
G1 X190.228 Y112.99 E0.01892
G1 X190.228 Y125.175 E0.45383
G1 X190.075 Y125.022 E0.00804
G1 X189.72 Y125.022 E0.01323
G1 X189.72 Y112.99 E0.44814
G1 X189.212 Y112.99 E0.01892
G1 X189.212 Y125.022 E0.44814
G1 X188.705 Y125.022 E0.01892
G1 X188.705 Y112.99 E0.44814
M73 P1 R93
G1 X188.197 Y112.99 E0.01892
G1 X188.197 Y125.022 E0.44814
G1 X187.689 Y125.022 E0.01892
G1 X187.689 Y112.99 E0.44814
G1 X187.181 Y112.99 E0.01892
G1 X187.181 Y125.022 E0.44814
G1 X186.673 Y125.022 E0.01892
G1 X186.673 Y112.99 E0.44814
G1 X186.165 Y112.99 E0.01892
G1 X186.165 Y125.022 E0.44814
G1 X185.657 Y125.022 E0.01892
G1 X185.657 Y112.99 E0.44814
G1 X185.149 Y112.99 E0.01892
G1 X185.149 Y125.022 E0.44814
G1 X184.642 Y125.022 E0.01892
G1 X184.642 Y112.99 E0.44814
G1 X184.134 Y112.99 E0.01892
G1 X184.134 Y125.022 E0.44814
G1 X183.626 Y125.022 E0.01892
G1 X183.626 Y112.99 E0.44814
G1 X183.432 Y112.99 E0.00722
G1 X183.432 Y116.447 E0.12876
G1 X183.118 Y116.447 E0.0117
G1 X183.118 Y125.022 E0.31938
G1 X182.61 Y125.022 E0.01892
G1 X182.61 Y116.447 E0.31938
G1 X182.102 Y116.447 E0.01892
G1 X182.102 Y125.022 E0.31938
G1 X181.594 Y125.022 E0.01892
G1 X181.594 Y116.447 E0.31938
G1 X181.087 Y116.447 E0.01892
G1 X181.087 Y125.022 E0.31938
G1 X180.579 Y125.022 E0.01892
G1 X180.579 Y116.447 E0.31938
G1 X180.071 Y116.447 E0.01892
G1 X180.071 Y125.219 E0.3267
G1 E-0.8 F3000
G1 X187.564 Y129.247 F9000
G1 E0.8 F1800
;TYPE:Internal perimeter
G1 X163.436 Y129.247 E0.89869
G1 X163.436 Y173.739 E1.65713
G1 X164.6 Y174.411 E0.05007
G1 X187.564 Y161.152 E0.98765
G1 X187.564 Y129.247 E1.18834
G1 X187.107 Y129.704 F9000
G1 F1800
G1 X163.893 Y129.704 E0.86464
G1 X163.893 Y173.475 E1.63028
G1 X164.6 Y173.883 E0.03041
G1 X187.107 Y160.888 E0.96799
G1 X187.107 Y129.704 E1.16149
G1 X186.7 Y130.111 F9000
;TYPE:External perimeter
;WIDTH:0.4
G1 F1800
G1 X164.3 Y130.111 E0.65178
G1 X164.3 Y173.24 E1.25492
G1 X164.6 Y173.413 E0.01008
G1 X186.7 Y160.653 E0.74253
G1 X186.7 Y130.111 E0.88869
;WIPE_START
M204 S3000
G1 X186.7 Y129.711 F9000
;WIPE_END
G1 E-0.8 F3000
M204 S1000
G1 X173.464 Y170.184 F9000
G1 E0.8 F1800
;TYPE:Internal perimeter
;WIDTH:0.5
G1 X163.528 Y175.921 E0.42733
G1 X162.564 Y176.477 E0.04144
G1 X162.564 Y127.476 E1.82512
G1 X188.436 Y127.476 E0.96362
G1 X188.436 Y165.12 E1.4021
G1 X175.014 Y172.869 E0.57726
G1 X173.464 Y170.184 E0.11546
G1 X173.297 Y170.809 F9000
G1 F1800
G1 X163.756 Y176.317 E0.41031
G1 X162.719 Y176.916 E0.04462
G1 X164.269 Y179.6 E0.11546
G1 X163.588 Y179.993 E0.02927
G1 X162.107 Y177.428 E0.11033
G1 X162.107 Y127.019 E1.87756
G1 X188.893 Y127.019 E0.99767
G1 X188.893 Y165.384 E1.42895
G1 X174.847 Y173.493 E0.60411
G1 X173.297 Y170.809 E0.11546
G1 X173.148 Y171.365 F9000
;TYPE:External perimeter
;WIDTH:0.4
G1 F1800
G1 X163.96 Y176.669 E0.3087
G1 X163.275 Y177.065 E0.02301
G1 X164.825 Y179.749 E0.0902
G1 X163.439 Y180.549 E0.04656
G1 X161.7 Y177.537 E0.10121
G1 X161.7 Y126.611 E1.4818
G1 X189.3 Y126.611 E0.80309
G1 X189.3 Y165.619 E1.13501
G1 X174.698 Y174.049 E0.49063
G1 X173.148 Y171.365 E0.0902
;WIPE_START
M204 S3000
G1 X172.948 Y171.018 F9000
;WIPE_END
M204 S1000
G1 X173.484 Y169.727
;TYPE:Gap fill
;WIDTH:0.393516
G1 F1800
G1 X173.333 Y169.814 E0.00501
G1 X169.124 Y172.245 E0.13885
G1 X164.915 Y174.675 E0.13885
G1 X164.818 Y174.72 E0.00304
;WIDTH:0.320356
G1 X164.722 Y174.766 E0.00241
G1 X164.391 Y175.354 F9000
;TYPE:Solid infill
;WIDTH:0.684527
G1 F2400
G1 X163.067 Y174.03 E0.09644
G1 X162.846 Y174.048 E0.01142
G1 X162.846 Y174.54 E0.02536
G1 X163.765 Y175.459 E0.06691
G1 X163.301 Y175.726 E0.02757
G1 X162.624 Y175.049 E0.04933
G1 X163.864 Y174.305 F9000
;TYPE:Gap fill
;WIDTH:0.15492
G1 F1800
G1 X163.995 Y174.406 E0.00151
;WIDTH:0.205059
G1 X164.127 Y174.507 E0.00219
;WIDTH:0.255198
G1 X164.259 Y174.608 E0.00287
;WIDTH:0.305337
G1 X164.39 Y174.709 E0.00355
;WIDTH:0.368121
G1 X164.522 Y174.81 E0.0044
G1 X164.571 Y174.841 E0.00154
G1 X163.022 Y173.784 F9000
;WIDTH:0.399498
G1 F1800
G1 X163.011 Y173.648 E0.00398
;WIDTH:0.493531
G1 X163 Y173.511 E0.00503
G1 X163 Y129.226 E1.62612
G1 X163 Y129.113 E0.00414
G1 X163 Y129.001 E0.00414
G1 E-0.8 F3000
G1 X188 Y129.001 F9000
G1 E0.8 F1800
;WIDTH:0.493529
G1 X188 Y129.113 E0.00414
G1 X188 Y129.226 E0.00414
G1 X188 Y160.925 E1.16396
G1 X187.989 Y161.062 E0.00503
;WIDTH:0.399498
G1 X187.978 Y161.198 E0.00398
G1 X188.376 Y162.304 F9000
;TYPE:Solid infill
;WIDTH:0.52805
G1 F2400
G1 X187.556 Y161.483 E0.04612
G1 X187.092 Y161.75 E0.02127
G1 X188.154 Y162.813 E0.05968
G1 X188.154 Y163.544 E0.02905
G1 X186.628 Y162.018 E0.08572
G1 X186.165 Y162.286 E0.02127
G1 X188.154 Y164.275 E0.11177
G1 X188.154 Y164.957 E0.02709
G1 X188.123 Y164.975 E0.00143
G1 X185.701 Y162.553 E0.13607
G1 X185.238 Y162.821 E0.02127
G1 X187.659 Y165.243 E0.13607
G1 X187.195 Y165.51 E0.02127
G1 X184.774 Y163.089 E0.13607
G1 X184.31 Y163.356 E0.02127
G1 X186.732 Y165.778 E0.13607
G1 X186.268 Y166.046 E0.02127
G1 X183.847 Y163.624 E0.13607
G1 X183.383 Y163.892 E0.02127
G1 X185.805 Y166.313 E0.13607
G1 X185.341 Y166.581 E0.02127
G1 X182.92 Y164.159 E0.13607
G1 X182.456 Y164.427 E0.02127
G1 X184.877 Y166.849 E0.13607
G1 X184.414 Y167.116 E0.02127
G1 X181.992 Y164.695 E0.13607
G1 X181.529 Y164.962 E0.02127
G1 X183.95 Y167.384 E0.13607
G1 X183.487 Y167.652 E0.02127
G1 X181.065 Y165.23 E0.13607
G1 X180.602 Y165.498 E0.02127
G1 X183.023 Y167.919 E0.13607
G1 X182.559 Y168.187 E0.02127
G1 X180.138 Y165.765 E0.13607
G1 X179.674 Y166.033 E0.02127
G1 X182.096 Y168.455 E0.13607
G1 X181.632 Y168.722 E0.02127
M73 P2 R92
G1 X179.211 Y166.301 E0.13607
G1 X178.747 Y166.568 E0.02127
G1 X181.169 Y168.99 E0.13607
G1 X180.705 Y169.258 E0.02127
G1 X178.284 Y166.836 E0.13607
G1 X177.82 Y167.104 E0.02127
G1 X180.241 Y169.525 E0.13607
G1 X179.778 Y169.793 E0.02127
G1 X177.356 Y167.371 E0.13607
G1 X176.893 Y167.639 E0.02127
G1 X179.314 Y170.061 E0.13607
G1 X178.851 Y170.328 E0.02127
G1 X176.429 Y167.907 E0.13607
G1 X175.966 Y168.174 E0.02127
G1 X178.387 Y170.596 E0.13607
G1 X177.923 Y170.864 E0.02127
G1 X175.502 Y168.442 E0.13607
G1 X175.038 Y168.71 E0.02127
G1 X177.46 Y171.131 E0.13607
G1 X176.996 Y171.399 E0.02127
G1 X174.575 Y168.977 E0.13607
G1 X174.111 Y169.245 E0.02127
G1 X176.533 Y171.667 E0.13607
G1 X176.069 Y171.934 E0.02127
G1 X173.647 Y169.513 E0.13607
G1 X173.911 Y169.969 E0.02096
G1 X173.727 Y170.076 E0.00846
G1 X174.065 Y170.661 E0.02684
G1 X175.605 Y172.202 E0.08658
G1 X175.142 Y172.469 E0.02127
G1 X174.456 Y171.784 E0.03854
G1 E-0.8 F3000
G1 X188.207 Y161.792 F9000
G1 E0.8 F1800
;TYPE:Gap fill
;WIDTH:0.178964
G1 X188.149 Y161.65 E0.0017
;WIDTH:0.275139
G1 X188.09 Y161.508 E0.0029
;WIDTH:0.381003
G1 X188.031 Y161.366 E0.00423
G1 X187.947 Y161.196 E0.00524
G1 E-0.8 F3000
G1 X162.353 Y176.842 F9000
G1 E0.8 F1800
;WIDTH:0.183048
G1 X162.367 Y176.907 E0.00076
G1 X162.405 Y177.04 E0.00158
;WIDTH:0.270902
G1 X162.453 Y177.181 E0.00277
;WIDTH:0.407688
G1 X162.5 Y177.323 E0.00443
G1 X163.116 Y178.39 E0.03662
G1 X163.732 Y179.457 E0.03662
G1 X163.823 Y179.614 E0.00542
G1 E-0.8 F3000
G1 X188.376 Y128.58 F9000
G1 E0.8 F1800
;TYPE:Solid infill
;WIDTH:0.499833
G1 F2400
