; generated by SuperSlicer 2.5.59 on 2022-12-16 at 21:08:34 UTC


;
;

;
;
; 

; external perimeters extrusion width = 0.40mm
; perimeters extrusion width = 0.46mm
; infill extrusion width = 0.64mm
; solid infill extrusion width = 0.56mm
; top infill extrusion width = 0.40mm
; first layer extrusion width = 0.50mm

; external perimeters extrusion width = 0.40mm
; perimeters extrusion width = 0.46mm
; infill extrusion width = 0.64mm
; solid infill extrusion width = 0.56mm
; top infill extrusion width = 0.40mm
; first layer extrusion width = 0.50mm

; external perimeters extrusion width = 0.40mm
; perimeters extrusion width = 0.46mm
; infill extrusion width = 0.64mm
; solid infill extrusion width = 0.56mm
; top infill extrusion width = 0.40mm
; first layer extrusion width = 0.50mm

; external perimeters extrusion width = 0.40mm
; perimeters extrusion width = 0.46mm
; infill extrusion width = 0.64mm
; solid infill extrusion width = 0.56mm
; top infill extrusion width = 0.40mm
; first layer extrusion width = 0.50mm

; object:{"name":"Strain_Relief_Body_x1(1)","id":"Strain_Relief_Body_x1(1).STL id:0 copy 0","object_center":[132.573525,150.708666,0.000000],"boundingbox_center":[132.573525,150.708666,2.845171],"boundingbox_size":[50.939548,27.547991,5.690342]}
; object:{"name":"Latch_Shuttle_DD_x1(2)","id":"Latch_Shuttle_DD_x1(2).stl id:1 copy 0","object_center":[139.532308,124.476206,0.000000],"boundingbox_center":[139.532308,124.476206,5.000000],"boundingbox_size":[18.648300,12.915070,10.000000]}
; object:{"name":"Latch_DD_x1","id":"Latch_DD_x1.stl id:2 copy 0","object_center":[176.376268,125.490183,0.000000],"boundingbox_center":[176.376268,125.490183,5.000000],"boundingbox_size":[43.039619,22.866980,10.000000]}
; object:{"name":"Guidler_DD_x1","id":"Guidler_DD_x1.stl id:3 copy 0","object_center":[165.478277,169.444039,0.000000],"boundingbox_center":[165.478277,169.444039,4.999971],"boundingbox_size":[20.000000,32.999481,9.999943]}
; plater:{"center":[152.499914,150.000236,0.000000],"boundingbox_center":[152.499914,150.000236,5.000000],"boundingbox_size":[90.792327,71.887086,10.000000]}

M73 P0 R41


; Pre-Processed for Cancel-Object support by preprocess_cancellation v0.2.0
; 4 known objects
EXCLUDE_OBJECT_DEFINE NAME=Strain_Relief_Body_x1_1_STL_id_0_copy_0 CENTER=132.743,146.781 POLYGON=[[107.304,137.135],[107.304,164.283],[157.843,164.283],[157.843,137.135]]
EXCLUDE_OBJECT_DEFINE NAME=Latch_Shuttle_DD_x1_2_stl_id_1_copy_0 CENTER=139.400,123.710 POLYGON=[[130.41,118.222],[130.41,130.733],[148.656,130.733],[148.656,118.222]]
EXCLUDE_OBJECT_DEFINE NAME=Latch_DD_x1_stl_id_2_copy_0 CENTER=174.789,126.513 POLYGON=[[155.102,114.257],[155.102,136.699],[197.673,136.699],[197.673,114.257]]
EXCLUDE_OBJECT_DEFINE NAME=Guidler_DD_x1_stl_id_3_copy_0 CENTER=167.655,172.024 POLYGON=[[155.678,153.145],[155.678,185.743],[175.278,185.743],[175.278,153.145]]
;TYPE:Custom
START_PRINT T_BED=110 T_EXTRUDER=240
M107
G21 ; set units to millimeters
G90 ; use absolute coordinates
M83 ; use relative distances for extrusion
; Filament gcode
;_TOOLCHANGE 0
M109 S240 ; set temperature and wait for it to be reached
M190 S110 ; set bed temperature and wait for it to be reached
M107
;LAYER_CHANGE
;Z:0.2
;HEIGHT:0.2
G1 Z0.2 F9000
G92 E0
G1 E-0.5 F3000
M204 S1000
G1 X105.658 Y135.104 F9000
G1 E0.5 F1800
;TYPE:Skirt
;WIDTH:0.52
G1 X104.56 Y136.39 E0.06169
G1 X103.819 Y137.805 E0.05829
G1 X103.51 Y138.792 E0.03775
G1 X103.353 Y139.719 E0.03434
G1 X103.372 Y141.41 E0.06169
G1 X103.55 Y142.333 E0.03434
G1 X103.881 Y143.313 E0.03775
G1 X104.495 Y144.477 E0.04803
G1 X105.056 Y145.232 E0.03434
G1 X124.89 Y166.91 E1.07232
G1 X126.017 Y167.783 E0.05205
G1 X164.922 Y188.424 E1.60731
G1 X165.721 Y188.754 E0.03154
G1 X167.11 Y189.023 E0.05164
G1 X174.026 Y189.007 E0.25241
M73 P0 R41
G1 X175.239 Y188.746 E0.04528
G1 X176.029 Y188.426 E0.03112
G1 X176.765 Y187.983 E0.03137
G1 X177.589 Y187.269 E0.03976
G1 X178.122 Y186.621 E0.03065
G1 X178.56 Y185.889 E0.03111
G1 X201.205 Y137.52 E1.94916
G1 X201.544 Y136.547 E0.03761
G1 X201.689 Y135.71 E0.03099
G1 X201.646 Y134.373 E0.04883
G1 X201.45 Y133.515 E0.0321
G1 X197.658 Y122.249 E0.43383
G1 X197.266 Y121.512 E0.03046
G1 X196.819 Y120.904 E0.02756
G1 X196.268 Y120.338 E0.02882
G1 X195.38 Y119.668 E0.04061
G1 X194.116 Y119.094 E0.05065
G1 X166.691 Y110.49 E1.04901
G1 X165.939 Y110.325 E0.02808
G1 X164.457 Y110.306 E0.05409
G1 X133.568 Y114.268 E1.13658
G1 X132.852 Y114.423 E0.02674
G1 X131.727 Y114.924 E0.04495
G1 X105.658 Y135.104 E1.20317
G1 X105.975 Y135.46 F9000
G1 F1800
G1 X104.961 Y136.648 E0.05701
G1 X104.509 Y137.424 E0.03278
G1 X104.146 Y138.301 E0.03463
G1 X103.826 Y139.778 E0.05517
G1 X103.844 Y141.34 E0.05702
G1 X104.014 Y142.222 E0.03278
G1 X104.317 Y143.121 E0.03463
G1 X104.89 Y144.21 E0.04491
G1 X105.426 Y144.931 E0.03278
G1 X125.242 Y166.588 E1.07133
G1 X126.241 Y167.362 E0.04612
G1 X165.146 Y188.003 E1.60731
G1 X165.878 Y188.303 E0.02889
G1 X167.135 Y188.547 E0.04672
G1 X173.989 Y188.531 E0.25017
G1 X175.106 Y188.288 E0.04171
G1 X175.806 Y188.005 E0.02758
G1 X176.481 Y187.6 E0.02873
G1 X177.25 Y186.933 E0.03713
G1 X177.738 Y186.338 E0.02808
G1 X178.138 Y185.667 E0.02854
G1 X200.773 Y137.318 E1.94832
G1 X201.078 Y136.441 E0.03387
G1 X201.213 Y135.672 E0.0285
G1 X201.176 Y134.455 E0.04443
G1 X200.997 Y133.665 E0.02957
G1 X197.218 Y122.432 E0.43254
G1 X196.86 Y121.762 E0.02772
G1 X196.447 Y121.203 E0.02537
G1 X195.959 Y120.702 E0.02554
G1 X195.139 Y120.08 E0.03755
G1 X193.973 Y119.549 E0.04675
G1 X166.548 Y110.945 E1.04899
G1 X165.861 Y110.795 E0.02568
G1 X164.518 Y110.78 E0.04902
G1 X133.628 Y114.742 E1.13658
G1 X132.98 Y114.882 E0.02423
G1 X131.983 Y115.326 E0.03983
G1 X105.975 Y135.46 E1.20034
G1 X106.293 Y135.816 F9000
G1 F1800
G1 X105.362 Y136.906 E0.05234
G1 X104.932 Y137.645 E0.03121
G1 X104.601 Y138.443 E0.03151
G1 X104.299 Y139.837 E0.05205
G1 X104.316 Y141.271 E0.05234
G1 X104.478 Y142.111 E0.03122
G1 X104.754 Y142.929 E0.0315
G1 X105.285 Y143.943 E0.04179
G1 X105.796 Y144.629 E0.03122
G1 X125.594 Y166.266 E1.07034
G1 X126.465 Y166.94 E0.0402
G1 X165.369 Y187.581 E1.60731
G1 X166.035 Y187.853 E0.02624
G1 X167.159 Y188.07 E0.0418
G1 X173.952 Y188.055 E0.24792
G1 X174.973 Y187.83 E0.03814
G1 X175.583 Y187.583 E0.02404
G1 X176.197 Y187.216 E0.02609
G1 X176.911 Y186.597 E0.03449
G1 X177.353 Y186.056 E0.02551
G1 X177.717 Y185.444 E0.02597
G1 X200.341 Y137.116 E1.94748
G1 X200.613 Y136.336 E0.03013
G1 X200.737 Y135.635 E0.026
G1 X200.706 Y134.538 E0.04003
G1 X200.544 Y133.816 E0.02703
G1 X196.901 Y122.911 E0.4196
G1 X196.546 Y122.163 E0.03022
G1 X196.075 Y121.502 E0.0296
G1 X195.65 Y121.065 E0.02226
G1 X194.898 Y120.492 E0.0345
G1 X193.83 Y120.004 E0.04285
G1 X166.406 Y111.401 E1.04896
G1 X165.783 Y111.266 E0.02327
G1 X164.579 Y111.253 E0.04395
G1 X133.689 Y115.215 E1.13658
M73 P1 R40
G1 X133.108 Y115.342 E0.02172
G1 X132.239 Y115.729 E0.03472
G1 X106.293 Y135.816 E1.1975
G1 E-0.5 F3000
; printing object Strain_Relief_Body_x1(1).STL id:0 copy 0
EXCLUDE_OBJECT_START NAME=Strain_Relief_Body_x1_1_STL_id_0_copy_0
G1 X114.416 Y140.386 F9000
G1 E0.5 F1800
;TYPE:Internal perimeter
;WIDTH:0.5
G1 X125.699 Y145.06 E0.42703
M73 P1 R40
G1 X126.621 Y145.412 E0.0345
G1 X127.584 Y145.719 E0.03534
G1 X128.563 Y145.972 E0.03535
G1 X129.555 Y146.169 E0.03534
G1 X130.556 Y146.31 E0.03535
G1 X131.563 Y146.395 E0.03535
G1 X132.574 Y146.423 E0.03535
G1 X133.584 Y146.395 E0.03535
G1 X134.591 Y146.31 E0.03535
G1 X135.592 Y146.169 E0.03535
G1 X136.584 Y145.972 E0.03534
G1 X137.563 Y145.719 E0.03535
G1 X138.526 Y145.412 E0.03534
G1 X139.448 Y145.06 E0.0345
G1 X150.708 Y140.396 E0.42615
G1 X150.776 Y141.157 E0.02672
G1 X150.946 Y141.773 E0.02233
G1 X151.109 Y142.155 E0.01455
G1 X151.437 Y142.703 E0.02232
G1 X151.886 Y143.217 E0.02385
G1 X149.276 Y144.312 E0.09895
G1 X148.691 Y144.687 E0.02429
G1 X148.167 Y145.174 E0.025
G1 X147.761 Y145.714 E0.02365
G1 X147.561 Y146.07 E0.01425
G1 X147.072 Y147.198 E0.04299
G1 X146.676 Y147.993 E0.03108
G1 X146.238 Y148.764 E0.03099
G1 X145.758 Y149.509 E0.03099
G1 X145.237 Y150.226 E0.03099
G1 X144.677 Y150.913 E0.03099
G1 X144.08 Y151.568 E0.03099
G1 X143.448 Y152.189 E0.03099
G1 X142.782 Y152.774 E0.03099
G1 X142.085 Y153.322 E0.03099
G1 X141.358 Y153.829 E0.03099
G1 X140.604 Y154.296 E0.03099
G1 X139.826 Y154.72 E0.03099
G1 X139.025 Y155.1 E0.03099
G1 X138.203 Y155.436 E0.03106
G1 X137.057 Y155.835 E0.04243
G1 X136.706 Y155.997 E0.01351
G1 X136.161 Y156.337 E0.02247
G1 X135.653 Y156.788 E0.02374
G1 X135.229 Y157.318 E0.02374
G1 X134.9 Y157.912 E0.02374
G1 X134.687 Y158.518 E0.02247
G1 X134.6 Y158.921 E0.01442
G1 X134.552 Y159.489 E0.01992
G1 X134.552 Y162.197 E0.0947
G1 X134.587 Y162.46 E0.00929
G1 X130.592 Y162.459 E0.1397
G1 X130.595 Y159.49 E0.10383
G1 X130.544 Y158.885 E0.02122
G1 X130.374 Y158.227 E0.02374
G1 X130.095 Y157.608 E0.02374
G1 X129.737 Y157.074 E0.02247
G1 X129.466 Y156.764 E0.01442
G1 X128.986 Y156.337 E0.02247
G1 X128.441 Y155.997 E0.02247
G1 X128.09 Y155.835 E0.01351
G1 X126.944 Y155.436 E0.04242
G1 X126.122 Y155.1 E0.03107
G1 X125.321 Y154.72 E0.03099
G1 X124.543 Y154.296 E0.03099
G1 X123.789 Y153.829 E0.03099
G1 X123.062 Y153.322 E0.03099
G1 X122.365 Y152.774 E0.03099
G1 X121.699 Y152.189 E0.03099
G1 X121.067 Y151.568 E0.03099
G1 X120.47 Y150.913 E0.03099
G1 X119.91 Y150.226 E0.03099
G1 X119.389 Y149.509 E0.03099
G1 X118.909 Y148.764 E0.03099
G1 X118.471 Y147.993 E0.031
G1 X118.075 Y147.198 E0.03108
G1 X117.586 Y146.07 E0.04299
G1 X117.405 Y145.748 E0.01291
G1 X117.182 Y145.421 E0.01384
G1 X116.728 Y144.919 E0.02365
G1 X116.163 Y144.481 E0.025
G1 X115.598 Y144.185 E0.02231
G1 X113.261 Y143.217 E0.08844
G1 X113.71 Y142.703 E0.02387
G1 X114.058 Y142.122 E0.02368
G1 X114.296 Y141.488 E0.02368
G1 X114.416 Y140.824 E0.0236
G1 X114.416 Y140.386 E0.01528
G1 X113.865 Y139.663 F9000
G1 F1800
G1 X125.868 Y144.635 E0.4543
G1 X126.772 Y144.98 E0.03383
G1 X127.711 Y145.28 E0.03445
G1 X128.665 Y145.526 E0.03445
G1 X129.631 Y145.718 E0.03445
G1 X130.607 Y145.856 E0.03445
G1 X131.589 Y145.938 E0.03445
G1 X132.574 Y145.966 E0.03445
G1 X133.558 Y145.938 E0.03445
G1 X134.54 Y145.856 E0.03445
G1 X135.516 Y145.718 E0.03445
G1 X136.482 Y145.526 E0.03445
G1 X137.436 Y145.28 E0.03445
G1 X138.375 Y144.98 E0.03445
G1 X139.279 Y144.635 E0.03383
G1 X151.247 Y139.678 E0.45295
G1 X151.174 Y140.483 E0.02825
G1 X151.228 Y141.075 E0.02081
G1 X151.378 Y141.621 E0.01981
G1 X151.518 Y141.947 E0.01239
G1 X151.808 Y142.434 E0.01981
G1 X152.2 Y142.882 E0.02081
G1 X152.774 Y143.34 E0.02569
G1 X149.49 Y144.718 E0.12455
G1 X148.972 Y145.05 E0.02148
G1 X148.508 Y145.481 E0.02215
G1 X148.144 Y145.965 E0.02116
G1 X147.971 Y146.273 E0.01236
G1 X147.487 Y147.39 E0.04259
G1 X147.08 Y148.208 E0.03194
G1 X146.629 Y149.001 E0.03188
G1 X146.135 Y149.767 E0.03188
G1 X145.599 Y150.505 E0.03188
G1 X145.024 Y151.212 E0.03188
G1 X144.41 Y151.886 E0.03188
G1 X143.759 Y152.524 E0.03188
G1 X143.074 Y153.126 E0.03188
G1 X142.357 Y153.689 E0.03188
G1 X141.609 Y154.211 E0.03188
G1 X140.834 Y154.691 E0.03188
G1 X140.034 Y155.127 E0.03188
G1 X139.21 Y155.519 E0.03188
G1 X138.365 Y155.864 E0.03193
G1 X137.228 Y156.259 E0.04208
G1 X136.923 Y156.4 E0.01172
G1 X136.436 Y156.704 E0.0201
G1 X135.986 Y157.104 E0.02104
G1 X135.61 Y157.573 E0.02104
G1 X135.318 Y158.1 E0.02104
G1 X135.128 Y158.642 E0.0201
G1 X135.053 Y158.989 E0.01239
G1 X135.009 Y159.508 E0.01823
G1 X135.009 Y162.167 E0.09297
G1 X135.063 Y162.567 E0.01413
G1 X135.19 Y162.918 E0.01303
G1 X129.948 Y162.916 E0.1833
G1 X130.071 Y162.62 E0.01121
G1 X130.135 Y162.255 E0.01296
G1 X130.138 Y159.509 E0.09602
G1 X130.091 Y158.962 E0.01919
G1 X129.941 Y158.379 E0.02104
G1 X129.694 Y157.83 E0.02104
G1 X129.374 Y157.353 E0.0201
G1 X129.141 Y157.086 E0.01239
G1 X128.711 Y156.704 E0.0201
G1 X128.224 Y156.4 E0.0201
G1 X127.919 Y156.259 E0.01172
G1 X126.783 Y155.864 E0.04208
G1 X125.937 Y155.519 E0.03193
G1 X125.113 Y155.127 E0.03188
G1 X124.313 Y154.691 E0.03188
G1 X123.538 Y154.211 E0.03188
G1 X122.79 Y153.689 E0.03188
G1 X122.073 Y153.126 E0.03188
G1 X121.388 Y152.524 E0.03188
G1 X120.737 Y151.886 E0.03188
G1 X120.123 Y151.212 E0.03188
G1 X119.548 Y150.505 E0.03188
G1 X119.012 Y149.767 E0.03188
G1 X118.518 Y149.001 E0.03188
G1 X118.067 Y148.208 E0.03188
G1 X117.66 Y147.39 E0.03194
G1 X117.176 Y146.273 E0.04259
G1 X117.017 Y145.989 E0.01138
G1 X116.822 Y145.705 E0.01206
G1 X116.416 Y145.255 E0.02116
G1 X115.916 Y144.867 E0.02215
G1 X115.404 Y144.6 E0.02018
G1 X112.369 Y143.343 E0.11486
G1 X112.947 Y142.882 E0.02585
G1 X113.339 Y142.434 E0.02081
G1 X113.644 Y141.923 E0.02081
G1 X113.853 Y141.366 E0.02081
G1 X113.959 Y140.782 E0.02073
G1 X113.959 Y140.183 E0.02096
G1 X113.865 Y139.663 E0.01846
G1 X113.502 Y140.265 F9000
G1 F1800
G1 X113.502 Y140.224 E0.00144
G1 X113.411 Y139.722 E0.01785
G1 X113.081 Y138.844 E0.03277
G1 X126.037 Y144.211 E0.49034
G1 X126.923 Y144.549 E0.03316
G1 X127.838 Y144.84 E0.03355
G1 X128.767 Y145.08 E0.03355
G1 X129.708 Y145.267 E0.03355
G1 X130.658 Y145.401 E0.03355
G1 X131.614 Y145.482 E0.03355
G1 X132.574 Y145.509 E0.03355
G1 X133.533 Y145.482 E0.03355
G1 X134.489 Y145.401 E0.03355
G1 X135.439 Y145.267 E0.03355
G1 X136.38 Y145.08 E0.03355
G1 X137.309 Y144.84 E0.03355
G1 X138.224 Y144.549 E0.03355
G1 X139.11 Y144.211 E0.03316
G1 X152.066 Y138.844 E0.49034
G1 X151.743 Y139.705 E0.03214
G1 X151.678 Y139.99 E0.01024
G1 X151.633 Y140.483 E0.01729
G1 X151.679 Y140.993 E0.01793
G1 X151.811 Y141.47 E0.01729
G1 X151.926 Y141.739 E0.01024
G1 X152.179 Y142.164 E0.01729
G1 X152.517 Y142.55 E0.01793
G1 X152.904 Y142.858 E0.01729
G1 X153.155 Y143.009 E0.01024
G1 X153.942 Y143.345 E0.02995
G1 X149.952 Y145.008 E0.15115
G1 X149.703 Y145.124 E0.00962
G1 X149.254 Y145.413 E0.01867
G1 X148.849 Y145.788 E0.0193
G1 X148.528 Y146.215 E0.01867
G1 X148.381 Y146.476 E0.01048
G1 X147.901 Y147.583 E0.04218
G1 X147.484 Y148.423 E0.03281
G1 X147.02 Y149.238 E0.03277
G1 X146.513 Y150.025 E0.03277
G1 X145.962 Y150.784 E0.03277
G1 X145.37 Y151.51 E0.03277
G1 X144.739 Y152.203 E0.03277
G1 X144.07 Y152.86 E0.03277
G1 X143.366 Y153.478 E0.03277
G1 X142.629 Y154.057 E0.03277
G1 X141.861 Y154.593 E0.03277
G1 X141.064 Y155.087 E0.03277
G1 X140.241 Y155.535 E0.03277
G1 X139.395 Y155.937 E0.03277
G1 X138.526 Y156.292 E0.0328
G1 X137.399 Y156.684 E0.04173
G1 X137.141 Y156.803 E0.00994
G1 X136.71 Y157.071 E0.01774
G1 X136.319 Y157.42 E0.01834
G1 X135.991 Y157.829 E0.01833
G1 X135.736 Y158.288 E0.01834
G1 X135.568 Y158.766 E0.01774
G1 X135.506 Y159.056 E0.01036
G1 X135.466 Y159.527 E0.01654
G1 X135.466 Y162.137 E0.09124
G1 X135.509 Y162.458 E0.01133
G1 X135.611 Y162.738 E0.01043
G1 X135.814 Y163.056 E0.01317
G1 X136.162 Y163.375 E0.01651
G1 X129.076 Y163.373 E0.24778
G1 X129.485 Y162.84 E0.02349
G1 X129.629 Y162.491 E0.01321
G1 X129.678 Y162.215 E0.00981
G1 X129.681 Y159.528 E0.09395
G1 X129.639 Y159.039 E0.01715
G1 X129.508 Y158.531 E0.01833
G1 X129.293 Y158.053 E0.01834
G1 X129.011 Y157.632 E0.01774
G1 X128.816 Y157.408 E0.01036
G1 X128.437 Y157.071 E0.01774
G1 X128.006 Y156.803 E0.01774
G1 X127.748 Y156.684 E0.00994
G1 X126.621 Y156.292 E0.04173
G1 X125.752 Y155.937 E0.0328
G1 X124.906 Y155.535 E0.03277
G1 X124.083 Y155.087 E0.03277
G1 X123.286 Y154.593 E0.03277
G1 X122.518 Y154.057 E0.03277
G1 X121.781 Y153.478 E0.03277
G1 X121.077 Y152.86 E0.03277
G1 X120.408 Y152.203 E0.03277
G1 X119.777 Y151.51 E0.03277
G1 X119.185 Y150.784 E0.03277
G1 X118.635 Y150.025 E0.03277
G1 X118.127 Y149.238 E0.03277
G1 X117.664 Y148.423 E0.03277
G1 X117.246 Y147.583 E0.03281
G1 X116.766 Y146.476 E0.04218
G1 X116.628 Y146.231 E0.00985
G1 X116.462 Y145.988 E0.01028
G1 X116.104 Y145.592 E0.01867
G1 X115.668 Y145.253 E0.0193
G1 X115.211 Y145.014 E0.01804
G1 X111.129 Y143.324 E0.15448
G1 X111.778 Y143.113 E0.02386
G1 X112.229 Y142.87 E0.01793
G1 X112.63 Y142.55 E0.01793
G1 X112.968 Y142.164 E0.01793
G1 X113.231 Y141.724 E0.01793
G1 X113.411 Y141.244 E0.01793
G1 X113.502 Y140.741 E0.01785
G1 X113.502 Y140.265 E0.01665
G1 E-0.5 F3000
G1 X152.092 Y140.483 F9000
G1 E0.5 F1800
;TYPE:External perimeter
