; generated by SuperSlicer 2.4 on 2022-08-27 at 22:47:56 UTC


;
;

;
;
; 

; external perimeters extrusion width = 0.40mm
; perimeters extrusion width = 0.50mm
; infill extrusion width = 0.72mm
; solid infill extrusion width = 0.56mm
; top infill extrusion width = 0.40mm
; support material extrusion width = 0.50mm

; object:{"name":"copy_of_light_switch_cover","id":"copy_of_light_switch_cover.stl id:0 copy 0","object_center":[152.500001,150.000000,0.000000],"boundingbox_center":[152.500001,150.000000,6.499000],"boundingbox_size":[66.108414,110.176331,12.998000]}
; plater:{"center":[152.500001,150.000000,0.000000],"boundingbox_center":[152.500001,150.000000,6.499000],"boundingbox_size":[66.108414,110.176331,12.998000]}

M73 P0 R49
;TYPE:Custom
START_PRINT T_BED=60 T_EXTRUDER=200
M107
G21 ; set units to millimeters
G90 ; use absolute coordinates
M83 ; use relative distances for extrusion
; Filament gcode
;_TOOLCHANGE 0
M104 S200 ; set temperature
M109 S200 ; set temperature and wait for it to be reached
M190 S60 ; set bed temperature and wait for it to be reached
M107
;LAYER_CHANGE
;Z:0.2
;HEIGHT:0.2
G1 Z0.2 F9000
G92 E0
M73 P0 R49
G1 E-0.8 F3000
M204 S1000
G1 X114.608 Y89.563 F9000
G1 E0.8 F1800
;TYPE:Skirt
;WIDTH:0.52
G1 X114.214 Y91.23 E0.06657
G1 X114.214 Y208.77 E4.5695
G1 X114.95 Y210.991 E0.09097
G1 X116.263 Y212.091 E0.06657
G1 X117.929 Y212.486 E0.06657
G1 X187.071 Y212.486 E2.68794
G1 X189.292 Y211.749 E0.09097
G1 X190.392 Y210.437 E0.06657
G1 X190.786 Y208.77 E0.06657
G1 X190.786 Y91.23 E4.5695
M73 P0 R48
G1 X190.05 Y89.009 E0.09097
G1 X188.737 Y87.909 E0.06657
G1 X187.071 Y87.514 E0.06657
G1 X117.929 Y87.514 E2.68794
G1 X115.708 Y88.251 E0.09097
G1 X114.608 Y89.563 E0.06657
G1 X115.084 Y89.684 F9000
G1 F1800
G1 X114.691 Y91.23 E0.06199
G1 X114.691 Y208.77 E4.5695
G1 X115.21 Y210.529 E0.0713
G1 X116.381 Y211.615 E0.06209
G1 X117.929 Y212.009 E0.06209
G1 X187.071 Y212.009 E2.68794
G1 X188.83 Y211.489 E0.0713
G1 X189.915 Y210.318 E0.06209
G1 X190.309 Y208.77 E0.06209
G1 X190.309 Y91.23 E4.5695
G1 X189.79 Y89.471 E0.0713
G1 X188.619 Y88.385 E0.06209
G1 X187.071 Y87.991 E0.06209
G1 X117.929 Y87.991 E2.68794
G1 X116.17 Y88.51 E0.0713
G1 X115.084 Y89.684 E0.06218
G1 E-0.8 F3000
; printing object copy_of_light_switch_cover.stl id:0 copy 0
G1 X117.929 Y91.23 F9000
G1 E0.8 F1800
;TYPE:Support material interface
;WIDTH:0.5

G1 X187.071 Y91.23 E2.57526
G1 X187.071 Y208.77 E4.37794
G1 X117.929 Y208.77 E2.57526
G1 X117.929 Y91.23 E4.37794
M73 P1 R48
G1 E-0.8 F3000
G1 X128.3 Y101.601 F9000
G1 E0.8 F1800

G1 X128.3 Y198.399 E3.60536
G1 X176.699 Y198.399 E1.80268
M73 P2 R48
G1 X176.699 Y101.601 E3.60536
G1 X128.3 Y101.601 E1.80268
G1 E-0.8 F3000
G1 X186.956 Y91.595 F9000
G1 E0.8 F1800

G1 X118.24 Y91.595 E2.55943
G1 X118.24 Y92.103 E0.01892
G1 X186.76 Y92.103 E2.55211
G1 X186.76 Y92.611 E0.01892
G1 X118.24 Y92.611 E2.55211
G1 X118.24 Y93.119 E0.01892
G1 X186.76 Y93.119 E2.55211
G1 X186.76 Y93.627 E0.01892
G1 X118.24 Y93.627 E2.55211
G1 X118.24 Y94.135 E0.01892
G1 X186.76 Y94.135 E2.55211
G1 X186.76 Y94.643 E0.01892
G1 X118.24 Y94.643 E2.55211
M73 P2 R48
G1 X118.24 Y95.15 E0.01892
G1 X186.76 Y95.15 E2.55211
G1 X186.76 Y95.658 E0.01892
G1 X118.24 Y95.658 E2.55211
G1 X118.24 Y96.166 E0.01892
G1 X186.76 Y96.166 E2.55211
G1 X186.76 Y96.674 E0.01892
G1 X118.24 Y96.674 E2.55211
G1 X118.24 Y97.182 E0.01892
G1 X186.76 Y97.182 E2.55211
G1 X186.76 Y97.69 E0.01892
G1 X118.24 Y97.69 E2.55211
G1 X118.24 Y98.198 E0.01892
G1 X186.76 Y98.198 E2.55211
G1 X186.76 Y98.706 E0.01892
G1 X118.24 Y98.706 E2.55211
G1 X118.24 Y99.213 E0.01892
G1 X186.76 Y99.213 E2.55211
G1 X186.76 Y99.721 E0.01892
G1 X118.24 Y99.721 E2.55211
G1 X118.24 Y100.229 E0.01892
G1 X186.76 Y100.229 E2.55211
G1 X186.76 Y100.737 E0.01892
G1 X118.24 Y100.737 E2.55211
M73 P3 R47
G1 X118.24 Y101.245 E0.01892
G1 X186.76 Y101.245 E2.55211
G1 X186.76 Y101.753 E0.01892
G1 X177.01 Y101.753 E0.36314
G1 X177.01 Y102.261 E0.01892
G1 X186.76 Y102.261 E0.36314
G1 X186.76 Y102.768 E0.01892
G1 X177.01 Y102.768 E0.36314
G1 X177.01 Y103.276 E0.01892
G1 X186.76 Y103.276 E0.36314
G1 X186.76 Y103.784 E0.01892
G1 X177.01 Y103.784 E0.36314
G1 X177.01 Y104.292 E0.01892
G1 X186.76 Y104.292 E0.36314
G1 X186.76 Y104.8 E0.01892
G1 X177.01 Y104.8 E0.36314
G1 X177.01 Y105.308 E0.01892
G1 X186.76 Y105.308 E0.36314
G1 X186.76 Y105.816 E0.01892
G1 X177.01 Y105.816 E0.36314
G1 X177.01 Y106.324 E0.01892
G1 X186.76 Y106.324 E0.36314
G1 X186.76 Y106.831 E0.01892
G1 X177.01 Y106.831 E0.36314
G1 X177.01 Y107.339 E0.01892
G1 X186.76 Y107.339 E0.36314
G1 X186.76 Y107.847 E0.01892
G1 X177.01 Y107.847 E0.36314
G1 X177.01 Y108.355 E0.01892
G1 X186.76 Y108.355 E0.36314
G1 X186.76 Y108.863 E0.01892
G1 X177.01 Y108.863 E0.36314
G1 X177.01 Y109.371 E0.01892
G1 X186.76 Y109.371 E0.36314
G1 X186.76 Y109.879 E0.01892
G1 X177.01 Y109.879 E0.36314
G1 X177.01 Y110.386 E0.01892
G1 X186.76 Y110.386 E0.36314
M73 P4 R47
G1 X186.76 Y110.894 E0.01892
G1 X177.01 Y110.894 E0.36314
G1 X177.01 Y111.402 E0.01892
G1 X186.76 Y111.402 E0.36314
G1 X186.76 Y111.91 E0.01892
G1 X177.01 Y111.91 E0.36314
G1 X177.01 Y112.418 E0.01892
G1 X186.76 Y112.418 E0.36314
G1 X186.76 Y112.926 E0.01892
G1 X177.01 Y112.926 E0.36314
G1 X177.01 Y113.434 E0.01892
G1 X186.76 Y113.434 E0.36314
G1 X186.76 Y113.942 E0.01892
G1 X177.01 Y113.942 E0.36314
G1 X177.01 Y114.449 E0.01892
G1 X186.76 Y114.449 E0.36314
G1 X186.76 Y114.957 E0.01892
G1 X177.01 Y114.957 E0.36314
G1 X177.01 Y115.465 E0.01892
G1 X186.76 Y115.465 E0.36314
G1 X186.76 Y115.973 E0.01892
G1 X177.01 Y115.973 E0.36314
G1 X177.01 Y116.481 E0.01892
G1 X186.76 Y116.481 E0.36314
G1 X186.76 Y116.989 E0.01892
G1 X177.01 Y116.989 E0.36314
G1 X177.01 Y117.497 E0.01892
G1 X186.76 Y117.497 E0.36314
G1 X186.76 Y118.004 E0.01892
G1 X177.01 Y118.004 E0.36314
G1 X177.01 Y118.512 E0.01892
G1 X186.76 Y118.512 E0.36314
G1 X186.76 Y119.02 E0.01892
G1 X177.01 Y119.02 E0.36314
G1 X177.01 Y119.528 E0.01892
G1 X186.76 Y119.528 E0.36314
G1 X186.76 Y120.036 E0.01892
G1 X177.01 Y120.036 E0.36314
G1 X177.01 Y120.544 E0.01892
G1 X186.76 Y120.544 E0.36314
G1 X186.76 Y121.052 E0.01892
G1 X177.01 Y121.052 E0.36314
G1 X177.01 Y121.56 E0.01892
G1 X186.76 Y121.56 E0.36314
G1 X186.76 Y122.067 E0.01892
G1 X177.01 Y122.067 E0.36314
G1 X177.01 Y122.575 E0.01892
G1 X186.76 Y122.575 E0.36314
G1 X186.76 Y123.083 E0.01892
G1 X177.01 Y123.083 E0.36314
G1 X177.01 Y123.591 E0.01892
G1 X186.76 Y123.591 E0.36314
G1 X186.76 Y124.099 E0.01892
G1 X177.01 Y124.099 E0.36314
G1 X177.01 Y124.607 E0.01892
G1 X186.76 Y124.607 E0.36314
G1 X186.76 Y125.115 E0.01892
G1 X177.01 Y125.115 E0.36314
G1 X177.01 Y125.622 E0.01892
G1 X186.76 Y125.622 E0.36314
G1 X186.76 Y126.13 E0.01892
G1 X177.01 Y126.13 E0.36314
G1 X177.01 Y126.638 E0.01892
G1 X186.76 Y126.638 E0.36314
G1 X186.76 Y127.146 E0.01892
G1 X177.01 Y127.146 E0.36314
G1 X177.01 Y127.654 E0.01892
G1 X186.76 Y127.654 E0.36314
G1 X186.76 Y128.162 E0.01892
G1 X177.01 Y128.162 E0.36314
G1 X177.01 Y128.67 E0.01892
G1 X186.76 Y128.67 E0.36314
G1 X186.76 Y129.177 E0.01892
G1 X177.01 Y129.177 E0.36314
G1 X177.01 Y129.685 E0.01892
G1 X186.76 Y129.685 E0.36314
G1 X186.76 Y130.193 E0.01892
G1 X177.01 Y130.193 E0.36314
G1 X177.01 Y130.701 E0.01892
G1 X186.76 Y130.701 E0.36314
G1 X186.76 Y131.209 E0.01892
G1 X177.01 Y131.209 E0.36314
G1 X177.01 Y131.717 E0.01892
G1 X186.76 Y131.717 E0.36314
G1 X186.76 Y132.225 E0.01892
G1 X177.01 Y132.225 E0.36314
G1 X177.01 Y132.733 E0.01892
G1 X186.76 Y132.733 E0.36314
G1 X186.76 Y133.24 E0.01892
G1 X177.01 Y133.24 E0.36314
G1 X177.01 Y133.748 E0.01892
G1 X186.76 Y133.748 E0.36314
G1 X186.76 Y134.256 E0.01892
G1 X177.01 Y134.256 E0.36314
G1 X177.01 Y134.764 E0.01892
G1 X186.76 Y134.764 E0.36314
G1 X186.76 Y135.272 E0.01892
G1 X177.01 Y135.272 E0.36314
G1 X177.01 Y135.78 E0.01892
G1 X186.76 Y135.78 E0.36314
G1 X186.76 Y136.288 E0.01892
G1 X177.01 Y136.288 E0.36314
G1 X177.01 Y136.795 E0.01892
G1 X186.76 Y136.795 E0.36314
G1 X186.76 Y137.303 E0.01892
G1 X177.01 Y137.303 E0.36314
M73 P4 R47
G1 X177.01 Y137.811 E0.01892
G1 X186.76 Y137.811 E0.36314
G1 X186.76 Y138.319 E0.01892
G1 X177.01 Y138.319 E0.36314
G1 X177.01 Y138.827 E0.01892
G1 X186.76 Y138.827 E0.36314
G1 X186.76 Y139.335 E0.01892
G1 X177.01 Y139.335 E0.36314
G1 X177.01 Y139.843 E0.01892
G1 X186.76 Y139.843 E0.36314
G1 X186.76 Y140.351 E0.01892
G1 X177.01 Y140.351 E0.36314
G1 X177.01 Y140.858 E0.01892
G1 X186.76 Y140.858 E0.36314
G1 X186.76 Y141.366 E0.01892
G1 X177.01 Y141.366 E0.36314
G1 X177.01 Y141.874 E0.01892
G1 X186.76 Y141.874 E0.36314
G1 X186.76 Y142.382 E0.01892
G1 X177.01 Y142.382 E0.36314
G1 X177.01 Y142.89 E0.01892
G1 X186.76 Y142.89 E0.36314
G1 X186.76 Y143.398 E0.01892
G1 X177.01 Y143.398 E0.36314
G1 X177.01 Y143.906 E0.01892
G1 X186.76 Y143.906 E0.36314
G1 X186.76 Y144.413 E0.01892
G1 X177.01 Y144.413 E0.36314
G1 X177.01 Y144.921 E0.01892
G1 X186.76 Y144.921 E0.36314
G1 X186.76 Y145.429 E0.01892
G1 X177.01 Y145.429 E0.36314
G1 X177.01 Y145.937 E0.01892
G1 X186.76 Y145.937 E0.36314
G1 X186.76 Y146.445 E0.01892
G1 X177.01 Y146.445 E0.36314
G1 X177.01 Y146.953 E0.01892
G1 X186.76 Y146.953 E0.36314
G1 X186.76 Y147.461 E0.01892
G1 X177.01 Y147.461 E0.36314
G1 X177.01 Y147.969 E0.01892
G1 X186.76 Y147.969 E0.36314
G1 X186.76 Y148.476 E0.01892
G1 X177.01 Y148.476 E0.36314
G1 X177.01 Y148.984 E0.01892
G1 X186.76 Y148.984 E0.36314
G1 X186.76 Y149.492 E0.01892
G1 X177.01 Y149.492 E0.36314
G1 X177.01 Y150 E0.01892
G1 X186.76 Y150 E0.36314
G1 X186.76 Y150.508 E0.01892
G1 X177.01 Y150.508 E0.36314
G1 X177.01 Y151.016 E0.01892
G1 X186.76 Y151.016 E0.36314
G1 X186.76 Y151.524 E0.01892
G1 X177.01 Y151.524 E0.36314
G1 X177.01 Y152.031 E0.01892
G1 X186.76 Y152.031 E0.36314
G1 X186.76 Y152.539 E0.01892
G1 X177.01 Y152.539 E0.36314
G1 X177.01 Y153.047 E0.01892
G1 X186.76 Y153.047 E0.36314
G1 X186.76 Y153.555 E0.01892
G1 X177.01 Y153.555 E0.36314
G1 X177.01 Y154.063 E0.01892
G1 X186.76 Y154.063 E0.36314
G1 X186.76 Y154.571 E0.01892
G1 X177.01 Y154.571 E0.36314
G1 X177.01 Y155.079 E0.01892
G1 X186.76 Y155.079 E0.36314
G1 X186.76 Y155.587 E0.01892
G1 X177.01 Y155.587 E0.36314
G1 X177.01 Y156.094 E0.01892
G1 X186.76 Y156.094 E0.36314
G1 X186.76 Y156.602 E0.01892
G1 X177.01 Y156.602 E0.36314
G1 X177.01 Y157.11 E0.01892
G1 X186.76 Y157.11 E0.36314
G1 X186.76 Y157.618 E0.01892
G1 X177.01 Y157.618 E0.36314
G1 X177.01 Y158.126 E0.01892
G1 X186.76 Y158.126 E0.36314
G1 X186.76 Y158.634 E0.01892
G1 X177.01 Y158.634 E0.36314
G1 X177.01 Y159.142 E0.01892
G1 X186.76 Y159.142 E0.36314
G1 X186.76 Y159.649 E0.01892
G1 X177.01 Y159.649 E0.36314
G1 X177.01 Y160.157 E0.01892
G1 X186.76 Y160.157 E0.36314
G1 X186.76 Y160.665 E0.01892
G1 X177.01 Y160.665 E0.36314
G1 X177.01 Y161.173 E0.01892
G1 X186.76 Y161.173 E0.36314
G1 X186.76 Y161.681 E0.01892
G1 X177.01 Y161.681 E0.36314
G1 X177.01 Y162.189 E0.01892
G1 X186.76 Y162.189 E0.36314
G1 X186.76 Y162.697 E0.01892
G1 X177.01 Y162.697 E0.36314
G1 X177.01 Y163.205 E0.01892
G1 X186.76 Y163.205 E0.36314
G1 X186.76 Y163.712 E0.01892
G1 X177.01 Y163.712 E0.36314
G1 X177.01 Y164.22 E0.01892
G1 X186.76 Y164.22 E0.36314
G1 X186.76 Y164.728 E0.01892
G1 X177.01 Y164.728 E0.36314
G1 X177.01 Y165.236 E0.01892
G1 X186.76 Y165.236 E0.36314
G1 X186.76 Y165.744 E0.01892
G1 X177.01 Y165.744 E0.36314
G1 X177.01 Y166.252 E0.01892
G1 X186.76 Y166.252 E0.36314
G1 X186.76 Y166.76 E0.01892
G1 X177.01 Y166.76 E0.36314
G1 X177.01 Y167.267 E0.01892
G1 X186.76 Y167.267 E0.36314
G1 X186.76 Y167.775 E0.01892
G1 X177.01 Y167.775 E0.36314
G1 X177.01 Y168.283 E0.01892
G1 X186.76 Y168.283 E0.36314
G1 X186.76 Y168.791 E0.01892
G1 X177.01 Y168.791 E0.36314
G1 X177.01 Y169.299 E0.01892
G1 X186.76 Y169.299 E0.36314
G1 X186.76 Y169.807 E0.01892
G1 X177.01 Y169.807 E0.36314
G1 X177.01 Y170.315 E0.01892
G1 X186.76 Y170.315 E0.36314
G1 X186.76 Y170.823 E0.01892
G1 X177.01 Y170.823 E0.36314
G1 X177.01 Y171.33 E0.01892
G1 X186.76 Y171.33 E0.36314
G1 X186.76 Y171.838 E0.01892
G1 X177.01 Y171.838 E0.36314
G1 X177.01 Y172.346 E0.01892
G1 X186.76 Y172.346 E0.36314
G1 X186.76 Y172.854 E0.01892
G1 X177.01 Y172.854 E0.36314
G1 X177.01 Y173.362 E0.01892
G1 X186.76 Y173.362 E0.36314
G1 X186.76 Y173.87 E0.01892
G1 X177.01 Y173.87 E0.36314
G1 X177.01 Y174.378 E0.01892
G1 X186.76 Y174.378 E0.36314
G1 X186.76 Y174.885 E0.01892
G1 X177.01 Y174.885 E0.36314
G1 X177.01 Y175.393 E0.01892
G1 X186.76 Y175.393 E0.36314
G1 X186.76 Y175.901 E0.01892
G1 X177.01 Y175.901 E0.36314
G1 X177.01 Y176.409 E0.01892
G1 X186.76 Y176.409 E0.36314
M73 P5 R46
G1 X186.76 Y176.917 E0.01892
G1 X177.01 Y176.917 E0.36314
G1 X177.01 Y177.425 E0.01892
G1 X186.76 Y177.425 E0.36314
G1 X186.76 Y177.933 E0.01892
G1 X177.01 Y177.933 E0.36314
G1 X177.01 Y178.44 E0.01892
G1 X186.76 Y178.44 E0.36314
G1 X186.76 Y178.948 E0.01892
G1 X177.01 Y178.948 E0.36314
G1 X177.01 Y179.456 E0.01892
G1 X186.76 Y179.456 E0.36314
G1 X186.76 Y179.964 E0.01892
G1 X177.01 Y179.964 E0.36314
G1 X177.01 Y180.472 E0.01892
G1 X186.76 Y180.472 E0.36314
G1 X186.76 Y180.98 E0.01892
G1 X177.01 Y180.98 E0.36314
G1 X177.01 Y181.488 E0.01892
G1 X186.76 Y181.488 E0.36314
G1 X186.76 Y181.996 E0.01892
G1 X177.01 Y181.996 E0.36314
G1 X177.01 Y182.503 E0.01892
G1 X186.76 Y182.503 E0.36314
G1 X186.76 Y183.011 E0.01892
G1 X177.01 Y183.011 E0.36314
G1 X177.01 Y183.519 E0.01892
G1 X186.76 Y183.519 E0.36314
G1 X186.76 Y184.027 E0.01892
G1 X177.01 Y184.027 E0.36314
G1 X177.01 Y184.535 E0.01892
G1 X186.76 Y184.535 E0.36314
G1 X186.76 Y185.043 E0.01892
G1 X177.01 Y185.043 E0.36314
G1 X177.01 Y185.551 E0.01892
G1 X186.76 Y185.551 E0.36314
G1 X186.76 Y186.058 E0.01892
G1 X177.01 Y186.058 E0.36314
G1 X177.01 Y186.566 E0.01892
G1 X186.76 Y186.566 E0.36314
G1 X186.76 Y187.074 E0.01892
G1 X177.01 Y187.074 E0.36314
G1 X177.01 Y187.582 E0.01892
G1 X186.76 Y187.582 E0.36314
G1 X186.76 Y188.09 E0.01892
G1 X177.01 Y188.09 E0.36314
G1 X177.01 Y188.598 E0.01892
G1 X186.76 Y188.598 E0.36314
G1 X186.76 Y189.106 E0.01892
G1 X177.01 Y189.106 E0.36314
G1 X177.01 Y189.614 E0.01892
G1 X186.76 Y189.614 E0.36314
G1 X186.76 Y190.121 E0.01892
G1 X177.01 Y190.121 E0.36314
G1 X177.01 Y190.629 E0.01892
G1 X186.76 Y190.629 E0.36314
G1 X186.76 Y191.137 E0.01892
G1 X177.01 Y191.137 E0.36314
G1 X177.01 Y191.645 E0.01892
G1 X186.76 Y191.645 E0.36314
M73 P6 R46
G1 X186.76 Y192.153 E0.01892
G1 X177.01 Y192.153 E0.36314
G1 X177.01 Y192.661 E0.01892
G1 X186.76 Y192.661 E0.36314
G1 X186.76 Y193.169 E0.01892
G1 X177.01 Y193.169 E0.36314
G1 X177.01 Y193.676 E0.01892
G1 X186.76 Y193.676 E0.36314
G1 X186.76 Y194.184 E0.01892
G1 X177.01 Y194.184 E0.36314
G1 X177.01 Y194.692 E0.01892
G1 X186.76 Y194.692 E0.36314
G1 X186.76 Y195.2 E0.01892
G1 X177.01 Y195.2 E0.36314
G1 X177.01 Y195.708 E0.01892
G1 X186.76 Y195.708 E0.36314
G1 X186.76 Y196.216 E0.01892
G1 X177.01 Y196.216 E0.36314
G1 X177.01 Y196.724 E0.01892
G1 X186.76 Y196.724 E0.36314
G1 X186.76 Y197.232 E0.01892
G1 X177.01 Y197.232 E0.36314
G1 X177.01 Y197.739 E0.01892
G1 X186.76 Y197.739 E0.36314
G1 X186.76 Y198.247 E0.01892
G1 X177.01 Y198.247 E0.36314
G1 X177.01 Y198.71 E0.01723
G1 X127.99 Y198.71 E1.82583
G1 X127.99 Y198.247 E0.01723
G1 X118.24 Y198.247 E0.36314
G1 X118.24 Y197.739 E0.01892
G1 X127.99 Y197.739 E0.36314
G1 X127.99 Y197.232 E0.01892
G1 X118.24 Y197.232 E0.36314
G1 X118.24 Y196.724 E0.01892
G1 X127.99 Y196.724 E0.36314
G1 X127.99 Y196.216 E0.01892
G1 X118.24 Y196.216 E0.36314
G1 X118.24 Y195.708 E0.01892
G1 X127.99 Y195.708 E0.36314
G1 X127.99 Y195.2 E0.01892
G1 X118.24 Y195.2 E0.36314
G1 X118.24 Y194.692 E0.01892
G1 X127.99 Y194.692 E0.36314
G1 X127.99 Y194.184 E0.01892
G1 X118.24 Y194.184 E0.36314
G1 X118.24 Y193.676 E0.01892
G1 X127.99 Y193.676 E0.36314
G1 X127.99 Y193.169 E0.01892
G1 X118.24 Y193.169 E0.36314
G1 X118.24 Y192.661 E0.01892
G1 X127.99 Y192.661 E0.36314
G1 X127.99 Y192.153 E0.01892
G1 X118.24 Y192.153 E0.36314
G1 X118.24 Y191.645 E0.01892
G1 X127.99 Y191.645 E0.36314
G1 X127.99 Y191.137 E0.01892
G1 X118.24 Y191.137 E0.36314
G1 X118.24 Y190.629 E0.01892
G1 X127.99 Y190.629 E0.36314
G1 X127.99 Y190.121 E0.01892
G1 X118.24 Y190.121 E0.36314
G1 X118.24 Y189.614 E0.01892
