; generated by SuperSlicer 2.3.56 on 2021-06-12 at 05:01:56 UTC

; 

; external perimeters extrusion width = 0.40mm
; perimeters extrusion width = 0.40mm
; infill extrusion width = 0.40mm
; solid infill extrusion width = 0.40mm
; top infill extrusion width = 0.40mm
; support material extrusion width = 0.40mm
; first layer extrusion width = 0.48mm


M140 S70 ; set bed temperature
;TYPE:Custom
START_PRINT T_BED=70 T_EXTRUDER=245
M107
G21 ; set units to millimeters
G90 ; use absolute coordinates
M82 ; use absolute distances for extrusion
G92 E0
; Filament gcode
M109 S245 ; set temperature and wait for it to be reached
M190 S70 ; set bed temperature and wait for it to be reached
;LAYER_CHANGE
;Z:0.24
;HEIGHT:0.24
G1 Z0.240000 F6000.000
TIMELAPSE_TAKE_FRAME
G1 E-1.00000 F2100.000
G1 X68.361 Y109.700 F6000.000
G1 E0.00000 F2100.000
;TYPE:Skirt
;WIDTH:0.48
G1 F1200.000
G1 X69.140 Y109.360 E0.03635
G1 X69.967 Y109.140 E0.07295
G1 X70.994 Y109.045 E0.11705
G1 X199.000 Y109.045 E5.58998
G1 X200.056 Y109.145 E5.63533
G1 X201.075 Y109.440 E5.68068
G1 X202.025 Y109.924 E5.72628
G1 X202.863 Y110.575 E5.77162
G1 X203.568 Y111.375 E5.81722
G1 X204.107 Y112.288 E5.86257
G1 X204.467 Y113.292 E5.90817
G1 X204.632 Y114.340 E5.95352
G1 X204.626 Y128.957 E6.57847
G1 X204.515 Y130.052 E6.62552
G1 X204.047 Y131.619 E6.69547
G1 X203.671 Y132.391 E6.73218
G1 X203.217 Y133.106 E6.76838
G1 X202.689 Y133.764 E6.80445
G1 X202.051 Y134.397 E6.84287
G1 X201.409 Y134.903 E6.87785
G1 X200.632 Y135.386 E6.91695
G1 X199.851 Y135.752 E6.95384
G1 X199.149 Y135.983 E6.98544
G1 X102.256 Y160.818 E11.26204
G1 X101.035 Y160.945 E11.31454
G1 X91.566 Y160.934 E11.71937
G1 X90.692 Y160.805 E11.75716
G1 X89.851 Y160.562 E11.79459
G1 X89.014 Y160.195 E11.83368
G1 X88.204 Y159.693 E11.87440
G1 X87.286 Y158.890 E11.92653
G1 X67.549 Y137.964 E13.15640
G1 X66.934 Y137.183 E13.19890
G1 X66.231 Y135.998 E13.25786
G1 X65.753 Y134.786 E13.31352
G1 X65.524 Y133.895 E13.35289
G1 X65.369 Y132.497 E13.41300
G1 X65.357 Y114.662 E14.17556
G1 X65.446 Y113.693 E14.21716
G1 X65.658 Y112.870 E14.25350
G1 X65.992 Y112.088 E14.28985
G1 X66.443 Y111.360 E14.32645
G1 X66.994 Y110.714 E14.36280
G1 X67.637 Y110.157 E14.39915
G1 X68.310 Y109.732 E14.43318
G1 X68.538 Y110.094 F6000.000
G1 F1200.000
G1 X68.563 Y110.078 E14.43445
G1 X69.292 Y109.761 E14.46843
G1 X70.061 Y109.559 E14.50240
G1 X71.000 Y109.474 E14.54273
G1 X199.000 Y109.474 E20.01543
G1 X199.981 Y109.567 E20.05758
G1 X200.933 Y109.845 E20.09997
G1 X201.810 Y110.295 E20.14211
G1 X202.586 Y110.903 E20.18426
G1 X203.235 Y111.645 E20.22641
G1 X203.731 Y112.497 E20.26855
G1 X204.059 Y113.426 E20.31070
G1 X204.206 Y114.401 E20.35285
G1 X204.198 Y128.954 E20.97507
G1 X204.099 Y129.946 E21.01770
G1 X203.657 Y131.441 E21.08436
G1 X202.867 Y132.857 E21.15366
G1 X201.756 Y134.085 E21.22448
G1 X200.395 Y135.026 E21.29522
G1 X199.044 Y135.568 E21.35744
G1 X102.158 Y160.400 E25.63375
G1 X101.023 Y160.517 E25.68255
G1 X91.614 Y160.508 E26.08483
G1 X90.795 Y160.389 E26.12023
G1 X90.006 Y160.162 E26.15534
G1 X89.216 Y159.817 E26.19216
G1 X88.452 Y159.343 E26.23060
G1 X87.598 Y158.596 E26.27913
G1 X67.878 Y137.689 E27.50794
G1 X67.290 Y136.945 E27.54847
G1 X66.613 Y135.803 E27.60523
G1 X66.158 Y134.645 E27.65843
G1 X65.942 Y133.799 E27.69575
G1 X65.797 Y132.496 E27.75181
G1 X65.786 Y114.669 E28.51403
G1 X65.859 Y113.815 E28.55065
G1 X66.052 Y113.044 E28.58463
G1 X66.359 Y112.311 E28.61861
G1 X66.777 Y111.629 E28.65282
G1 X67.291 Y111.023 E28.68680
G1 X67.891 Y110.502 E28.72078
G1 X68.487 Y110.126 E28.75092
G92 E0
G1 E-1.00000 F2100.000
G1 X100.263 Y130.808 F6000.000
G1 E0.00000 F2100.000
;TYPE:Internal perimeter
G1 F1200.000
G1 X99.921 Y131.464 E0.03162
G1 X99.726 Y132.041 E0.05767
G1 X99.613 Y132.606 E0.08229
G1 X99.579 Y133.000 E0.09922
G1 X99.575 Y133.196 E0.10761
G1 X99.575 Y146.358 E0.67032
G1 X99.577 Y146.487 E0.67587
G1 X99.577 Y146.629 E0.68191
G1 X99.591 Y146.840 E0.69098
G1 X99.612 Y147.034 E0.69933
G1 X99.642 Y147.230 E0.70778
G1 X99.681 Y147.422 E0.71616
G1 X99.734 Y147.644 E0.72591
G1 X99.901 Y148.139 E0.74826
G1 X99.994 Y148.350 E0.75813
G1 X100.080 Y148.526 E0.76651
G1 X100.181 Y148.712 E0.77555
G1 X100.374 Y149.016 E0.79093
G1 X100.500 Y149.189 E0.80009
G1 X100.622 Y149.343 E0.80847
G1 X100.772 Y149.515 E0.81822
G1 X101.171 Y149.901 E0.84198
G1 X101.631 Y150.242 E0.86645
G1 X101.998 Y150.457 E0.88466
G1 X102.536 Y150.698 E0.90984
G1 X103.244 Y150.894 E0.94127
G1 X103.682 Y150.955 E0.96019
G1 X104.238 Y150.972 E0.98394
G1 X104.629 Y150.942 E1.00074
G1 X104.841 Y150.912 E1.00989
G1 X105.033 Y150.875 E1.01823
G1 X105.207 Y150.835 E1.02587
G1 X172.215 Y133.655 E3.98347
G1 X172.335 Y133.621 E3.98884
G1 X172.596 Y133.524 E4.00073
G1 X172.819 Y133.411 E4.01141
G1 X173.094 Y133.233 E4.02540
G1 X173.383 Y132.977 E4.04193
G1 X173.569 Y132.763 E4.05407
G1 X173.792 Y132.427 E4.07131
G1 X173.955 Y132.057 E4.08857
G1 X174.025 Y131.815 E4.09933
G1 X174.064 Y131.619 E4.10789
G1 X174.081 Y131.495 E4.11323
G1 X174.091 Y131.387 E4.11790
G1 X174.096 Y131.277 E4.12258
G1 X174.096 Y131.151 E4.12799
G1 X174.084 Y130.951 E4.13656
G1 X174.055 Y130.751 E4.14519
G1 X174.028 Y130.629 E4.15053
G1 X174.001 Y130.524 E4.15517
G1 X173.960 Y130.389 E4.16120
G1 X173.855 Y130.131 E4.17310
G1 X173.737 Y129.909 E4.18385
G1 X173.571 Y129.667 E4.19642
G1 X173.407 Y129.476 E4.20715
G1 X173.169 Y129.252 E4.22114
G1 X172.824 Y129.014 E4.23908
G1 X172.427 Y128.831 E4.25773
G1 X172.022 Y128.724 E4.27568
G1 X171.696 Y128.688 E4.28968
G1 X103.558 Y128.713 E7.20296
G1 X102.944 Y128.835 E7.22971
G1 X102.567 Y128.954 E7.24661
G1 X102.367 Y129.032 E7.25582
G1 X102.186 Y129.112 E7.26425
G1 X101.965 Y129.221 E7.27478
G1 X101.384 Y129.591 E7.30427
G1 X101.190 Y129.747 E7.31490
G1 X101.041 Y129.877 E7.32334
G1 X100.876 Y130.036 E7.33315
G1 X100.518 Y130.444 E7.35633
G1 X100.297 Y130.759 E7.37279
G1 X100.648 Y131.005 F6000.000
G1 F1200.000
G1 X100.630 Y131.031 E7.37416
G1 X100.317 Y131.633 E7.40318
G1 X100.140 Y132.152 E7.42662
G1 X100.038 Y132.666 E7.44904
G1 X100.007 Y133.023 E7.46437
G1 X100.003 Y133.201 E7.47196
G1 X100.003 Y146.353 E8.03427
G1 X100.006 Y146.482 E8.03981
G1 X100.006 Y146.614 E8.04545
G1 X100.018 Y146.803 E8.05354
G1 X100.037 Y146.979 E8.06109
G1 X100.065 Y147.156 E8.06874
G1 X100.099 Y147.330 E8.07633
G1 X100.146 Y147.524 E8.08490
G1 X100.302 Y147.984 E8.10566
G1 X100.383 Y148.170 E8.11432
G1 X100.461 Y148.330 E8.12191
G1 X100.551 Y148.495 E8.12997
G1 X100.728 Y148.775 E8.14415
G1 X100.841 Y148.930 E8.15231
G1 X100.951 Y149.068 E8.15990
G1 X101.083 Y149.220 E8.16847
G1 X101.449 Y149.573 E8.19024
G1 X101.867 Y149.884 E8.21252
G1 X102.195 Y150.076 E8.22873
G1 X102.681 Y150.294 E8.25152
G1 X103.332 Y150.473 E8.28037
G1 X103.719 Y150.528 E8.29710
G1 X104.228 Y150.543 E8.31887
G1 X104.582 Y150.516 E8.33407
G1 X104.771 Y150.489 E8.34222
G1 X104.945 Y150.456 E8.34977
G1 X105.105 Y150.419 E8.35681
G1 X172.104 Y133.241 E11.31402
G1 X172.202 Y133.214 E11.31840
G1 X172.424 Y133.131 E11.32851
G1 X172.606 Y133.039 E11.33722
G1 X172.833 Y132.891 E11.34883
G1 X173.078 Y132.675 E11.36279
G1 X173.228 Y132.502 E11.37255
G1 X173.415 Y132.221 E11.38702
G1 X173.551 Y131.910 E11.40150
G1 X173.609 Y131.713 E11.41029
G1 X173.642 Y131.548 E11.41747
G1 X173.655 Y131.448 E11.42182
G1 X173.663 Y131.357 E11.42570
G1 X173.668 Y131.266 E11.42958
G1 X173.668 Y131.163 E11.43400
G1 X173.658 Y130.995 E11.44119
G1 X173.633 Y130.828 E11.44844
G1 X173.611 Y130.728 E11.45279
G1 X173.589 Y130.641 E11.45664
G1 X173.555 Y130.532 E11.46150
G1 X173.467 Y130.313 E11.47161
G1 X173.370 Y130.132 E11.48038
G1 X173.230 Y129.928 E11.49098
G1 X173.097 Y129.772 E11.49973
G1 X172.899 Y129.586 E11.51133
G1 X172.611 Y129.387 E11.52631
G1 X172.282 Y129.236 E11.54179
G1 X171.943 Y129.146 E11.55677
G1 X171.673 Y129.117 E11.56839
G1 X103.600 Y129.142 E14.47888
G1 X103.051 Y129.251 E14.50283
G1 X102.710 Y129.359 E14.51812
G1 X102.531 Y129.428 E14.52633
G1 X102.367 Y129.500 E14.53397
G1 X102.176 Y129.595 E14.54309
G1 X101.634 Y129.940 E14.57058
G1 X101.465 Y130.075 E14.57981
G1 X101.331 Y130.193 E14.58745
G1 X101.186 Y130.332 E14.59606
G1 X100.856 Y130.708 E14.61745
G1 X100.683 Y130.956 E14.63034
G1 X101.034 Y131.201 F6000.000
G1 F1200.000
G1 X100.997 Y131.254 E14.63307
G1 X100.712 Y131.802 E14.65949
G1 X100.555 Y132.263 E14.68033
G1 X100.463 Y132.727 E14.70055
G1 X100.435 Y133.047 E14.71428
G1 X100.432 Y133.206 E14.72107
G1 X100.432 Y146.348 E15.28299
G1 X100.434 Y146.478 E15.28852
G1 X100.434 Y146.600 E15.29376
G1 X100.445 Y146.766 E15.30086
G1 X100.462 Y146.923 E15.30762
G1 X100.487 Y147.081 E15.31447
G1 X100.518 Y147.237 E15.32127
G1 X100.558 Y147.405 E15.32864
G1 X100.702 Y147.830 E15.34781
G1 X100.772 Y147.990 E15.35528
G1 X100.842 Y148.133 E15.36208
G1 X100.921 Y148.278 E15.36914
G1 X101.083 Y148.534 E15.38213
G1 X101.182 Y148.670 E15.38929
G1 X101.281 Y148.794 E15.39609
G1 X101.394 Y148.924 E15.40346
G1 X101.727 Y149.246 E15.42325
G1 X102.104 Y149.526 E15.44334
G1 X102.391 Y149.694 E15.45757
G1 X102.827 Y149.889 E15.47797
G1 X103.419 Y150.053 E15.50423
G1 X103.755 Y150.100 E15.51877
G1 X104.218 Y150.114 E15.53855
G1 X104.535 Y150.090 E15.55216
G1 X104.701 Y150.066 E15.55932
G1 X104.856 Y150.037 E15.56607
G1 X105.003 Y150.002 E15.57252
G1 X171.993 Y132.827 E18.52933
G1 X172.069 Y132.806 E18.53271
G1 X172.251 Y132.738 E18.54105
G1 X172.392 Y132.667 E18.54779
G1 X172.573 Y132.549 E18.55702
G1 X172.773 Y132.373 E18.56840
G1 X172.886 Y132.242 E18.57580
G1 X173.037 Y132.014 E18.58749
G1 X173.147 Y131.764 E18.59919
G1 X173.192 Y131.611 E18.60600
G1 X173.219 Y131.478 E18.61181
G1 X173.229 Y131.400 E18.61517
G1 X173.236 Y131.328 E18.61826
G1 X173.239 Y131.256 E18.62134
G1 X173.239 Y131.175 E18.62477
G1 X173.231 Y131.040 E18.63058
G1 X173.211 Y130.904 E18.63645
G1 X173.194 Y130.827 E18.63982
G1 X173.176 Y130.758 E18.64288
G1 X173.151 Y130.676 E18.64655
G1 X173.078 Y130.495 E18.65489
G1 X173.003 Y130.355 E18.66167
G1 X172.889 Y130.189 E18.67029
G1 X172.786 Y130.068 E18.67706
G1 X172.629 Y129.920 E18.68629
G1 X172.398 Y129.761 E18.69830
G1 X172.136 Y129.641 E18.71061
G1 X171.865 Y129.569 E18.72261
G1 X171.650 Y129.545 E18.73186
G1 X103.642 Y129.570 E21.63955
G1 X103.157 Y129.667 E21.66070
G1 X102.852 Y129.763 E21.67439
G1 X102.695 Y129.824 E21.68160
G1 X102.549 Y129.889 E21.68844
G1 X102.386 Y129.969 E21.69617
G1 X101.884 Y130.289 E21.72165
G1 X101.741 Y130.403 E21.72948
G1 X101.621 Y130.509 E21.73632
G1 X101.495 Y130.629 E21.74374
G1 X101.193 Y130.973 E21.76333
G1 X101.068 Y131.152 E21.77265
G1 X101.419 Y131.398 F6000.000
;TYPE:External perimeter
G1 F1200.000
G1 X101.364 Y131.476 E21.77675
G1 X101.107 Y131.970 E21.80056
G1 X100.970 Y132.374 E21.81880
G1 X100.888 Y132.787 E21.83681
G1 X100.863 Y133.070 E21.84894
G1 X100.860 Y133.210 E21.85494
G1 X100.860 Y146.344 E22.41646
G1 X100.863 Y146.473 E22.42198
G1 X100.863 Y146.586 E22.42682
G1 X100.872 Y146.729 E22.43293
G1 X100.887 Y146.867 E22.43890
G1 X100.909 Y147.007 E22.44495
G1 X100.936 Y147.145 E22.45096
G1 X100.970 Y147.286 E22.45714
G1 X101.102 Y147.675 E22.47471
G1 X101.160 Y147.810 E22.48099
G1 X101.222 Y147.936 E22.48700
G1 X101.290 Y148.060 E22.49307
G1 X101.438 Y148.294 E22.50487
G1 X101.523 Y148.410 E22.51103
G1 X101.610 Y148.520 E22.51704
G1 X101.705 Y148.629 E22.52322
G1 X102.004 Y148.918 E22.54102
G1 X102.341 Y149.168 E22.55892
G1 X102.588 Y149.313 E22.57116
G1 X102.972 Y149.485 E22.58917
G1 X103.506 Y149.632 E22.61285
G1 X103.792 Y149.672 E22.62520
G1 X104.208 Y149.685 E22.64299
G1 X104.488 Y149.664 E22.65501
G1 X104.631 Y149.643 E22.66117
G1 X104.768 Y149.617 E22.66714
G1 X104.901 Y149.586 E22.67299
G1 X171.882 Y132.413 E25.62940
G1 X171.936 Y132.398 E25.63179
G1 X172.079 Y132.344 E25.63835
G1 X172.179 Y132.294 E25.64311
G1 X172.313 Y132.207 E25.64997
G1 X172.468 Y132.070 E25.65878
G1 X172.545 Y131.982 E25.66380
G1 X172.660 Y131.808 E25.67272
G1 X172.744 Y131.617 E25.68165
G1 X172.776 Y131.509 E25.68647
G1 X172.796 Y131.407 E25.69090
G1 X172.803 Y131.352 E25.69328
G1 X172.808 Y131.298 E25.69558
G1 X172.811 Y131.245 E25.69786
G1 X172.811 Y131.188 E25.70030
G1 X172.805 Y131.084 E25.70474
G1 X172.789 Y130.981 E25.70921
G1 X172.777 Y130.926 E25.71160
G1 X172.764 Y130.875 E25.71387
G1 X172.747 Y130.819 E25.71636
G1 X172.690 Y130.677 E25.72292
G1 X172.637 Y130.578 E25.72771
G1 X172.549 Y130.450 E25.73435
G1 X172.476 Y130.365 E25.73915
G1 X172.359 Y130.255 E25.74601
G1 X172.185 Y130.135 E25.75504
G1 X171.991 Y130.045 E25.76419
G1 X171.787 Y129.991 E25.77322
G1 X171.627 Y129.974 E25.78008
G1 X103.685 Y129.999 E28.68499
G1 X103.264 Y130.082 E28.70333
G1 X102.994 Y130.167 E28.71542
G1 X102.859 Y130.220 E28.72163
G1 X102.730 Y130.277 E28.72767
G1 X102.597 Y130.343 E28.73400
G1 X102.134 Y130.638 E28.75748
G1 X102.016 Y130.732 E28.76391
G1 X101.910 Y130.825 E28.76995
G1 X101.805 Y130.926 E28.77617
G1 X101.531 Y131.238 E28.79396
G1 X101.454 Y131.349 E28.79972
G1 X101.324 Y131.390 F6000.000
G92 E0
G1 E-1.00000 F2100.000
G1 X97.625 Y128.688 F6000.000
G1 E0.00000 F2100.000
;TYPE:Internal perimeter
G1 F1200.000
G1 X74.475 Y128.688 E0.98983
G1 X74.475 Y133.680 E1.20328
G1 X73.859 Y133.677 E1.22959
G1 X73.642 Y133.643 E1.23897
G1 X73.496 Y133.597 E1.24552
G1 X73.354 Y133.538 E1.25209
G1 X73.127 Y133.400 E1.26346
G1 X73.103 Y133.383 E1.26475
G1 X73.053 Y133.343 E1.26747
G1 X73.016 Y133.311 E1.26955
G1 X72.914 Y133.208 E1.27574
G1 X72.842 Y133.123 E1.28053
G1 X72.717 Y132.935 E1.29018
G1 X72.680 Y132.865 E1.29354
G1 X72.565 Y132.547 E1.30800
G1 X72.537 Y132.389 E1.31486
G1 X72.536 Y132.183 E1.32369
G1 X72.526 Y116.213 E2.00647
G1 X197.473 Y116.213 E7.34863
G1 X197.459 Y128.772 E7.88557
G1 X197.437 Y128.837 E7.88852
G1 X197.402 Y128.910 E7.89195
G1 X197.332 Y129.001 E7.89689
G1 X197.293 Y129.032 E7.89901
G1 X197.223 Y129.077 E7.90257
G1 X100.935 Y153.770 E12.15262
G1 X100.876 Y153.777 E12.15518
G1 X92.794 Y153.786 E12.50072
G1 X94.734 Y151.838 E12.61824
G1 X97.625 Y151.838 E12.74188
G1 X97.625 Y128.748 E13.72915
G1 X97.197 Y129.116 F6000.000
G1 F1200.000
G1 X74.903 Y129.116 E14.68234
G1 X74.903 Y134.110 E14.89588
G1 X73.825 Y134.105 E14.94196
G1 X73.565 Y134.065 E14.95321
G1 X73.518 Y134.054 E14.95527
G1 X73.350 Y134.000 E14.96284
G1 X73.185 Y133.932 E14.97044
G1 X73.142 Y133.911 E14.97249
G1 X72.889 Y133.757 E14.98518
G1 X72.842 Y133.723 E14.98767
G1 X72.778 Y133.671 E14.99118
G1 X72.723 Y133.624 E14.99426
G1 X72.598 Y133.498 E15.00186
G1 X72.499 Y133.380 E15.00844
G1 X72.347 Y133.153 E15.02010
G1 X72.287 Y133.038 E15.02565
G1 X72.154 Y132.671 E15.04238
G1 X72.112 Y132.448 E15.05204
G1 X72.108 Y132.414 E15.05353
G1 X72.108 Y132.183 E15.06339
G1 X72.098 Y115.785 E15.76451
G1 X197.902 Y115.785 E21.14334
G1 X197.887 Y128.764 E21.69828
G1 X197.887 Y128.831 E21.70114
G1 X197.879 Y128.866 E21.70266
G1 X197.835 Y128.998 E21.70860
G1 X197.781 Y129.112 E21.71402
G1 X197.753 Y129.158 E21.71630
G1 X197.661 Y129.276 E21.72271
G1 X197.623 Y129.315 E21.72503
G1 X197.603 Y129.332 E21.72615
G1 X197.544 Y129.380 E21.72943
G1 X197.427 Y129.455 E21.73534
G1 X197.378 Y129.480 E21.73769
G1 X101.015 Y154.191 E25.99104
G1 X100.903 Y154.206 E25.99590
G1 X92.200 Y154.215 E26.36799
G1 X92.198 Y153.777 E26.38673
G1 X94.556 Y151.410 E26.52955
G1 X97.197 Y151.410 E26.64248
G1 X97.197 Y129.176 E27.59311
G1 X96.769 Y129.545 F6000.000
G1 F1200.000
G1 X75.332 Y129.545 E28.50966
G1 X75.332 Y134.541 E28.72329
G1 X73.791 Y134.533 E28.78914
G1 X73.481 Y134.486 E28.80255
G1 X73.403 Y134.466 E28.80601
G1 X73.203 Y134.403 E28.81497
G1 X73.008 Y134.323 E28.82398
G1 X72.936 Y134.287 E28.82743
G1 X72.650 Y134.114 E28.84172
G1 X72.581 Y134.063 E28.84540
G1 X72.502 Y133.999 E28.84971
G1 X72.430 Y133.937 E28.85379
G1 X72.282 Y133.788 E28.86279
G1 X72.156 Y133.638 E28.87117
G1 X71.978 Y133.372 E28.88483
G1 X71.894 Y133.211 E28.89259
G1 X71.743 Y132.795 E28.91151
G1 X71.726 Y132.726 E28.91457
G1 X71.688 Y132.509 E28.92398
G1 X71.680 Y132.437 E28.92705
G1 X71.679 Y132.183 E28.93791
G1 X71.669 Y115.356 E29.65736
G1 X198.331 Y115.356 E35.07287
G1 X198.316 Y128.766 E35.64619
G1 X198.315 Y128.865 E35.65043
