; generated by SuperSlicer 2.3.57 on 2022-01-25 at 20:55:22 UTC


;
;

;
;
; 

; external perimeters extrusion width = 0.40mm
; perimeters extrusion width = 0.40mm
; infill extrusion width = 0.40mm
; solid infill extrusion width = 0.40mm
; top infill extrusion width = 0.40mm
; support material extrusion width = 0.40mm
; first layer extrusion width = 0.48mm


;TYPE:Custom
START_PRINT T_BED=60 T_EXTRUDER=185
M107
G21 ; set units to millimeters
G90 ; use absolute coordinates
M83 ; use relative distances for extrusion
; Filament gcode
M104 S185 ; set temperature
M109 S185 ; set temperature and wait for it to be reached
M190 S60 ; set bed temperature and wait for it to be reached
;LAYER_CHANGE
;Z:0.24
;HEIGHT:0.24
G1 Z0.24 F9000
G1 E-0.8 F3000
M204 S1000
G1 X120.682 Y124.584 F9000
G1 E0.8 F1800
;TYPE:Skirt
;WIDTH:0.48
G1 F900
G1 X113.72 Y131.327 E0.41439
G1 X112.878 Y132.516 E0.0623
G1 X112.367 Y133.881 E0.0623
G1 X110.164 Y150.193 E0.70376
G1 X109.75 Y169.274 E0.81602
G1 X109.752 Y171.81 E0.10841
G1 X109.856 Y172.713 E0.03885
G1 X110.105 Y173.593 E0.0391
G1 X110.493 Y174.421 E0.0391
G1 X111.01 Y175.175 E0.0391
G1 X111.784 Y175.959 E0.0471
G1 X114.954 Y178.454 E0.1725
G1 X115.621 Y178.798 E0.03209
G1 X116.323 Y179.048 E0.03184
G1 X117.057 Y179.205 E0.03209
G1 X117.805 Y179.262 E0.03209
G1 X187.382 Y179.257 E2.97479
G1 X188.683 Y179.047 E0.05633
G1 X189.904 Y178.537 E0.05658
G1 X190.602 Y178.073 E0.03585
G1 X193.164 Y176.002 E0.14083
G1 X193.766 Y175.436 E0.03535
G1 X194.282 Y174.782 E0.0356
G1 X194.694 Y174.066 E0.03535
G1 X194.997 Y173.296 E0.03535
G1 X195.24 Y171.978 E0.05732
G1 X195.251 Y169.305 E0.11429
G1 X194.823 Y149.956 E0.82747
G1 X192.581 Y133.676 E0.70264
G1 X192.066 Y132.412 E0.05832
G1 X191.263 Y131.31 E0.05832
G1 X181.852 Y122.172 E0.56085
G1 X181.029 Y121.561 E0.04385
G1 X180.108 Y121.109 E0.04385
G1 X179.12 Y120.832 E0.04385
G1 X178.099 Y120.737 E0.04385
G1 X126.778 Y120.739 E2.19424
G1 X125.857 Y120.836 E0.0396
G1 X124.959 Y121.084 E0.03985
G1 X124.114 Y121.477 E0.03985
G1 X123.349 Y122 E0.0396
G1 X120.725 Y124.542 E0.15623
G1 X120.874 Y124.696 F9000
M204 S500
G1 X121.023 Y124.85
G1 F900
G1 X114.049 Y131.603 E0.41503
G1 X113.262 Y132.706 E0.05796
G1 X112.787 Y133.97 E0.05773
G1 X110.593 Y150.194 E0.69996
G1 X110.178 Y169.278 E0.81617
G1 X110.179 Y171.774 E0.10668
G1 X110.272 Y172.608 E0.0359
G1 X110.499 Y173.422 E0.03614
G1 X110.854 Y174.189 E0.03614
G1 X111.329 Y174.889 E0.03614
G1 X112.047 Y175.62 E0.04383
G1 X115.112 Y178.049 E0.16718
G1 X116.346 Y178.608 E0.05796
G1 X117.678 Y178.831 E0.05773
G1 X187.219 Y178.834 E2.97324
G1 X188.077 Y178.749 E0.03686
G1 X188.909 Y178.524 E0.03686
G1 X189.693 Y178.164 E0.03686
G1 X190.406 Y177.681 E0.03686
G1 X193.027 Y175.557 E0.14422
G1 X193.769 Y174.763 E0.04647
G1 X194.196 Y174.099 E0.03374
G1 X194.517 Y173.379 E0.03374
G1 X194.726 Y172.618 E0.03374
G1 X194.818 Y171.84 E0.0335
G1 X194.822 Y169.278 E0.10953
G1 X194.398 Y150.023 E0.82347
G1 X192.23 Y134.045 E0.6894
G1 X191.761 Y132.749 E0.05892
G1 X190.969 Y131.622 E0.05892
G1 X181.605 Y122.526 E0.55814
G1 X180.836 Y121.946 E0.04119
G1 X179.979 Y121.519 E0.04095
G1 X179.053 Y121.255 E0.04119
G1 X178.099 Y121.166 E0.04095
G1 X126.798 Y121.167 E2.19338
G1 X125.952 Y121.254 E0.03638
G1 X125.126 Y121.479 E0.03662
G1 X124.347 Y121.837 E0.03662
G1 X123.638 Y122.317 E0.03662
G1 X121.066 Y124.808 E0.1531
G1 E-0.8 F3000
M204 S1000
G1 X143.84 Y126.871 F9000
M204 S500
G1 X166.614 Y128.934
G1 E0.8 F1800
;TYPE:Internal perimeter
G1 F900
G1 X156.575 Y138.679 E0.59819
G1 X156.575 Y161.321 E0.9681
G1 X166.614 Y171.066 E0.59819
G1 X176.653 Y161.321 E0.59819
G1 X176.653 Y138.679 E0.9681
G1 X166.657 Y128.976 E0.59563
M204 S1000
G1 X166.636 Y129.253 F9000
M204 S500
G1 X166.614 Y129.531
G1 F900
G1 X157.003 Y138.86 E0.57266
G1 X157.003 Y161.14 E0.9526
G1 X166.614 Y170.469 E0.57266
G1 X176.225 Y161.14 E0.57266
G1 X176.225 Y138.86 E0.9526
G1 X166.657 Y129.573 E0.5701
M204 S1000
G1 X166.636 Y129.85 F9000
M204 S500
G1 X166.614 Y130.128
;TYPE:External perimeter
G1 F900
G1 X157.432 Y139.041 E0.54713
G1 X157.432 Y160.959 E0.93711
G1 X166.614 Y169.872 E0.54713
G1 X175.796 Y160.959 E0.54713
G1 X175.796 Y139.041 E0.93711
G1 X166.657 Y130.17 E0.54456
;WIPE_START
G1 X166.333 Y129.844 F9000
;WIPE_END
G1 E-0.8 F3000
M204 S1000
G1 X152.359 Y129.389 F9000
M204 S500
G1 X138.386 Y128.934
G1 E0.8 F1800
;TYPE:Internal perimeter
G1 F900
G1 X128.347 Y138.679 E0.59819
G1 X128.347 Y161.321 E0.9681
G1 X138.386 Y171.066 E0.59819
G1 X148.425 Y161.321 E0.59819
G1 X148.425 Y138.679 E0.9681
G1 X138.429 Y128.976 E0.59563
M204 S1000
G1 X138.408 Y129.253 F9000
M204 S500
G1 X138.386 Y129.531
G1 F900
G1 X128.775 Y138.86 E0.57266
G1 X128.775 Y161.14 E0.9526
G1 X138.386 Y170.469 E0.57266
G1 X147.997 Y161.14 E0.57266
G1 X147.997 Y138.86 E0.9526
G1 X138.429 Y129.573 E0.5701
M204 S1000
G1 X138.408 Y129.85 F9000
M204 S500
G1 X138.386 Y130.128
;TYPE:External perimeter
G1 F900
G1 X129.204 Y139.041 E0.54713
G1 X129.204 Y160.959 E0.93711
G1 X138.386 Y169.872 E0.54713
G1 X147.568 Y160.959 E0.54713
G1 X147.568 Y139.041 E0.93711
G1 X138.429 Y130.17 E0.54456
;WIPE_START
G1 X138.105 Y129.844 F9000
;WIPE_END
G1 E-0.8 F3000
M204 S1000
G1 X128.533 Y151.183 F9000
M204 S500
G1 X118.961 Y172.523
G1 E0.8 F1800
;TYPE:Internal perimeter
G1 F900
G1 X118.961 Y135.621 E1.57775
G1 X127.352 Y127.477 E0.49995
G1 X177.648 Y127.477 E2.15047
G1 X186.039 Y135.621 E0.49995
G1 X186.039 Y172.523 E1.57775
G1 X119.021 Y172.523 E2.86539
G1 E-0.8 F3000
M204 S1000
G1 X118.777 Y171.737 F9000
M204 S500
G1 X118.533 Y170.952
G1 E0.8 F1800
G1 F900
G1 X116.06 Y170.952 E0.10571
G1 X116.06 Y170.048 E0.03861
G1 X118.533 Y170.048 E0.10571
G1 X118.533 Y151.952 E0.77375
G1 X116.472 Y151.952 E0.0881
G1 X116.472 Y151.048 E0.03861
G1 X118.533 Y151.048 E0.0881
G1 X118.533 Y135.44 E0.66734
G1 X127.178 Y127.048 E0.51513
G1 X177.822 Y127.048 E2.16533
G1 X186.467 Y135.44 E0.51513
G1 X186.467 Y151.048 E0.66734
G1 X188.528 Y151.048 E0.0881
G1 X188.528 Y151.952 E0.03861
G1 X186.467 Y151.952 E0.0881
G1 X186.467 Y170.048 E0.77375
G1 X188.94 Y170.048 E0.10571
G1 X188.94 Y170.952 E0.03861
G1 X186.467 Y170.952 E0.10571
G1 X186.467 Y172.952 E0.08551
G1 X118.533 Y172.952 E2.90459
G1 X118.533 Y171.012 E0.08295
M204 S1000
G1 X118.318 Y171.196 F9000
M204 S500
G1 X118.104 Y171.38
;TYPE:External perimeter
G1 F900
G1 X115.631 Y171.38 E0.10571
G1 X115.631 Y169.62 E0.07525
G1 X118.104 Y169.62 E0.10571
G1 X118.104 Y152.38 E0.7371
G1 X116.044 Y152.38 E0.0881
G1 X116.044 Y150.62 E0.07525
G1 X118.104 Y150.62 E0.0881
G1 X118.104 Y135.259 E0.65677
G1 X127.004 Y126.62 E0.53031
G1 X177.996 Y126.62 E2.18019
G1 X186.896 Y135.259 E0.53031
G1 X186.896 Y150.62 E0.65677
G1 X188.956 Y150.62 E0.0881
G1 X188.956 Y152.38 E0.07525
G1 X186.896 Y152.38 E0.0881
G1 X186.896 Y169.62 E0.7371
G1 X189.369 Y169.62 E0.10571
G1 X189.369 Y171.38 E0.07525
G1 X186.896 Y171.38 E0.10571
G1 X186.896 Y173.38 E0.08551
G1 X118.104 Y173.38 E2.94123
G1 X118.104 Y171.44 E0.08295
;WIPE_START
G1 X118.104 Y170.98 F9000
;WIPE_END
M204 S1000
G1 X118.434 Y170.74
M204 S500
G1 X118.764 Y170.5
;TYPE:Gap fill
;WIDTH:0.560577
G1 F900
G1 X118.637 Y170.5 E0.00646
G1 X118.509 Y170.5 E0.00646
G1 X116.511 Y170.5 E0.10149
G1 X116.384 Y170.5 E0.00646
G1 X116.257 Y170.5 E0.00646
G1 E-0.8 F3000
M204 S1000
G1 X116.463 Y161 F9000
M204 S500
G1 X116.669 Y151.5
G1 E0.8 F1800
G1 F900
G1 X116.796 Y151.5 E0.00646
G1 X118.509 Y151.5 E0.08702
G1 X118.637 Y151.5 E0.00646
G1 X118.764 Y151.5 E0.00646
G1 E-0.8 F3000
M204 S1000
G1 X148.161 Y139.563 F9000
M204 S500
G1 X177.559 Y127.627
G1 E0.8 F1800
;TYPE:Solid infill
;WIDTH:0.48115
G1 X185.705 Y135.773 E0.49374
G1 X185.705 Y136.379 E0.02597
G1 X177.137 Y127.811 E0.5193
G1 X176.531 Y127.811 E0.02597
G1 X185.705 Y136.985 E0.55603
G1 X185.705 Y137.591 E0.02597
G1 X175.925 Y127.811 E0.59276
G1 X175.319 Y127.811 E0.02597
G1 X185.705 Y138.197 E0.62949
G1 X185.705 Y138.803 E0.02597
G1 X174.713 Y127.811 E0.66622
G1 X174.107 Y127.811 E0.02597
G1 X185.705 Y139.409 E0.70295
G1 X185.705 Y140.015 E0.02597
G1 X173.501 Y127.811 E0.73968
G1 X172.895 Y127.811 E0.02597
G1 X185.705 Y140.621 E0.77641
G1 X185.705 Y141.227 E0.02597
G1 X172.289 Y127.811 E0.81313
G1 X171.683 Y127.811 E0.02597
G1 X185.705 Y141.833 E0.84986
G1 X185.705 Y142.439 E0.02597
G1 X171.077 Y127.811 E0.88659
G1 X170.471 Y127.811 E0.02597
G1 X185.705 Y143.045 E0.92332
G1 X185.705 Y143.651 E0.02597
G1 X169.865 Y127.811 E0.96005
G1 X169.259 Y127.811 E0.02597
G1 X185.705 Y144.257 E0.99678
G1 X185.705 Y144.863 E0.02597
G1 X168.653 Y127.811 E1.03351
G1 X168.047 Y127.811 E0.02597
G1 X185.705 Y145.469 E1.07024
G1 X185.705 Y146.075 E0.02597
G1 X167.441 Y127.811 E1.10696
G1 X166.835 Y127.811 E0.02597
G1 X185.705 Y146.681 E1.14369
G1 X185.705 Y147.287 E0.02597
G1 X166.045 Y127.627 E1.19159
M204 S1000
G1 X166.31 Y128.195 F9000
M204 S500
G1 X166.575 Y128.763
G1 F1800
G1 X165.623 Y127.811 E0.05768
G1 X165.017 Y127.811 E0.02597
G1 X166.137 Y128.931 E0.06787
G1 X165.83 Y129.23 E0.01837
G1 X164.411 Y127.811 E0.08596
G1 X163.805 Y127.811 E0.02597
G1 X165.522 Y129.528 E0.10406
G1 X165.215 Y129.826 E0.01837
G1 X163.199 Y127.811 E0.12215
G1 X162.593 Y127.811 E0.02597
G1 X164.907 Y130.125 E0.14024
G1 X164.6 Y130.423 E0.01837
G1 X161.987 Y127.811 E0.15833
G1 X161.381 Y127.811 E0.02597
G1 X164.292 Y130.722 E0.17642
G1 X163.985 Y131.02 E0.01837
G1 X160.775 Y127.811 E0.19451
G1 X160.169 Y127.811 E0.02597
G1 X163.677 Y131.319 E0.2126
G1 X163.37 Y131.617 E0.01837
G1 X159.563 Y127.811 E0.23069
G1 X158.957 Y127.811 E0.02597
G1 X163.062 Y131.916 E0.24878
G1 X162.755 Y132.214 E0.01837
G1 X158.351 Y127.811 E0.26687
G1 X157.745 Y127.811 E0.02597
G1 X162.447 Y132.513 E0.28497
G1 X162.14 Y132.811 E0.01837
G1 X157.139 Y127.811 E0.30306
G1 X156.533 Y127.811 E0.02597
G1 X161.832 Y133.11 E0.32115
G1 X161.525 Y133.408 E0.01837
G1 X155.927 Y127.811 E0.33924
G1 X155.321 Y127.811 E0.02597
G1 X161.217 Y133.707 E0.35733
G1 X160.91 Y134.005 E0.01837
G1 X154.715 Y127.811 E0.37542
G1 X154.109 Y127.811 E0.02597
G1 X160.602 Y134.304 E0.39351
G1 X160.295 Y134.602 E0.01837
G1 X153.504 Y127.811 E0.4116
G1 X152.898 Y127.811 E0.02597
G1 X159.987 Y134.901 E0.42969
G1 X159.679 Y135.199 E0.01837
G1 X152.292 Y127.811 E0.44779
G1 X151.686 Y127.811 E0.02597
G1 X159.372 Y135.498 E0.46588
G1 X159.064 Y135.796 E0.01837
G1 X151.08 Y127.811 E0.48397
G1 X150.474 Y127.811 E0.02597
G1 X158.757 Y136.095 E0.50206
G1 X158.449 Y136.393 E0.01837
G1 X149.868 Y127.811 E0.52015
G1 X149.262 Y127.811 E0.02597
G1 X158.142 Y136.692 E0.53824
G1 X157.834 Y136.99 E0.01837
G1 X148.656 Y127.811 E0.55633
G1 X148.05 Y127.811 E0.02597
G1 X157.527 Y137.289 E0.57442
G1 X157.219 Y137.587 E0.01837
G1 X147.444 Y127.811 E0.59251
G1 X146.838 Y127.811 E0.02597
G1 X156.912 Y137.885 E0.6106
G1 X156.604 Y138.184 E0.01837
G1 X146.232 Y127.811 E0.6287
G1 X145.626 Y127.811 E0.02597
G1 X156.297 Y138.482 E0.64679
G1 X156.241 Y138.537 E0.00337
G1 X156.241 Y139.032 E0.0212
G1 X145.02 Y127.811 E0.68009
G1 X144.414 Y127.811 E0.02597
G1 X156.241 Y139.638 E0.71682
G1 X156.241 Y140.244 E0.02597
G1 X143.808 Y127.811 E0.75355
G1 X143.202 Y127.811 E0.02597
G1 X156.241 Y140.85 E0.79028
G1 X156.241 Y141.456 E0.02597
G1 X142.596 Y127.811 E0.82701
G1 X141.99 Y127.811 E0.02597
G1 X156.241 Y142.062 E0.86374
G1 X156.241 Y142.668 E0.02597
G1 X141.384 Y127.811 E0.90047
G1 X140.778 Y127.811 E0.02597
G1 X156.241 Y143.274 E0.93719
G1 X156.241 Y143.88 E0.02597
G1 X140.172 Y127.811 E0.97392
G1 X139.566 Y127.811 E0.02597
G1 X156.241 Y144.486 E1.01065
G1 X156.241 Y145.092 E0.02597
G1 X138.96 Y127.811 E1.04738
G1 X138.354 Y127.811 E0.02597
G1 X156.241 Y145.698 E1.08411
G1 X156.241 Y146.304 E0.02597
G1 X148.759 Y138.823 E0.45343
G1 X148.759 Y138.537 E0.01224
G1 X139.027 Y129.09 E0.5813
G1 X137.748 Y127.811 E0.07752
G1 X137.142 Y127.811 E0.02597
G1 X138.088 Y128.757 E0.05734
G1 X137.781 Y129.056 E0.01837
G1 X136.536 Y127.811 E0.07543
G1 X135.93 Y127.811 E0.02597
G1 X137.473 Y129.354 E0.09352
G1 X137.166 Y129.653 E0.01837
G1 X135.324 Y127.811 E0.11161
G1 X134.718 Y127.811 E0.02597
G1 X136.858 Y129.951 E0.12971
G1 X136.551 Y130.25 E0.01837
G1 X134.112 Y127.811 E0.1478
G1 X133.506 Y127.811 E0.02597
G1 X136.243 Y130.548 E0.16589
G1 X135.936 Y130.847 E0.01837
G1 X132.9 Y127.811 E0.18398
G1 X132.294 Y127.811 E0.02597
G1 X135.628 Y131.145 E0.20207
G1 X135.321 Y131.444 E0.01837
G1 X131.688 Y127.811 E0.22016
G1 X131.082 Y127.811 E0.02597
G1 X135.013 Y131.742 E0.23825
G1 X134.706 Y132.041 E0.01837
G1 X130.476 Y127.811 E0.25634
G1 X129.87 Y127.811 E0.02597
G1 X134.398 Y132.339 E0.27443
G1 X134.091 Y132.638 E0.01837
G1 X129.264 Y127.811 E0.29252
G1 X128.658 Y127.811 E0.02597
G1 X133.783 Y132.936 E0.31062
G1 X133.476 Y133.234 E0.01837
G1 X128.052 Y127.811 E0.32871
G1 X127.487 Y127.811 E0.02422
G1 X127.466 Y127.831 E0.00124
G1 X133.168 Y133.533 E0.34558
G1 X132.861 Y133.831 E0.01837
G1 X127.159 Y128.13 E0.34558
G1 X126.851 Y128.428 E0.01837
G1 X132.553 Y134.13 E0.34558
G1 X132.245 Y134.428 E0.01837
G1 X126.544 Y128.727 E0.34558
G1 X126.236 Y129.025 E0.01837
G1 X131.938 Y134.727 E0.34558
G1 X131.63 Y135.025 E0.01837
G1 X125.929 Y129.324 E0.34558
G1 X125.621 Y129.622 E0.01837
G1 X131.323 Y135.324 E0.34558
G1 X131.015 Y135.622 E0.01837
G1 X125.314 Y129.921 E0.34558
G1 X125.006 Y130.219 E0.01837
G1 X130.708 Y135.921 E0.34558
G1 X130.4 Y136.219 E0.01837
G1 X124.699 Y130.518 E0.34558
G1 X124.391 Y130.816 E0.01837
G1 X130.093 Y136.518 E0.34558
G1 X129.785 Y136.816 E0.01837
G1 X124.084 Y131.115 E0.34558
G1 X123.776 Y131.413 E0.01837
G1 X129.478 Y137.115 E0.34558
G1 X129.17 Y137.413 E0.01837
G1 X123.469 Y131.712 E0.34558
G1 X123.161 Y132.01 E0.01837
G1 X128.863 Y137.712 E0.34558
G1 X128.555 Y138.01 E0.01837
G1 X122.854 Y132.309 E0.34558
G1 X122.546 Y132.607 E0.01837
G1 X128.248 Y138.309 E0.34558
G1 X128.012 Y138.537 E0.01407
G1 X128.012 Y138.679 E0.00608
G1 X122.239 Y132.905 E0.34994
G1 X121.931 Y133.204 E0.01837
G1 X128.012 Y139.285 E0.36858
G1 X128.012 Y139.891 E0.02597
G1 X121.624 Y133.502 E0.38722
G1 X121.316 Y133.801 E0.01837
G1 X128.012 Y140.497 E0.40586
G1 X128.012 Y141.103 E0.02597
G1 X121.009 Y134.099 E0.4245
G1 X120.701 Y134.398 E0.01837
G1 X128.012 Y141.709 E0.44313
G1 X128.012 Y142.315 E0.02597
G1 X120.394 Y134.696 E0.46177
G1 X120.086 Y134.995 E0.01837
G1 X128.012 Y142.921 E0.48041
G1 X128.012 Y143.527 E0.02597
G1 X119.779 Y135.293 E0.49905
G1 X119.471 Y135.592 E0.01837
G1 X128.012 Y144.133 E0.51768
G1 X128.012 Y144.739 E0.02597
G1 X119.295 Y136.022 E0.52836
G1 X119.295 Y136.628 E0.02597
G1 X128.012 Y145.345 E0.52836
G1 X128.012 Y145.951 E0.02597
G1 X119.295 Y137.234 E0.52836
G1 X119.295 Y137.84 E0.02597
G1 X128.012 Y146.557 E0.52836
G1 X128.012 Y147.163 E0.02597
G1 X119.295 Y138.446 E0.52836
G1 X119.295 Y139.052 E0.02597
G1 X128.012 Y147.769 E0.52836
G1 X128.012 Y148.375 E0.02597
G1 X119.295 Y139.658 E0.52836
G1 X119.295 Y140.264 E0.02597
G1 X128.012 Y148.981 E0.52836
G1 X128.012 Y149.587 E0.02597
G1 X119.295 Y140.87 E0.52836
G1 X119.295 Y141.476 E0.02597
G1 X128.012 Y150.193 E0.52836
G1 X128.012 Y150.799 E0.02597
G1 X119.295 Y142.082 E0.52836
G1 X119.295 Y142.688 E0.02597
G1 X128.012 Y151.405 E0.52836
G1 X128.012 Y152.011 E0.02597
G1 X119.295 Y143.294 E0.52836
G1 X119.295 Y143.9 E0.02597
G1 X128.012 Y152.617 E0.52836
G1 X128.012 Y153.223 E0.02597
G1 X119.295 Y144.505 E0.52836
G1 X119.295 Y145.111 E0.02597
G1 X128.012 Y153.829 E0.52836
G1 X128.012 Y154.435 E0.02597
G1 X119.295 Y145.717 E0.52836
G1 X119.295 Y146.323 E0.02597
G1 X128.012 Y155.041 E0.52836
G1 X128.012 Y155.647 E0.02597
G1 X119.295 Y146.929 E0.52836
G1 X119.295 Y147.535 E0.02597
G1 X128.012 Y156.253 E0.52836
G1 X128.012 Y156.859 E0.02597
G1 X119.295 Y148.141 E0.52836
G1 X119.295 Y148.747 E0.02597
G1 X128.012 Y157.465 E0.52836
G1 X128.012 Y158.071 E0.02597
G1 X119.295 Y149.353 E0.52836
G1 X119.295 Y149.959 E0.02597
G1 X128.012 Y158.677 E0.52836
G1 X128.012 Y159.283 E0.02597
G1 X119.295 Y150.565 E0.52836
G1 X119.295 Y151.171 E0.02597
G1 X128.012 Y159.889 E0.52836
G1 X128.012 Y160.495 E0.02597
G1 X119.111 Y151.593 E0.53952
G1 E-0.8 F3000
M204 S1000
G1 X133.843 Y145.419 F9000
