; generated by SuperSlicer 2.3.57 on 2022-01-28 at 21:50:27 UTC


;
;

;
;
; 

; external perimeters extrusion width = 0.40mm
; perimeters extrusion width = 0.40mm
; infill extrusion width = 0.40mm
; solid infill extrusion width = 0.40mm
; top infill extrusion width = 0.40mm
; first layer extrusion width = 0.48mm


;TYPE:Custom
START_PRINT T_BED=60 T_EXTRUDER=200
M107
G21 ; set units to millimeters
G90 ; use absolute coordinates
M83 ; use relative distances for extrusion
; Filament gcode
M104 S200 ; set temperature
M109 S200 ; set temperature and wait for it to be reached
M190 S60 ; set bed temperature and wait for it to be reached
;LAYER_CHANGE
;Z:0.24
;HEIGHT:0.24
G1 Z0.24 F9000
G1 E-0.8 F3000
M204 S1000
G1 X99.154 Y111.456 F9000
G1 E0.8 F1800
;TYPE:Skirt
;WIDTH:0.48
G1 F900
G1 X98.207 Y112.338 E0.05422
G1 X97.485 Y113.413 E0.05422
G1 X97.026 Y114.629 E0.05447
G1 X96.858 Y115.912 E0.05422
G1 X96.858 Y184.09 E2.85668
G1 X96.939 Y184.96 E0.0366
G1 X97.154 Y185.806 E0.0366
G1 X97.494 Y186.605 E0.03636
G1 X97.956 Y187.346 E0.0366
G1 X98.843 Y188.297 E0.05447
G1 X99.923 Y189.02 E0.05447
G1 X101.14 Y189.476 E0.05447
G1 X102.435 Y189.642 E0.05471
G1 X202.561 Y189.642 E4.19528
G1 X203.437 Y189.564 E0.03685
G1 X204.29 Y189.351 E0.03685
G1 X205.1 Y189.008 E0.03685
G1 X205.846 Y188.544 E0.03685
G1 X206.782 Y187.675 E0.05349
G1 X207.496 Y186.624 E0.05325
G1 X207.958 Y185.434 E0.05349
G1 X208.14 Y184.176 E0.05325
G1 X208.138 Y115.757 E2.86676
G1 X207.988 Y114.69 E0.04518
G1 X207.641 Y113.675 E0.04493
G1 X207.105 Y112.74 E0.04518
G1 X206.405 Y111.927 E0.04493
G1 X205.564 Y111.262 E0.04493
G1 X204.607 Y110.766 E0.04518
G1 X203.573 Y110.46 E0.04518
G1 X202.506 Y110.357 E0.04493
G1 X102.439 Y110.358 E4.19282
G1 X101.563 Y110.436 E0.03685
G1 X100.71 Y110.649 E0.03685
G1 X99.9 Y110.992 E0.03685
G1 X99.205 Y111.425 E0.03433
G1 X99.317 Y111.606 F9000
M204 S500
G1 X99.429 Y111.787
G1 F900
G1 X98.541 Y112.606 E0.05063
G1 X97.868 Y113.605 E0.05047
G1 X97.442 Y114.732 E0.05047
G1 X97.286 Y115.921 E0.05024
G1 X97.286 Y184.073 E2.85557
G1 X97.359 Y184.87 E0.03353
G1 X97.554 Y185.651 E0.03377
G1 X97.868 Y186.394 E0.03377
G1 X98.292 Y187.079 E0.03377
G1 X99.115 Y187.966 E0.05071
G1 X100.116 Y188.637 E0.05047
G1 X101.249 Y189.062 E0.05071
G1 X102.444 Y189.214 E0.05047
G1 X202.55 Y189.214 E4.19449
G1 X203.358 Y189.143 E0.034
G1 X204.146 Y188.948 E0.034
G1 X204.894 Y188.632 E0.034
G1 X205.579 Y188.208 E0.03377
G1 X206.448 Y187.406 E0.04953
G1 X207.116 Y186.425 E0.04977
G1 X207.544 Y185.322 E0.04953
G1 X207.712 Y184.152 E0.04953
G1 X207.71 Y115.792 E2.86432
G1 X207.575 Y114.804 E0.04177
G1 X207.255 Y113.86 E0.04177
G1 X206.761 Y112.994 E0.04177
G1 X206.115 Y112.242 E0.04154
G1 X205.333 Y111.623 E0.04177
G1 X204.449 Y111.164 E0.04177
G1 X203.498 Y110.882 E0.04154
G1 X202.506 Y110.786 E0.04177
G1 X102.45 Y110.786 E4.19237
G1 X101.642 Y110.857 E0.034
G1 X100.854 Y111.052 E0.034
G1 X100.106 Y111.368 E0.034
G1 X99.48 Y111.755 E0.03085
G1 E-0.8 F3000
M204 S1000
G1 X101.324 Y114.212 F9000
M204 S500
G1 X103.168 Y116.668
G1 E0.8 F1800
;TYPE:Internal perimeter
G1 F900
G1 X201.832 Y116.668 E4.13401
G1 X201.832 Y183.332 E2.7932
G1 X103.168 Y183.332 E4.13401
G1 X103.168 Y116.728 E2.79069
M204 S1000
G1 X102.954 Y116.484 F9000
M204 S500
G1 X102.74 Y116.24
;TYPE:External perimeter
G1 F900
G1 X202.26 Y116.24 E4.16992
G1 X202.26 Y183.76 E2.82911
G1 X102.74 Y183.76 E4.16992
G1 X102.74 Y116.3 E2.8266
;WIPE_START
G1 X103.086 Y116.44 F9000
;WIPE_END
G1 E-0.8 F3000
M204 S1000
G1 X151.951 Y116.629 F9000
M204 S500
G1 X200.815 Y116.818
G1 E0.8 F1800
;TYPE:Solid infill
;WIDTH:0.480337
G1 X201.497 Y117.5 E0.04044
G1 X201.497 Y118.106 E0.02541
G1 X200.394 Y117.003 E0.06545
G1 X199.788 Y117.003 E0.02541
G1 X201.497 Y118.712 E0.10138
G1 X201.497 Y119.318 E0.02541
G1 X199.182 Y117.003 E0.13731
G1 X198.576 Y117.003 E0.02541
G1 X201.497 Y119.924 E0.17325
G1 X201.497 Y120.53 E0.02541
G1 X197.97 Y117.003 E0.20918
G1 X197.364 Y117.003 E0.02541
G1 X201.497 Y121.136 E0.24511
G1 X201.497 Y121.742 E0.02541
G1 X196.758 Y117.003 E0.28105
G1 X196.152 Y117.003 E0.02541
G1 X201.497 Y122.348 E0.31698
G1 X201.497 Y122.954 E0.02541
G1 X195.546 Y117.003 E0.35291
G1 X194.94 Y117.003 E0.02541
G1 X201.497 Y123.56 E0.38885
G1 X201.497 Y124.166 E0.02541
G1 X194.334 Y117.003 E0.42478
G1 X193.728 Y117.003 E0.02541
G1 X201.497 Y124.772 E0.46071
G1 X201.497 Y125.378 E0.02541
G1 X193.122 Y117.003 E0.49665
G1 X192.516 Y117.003 E0.02541
G1 X201.497 Y125.984 E0.53258
G1 X201.497 Y126.59 E0.02541
G1 X191.91 Y117.003 E0.56851
G1 X191.304 Y117.003 E0.02541
G1 X201.497 Y127.196 E0.60445
G1 X201.497 Y127.802 E0.02541
G1 X190.698 Y117.003 E0.64038
G1 X190.092 Y117.003 E0.02541
G1 X201.497 Y128.408 E0.67631
G1 X201.497 Y129.014 E0.02541
G1 X189.486 Y117.003 E0.71225
G1 X188.88 Y117.003 E0.02541
G1 X201.497 Y129.62 E0.74818
G1 X201.497 Y130.226 E0.02541
G1 X188.274 Y117.003 E0.78411
G1 X187.668 Y117.003 E0.02541
G1 X201.497 Y130.832 E0.82005
G1 X201.497 Y131.438 E0.02541
G1 X187.062 Y117.003 E0.85598
G1 X186.456 Y117.003 E0.02541
G1 X201.497 Y132.044 E0.89191
G1 X201.497 Y132.65 E0.02541
G1 X185.85 Y117.003 E0.92785
G1 X185.244 Y117.003 E0.02541
G1 X201.497 Y133.256 E0.96378
G1 X201.497 Y133.862 E0.02541
G1 X184.638 Y117.003 E0.99971
G1 X184.032 Y117.003 E0.02541
G1 X201.497 Y134.468 E1.03565
G1 X201.497 Y135.074 E0.02541
G1 X183.426 Y117.003 E1.07158
G1 X182.82 Y117.003 E0.02541
G1 X201.497 Y135.68 E1.10751
G1 X201.497 Y136.286 E0.02541
G1 X182.214 Y117.003 E1.14345
G1 X181.608 Y117.003 E0.02541
G1 X201.497 Y136.892 E1.17938
G1 X201.497 Y137.498 E0.02541
G1 X181.002 Y117.003 E1.21531
G1 X180.396 Y117.003 E0.02541
G1 X201.497 Y138.104 E1.25125
G1 X201.497 Y138.71 E0.02541
G1 X179.79 Y117.003 E1.28718
G1 X179.184 Y117.003 E0.02541
G1 X201.497 Y139.316 E1.32311
G1 X201.497 Y139.922 E0.02541
G1 X178.578 Y117.003 E1.35905
G1 X177.972 Y117.003 E0.02541
G1 X201.497 Y140.528 E1.39498
G1 X201.497 Y141.134 E0.02541
G1 X177.366 Y117.003 E1.43091
G1 X176.76 Y117.003 E0.02541
G1 X201.497 Y141.74 E1.46685
G1 X201.497 Y142.346 E0.02541
G1 X176.154 Y117.003 E1.50278
G1 X175.548 Y117.003 E0.02541
G1 X201.497 Y142.952 E1.53871
G1 X201.497 Y143.558 E0.02541
G1 X174.942 Y117.003 E1.57465
G1 X174.336 Y117.003 E0.02541
G1 X201.497 Y144.164 E1.61058
G1 X201.497 Y144.77 E0.02541
G1 X173.73 Y117.003 E1.64651
G1 X173.124 Y117.003 E0.02541
G1 X201.497 Y145.376 E1.68245
G1 X201.497 Y145.982 E0.02541
G1 X172.518 Y117.003 E1.71838
G1 X171.912 Y117.003 E0.02541
G1 X201.497 Y146.588 E1.75432
G1 X201.497 Y147.194 E0.02541
G1 X171.306 Y117.003 E1.79025
G1 X170.7 Y117.003 E0.02541
G1 X201.497 Y147.8 E1.82618
G1 X201.497 Y148.406 E0.02541
G1 X170.094 Y117.003 E1.86212
G1 X169.488 Y117.003 E0.02541
G1 X201.497 Y149.012 E1.89805
G1 X201.497 Y149.618 E0.02541
G1 X168.882 Y117.003 E1.93398
G1 X168.277 Y117.003 E0.02541
G1 X201.497 Y150.223 E1.96992
G1 X201.497 Y150.829 E0.02541
G1 X167.671 Y117.003 E2.00585
G1 X167.065 Y117.003 E0.02541
G1 X201.497 Y151.435 E2.04178
G1 X201.497 Y152.041 E0.02541
G1 X166.459 Y117.003 E2.07772
G1 X165.853 Y117.003 E0.02541
G1 X201.497 Y152.647 E2.11365
G1 X201.497 Y153.253 E0.02541
G1 X165.247 Y117.003 E2.14958
G1 X164.641 Y117.003 E0.02541
G1 X201.497 Y153.859 E2.18552
G1 X201.497 Y154.465 E0.02541
G1 X164.035 Y117.003 E2.22145
G1 X163.429 Y117.003 E0.02541
G1 X201.497 Y155.071 E2.25738
G1 X201.497 Y155.677 E0.02541
G1 X162.823 Y117.003 E2.29332
G1 X162.217 Y117.003 E0.02541
G1 X201.497 Y156.283 E2.32925
G1 X201.497 Y156.889 E0.02541
G1 X161.611 Y117.003 E2.36518
G1 X161.005 Y117.003 E0.02541
G1 X201.497 Y157.495 E2.40112
G1 X201.497 Y158.101 E0.02541
G1 X160.399 Y117.003 E2.43705
G1 X159.793 Y117.003 E0.02541
G1 X201.497 Y158.707 E2.47298
G1 X201.497 Y159.313 E0.02541
G1 X159.187 Y117.003 E2.50892
G1 X158.581 Y117.003 E0.02541
G1 X201.497 Y159.919 E2.54485
G1 X201.497 Y160.525 E0.02541
G1 X157.975 Y117.003 E2.58078
G1 X157.369 Y117.003 E0.02541
G1 X201.497 Y161.131 E2.61672
G1 X201.497 Y161.737 E0.02541
G1 X156.763 Y117.003 E2.65265
G1 X156.157 Y117.003 E0.02541
G1 X201.497 Y162.343 E2.68858
G1 X201.497 Y162.949 E0.02541
G1 X155.551 Y117.003 E2.72452
G1 X154.945 Y117.003 E0.02541
G1 X201.497 Y163.555 E2.76045
G1 X201.497 Y164.161 E0.02541
G1 X154.339 Y117.003 E2.79638
G1 X153.733 Y117.003 E0.02541
G1 X201.497 Y164.767 E2.83232
G1 X201.497 Y165.373 E0.02541
G1 X153.127 Y117.003 E2.86825
G1 X152.521 Y117.003 E0.02541
G1 X201.497 Y165.979 E2.90418
G1 X201.497 Y166.585 E0.02541
G1 X151.915 Y117.003 E2.94012
G1 X151.309 Y117.003 E0.02541
G1 X201.497 Y167.191 E2.97605
G1 X201.497 Y167.797 E0.02541
G1 X150.703 Y117.003 E3.01198
G1 X150.097 Y117.003 E0.02541
G1 X201.497 Y168.403 E3.04792
G1 X201.497 Y169.009 E0.02541
G1 X149.491 Y117.003 E3.08385
G1 X148.885 Y117.003 E0.02541
G1 X201.497 Y169.615 E3.11978
G1 X201.497 Y170.221 E0.02541
G1 X148.279 Y117.003 E3.15572
G1 X147.673 Y117.003 E0.02541
G1 X201.497 Y170.827 E3.19165
G1 X201.497 Y171.433 E0.02541
G1 X147.067 Y117.003 E3.22758
G1 X146.461 Y117.003 E0.02541
G1 X201.497 Y172.039 E3.26352
G1 X201.497 Y172.645 E0.02541
G1 X145.855 Y117.003 E3.29945
G1 X145.249 Y117.003 E0.02541
G1 X201.497 Y173.251 E3.33538
G1 X201.497 Y173.857 E0.02541
G1 X144.643 Y117.003 E3.37132
G1 X144.037 Y117.003 E0.02541
G1 X201.497 Y174.463 E3.40725
G1 X201.497 Y175.069 E0.02541
G1 X143.431 Y117.003 E3.44318
G1 X142.825 Y117.003 E0.02541
G1 X201.497 Y175.675 E3.47912
G1 X201.497 Y176.281 E0.02541
G1 X142.219 Y117.003 E3.51505
G1 X141.613 Y117.003 E0.02541
G1 X201.497 Y176.887 E3.55099
G1 X201.497 Y177.493 E0.02541
G1 X141.007 Y117.003 E3.58692
G1 X140.401 Y117.003 E0.02541
G1 X201.497 Y178.099 E3.62285
G1 X201.497 Y178.705 E0.02541
G1 X139.795 Y117.003 E3.65879
G1 X139.189 Y117.003 E0.02541
G1 X201.497 Y179.311 E3.69472
G1 X201.497 Y179.917 E0.02541
G1 X138.583 Y117.003 E3.73065
G1 X137.977 Y117.003 E0.02541
G1 X201.497 Y180.523 E3.76659
G1 X201.497 Y181.129 E0.02541
G1 X137.371 Y117.003 E3.80252
G1 X136.765 Y117.003 E0.02541
G1 X201.497 Y181.735 E3.83845
G1 X201.497 Y182.341 E0.02541
G1 X136.159 Y117.003 E3.87439
G1 X135.553 Y117.003 E0.02541
G1 X201.497 Y182.947 E3.91032
G1 X201.497 Y182.997 E0.00213
G1 X200.942 Y182.997 E0.02328
G1 X134.947 Y117.003 E3.91333
G1 X134.341 Y117.003 E0.02541
G1 X200.336 Y182.997 E3.91333
G1 X199.73 Y182.997 E0.02541
G1 X133.735 Y117.003 E3.91333
G1 X133.129 Y117.003 E0.02541
G1 X199.124 Y182.997 E3.91333
G1 X198.518 Y182.997 E0.02541
G1 X132.523 Y117.003 E3.91333
G1 X131.917 Y117.003 E0.02541
G1 X197.912 Y182.997 E3.91333
G1 X197.306 Y182.997 E0.02541
G1 X131.312 Y117.003 E3.91333
G1 X130.706 Y117.003 E0.02541
G1 X196.7 Y182.997 E3.91333
G1 X196.094 Y182.997 E0.02541
G1 X130.1 Y117.003 E3.91333
G1 X129.494 Y117.003 E0.02541
G1 X195.488 Y182.997 E3.91333
G1 X194.882 Y182.997 E0.02541
G1 X128.888 Y117.003 E3.91333
G1 X128.282 Y117.003 E0.02541
G1 X194.276 Y182.997 E3.91333
G1 X193.67 Y182.997 E0.02541
G1 X127.676 Y117.003 E3.91333
G1 X127.07 Y117.003 E0.02541
G1 X193.064 Y182.997 E3.91333
G1 X192.458 Y182.997 E0.02541
G1 X126.464 Y117.003 E3.91333
G1 X125.858 Y117.003 E0.02541
G1 X191.852 Y182.997 E3.91333
G1 X191.246 Y182.997 E0.02541
G1 X125.252 Y117.003 E3.91333
G1 X124.646 Y117.003 E0.02541
G1 X190.64 Y182.997 E3.91333
G1 X190.034 Y182.997 E0.02541
G1 X124.04 Y117.003 E3.91333
G1 X123.434 Y117.003 E0.02541
G1 X189.428 Y182.997 E3.91333
G1 X188.822 Y182.997 E0.02541
G1 X122.828 Y117.003 E3.91333
G1 X122.222 Y117.003 E0.02541
G1 X188.216 Y182.997 E3.91333
G1 X187.61 Y182.997 E0.02541
G1 X121.616 Y117.003 E3.91333
G1 X121.01 Y117.003 E0.02541
G1 X187.004 Y182.997 E3.91333
G1 X186.398 Y182.997 E0.02541
G1 X120.404 Y117.003 E3.91333
G1 X119.798 Y117.003 E0.02541
G1 X185.792 Y182.997 E3.91333
G1 X185.186 Y182.997 E0.02541
G1 X119.192 Y117.003 E3.91333
G1 X118.586 Y117.003 E0.02541
G1 X184.58 Y182.997 E3.91333
G1 X183.974 Y182.997 E0.02541
G1 X117.98 Y117.003 E3.91333
G1 X117.374 Y117.003 E0.02541
G1 X183.368 Y182.997 E3.91333
G1 X182.763 Y182.997 E0.02541
G1 X116.768 Y117.003 E3.91333
G1 X116.162 Y117.003 E0.02541
G1 X182.157 Y182.997 E3.91333
G1 X181.551 Y182.997 E0.02541
G1 X115.556 Y117.003 E3.91333
G1 X114.95 Y117.003 E0.02541
G1 X180.945 Y182.997 E3.91333
G1 X180.339 Y182.997 E0.02541
G1 X114.344 Y117.003 E3.91333
G1 X113.738 Y117.003 E0.02541
G1 X179.733 Y182.997 E3.91333
G1 X179.127 Y182.997 E0.02541
G1 X113.132 Y117.003 E3.91333
G1 X112.526 Y117.003 E0.02541
G1 X178.521 Y182.997 E3.91333
G1 X177.915 Y182.997 E0.02541
G1 X111.92 Y117.003 E3.91333
G1 X111.314 Y117.003 E0.02541
G1 X177.309 Y182.997 E3.91333
G1 X176.703 Y182.997 E0.02541
G1 X110.708 Y117.003 E3.91333
G1 X110.102 Y117.003 E0.02541
G1 X176.097 Y182.997 E3.91333
G1 X175.491 Y182.997 E0.02541
G1 X109.496 Y117.003 E3.91333
G1 X108.89 Y117.003 E0.02541
G1 X174.885 Y182.997 E3.91333
G1 X174.279 Y182.997 E0.02541
G1 X108.284 Y117.003 E3.91333
G1 X107.678 Y117.003 E0.02541
G1 X173.673 Y182.997 E3.91333
G1 X173.067 Y182.997 E0.02541
G1 X107.072 Y117.003 E3.91333
G1 X106.466 Y117.003 E0.02541
G1 X172.461 Y182.997 E3.91333
G1 X171.855 Y182.997 E0.02541
G1 X105.86 Y117.003 E3.91333
G1 X105.254 Y117.003 E0.02541
G1 X171.249 Y182.997 E3.91333
G1 X170.643 Y182.997 E0.02541
G1 X104.648 Y117.003 E3.91333
G1 X104.042 Y117.003 E0.02541
G1 X170.037 Y182.997 E3.91333
G1 X169.431 Y182.997 E0.02541
G1 X103.503 Y117.069 E3.90939
G1 X103.503 Y117.675 E0.02541
G1 X168.825 Y182.997 E3.87345
G1 X168.219 Y182.997 E0.02541
G1 X103.503 Y118.281 E3.83752
G1 X103.503 Y118.887 E0.02541
G1 X167.613 Y182.997 E3.80159
G1 X167.007 Y182.997 E0.02541
G1 X103.503 Y119.493 E3.76565
G1 X103.503 Y120.099 E0.02541
G1 X166.401 Y182.997 E3.72972
G1 X165.795 Y182.997 E0.02541
G1 X103.503 Y120.705 E3.69379
G1 X103.503 Y121.311 E0.02541
G1 X165.189 Y182.997 E3.65785
G1 X164.583 Y182.997 E0.02541
G1 X103.503 Y121.917 E3.62192
G1 X103.503 Y122.523 E0.02541
G1 X163.977 Y182.997 E3.58599
G1 X163.371 Y182.997 E0.02541
G1 X103.503 Y123.129 E3.55005
G1 X103.503 Y123.735 E0.02541
G1 X162.765 Y182.997 E3.51412
G1 X162.159 Y182.997 E0.02541
G1 X103.503 Y124.341 E3.47819
G1 X103.503 Y124.947 E0.02541
G1 X161.553 Y182.997 E3.44225
G1 X160.947 Y182.997 E0.02541
G1 X103.503 Y125.553 E3.40632
G1 X103.503 Y126.159 E0.02541
G1 X160.341 Y182.997 E3.37039
G1 X159.735 Y182.997 E0.02541
G1 X103.503 Y126.765 E3.33445
G1 X103.503 Y127.371 E0.02541
G1 X159.129 Y182.997 E3.29852
G1 X158.523 Y182.997 E0.02541
G1 X103.503 Y127.977 E3.26259
G1 X103.503 Y128.583 E0.02541
G1 X157.917 Y182.997 E3.22665
G1 X157.311 Y182.997 E0.02541
G1 X103.503 Y129.189 E3.19072
G1 X103.503 Y129.795 E0.02541
G1 X156.705 Y182.997 E3.15479
G1 X156.099 Y182.997 E0.02541
G1 X103.503 Y130.401 E3.11885
G1 X103.503 Y131.007 E0.02541
G1 X155.493 Y182.997 E3.08292
G1 X154.887 Y182.997 E0.02541
G1 X103.503 Y131.613 E3.04698
G1 X103.503 Y132.219 E0.02541
G1 X154.281 Y182.997 E3.01105
G1 X153.675 Y182.997 E0.02541
G1 X103.503 Y132.825 E2.97512
G1 X103.503 Y133.431 E0.02541
G1 X153.069 Y182.997 E2.93918
G1 X152.463 Y182.997 E0.02541
G1 X103.503 Y134.037 E2.90325
G1 X103.503 Y134.643 E0.02541
G1 X151.857 Y182.997 E2.86732
G1 X151.251 Y182.997 E0.02541
G1 X103.503 Y135.249 E2.83138
G1 X103.503 Y135.855 E0.02541
G1 X150.645 Y182.997 E2.79545
G1 X150.039 Y182.997 E0.02541
G1 X103.503 Y136.461 E2.75952
G1 X103.503 Y137.067 E0.02541
G1 X149.433 Y182.997 E2.72358
G1 X148.827 Y182.997 E0.02541
G1 X103.503 Y137.673 E2.68765
G1 X103.503 Y138.279 E0.02541
G1 X148.221 Y182.997 E2.65172
G1 X147.615 Y182.997 E0.02541
G1 X103.503 Y138.885 E2.61578
G1 X103.503 Y139.491 E0.02541
G1 X147.009 Y182.997 E2.57985
G1 X146.404 Y182.997 E0.02541
G1 X103.503 Y140.096 E2.54392
G1 X103.503 Y140.702 E0.02541
G1 X145.798 Y182.997 E2.50798
G1 X145.192 Y182.997 E0.02541
G1 X103.503 Y141.308 E2.47205
G1 X103.503 Y141.914 E0.02541
G1 X144.586 Y182.997 E2.43612
G1 X143.98 Y182.997 E0.02541
G1 X103.503 Y142.52 E2.40018
G1 X103.503 Y143.126 E0.02541
G1 X143.374 Y182.997 E2.36425
G1 X142.768 Y182.997 E0.02541
G1 X103.503 Y143.732 E2.32832
G1 X103.503 Y144.338 E0.02541
G1 X142.162 Y182.997 E2.29238
