; generated by SuperSlicer 2.3.57 on 2022-01-28 at 17:11:08 UTC


;
;

;
;
; 

; external perimeters extrusion width = 0.40mm
; perimeters extrusion width = 0.40mm
; infill extrusion width = 0.40mm
; solid infill extrusion width = 0.40mm
; top infill extrusion width = 0.40mm
; first layer extrusion width = 0.48mm


;TYPE:Custom
START_PRINT T_BED=60 T_EXTRUDER=200
M107
G21 ; set units to millimeters
G90 ; use absolute coordinates
M83 ; use relative distances for extrusion
; Filament gcode
M104 S200 ; set temperature
M109 S200 ; set temperature and wait for it to be reached
M190 S60 ; set bed temperature and wait for it to be reached
;LAYER_CHANGE
;Z:0.24
;HEIGHT:0.24
G1 Z0.24 F9000
G1 E-0.8 F3000
M204 S1000
G1 X47.729 Y132.335 F9000
G1 E0.8 F1800
;TYPE:Skirt
;WIDTH:0.48
G1 F900
G1 X46.954 Y132.75 E0.03685
G1 X46.253 Y133.281 E0.03685
G1 X45.643 Y133.915 E0.03685
G1 X45.139 Y134.635 E0.03685
G1 X44.752 Y135.425 E0.03685
G1 X44.494 Y136.266 E0.03685
G1 X44.369 Y137.136 E0.03685
G1 X44.357 Y192.52 E2.32058
G1 X44.544 Y193.941 E0.06008
G1 X44.849 Y194.804 E0.03832
G1 X45.289 Y195.605 E0.03832
G1 X45.848 Y196.321 E0.03807
G1 X46.52 Y196.942 E0.03832
G1 X47.283 Y197.446 E0.03832
G1 X48.118 Y197.82 E0.03832
G1 X49.002 Y198.054 E0.03832
G1 X49.906 Y198.142 E0.03807
G1 X280.008 Y198.143 E9.64134
G1 X281.441 Y197.956 E0.06057
G1 X282.266 Y197.668 E0.0366
G1 X283.041 Y197.253 E0.03685
G1 X283.739 Y196.727 E0.0366
G1 X284.35 Y196.094 E0.03685
G1 X284.853 Y195.38 E0.0366
G1 X285.241 Y194.591 E0.03685
G1 X285.501 Y193.757 E0.0366
G1 X285.629 Y192.887 E0.03685
G1 X285.641 Y137.375 E2.32598
G1 X285.512 Y136.293 E0.04567
G1 X285.177 Y135.255 E0.04567
G1 X284.649 Y134.302 E0.04567
G1 X283.948 Y133.468 E0.04567
G1 X283.099 Y132.784 E0.04567
G1 X282.134 Y132.277 E0.04567
G1 X281.091 Y131.964 E0.04567
G1 X280.006 Y131.857 E0.04567
G1 X49.992 Y131.857 E9.63766
G1 X48.559 Y132.044 E0.06057
G1 X47.785 Y132.315 E0.03433
G1 X47.855 Y132.516 F9000
M204 S500
G1 X47.925 Y132.718
G1 F900
G1 X47.907 Y132.724 E0.00084
G1 X47.186 Y133.11 E0.03424
G1 X46.535 Y133.604 E0.03424
G1 X45.969 Y134.193 E0.03424
G1 X45.504 Y134.859 E0.034
G1 X45.147 Y135.593 E0.03424
G1 X44.909 Y136.375 E0.03424
G1 X44.795 Y137.184 E0.03424
G1 X44.786 Y192.516 E2.31843
G1 X44.956 Y193.822 E0.05516
G1 X45.236 Y194.619 E0.03542
G1 X45.641 Y195.361 E0.03542
G1 X46.164 Y196.032 E0.03565
G1 X46.785 Y196.605 E0.03542
G1 X47.491 Y197.071 E0.03542
G1 X48.262 Y197.416 E0.03542
G1 X49.08 Y197.632 E0.03542
G1 X49.921 Y197.714 E0.03542
G1 X280.005 Y197.714 E9.64059
G1 X281.322 Y197.544 E0.05563
G1 X282.088 Y197.278 E0.034
G1 X282.809 Y196.893 E0.03424
G1 X283.461 Y196.4 E0.03424
G1 X284.024 Y195.816 E0.034
G1 X284.493 Y195.146 E0.03424
G1 X284.849 Y194.417 E0.034
G1 X285.088 Y193.642 E0.034
G1 X285.203 Y192.838 E0.034
G1 X285.213 Y137.394 E2.32315
G1 X285.095 Y136.392 E0.04225
G1 X284.787 Y135.432 E0.04225
G1 X284.299 Y134.55 E0.04225
G1 X283.651 Y133.778 E0.04225
G1 X282.867 Y133.144 E0.04225
G1 X281.975 Y132.674 E0.04225
G1 X281.009 Y132.384 E0.04225
G1 X280.006 Y132.286 E0.04225
G1 X49.995 Y132.286 E9.63752
G1 X48.678 Y132.456 E0.05563
G1 X47.982 Y132.698 E0.03089
G1 E-0.8 F3000
M204 S1000
G1 X49.325 Y135.433 F9000
M204 S500
G1 X50.668 Y138.168
G1 E0.8 F1800
;TYPE:Internal perimeter
G1 F900
G1 X279.332 Y138.168 E9.58106
G1 X279.332 Y191.832 E2.2485
G1 X50.668 Y191.832 E9.58106
G1 X50.668 Y138.228 E2.24598
M204 S1000
G1 X50.454 Y137.984 F9000
M204 S500
G1 X50.24 Y137.74
;TYPE:External perimeter
G1 F900
G1 X279.76 Y137.74 E9.61697
G1 X279.76 Y192.26 E2.28441
G1 X50.24 Y192.26 E9.61697
G1 X50.24 Y137.8 E2.28189
;WIPE_START
G1 X50.586 Y137.94 F9000
;WIPE_END
G1 E-0.8 F3000
M204 S1000
G1 X164.451 Y138.129 F9000
M204 S500
G1 X278.315 Y138.318
G1 E0.8 F1800
;TYPE:Solid infill
;WIDTH:0.480303
G1 X278.997 Y139 E0.04043
G1 X278.997 Y139.606 E0.02541
G1 X277.894 Y138.503 E0.06544
G1 X277.288 Y138.503 E0.02541
G1 X278.997 Y140.212 E0.10137
G1 X278.997 Y140.818 E0.02541
G1 X276.682 Y138.503 E0.1373
G1 X276.076 Y138.503 E0.02541
G1 X278.997 Y141.424 E0.17323
G1 X278.997 Y142.03 E0.02541
G1 X275.47 Y138.503 E0.20916
G1 X274.864 Y138.503 E0.02541
G1 X278.997 Y142.636 E0.2451
G1 X278.997 Y143.242 E0.02541
G1 X274.258 Y138.503 E0.28103
G1 X273.652 Y138.503 E0.02541
G1 X278.997 Y143.848 E0.31696
G1 X278.997 Y144.454 E0.02541
G1 X273.046 Y138.503 E0.35289
G1 X272.44 Y138.503 E0.02541
G1 X278.997 Y145.06 E0.38882
G1 X278.997 Y145.666 E0.02541
G1 X271.834 Y138.503 E0.42475
G1 X271.228 Y138.503 E0.02541
G1 X278.997 Y146.272 E0.46068
G1 X278.997 Y146.878 E0.02541
G1 X270.622 Y138.503 E0.49661
G1 X270.016 Y138.503 E0.02541
G1 X278.997 Y147.484 E0.53254
G1 X278.997 Y148.09 E0.02541
G1 X269.41 Y138.503 E0.56847
G1 X268.804 Y138.503 E0.02541
G1 X278.997 Y148.696 E0.6044
G1 X278.997 Y149.302 E0.02541
G1 X268.198 Y138.503 E0.64033
G1 X267.592 Y138.503 E0.02541
G1 X278.997 Y149.908 E0.67627
G1 X278.997 Y150.514 E0.02541
G1 X266.986 Y138.503 E0.7122
G1 X266.38 Y138.503 E0.02541
G1 X278.997 Y151.12 E0.74813
G1 X278.997 Y151.726 E0.02541
G1 X265.774 Y138.503 E0.78406
G1 X265.168 Y138.503 E0.02541
G1 X278.997 Y152.332 E0.81999
G1 X278.997 Y152.938 E0.02541
G1 X264.562 Y138.503 E0.85592
G1 X263.956 Y138.503 E0.02541
G1 X278.997 Y153.544 E0.89185
G1 X278.997 Y154.15 E0.02541
G1 X263.35 Y138.503 E0.92778
G1 X262.744 Y138.503 E0.02541
G1 X278.997 Y154.756 E0.96371
G1 X278.997 Y155.362 E0.02541
G1 X262.138 Y138.503 E0.99964
G1 X261.532 Y138.503 E0.02541
G1 X278.997 Y155.968 E1.03557
G1 X278.997 Y156.574 E0.02541
G1 X260.926 Y138.503 E1.07151
G1 X260.32 Y138.503 E0.02541
G1 X278.997 Y157.18 E1.10744
G1 X278.997 Y157.786 E0.02541
G1 X259.714 Y138.503 E1.14337
G1 X259.108 Y138.503 E0.02541
G1 X278.997 Y158.392 E1.1793
G1 X278.997 Y158.998 E0.02541
G1 X258.502 Y138.503 E1.21523
G1 X257.896 Y138.503 E0.02541
G1 X278.997 Y159.604 E1.25116
G1 X278.997 Y160.21 E0.02541
G1 X257.29 Y138.503 E1.28709
G1 X256.684 Y138.503 E0.02541
G1 X278.997 Y160.816 E1.32302
G1 X278.997 Y161.422 E0.02541
G1 X256.078 Y138.503 E1.35895
G1 X255.472 Y138.503 E0.02541
G1 X278.997 Y162.028 E1.39488
G1 X278.997 Y162.634 E0.02541
G1 X254.866 Y138.503 E1.43081
G1 X254.26 Y138.503 E0.02541
G1 X278.997 Y163.24 E1.46674
G1 X278.997 Y163.846 E0.02541
G1 X253.654 Y138.503 E1.50268
G1 X253.048 Y138.503 E0.02541
G1 X278.997 Y164.452 E1.53861
G1 X278.997 Y165.058 E0.02541
G1 X252.442 Y138.503 E1.57454
G1 X251.836 Y138.503 E0.02541
G1 X278.997 Y165.664 E1.61047
G1 X278.997 Y166.27 E0.02541
G1 X251.23 Y138.503 E1.6464
G1 X250.624 Y138.503 E0.02541
G1 X278.997 Y166.876 E1.68233
G1 X278.997 Y167.482 E0.02541
G1 X250.018 Y138.503 E1.71826
G1 X249.412 Y138.503 E0.02541
G1 X278.997 Y168.088 E1.75419
G1 X278.997 Y168.694 E0.02541
G1 X248.806 Y138.503 E1.79012
G1 X248.2 Y138.503 E0.02541
G1 X278.997 Y169.3 E1.82605
G1 X278.997 Y169.906 E0.02541
G1 X247.594 Y138.503 E1.86198
G1 X246.988 Y138.503 E0.02541
G1 X278.997 Y170.512 E1.89792
G1 X278.997 Y171.118 E0.02541
G1 X246.382 Y138.503 E1.93385
G1 X245.777 Y138.503 E0.02541
G1 X278.997 Y171.723 E1.96978
G1 X278.997 Y172.329 E0.02541
G1 X245.171 Y138.503 E2.00571
G1 X244.565 Y138.503 E0.02541
G1 X278.997 Y172.935 E2.04164
G1 X278.997 Y173.541 E0.02541
G1 X243.959 Y138.503 E2.07757
G1 X243.353 Y138.503 E0.02541
G1 X278.997 Y174.147 E2.1135
G1 X278.997 Y174.753 E0.02541
G1 X242.747 Y138.503 E2.14943
G1 X242.141 Y138.503 E0.02541
G1 X278.997 Y175.359 E2.18536
G1 X278.997 Y175.965 E0.02541
G1 X241.535 Y138.503 E2.22129
G1 X240.929 Y138.503 E0.02541
G1 X278.997 Y176.571 E2.25722
G1 X278.997 Y177.177 E0.02541
G1 X240.323 Y138.503 E2.29316
G1 X239.717 Y138.503 E0.02541
G1 X278.997 Y177.783 E2.32909
G1 X278.997 Y178.389 E0.02541
G1 X239.111 Y138.503 E2.36502
G1 X238.505 Y138.503 E0.02541
G1 X278.997 Y178.995 E2.40095
G1 X278.997 Y179.601 E0.02541
G1 X237.899 Y138.503 E2.43688
G1 X237.293 Y138.503 E0.02541
G1 X278.997 Y180.207 E2.47281
G1 X278.997 Y180.813 E0.02541
G1 X236.687 Y138.503 E2.50874
G1 X236.081 Y138.503 E0.02541
G1 X278.997 Y181.419 E2.54467
G1 X278.997 Y182.025 E0.02541
G1 X235.475 Y138.503 E2.5806
G1 X234.869 Y138.503 E0.02541
G1 X278.997 Y182.631 E2.61653
G1 X278.997 Y183.237 E0.02541
G1 X234.263 Y138.503 E2.65246
G1 X233.657 Y138.503 E0.02541
G1 X278.997 Y183.843 E2.68839
G1 X278.997 Y184.449 E0.02541
G1 X233.051 Y138.503 E2.72433
G1 X232.445 Y138.503 E0.02541
G1 X278.997 Y185.055 E2.76026
G1 X278.997 Y185.661 E0.02541
G1 X231.839 Y138.503 E2.79619
G1 X231.233 Y138.503 E0.02541
G1 X278.997 Y186.267 E2.83212
G1 X278.997 Y186.873 E0.02541
G1 X230.627 Y138.503 E2.86805
G1 X230.021 Y138.503 E0.02541
G1 X278.997 Y187.479 E2.90398
G1 X278.997 Y188.085 E0.02541
G1 X229.415 Y138.503 E2.93991
G1 X228.809 Y138.503 E0.02541
G1 X278.997 Y188.691 E2.97584
G1 X278.997 Y189.297 E0.02541
G1 X228.203 Y138.503 E3.01177
G1 X227.597 Y138.503 E0.02541
G1 X278.997 Y189.903 E3.0477
G1 X278.997 Y190.509 E0.02541
G1 X226.991 Y138.503 E3.08363
G1 X226.385 Y138.503 E0.02541
G1 X278.997 Y191.115 E3.11957
G1 X278.997 Y191.497 E0.01603
G1 X278.774 Y191.497 E0.00938
G1 X225.779 Y138.503 E3.14224
G1 X225.173 Y138.503 E0.02541
G1 X278.168 Y191.497 E3.14224
G1 X277.562 Y191.497 E0.02541
G1 X224.567 Y138.503 E3.14224
G1 X223.961 Y138.503 E0.02541
G1 X276.956 Y191.497 E3.14224
G1 X276.35 Y191.497 E0.02541
G1 X223.355 Y138.503 E3.14224
G1 X222.749 Y138.503 E0.02541
G1 X275.744 Y191.497 E3.14224
G1 X275.138 Y191.497 E0.02541
G1 X222.143 Y138.503 E3.14224
G1 X221.537 Y138.503 E0.02541
G1 X274.532 Y191.497 E3.14224
G1 X273.926 Y191.497 E0.02541
G1 X220.931 Y138.503 E3.14224
G1 X220.325 Y138.503 E0.02541
G1 X273.32 Y191.497 E3.14223
G1 X272.714 Y191.497 E0.02541
G1 X219.719 Y138.503 E3.14224
G1 X219.113 Y138.503 E0.02541
G1 X272.108 Y191.497 E3.14223
G1 X271.502 Y191.497 E0.02541
G1 X218.507 Y138.503 E3.14224
G1 X217.901 Y138.503 E0.02541
G1 X270.896 Y191.497 E3.14223
G1 X270.29 Y191.497 E0.02541
G1 X217.295 Y138.503 E3.14224
G1 X216.689 Y138.503 E0.02541
G1 X269.684 Y191.497 E3.14223
G1 X269.078 Y191.497 E0.02541
G1 X216.083 Y138.503 E3.14223
G1 X215.477 Y138.503 E0.02541
G1 X268.472 Y191.497 E3.14224
G1 X267.866 Y191.497 E0.02541
G1 X214.871 Y138.503 E3.14223
G1 X214.265 Y138.503 E0.02541
G1 X267.26 Y191.497 E3.14224
G1 X266.654 Y191.497 E0.02541
G1 X213.659 Y138.503 E3.14223
G1 X213.053 Y138.503 E0.02541
G1 X266.048 Y191.497 E3.14224
G1 X265.442 Y191.497 E0.02541
G1 X212.447 Y138.503 E3.14223
G1 X211.841 Y138.503 E0.02541
G1 X264.836 Y191.497 E3.14224
G1 X264.23 Y191.497 E0.02541
G1 X211.235 Y138.503 E3.14224
G1 X210.629 Y138.503 E0.02541
G1 X263.624 Y191.497 E3.14223
G1 X263.018 Y191.497 E0.02541
G1 X210.023 Y138.503 E3.14224
G1 X209.417 Y138.503 E0.02541
G1 X262.412 Y191.497 E3.14223
G1 X261.806 Y191.497 E0.02541
G1 X208.812 Y138.503 E3.14224
G1 X208.206 Y138.503 E0.02541
G1 X261.2 Y191.497 E3.14223
G1 X260.594 Y191.497 E0.02541
G1 X207.6 Y138.503 E3.14224
G1 X206.994 Y138.503 E0.02541
G1 X259.988 Y191.497 E3.14223
G1 X259.382 Y191.497 E0.02541
G1 X206.388 Y138.503 E3.14224
G1 X205.782 Y138.503 E0.02541
G1 X258.776 Y191.497 E3.14224
G1 X258.17 Y191.497 E0.02541
G1 X205.176 Y138.503 E3.14223
G1 X204.57 Y138.503 E0.02541
G1 X257.564 Y191.497 E3.14224
G1 X256.958 Y191.497 E0.02541
G1 X203.964 Y138.503 E3.14223
G1 X203.358 Y138.503 E0.02541
G1 X256.352 Y191.497 E3.14224
G1 X255.746 Y191.497 E0.02541
G1 X202.752 Y138.503 E3.14223
G1 X202.146 Y138.503 E0.02541
G1 X255.14 Y191.497 E3.14224
G1 X254.534 Y191.497 E0.02541
G1 X201.54 Y138.503 E3.14223
G1 X200.934 Y138.503 E0.02541
G1 X253.928 Y191.497 E3.14223
G1 X253.322 Y191.497 E0.02541
G1 X200.328 Y138.503 E3.14224
G1 X199.722 Y138.503 E0.02541
G1 X252.716 Y191.497 E3.14223
G1 X252.11 Y191.497 E0.02541
G1 X199.116 Y138.503 E3.14224
G1 X198.51 Y138.503 E0.02541
G1 X251.504 Y191.497 E3.14223
G1 X250.898 Y191.497 E0.02541
G1 X197.904 Y138.503 E3.14224
G1 X197.298 Y138.503 E0.02541
G1 X250.292 Y191.497 E3.14223
G1 X249.686 Y191.497 E0.02541
G1 X196.692 Y138.503 E3.14224
G1 X196.086 Y138.503 E0.02541
G1 X249.08 Y191.497 E3.14224
G1 X248.474 Y191.497 E0.02541
G1 X195.48 Y138.503 E3.14223
G1 X194.874 Y138.503 E0.02541
G1 X247.868 Y191.497 E3.14224
G1 X247.263 Y191.497 E0.02541
G1 X194.268 Y138.503 E3.14223
G1 X193.662 Y138.503 E0.02541
G1 X246.657 Y191.497 E3.14224
G1 X246.051 Y191.497 E0.02541
G1 X193.056 Y138.503 E3.14223
G1 X192.45 Y138.503 E0.02541
G1 X245.445 Y191.497 E3.14224
G1 X244.839 Y191.497 E0.02541
G1 X191.844 Y138.503 E3.14223
G1 X191.238 Y138.503 E0.02541
G1 X244.233 Y191.497 E3.14224
G1 X243.627 Y191.497 E0.02541
G1 X190.632 Y138.503 E3.14224
G1 X190.026 Y138.503 E0.02541
G1 X243.021 Y191.497 E3.14223
G1 X242.415 Y191.497 E0.02541
G1 X189.42 Y138.503 E3.14224
G1 X188.814 Y138.503 E0.02541
G1 X241.809 Y191.497 E3.14223
G1 X241.203 Y191.497 E0.02541
G1 X188.208 Y138.503 E3.14224
G1 X187.602 Y138.503 E0.02541
G1 X240.597 Y191.497 E3.14223
G1 X239.991 Y191.497 E0.02541
G1 X186.996 Y138.503 E3.14224
G1 X186.39 Y138.503 E0.02541
G1 X239.385 Y191.497 E3.14223
G1 X238.779 Y191.497 E0.02541
G1 X185.784 Y138.503 E3.14223
G1 X185.178 Y138.503 E0.02541
G1 X238.173 Y191.497 E3.14224
G1 X237.567 Y191.497 E0.02541
G1 X184.572 Y138.503 E3.14223
G1 X183.966 Y138.503 E0.02541
G1 X236.961 Y191.497 E3.14224
G1 X236.355 Y191.497 E0.02541
G1 X183.36 Y138.503 E3.14223
G1 X182.754 Y138.503 E0.02541
G1 X235.749 Y191.497 E3.14224
G1 X235.143 Y191.497 E0.02541
G1 X182.148 Y138.503 E3.14223
G1 X181.542 Y138.503 E0.02541
G1 X234.537 Y191.497 E3.14224
G1 X233.931 Y191.497 E0.02541
G1 X180.936 Y138.503 E3.14224
G1 X180.33 Y138.503 E0.02541
G1 X233.325 Y191.497 E3.14223
G1 X232.719 Y191.497 E0.02541
G1 X179.724 Y138.503 E3.14224
G1 X179.118 Y138.503 E0.02541
G1 X232.113 Y191.497 E3.14223
G1 X231.507 Y191.497 E0.02541
G1 X178.512 Y138.503 E3.14224
G1 X177.906 Y138.503 E0.02541
G1 X230.901 Y191.497 E3.14223
G1 X230.295 Y191.497 E0.02541
G1 X177.3 Y138.503 E3.14224
G1 X176.694 Y138.503 E0.02541
G1 X229.689 Y191.497 E3.14223
G1 X229.083 Y191.497 E0.02541
G1 X176.088 Y138.503 E3.14224
G1 X175.482 Y138.503 E0.02541
G1 X228.477 Y191.497 E3.14224
G1 X227.871 Y191.497 E0.02541
G1 X174.876 Y138.503 E3.14223
G1 X174.27 Y138.503 E0.02541
G1 X227.265 Y191.497 E3.14224
G1 X226.659 Y191.497 E0.02541
G1 X173.664 Y138.503 E3.14223
G1 X173.058 Y138.503 E0.02541
G1 X226.053 Y191.497 E3.14224
G1 X225.447 Y191.497 E0.02541
G1 X172.453 Y138.503 E3.14223
G1 X171.847 Y138.503 E0.02541
G1 X224.841 Y191.497 E3.14224
G1 X224.235 Y191.497 E0.02541
G1 X171.241 Y138.503 E3.14223
G1 X170.635 Y138.503 E0.02541
G1 X223.629 Y191.497 E3.14223
G1 X223.023 Y191.497 E0.02541
G1 X170.029 Y138.503 E3.14224
G1 X169.423 Y138.503 E0.02541
G1 X222.417 Y191.497 E3.14223
G1 X221.811 Y191.497 E0.02541
G1 X168.817 Y138.503 E3.14224
G1 X168.211 Y138.503 E0.02541
G1 X221.205 Y191.497 E3.14224
G1 X220.599 Y191.497 E0.02541
G1 X167.605 Y138.503 E3.14224
G1 X166.999 Y138.503 E0.02541
G1 X219.993 Y191.497 E3.14224
G1 X219.387 Y191.497 E0.02541
G1 X166.393 Y138.503 E3.14224
G1 X165.787 Y138.503 E0.02541
G1 X218.781 Y191.497 E3.14224
G1 X218.175 Y191.497 E0.02541
G1 X165.181 Y138.503 E3.14224
G1 X164.575 Y138.503 E0.02541
G1 X217.569 Y191.497 E3.14224
G1 X216.963 Y191.497 E0.02541
G1 X163.969 Y138.503 E3.14224
G1 X163.363 Y138.503 E0.02541
G1 X216.357 Y191.497 E3.14224
G1 X215.751 Y191.497 E0.02541
G1 X162.757 Y138.503 E3.14224
G1 X162.151 Y138.503 E0.02541
G1 X215.145 Y191.497 E3.14224
G1 X214.539 Y191.497 E0.02541
G1 X161.545 Y138.503 E3.14224
G1 X160.939 Y138.503 E0.02541
G1 X213.933 Y191.497 E3.14224
G1 X213.327 Y191.497 E0.02541
G1 X160.333 Y138.503 E3.14224
G1 X159.727 Y138.503 E0.02541
G1 X212.721 Y191.497 E3.14224
G1 X212.115 Y191.497 E0.02541
G1 X159.121 Y138.503 E3.14224
G1 X158.515 Y138.503 E0.02541
G1 X211.509 Y191.497 E3.14224
G1 X210.904 Y191.497 E0.02541
G1 X157.909 Y138.503 E3.14224
G1 X157.303 Y138.503 E0.02541
G1 X210.298 Y191.497 E3.14224
G1 X209.692 Y191.497 E0.02541
G1 X156.697 Y138.503 E3.14224
G1 X156.091 Y138.503 E0.02541
G1 X209.086 Y191.497 E3.14224
G1 X208.48 Y191.497 E0.02541
G1 X155.485 Y138.503 E3.14224
G1 X154.879 Y138.503 E0.02541
