; generated by SuperSlicer 2.3.57 on 2022-02-14 at 07:09:59 UTC


;
;

;
;
; 

; external perimeters extrusion width = 0.40mm
; perimeters extrusion width = 0.45mm
; infill extrusion width = 0.72mm
; solid infill extrusion width = 0.56mm
; top infill extrusion width = 0.40mm
; support material extrusion width = 0.42mm
; first layer extrusion width = 0.48mm

; object:{"name":"tes","id":"tes.stl id:0 copy 0","object_center":[141.125290,150.000000,0.000000],"boundingbox_center":[141.125290,150.000000,6.573841],"boundingbox_size":[21.750000,112.090296,13.147681]}
; object:{"name":"tes","id":"tes.stl id:1 copy 0","object_center":[163.874710,150.000000,0.000000],"boundingbox_center":[163.874710,150.000000,6.573841],"boundingbox_size":[21.750000,112.090296,13.147681]}
; plater:{"center":[152.500000,150.000000,0.000000],"boundingbox_center":[152.500000,150.000000,6.573841],"boundingbox_size":[44.499420,112.090296,13.147681]}

;TYPE:Custom
START_PRINT T_BED=60 T_EXTRUDER=200
M107
G21 ; set units to millimeters
G90 ; use absolute coordinates
M83 ; use relative distances for extrusion
; Filament gcode
M104 S200 ; set temperature
M109 S200 ; set temperature and wait for it to be reached
M190 S60 ; set bed temperature and wait for it to be reached
;LAYER_CHANGE
;Z:0.24
;HEIGHT:0.24
G1 Z0.24 F9000
G1 E-0.6 F3000
G1 X122.238 Y93.63 F9000
G1 E0.6 F1800
; External perimeter
;Skirt
SET_VELOCITY_LIMIT ACCEL=3000 ACCEL_TO_DECEL=3000 SQUARE_CORNER_VELOCITY=8

; Support material

;TYPE:Skirt
;WIDTH:0.48
G1 X121.603 Y94.511 E0.0464
G1 X121.255 Y95.543 E0.0466
G1 X121.2 Y96.177 E0.02718
G1 X121.245 Y133.478 E1.59483
G1 X136.558 Y206.779 E3.20168
G1 X136.948 Y207.757 E0.045
G1 X137.605 Y208.585 E0.0452
G1 X138.468 Y209.188 E0.045
G1 X139.467 Y209.518 E0.045
G1 X140.096 Y209.574 E0.02698
G1 X165.123 Y209.567 E1.07006
G1 X166.002 Y209.403 E0.03821
G1 X166.81 Y209.033 E0.03801
G1 X167.507 Y208.475 E0.03821
G1 X168.046 Y207.767 E0.03801
G1 X168.464 Y206.685 E0.04958
G1 X183.745 Y133.538 E3.19497
G1 X183.8 Y132.909 E0.02698
G1 X183.8 Y96.335 E1.56375
G1 X183.71 Y95.554 E0.0336
G1 X183.454 Y94.811 E0.0336
G1 X183.151 Y94.285 E0.02598
G1 X182.767 Y93.82 E0.02578
G1 X175.848 Y87.002 E0.41533
G1 X175.297 Y86.559 E0.03019
G1 X174.676 Y86.233 E0.02999
G1 X174.059 Y86.044 E0.02758
G1 X173.424 Y85.966 E0.02738
G1 X161.31 Y85.78 E0.518
G1 X131.355 Y85.964 E1.28077
G1 X130.528 Y86.067 E0.03561
G1 X129.68 Y86.39 E0.03881
G1 X128.934 Y86.915 E0.03901
G1 X122.28 Y93.588 E0.4029
G1 X122.583 Y93.89 F9000
G1 F1800
G1 X122.548 Y93.926 E0.00214
G1 X121.985 Y94.706 E0.04113
G1 X121.677 Y95.617 E0.04113
G1 X121.628 Y96.177 E0.02402
G1 X121.667 Y133.405 E1.59172
G1 X136.972 Y206.668 E3.20001
G1 X137.314 Y207.534 E0.03982
G1 X137.894 Y208.269 E0.04
G1 X138.657 Y208.803 E0.03982
G1 X139.541 Y209.096 E0.03982
G1 X140.096 Y209.145 E0.02383
G1 X165.079 Y209.14 E1.06815
G1 X165.861 Y208.998 E0.034
G1 X166.581 Y208.671 E0.03381
G1 X167.202 Y208.174 E0.034
G1 X167.682 Y207.54 E0.034
G1 X168.044 Y206.597 E0.04319
G1 X183.323 Y133.464 E3.19434
G1 X183.372 Y132.909 E0.02383
G1 X183.372 Y96.342 E1.56345
G1 X183.294 Y95.656 E0.02949
G1 X183.071 Y95.004 E0.02949
G1 X182.457 Y94.115 E0.04618
G1 X175.55 Y87.31 E0.41458
G1 X175.06 Y86.916 E0.02685
G1 X174.508 Y86.627 E0.02666
G1 X173.966 Y86.462 E0.02421
G1 X173.404 Y86.394 E0.02421
G1 X161.306 Y86.208 E0.51732
G1 X131.36 Y86.393 E1.28036
G1 X130.645 Y86.48 E0.0308
G1 X129.881 Y86.768 E0.03494
G1 X129.214 Y87.24 E0.03494
G1 X122.626 Y93.848 E0.39894
; INIT printing object tes.stl id:0 copy 0
G1 E-0.6 F3000
; printing object tes.stl id:0 copy 0
G1 X140.634 Y93.336 F9000
G1 E0.6 F1800
; External perimeter
;SupportMaterialInterface
SET_VELOCITY_LIMIT ACCEL=3000 ACCEL_TO_DECEL=3000 SQUARE_CORNER_VELOCITY=8

; Thin walls

;TYPE:Support material interface
;WIDTH:0.42
G1 X140.634 Y92.582 E0.02773
G1 X140.057 Y92.582 E0.02122
G1 X140.057 Y93.191 E0.0224
G1 X139.949 Y93.209 E0.00402
G1 X139.818 Y93.26 E0.00516
G1 X139.801 Y93.266 E0.00068
G1 X139.585 Y93.404 E0.0094
G1 X139.524 Y93.462 E0.0031
G1 X139.479 Y93.505 E0.00226
G1 X139.479 Y92.582 E0.03393
G1 X138.902 Y92.582 E0.02122
G1 X138.902 Y136.499 E1.61477
G1 X138.325 Y136.499 E0.02122
G1 X138.325 Y92.582 E1.61477
G1 X137.748 Y92.582 E0.02122
G1 X137.748 Y136.499 E1.61477
G1 X137.171 Y136.499 E0.02122
G1 X137.171 Y92.582 E1.61477
G1 X136.594 Y92.582 E0.02122
G1 X136.594 Y136.499 E1.61477
G1 X136.017 Y136.499 E0.02122
G1 X136.017 Y92.582 E1.61477
G1 X135.44 Y92.582 E0.02122
G1 X135.44 Y136.499 E1.61477
G1 X134.863 Y136.499 E0.02122
G1 X134.863 Y92.42 E1.62074
G1 X143.696 Y93.462 F9000
; External perimeter
;SupportMaterial
SET_VELOCITY_LIMIT ACCEL=3000 ACCEL_TO_DECEL=3000 SQUARE_CORNER_VELOCITY=8

; Support material interface

;TYPE:Support material
;WIDTH:0.48
G1 F1800
G1 X143.696 Y89.607 E0.16484
G1 X142.839 Y89.607 E0.03664
G1 X142.839 Y93.278 E0.15696
G1 X141.982 Y93.278 E0.03664
G1 X141.982 Y89.607 E0.15697
G1 X141.125 Y89.607 E0.03664
G1 X141.125 Y92.195 E0.11067
G1 X140.268 Y92.195 E0.03664
G1 X140.268 Y89.607 E0.11067
G1 X139.411 Y89.607 E0.03664
G1 X139.411 Y92.195 E0.11067
G1 X138.554 Y92.195 E0.03664
G1 X138.554 Y89.607 E0.11067
G1 X137.697 Y89.607 E0.03664
G1 X137.697 Y92.195 E0.11067
G1 X136.84 Y92.195 E0.03664
G1 X136.84 Y89.607 E0.11067
G1 X135.983 Y89.607 E0.03664
G1 X135.983 Y92.195 E0.11067
G1 X135.126 Y92.195 E0.03664
G1 X135.126 Y89.607 E0.11067
G1 X134.269 Y89.607 E0.03664
G1 X134.269 Y92.195 E0.11067
G1 X133.977 Y92.195 E0.01251
G1 X133.977 Y136.886 E1.91076
G1 X134.269 Y136.886 E0.01251
G1 X134.269 Y139.474 E0.11067
G1 X135.126 Y139.474 E0.03664
G1 X135.126 Y136.886 E0.11067
G1 X135.983 Y136.886 E0.03664
G1 X135.983 Y139.474 E0.11067
G1 X136.84 Y139.474 E0.03664
G1 X136.84 Y136.886 E0.11067
G1 X137.697 Y136.886 E0.03664
G1 X137.697 Y139.474 E0.11067
G1 X138.554 Y139.474 E0.03664
G1 X138.554 Y136.702 E0.11855
G1 X133.412 Y139.659 F9000
G1 F1800
G1 X133.412 Y89.607 E2.13999
G1 X132.555 Y89.607 E0.03664
G1 X132.555 Y139.474 E2.13211
G1 X131.698 Y139.474 E0.03664
G1 X131.698 Y89.607 E2.13211
G1 X131.388 Y89.607 E0.01326
G1 X131.388 Y96.361 E0.28878
G1 X130.841 Y96.361 E0.02338
G1 X130.841 Y112.458 E0.68823
G1 X129.984 Y112.458 E0.03664
G1 X129.984 Y96.361 E0.68823
G1 X129.127 Y96.361 E0.03664
G1 X129.127 Y112.458 E0.68823
G1 X128.27 Y112.458 E0.03664
G1 X128.27 Y96.361 E0.68823
G1 X127.413 Y96.361 E0.03664
G1 X127.413 Y112.458 E0.68823
G1 X126.556 Y112.458 E0.03664
G1 X126.556 Y96.361 E0.68823
G1 X125.699 Y96.361 E0.03664
G1 X125.699 Y112.458 E0.68823
G1 X124.842 Y112.458 E0.03664
G1 X124.842 Y96.177 E0.6961
G1 E-0.6 F3000
G1 X130.841 Y132.905 F9000
G1 E0.6 F1800
G1 X130.841 Y116.623 E0.6961
G1 X129.984 Y116.623 E0.03664
G1 X129.984 Y132.72 E0.68823
G1 X129.127 Y132.72 E0.03664
G1 X129.127 Y116.623 E0.68823
G1 X128.27 Y116.623 E0.03664
G1 X128.27 Y132.72 E0.68823
G1 X127.413 Y132.72 E0.03664
G1 X127.413 Y116.623 E0.68823
G1 X126.556 Y116.623 E0.03664
G1 X126.556 Y132.72 E0.68823
G1 X125.699 Y132.72 E0.03664
G1 X125.699 Y116.623 E0.68823
G1 X124.842 Y116.623 E0.03664
G1 X124.842 Y132.905 E0.6961
G1 E-0.6 F3000
G1 X150.776 Y204.834 F9000
G1 E0.6 F1800
; External perimeter
;Perimeter
SET_VELOCITY_LIMIT ACCEL=2000 ACCEL_TO_DECEL=2000 SQUARE_CORNER_VELOCITY=8

; Overhang perimeter

;TYPE:Internal perimeter
G1 X141.197 Y204.834 E0.40952
G1 X141.198 Y95.181 E4.68828
G1 X146.369 Y95.181 E0.22111
G1 X150.775 Y95.181 E0.18837
G1 X150.776 Y204.774 E4.68571
G1 X151.204 Y205.263 F9000
G1 F1800
G1 X140.769 Y205.263 E0.44617
G1 X140.769 Y94.752 E4.72492
G1 X146.369 Y94.752 E0.23943
G1 X151.204 Y94.752 E0.20669
G1 X151.204 Y205.203 E4.72235
G1 X151.633 Y205.691 F9000
; External perimeter
;ExternalPerimeter
SET_VELOCITY_LIMIT ACCEL=1000 ACCEL_TO_DECEL=1000 SQUARE_CORNER_VELOCITY=8

; Perimeter

;TYPE:External perimeter
G1 F1800
G1 X140.34 Y205.691 E0.48281
G1 X140.34 Y205.571 E0.00458
G1 X140.34 Y205.331 E0.00971
G1 X140.341 Y94.324 E4.74617
G1 X140.461 Y94.324 E0.0046
G1 X140.701 Y94.324 E0.00973
G1 X146.369 Y94.324 E0.24236
G1 X151.632 Y94.324 E0.22501
G1 X151.632 Y94.444 E0.0046
G1 X151.632 Y94.684 E0.00973
G1 X151.633 Y205.631 E4.7436
;WIPE_START
G1 X151.286 Y205.491 F9000
;WIPE_END
G1 X149.845 Y95.245
; External perimeter
;SolidInfill
SET_VELOCITY_LIMIT ACCEL=2000 ACCEL_TO_DECEL=2000 SQUARE_CORNER_VELOCITY=8

; Bridge infill

;TYPE:Solid infill
;WIDTH:0.472126
G1 F2400
G1 X150.527 Y95.927 E0.04056
G1 X150.527 Y96.533 E0.02548
G1 X149.423 Y95.429 E0.06564
G1 X148.817 Y95.429 E0.02548
G1 X150.527 Y97.139 E0.10168
G1 X150.527 Y97.745 E0.02548
G1 X148.211 Y95.429 E0.13772
G1 X147.605 Y95.429 E0.02548
G1 X150.527 Y98.351 E0.17376
G1 X150.527 Y98.957 E0.02548
G1 X146.999 Y95.429 E0.2098
G1 X146.393 Y95.429 E0.02548
G1 X150.527 Y99.563 E0.24584
G1 X150.527 Y100.169 E0.02548
G1 X145.787 Y95.429 E0.28188
G1 X145.181 Y95.429 E0.02548
G1 X150.527 Y100.775 E0.31792
G1 X150.527 Y101.381 E0.02548
G1 X144.575 Y95.429 E0.35396
G1 X143.969 Y95.429 E0.02548
G1 X150.527 Y101.987 E0.39
G1 X150.527 Y102.593 E0.02548
G1 X143.363 Y95.429 E0.42604
G1 X142.757 Y95.429 E0.02548
G1 X150.527 Y103.199 E0.46208
G1 X150.527 Y103.805 E0.02548
G1 X142.151 Y95.429 E0.49812
G1 X141.545 Y95.429 E0.02548
G1 X150.527 Y104.411 E0.53416
G1 X150.527 Y105.017 E0.02548
G1 X141.446 Y95.937 E0.54004
G1 X141.446 Y96.542 E0.02548
G1 X150.527 Y105.623 E0.54004
G1 X150.527 Y106.229 E0.02548
G1 X141.446 Y97.148 E0.54004
G1 X141.446 Y97.754 E0.02548
G1 X150.527 Y106.835 E0.54004
G1 X150.527 Y107.441 E0.02548
G1 X141.446 Y98.36 E0.54004
G1 X141.446 Y98.966 E0.02548
G1 X150.527 Y108.047 E0.54004
G1 X150.527 Y108.653 E0.02548
G1 X141.446 Y99.572 E0.54004
G1 X141.446 Y100.178 E0.02548
G1 X150.527 Y109.259 E0.54004
G1 X150.527 Y109.865 E0.02548
G1 X141.446 Y100.784 E0.54004
G1 X141.446 Y101.39 E0.02548
G1 X150.527 Y110.471 E0.54004
G1 X150.527 Y111.077 E0.02548
G1 X141.446 Y101.996 E0.54004
G1 X141.446 Y102.602 E0.02548
G1 X150.527 Y111.683 E0.54004
G1 X150.527 Y112.289 E0.02548
G1 X141.446 Y103.208 E0.54004
G1 X141.446 Y103.814 E0.02548
G1 X150.527 Y112.895 E0.54004
G1 X150.527 Y113.501 E0.02548
G1 X141.446 Y104.42 E0.54004
G1 X141.446 Y105.026 E0.02548
G1 X150.527 Y114.107 E0.54004
G1 X150.527 Y114.713 E0.02548
G1 X141.446 Y105.632 E0.54004
G1 X141.446 Y106.238 E0.02548
G1 X150.527 Y115.319 E0.54004
G1 X150.527 Y115.925 E0.02548
G1 X141.446 Y106.844 E0.54004
G1 X141.446 Y107.45 E0.02548
G1 X150.527 Y116.531 E0.54004
G1 X150.527 Y117.137 E0.02548
G1 X141.446 Y108.056 E0.54005
G1 X141.446 Y108.662 E0.02548
G1 X150.527 Y117.743 E0.54005
G1 X150.527 Y118.349 E0.02548
G1 X141.446 Y109.268 E0.54005
G1 X141.446 Y109.874 E0.02548
G1 X150.527 Y118.955 E0.54005
G1 X150.527 Y119.561 E0.02548
G1 X141.446 Y110.48 E0.54005
G1 X141.446 Y111.086 E0.02548
G1 X150.527 Y120.167 E0.54005
G1 X150.527 Y120.772 E0.02548
G1 X141.446 Y111.692 E0.54005
G1 X141.446 Y112.298 E0.02548
G1 X150.527 Y121.378 E0.54005
G1 X150.527 Y121.984 E0.02548
G1 X141.446 Y112.904 E0.54005
G1 X141.446 Y113.51 E0.02548
G1 X150.527 Y122.59 E0.54005
G1 X150.527 Y123.196 E0.02548
G1 X141.446 Y114.116 E0.54005
G1 X141.446 Y114.722 E0.02548
G1 X150.527 Y123.802 E0.54005
G1 X150.527 Y124.408 E0.02548
G1 X141.446 Y115.328 E0.54005
G1 X141.446 Y115.934 E0.02548
G1 X150.527 Y125.014 E0.54005
G1 X150.527 Y125.62 E0.02548
G1 X141.446 Y116.54 E0.54005
G1 X141.446 Y117.146 E0.02548
G1 X150.527 Y126.226 E0.54005
G1 X150.527 Y126.832 E0.02548
G1 X141.446 Y117.752 E0.54005
G1 X141.446 Y118.358 E0.02548
G1 X150.527 Y127.438 E0.54005
G1 X150.527 Y128.044 E0.02548
G1 X141.446 Y118.964 E0.54005
G1 X141.446 Y119.57 E0.02548
G1 X150.527 Y128.65 E0.54005
G1 X150.527 Y129.256 E0.02548
G1 X141.446 Y120.176 E0.54005
G1 X141.446 Y120.782 E0.02548
G1 X150.527 Y129.862 E0.54005
G1 X150.527 Y130.468 E0.02548
G1 X141.446 Y121.388 E0.54005
G1 X141.446 Y121.994 E0.02548
G1 X150.527 Y131.074 E0.54005
G1 X150.527 Y131.68 E0.02548
G1 X141.446 Y122.6 E0.54005
G1 X141.446 Y123.206 E0.02548
G1 X150.527 Y132.286 E0.54005
G1 X150.527 Y132.892 E0.02548
G1 X141.446 Y123.812 E0.54005
G1 X141.446 Y124.418 E0.02548
G1 X150.527 Y133.498 E0.54005
G1 X150.527 Y134.104 E0.02548
G1 X141.446 Y125.024 E0.54005
G1 X141.446 Y125.63 E0.02548
G1 X150.527 Y134.71 E0.54005
G1 X150.527 Y135.316 E0.02548
G1 X141.446 Y126.236 E0.54006
G1 X141.446 Y126.842 E0.02548
G1 X150.527 Y135.922 E0.54006
G1 X150.527 Y136.528 E0.02548
G1 X141.446 Y127.448 E0.54006
G1 X141.446 Y128.053 E0.02548
G1 X150.527 Y137.134 E0.54006
G1 X150.527 Y137.74 E0.02548
G1 X141.446 Y128.659 E0.54006
G1 X141.446 Y129.265 E0.02548
G1 X150.527 Y138.346 E0.54006
G1 X150.527 Y138.952 E0.02548
G1 X141.446 Y129.871 E0.54006
G1 X141.446 Y130.477 E0.02548
G1 X150.527 Y139.558 E0.54006
G1 X150.527 Y140.164 E0.02548
G1 X141.446 Y131.083 E0.54006
G1 X141.446 Y131.689 E0.02548
G1 X150.527 Y140.77 E0.54006
G1 X150.527 Y141.376 E0.02548
G1 X141.446 Y132.295 E0.54006
G1 X141.446 Y132.901 E0.02548
G1 X150.527 Y141.982 E0.54006
G1 X150.527 Y142.588 E0.02548
G1 X141.446 Y133.507 E0.54006
G1 X141.446 Y134.113 E0.02548
G1 X150.527 Y143.194 E0.54006
G1 X150.527 Y143.8 E0.02548
G1 X141.446 Y134.719 E0.54006
G1 X141.446 Y135.325 E0.02548
G1 X150.527 Y144.406 E0.54006
G1 X150.527 Y145.012 E0.02548
G1 X141.446 Y135.931 E0.54006
G1 X141.446 Y136.537 E0.02548
G1 X150.527 Y145.618 E0.54006
G1 X150.527 Y146.224 E0.02548
G1 X141.446 Y137.143 E0.54006
G1 X141.446 Y137.749 E0.02548
G1 X150.527 Y146.83 E0.54006
G1 X150.527 Y147.436 E0.02548
G1 X141.446 Y138.355 E0.54006
G1 X141.446 Y138.961 E0.02548
G1 X150.527 Y148.042 E0.54006
G1 X150.527 Y148.648 E0.02548
G1 X141.446 Y139.567 E0.54006
G1 X141.446 Y140.173 E0.02548
G1 X150.527 Y149.254 E0.54006
G1 X150.527 Y149.86 E0.02548
G1 X141.446 Y140.779 E0.54006
G1 X141.446 Y141.385 E0.02548
G1 X150.527 Y150.466 E0.54006
G1 X150.527 Y151.072 E0.02548
G1 X141.446 Y141.991 E0.54006
G1 X141.446 Y142.597 E0.02548
G1 X150.527 Y151.678 E0.54006
G1 X150.527 Y152.284 E0.02548
G1 X141.446 Y143.203 E0.54006
G1 X141.446 Y143.809 E0.02548
G1 X150.527 Y152.89 E0.54007
G1 X150.527 Y153.496 E0.02548
G1 X141.446 Y144.415 E0.54007
G1 X141.446 Y145.021 E0.02548
G1 X150.527 Y154.102 E0.54007
G1 X150.527 Y154.708 E0.02548
G1 X141.446 Y145.627 E0.54007
G1 X141.446 Y146.233 E0.02548
G1 X150.527 Y155.314 E0.54007
G1 X150.527 Y155.92 E0.02548
G1 X141.446 Y146.839 E0.54007
G1 X141.446 Y147.445 E0.02548
G1 X150.527 Y156.526 E0.54007
G1 X150.527 Y157.132 E0.02548
G1 X141.446 Y148.051 E0.54007
G1 X141.446 Y148.657 E0.02548
G1 X150.527 Y157.738 E0.54007
G1 X150.527 Y158.344 E0.02548
G1 X141.446 Y149.263 E0.54007
G1 X141.446 Y149.869 E0.02548
G1 X150.527 Y158.95 E0.54007
G1 X150.527 Y159.556 E0.02548
G1 X141.446 Y150.475 E0.54007
G1 X141.446 Y151.081 E0.02548
G1 X150.527 Y160.162 E0.54007
G1 X150.527 Y160.768 E0.02548
G1 X141.446 Y151.687 E0.54007
G1 X141.446 Y152.293 E0.02548
G1 X150.527 Y161.374 E0.54007
G1 X150.527 Y161.98 E0.02548
G1 X141.446 Y152.899 E0.54007
G1 X141.446 Y153.505 E0.02548
G1 X150.527 Y162.586 E0.54007
G1 X150.527 Y163.192 E0.02548
G1 X141.446 Y154.111 E0.54007
G1 X141.446 Y154.717 E0.02548
G1 X150.527 Y163.798 E0.54007
G1 X150.527 Y164.404 E0.02548
G1 X141.446 Y155.323 E0.54007
G1 X141.446 Y155.929 E0.02548
G1 X150.527 Y165.01 E0.54007
G1 X150.527 Y165.615 E0.02548
G1 X141.446 Y156.535 E0.54007
G1 X141.446 Y157.141 E0.02548
G1 X150.527 Y166.221 E0.54007
G1 X150.527 Y166.827 E0.02548
G1 X141.446 Y157.747 E0.54007
G1 X141.446 Y158.353 E0.02548
G1 X150.527 Y167.433 E0.54007
G1 X150.527 Y168.039 E0.02548
G1 X141.446 Y158.959 E0.54007
G1 X141.446 Y159.565 E0.02548
G1 X150.527 Y168.645 E0.54007
G1 X150.527 Y169.251 E0.02548
G1 X141.446 Y160.17 E0.54007
G1 X141.446 Y160.776 E0.02548
G1 X150.527 Y169.857 E0.54007
G1 X150.527 Y170.463 E0.02548
G1 X141.446 Y161.382 E0.54007
G1 X141.446 Y161.988 E0.02548
G1 X150.527 Y171.069 E0.54008
G1 X150.527 Y171.675 E0.02548
G1 X141.446 Y162.594 E0.54008
G1 X141.446 Y163.2 E0.02548
G1 X150.527 Y172.281 E0.54008
G1 X150.527 Y172.887 E0.02548
G1 X141.446 Y163.806 E0.54008
G1 X141.446 Y164.412 E0.02548
