; generated by SuperSlicer 2.3.56 on 2021-12-04 at 02:49:40 UTC


;
;

;
;
; 

; external perimeters extrusion width = 0.40mm
; perimeters extrusion width = 0.40mm
; infill extrusion width = 0.40mm
; solid infill extrusion width = 0.40mm
; top infill extrusion width = 0.40mm
; support material extrusion width = 0.40mm
; first layer extrusion width = 0.48mm


;TYPE:Custom
START_PRINT T_BED=70 T_EXTRUDER=235
M107
G21 ; set units to millimeters
G90 ; use absolute coordinates
M83 ; use relative distances for extrusion
M109 S235 ; set temperature and wait for it to be reached
M190 S70 ; set bed temperature and wait for it to be reached
;LAYER_CHANGE
;Z:0.24
;HEIGHT:0.24
G1 Z0.240000 F6000.000
G1 E-1.50000 F3000.000
G1 X103.996 Y110.049 F6000.000
G1 E1.50000 F1800.000
;TYPE:Skirt
;WIDTH:0.48
G1 F1200.000
G1 X104.285 Y109.775 E0.01700
G1 X106.001 Y108.297 E0.09683
G1 X108.527 Y106.355 E0.13621
G1 X110.352 Y105.106 E0.09458
G1 X112.273 Y103.917 E0.09658
G1 X114.205 Y102.839 E0.09458
G1 X116.178 Y101.853 E0.09433
G1 X118.249 Y100.935 E0.09684
G1 X121.228 Y99.808 E0.13621
G1 X123.337 Y99.141 E0.09458
G1 X125.520 Y98.559 E0.09658
G1 X127.681 Y98.087 E0.09458
G1 X129.862 Y97.714 E0.09458
G1 X132.103 Y97.436 E0.09658
G1 X135.282 Y97.220 E0.13621
G1 X137.494 Y97.192 E0.09458
G1 X139.757 Y97.267 E0.09684
G1 X142.009 Y97.447 E0.09658
G1 X144.208 Y97.725 E0.09476
G1 X147.338 Y98.297 E0.13603
G1 X149.539 Y98.828 E0.09683
G1 X151.658 Y99.442 E0.09432
G1 X153.758 Y100.156 E0.09483
G1 X155.861 Y100.981 E0.09658
G1 X158.758 Y102.307 E0.13621
G1 X160.715 Y103.338 E0.09458
G1 X162.663 Y104.481 E0.09658
G1 X164.518 Y105.686 E0.09458
G1 X166.317 Y106.974 E0.09458
G1 X168.091 Y108.373 E0.09658
G1 X169.762 Y109.819 E0.09451
G1 X172.050 Y112.030 E0.13602
G1 X173.588 Y113.692 E0.09683
G1 X175.014 Y115.383 E0.09458
G1 X176.359 Y117.132 E0.09433
G1 X177.655 Y118.989 E0.09683
G1 X179.331 Y121.699 E0.13621
G1 X180.388 Y123.642 E0.09458
G1 X181.377 Y125.673 E0.09658
G1 X182.252 Y127.705 E0.09458
G1 X183.034 Y129.774 E0.09458
G1 X183.736 Y131.921 E0.09658
G1 X184.554 Y135.000 E0.13621
G1 X185.004 Y137.166 E0.09457
G1 X185.362 Y139.396 E0.09658
G1 X185.611 Y141.594 E0.09458
G1 X185.761 Y143.795 E0.09433
G1 X185.810 Y146.059 E0.09683
G1 X185.702 Y149.243 E0.13621
G1 X185.505 Y151.447 E0.09458
G1 X185.202 Y153.685 E0.09658
G1 X184.804 Y155.861 E0.09458
G1 X184.310 Y158.011 E0.09432
G1 X183.701 Y160.193 E0.09684
G1 X182.676 Y163.209 E0.13621
G1 X181.849 Y165.261 E0.09458
G1 X180.910 Y167.315 E0.09658
G1 X179.899 Y169.283 E0.09458
G1 X178.804 Y171.198 E0.09433
G1 X177.589 Y173.110 E0.09683
G1 X175.735 Y175.700 E0.13621
G1 X174.349 Y177.424 E0.09458
G1 X172.855 Y179.119 E0.09658
G1 X171.318 Y180.709 E0.09458
G1 X169.715 Y182.225 E0.09432
G1 X167.999 Y183.703 E0.09684
G1 X165.473 Y185.645 E0.13621
G1 X163.648 Y186.894 E0.09458
G1 X161.727 Y188.083 E0.09658
G1 X159.795 Y189.161 E0.09458
G1 X157.816 Y190.149 E0.09458
G1 X155.747 Y191.066 E0.09677
G1 X152.772 Y192.192 E0.13602
G1 X150.668 Y192.857 E0.09434
G1 X148.480 Y193.441 E0.09682
G1 X146.319 Y193.913 E0.09458
G1 X144.138 Y194.286 E0.09458
G1 X141.892 Y194.564 E0.09677
G1 X138.712 Y194.780 E0.13627
G1 X136.453 Y194.807 E0.09658
G1 X134.237 Y194.732 E0.09483
G1 X131.985 Y194.552 E0.09658
G1 X128.829 Y194.121 E0.13621
G1 X126.657 Y193.702 E0.09458
G1 X124.461 Y193.172 E0.09658
G1 X122.336 Y192.556 E0.09458
G1 X120.248 Y191.846 E0.09433
G1 X118.139 Y191.019 E0.09683
G1 X115.242 Y189.693 E0.13621
G1 X113.285 Y188.662 E0.09458
G1 X111.336 Y187.519 E0.09658
G1 X109.482 Y186.314 E0.09458
G1 X107.683 Y185.026 E0.09458
G1 X105.909 Y183.627 E0.09659
G1 X103.521 Y181.519 E0.13621
G1 X101.946 Y179.966 E0.09458
G1 X100.412 Y178.308 E0.09658
G1 X98.986 Y176.617 E0.09458
G1 X97.639 Y174.865 E0.09445
G1 X96.345 Y173.011 E0.09671
G1 X94.669 Y170.301 E0.13621
G1 X93.612 Y168.358 E0.09458
G1 X92.623 Y166.327 E0.09659
G1 X91.748 Y164.295 E0.09458
G1 X90.966 Y162.226 E0.09458
G1 X90.263 Y160.075 E0.09677
G1 X89.446 Y157.000 E0.13602
G1 X88.996 Y154.834 E0.09458
G1 X88.638 Y152.604 E0.09658
G1 X88.389 Y150.406 E0.09458
G1 X88.239 Y148.205 E0.09432
G1 X88.190 Y145.941 E0.09684
G1 X88.298 Y142.757 E0.13621
G1 X88.495 Y140.553 E0.09457
G1 X88.798 Y138.315 E0.09659
G1 X89.196 Y136.139 E0.09458
G1 X89.690 Y133.989 E0.09433
G1 X90.299 Y131.807 E0.09683
G1 X91.324 Y128.791 E0.13621
G1 X92.151 Y126.739 E0.09458
G1 X93.090 Y124.685 E0.09658
G1 X94.101 Y122.717 E0.09458
G1 X95.196 Y120.802 E0.09433
G1 X96.411 Y118.890 E0.09683
G1 X97.681 Y117.078 E0.09464
G1 X99.651 Y114.576 E0.13615
G1 X101.145 Y112.881 E0.09658
G1 X102.682 Y111.291 E0.09458
G1 X103.953 Y110.090 E0.07476
G1 X104.247 Y110.401 F6000.000
G1 F1200.000
G1 X104.574 Y110.092 E0.01925
G1 X106.269 Y108.631 E0.09567
G1 X107.993 Y107.278 E0.09371
G1 X110.585 Y105.466 E0.13520
G1 X112.492 Y104.285 E0.09591
G1 X114.402 Y103.220 E0.09350
G1 X116.363 Y102.240 E0.09374
G1 X118.409 Y101.333 E0.09567
G1 X121.371 Y100.212 E0.13541
G1 X123.461 Y99.551 E0.09374
G1 X125.623 Y98.975 E0.09567
G1 X127.765 Y98.507 E0.09374
G1 X129.921 Y98.139 E0.09350
G1 X132.146 Y97.862 E0.09588
G1 X135.301 Y97.648 E0.13519
G1 X137.493 Y97.621 E0.09374
G1 X139.730 Y97.695 E0.09567
G1 X141.966 Y97.874 E0.09591
G1 X144.140 Y98.148 E0.09371
G1 X147.251 Y98.717 E0.13520
G1 X149.432 Y99.242 E0.09591
G1 X151.526 Y99.850 E0.09324
G1 X153.608 Y100.558 E0.09400
G1 X155.691 Y101.374 E0.09567
G1 X157.693 Y102.267 E0.09371
G1 X160.505 Y103.712 E0.13520
G1 X162.440 Y104.847 E0.09591
G1 X164.274 Y106.038 E0.09350
G1 X166.056 Y107.315 E0.09374
G1 X167.814 Y108.700 E0.09567
G1 X169.472 Y110.134 E0.09371
G1 X171.745 Y112.331 E0.13520
G1 X173.268 Y113.978 E0.09591
G1 X174.678 Y115.650 E0.09350
G1 X176.015 Y117.388 E0.09374
G1 X177.296 Y119.222 E0.09567
G1 X178.467 Y121.075 E0.09371
G1 X180.007 Y123.837 E0.13520
G1 X180.988 Y125.854 E0.09591
G1 X181.854 Y127.862 E0.09350
G1 X182.629 Y129.913 E0.09374
G1 X183.324 Y132.040 E0.09567
G1 X183.909 Y134.152 E0.09371
G1 X184.582 Y137.242 E0.13519
G1 X184.937 Y139.457 E0.09591
G1 X185.184 Y141.629 E0.09350
G1 X185.333 Y143.817 E0.09374
G1 X185.382 Y146.054 E0.09567
G1 X185.330 Y148.245 E0.09371
G1 X185.080 Y151.397 E0.13520
G1 X184.778 Y153.620 E0.09591
G1 X184.385 Y155.771 E0.09350
G1 X183.894 Y157.908 E0.09374
G1 X183.293 Y160.063 E0.09567
G1 X182.608 Y162.146 E0.09371
G1 X181.456 Y165.090 E0.13519
G1 X180.524 Y167.131 E0.09591
G1 X179.524 Y169.076 E0.09350
G1 X178.435 Y170.979 E0.09374
G1 X177.236 Y172.867 E0.09567
G1 X175.392 Y175.442 E0.13541
G1 X174.019 Y177.151 E0.09374
G1 X172.539 Y178.830 E0.09567
G1 X171.015 Y180.406 E0.09374
G1 X169.384 Y181.945 E0.09588
G1 X166.967 Y183.984 E0.13519
G1 X165.174 Y185.332 E0.09591
G1 X163.368 Y186.565 E0.09350
G1 X161.503 Y187.718 E0.09374
G1 X159.548 Y188.806 E0.09567
G1 X157.586 Y189.784 E0.09371
G1 X154.682 Y191.035 E0.13520
G1 X152.576 Y191.806 E0.09591
G1 X150.490 Y192.463 E0.09351
G1 X148.371 Y193.027 E0.09372
G1 X146.185 Y193.502 E0.09567
G1 X144.024 Y193.869 E0.09371
G1 X140.882 Y194.226 E0.13519
G1 X138.642 Y194.354 E0.09591
G1 X136.456 Y194.379 E0.09350
G1 X134.265 Y194.305 E0.09374
G1 X132.029 Y194.126 E0.09588
G1 X129.860 Y193.852 E0.09350
G1 X126.749 Y193.283 E0.13520
G1 X124.568 Y192.758 E0.09591
G1 X122.468 Y192.148 E0.09350
G1 X120.392 Y191.442 E0.09374
G1 X118.309 Y190.626 E0.09567
G1 X116.307 Y189.733 E0.09371
G1 X113.495 Y188.288 E0.13520
G1 X111.560 Y187.153 E0.09591
G1 X109.726 Y185.962 E0.09350
G1 X107.944 Y184.685 E0.09374
G1 X106.186 Y183.300 E0.09567
G1 X103.812 Y181.204 E0.13541
G1 X102.251 Y179.665 E0.09374
G1 X100.731 Y178.022 E0.09567
G1 X99.322 Y176.350 E0.09350
G1 X97.987 Y174.615 E0.09361
G1 X96.704 Y172.778 E0.09580
G1 X95.039 Y170.084 E0.13541
G1 X93.991 Y168.158 E0.09374
G1 X93.012 Y166.146 E0.09567
G1 X92.144 Y164.133 E0.09374
G1 X91.371 Y162.087 E0.09350
G1 X90.675 Y159.955 E0.09588
G1 X89.862 Y156.899 E0.13519
G1 X89.417 Y154.753 E0.09374
G1 X89.063 Y152.543 E0.09567
G1 X88.816 Y150.371 E0.09350
G1 X88.667 Y148.183 E0.09374
G1 X88.618 Y145.946 E0.09567
G1 X88.670 Y143.755 E0.09371
G1 X88.920 Y140.603 E0.13519
G1 X89.222 Y138.380 E0.09591
G1 X89.615 Y136.229 E0.09350
G1 X90.106 Y134.092 E0.09374
G1 X90.707 Y131.937 E0.09567
G1 X91.392 Y129.854 E0.09371
G1 X92.544 Y126.910 E0.13520
G1 X93.476 Y124.869 E0.09591
G1 X94.476 Y122.924 E0.09350
G1 X95.565 Y121.022 E0.09374
G1 X96.764 Y119.133 E0.09567
G1 X98.024 Y117.335 E0.09384
G1 X99.978 Y114.853 E0.13507
G1 X101.461 Y113.170 E0.09591
G1 X102.981 Y111.598 E0.09350
G1 X104.203 Y110.442 E0.07192
G1 E-1.50000 F3000.000
G1 X108.482 Y115.074 F6000.000
G1 E1.50000 F1800.000
;TYPE:Internal perimeter
G1 F1200.000
G1 X108.802 Y114.778 E0.01863
G1 X109.515 Y114.149 E0.04065
G1 X110.242 Y113.536 E0.04065
G1 X110.982 Y112.939 E0.04065
G1 X111.736 Y112.360 E0.04065
G1 X112.503 Y111.797 E0.04065
G1 X113.282 Y111.252 E0.04065
G1 X114.073 Y110.725 E0.04065
G1 X114.876 Y110.216 E0.04065
G1 X115.691 Y109.725 E0.04065
G1 X116.516 Y109.253 E0.04065
G1 X117.352 Y108.799 E0.04065
G1 X118.197 Y108.365 E0.04065
G1 X119.053 Y107.950 E0.04065
G1 X119.917 Y107.554 E0.04065
G1 X120.791 Y107.177 E0.04065
G1 X121.672 Y106.821 E0.04065
G1 X122.561 Y106.485 E0.04065
G1 X123.458 Y106.168 E0.04065
G1 X124.362 Y105.873 E0.04065
G1 X125.272 Y105.597 E0.04065
G1 X126.188 Y105.342 E0.04065
G1 X127.109 Y105.108 E0.04065
G1 X128.036 Y104.895 E0.04065
G1 X128.967 Y104.703 E0.04065
G1 X129.903 Y104.532 E0.04065
G1 X130.842 Y104.382 E0.04065
G1 X131.784 Y104.254 E0.04065
G1 X132.729 Y104.147 E0.04065
G1 X133.675 Y104.061 E0.04065
G1 X134.624 Y103.996 E0.04065
G1 X135.574 Y103.953 E0.04065
G1 X136.525 Y103.932 E0.04065
G1 X137.475 Y103.932 E0.04065
G1 X138.426 Y103.953 E0.04065
G1 X139.376 Y103.996 E0.04065
G1 X140.325 Y104.061 E0.04065
G1 X141.271 Y104.147 E0.04065
G1 X142.216 Y104.254 E0.04065
G1 X143.158 Y104.382 E0.04065
G1 X144.097 Y104.532 E0.04065
G1 X145.033 Y104.703 E0.04065
G1 X145.964 Y104.895 E0.04065
G1 X146.891 Y105.108 E0.04065
G1 X147.812 Y105.342 E0.04065
G1 X148.728 Y105.597 E0.04066
G1 X149.633 Y105.871 E0.04041
G1 X150.542 Y106.168 E0.04089
G1 X151.439 Y106.485 E0.04065
G1 X152.328 Y106.821 E0.04065
G1 X153.209 Y107.177 E0.04065
G1 X154.083 Y107.554 E0.04065
G1 X154.947 Y107.950 E0.04065
G1 X155.803 Y108.365 E0.04065
G1 X156.648 Y108.799 E0.04065
G1 X157.484 Y109.253 E0.04065
G1 X158.309 Y109.725 E0.04065
G1 X159.124 Y110.216 E0.04065
G1 X159.927 Y110.725 E0.04065
G1 X160.718 Y111.252 E0.04065
G1 X161.497 Y111.797 E0.04065
G1 X162.264 Y112.360 E0.04065
G1 X163.018 Y112.939 E0.04065
G1 X163.758 Y113.536 E0.04065
G1 X164.485 Y114.149 E0.04065
G1 X165.198 Y114.778 E0.04065
G1 X165.896 Y115.423 E0.04065
G1 X166.580 Y116.084 E0.04065
G1 X167.248 Y116.760 E0.04065
G1 X167.902 Y117.451 E0.04065
G1 X168.539 Y118.157 E0.04065
G1 X169.160 Y118.877 E0.04065
G1 X169.765 Y119.610 E0.04065
G1 X170.353 Y120.358 E0.04065
G1 X170.924 Y121.118 E0.04065
G1 X171.477 Y121.891 E0.04065
G1 X172.013 Y122.676 E0.04065
G1 X172.532 Y123.473 E0.04065
G1 X173.032 Y124.282 E0.04065
G1 X173.513 Y125.102 E0.04065
G1 X173.976 Y125.933 E0.04065
G1 X174.420 Y126.773 E0.04065
G1 X174.845 Y127.624 E0.04065
G1 X175.251 Y128.484 E0.04065
G1 X175.637 Y129.353 E0.04065
G1 X176.003 Y130.230 E0.04065
G1 X176.350 Y131.116 E0.04065
G1 X176.676 Y132.009 E0.04065
G1 X176.982 Y132.909 E0.04065
G1 X177.268 Y133.816 E0.04065
G1 X177.533 Y134.729 E0.04065
G1 X177.777 Y135.648 E0.04065
G1 X178.001 Y136.572 E0.04065
G1 X178.203 Y137.501 E0.04065
G1 X178.385 Y138.435 E0.04065
G1 X178.545 Y139.372 E0.04065
G1 X178.684 Y140.312 E0.04065
G1 X178.802 Y141.256 E0.04065
G1 X178.899 Y142.202 E0.04065
G1 X178.974 Y143.150 E0.04065
G1 X179.028 Y144.099 E0.04065
G1 X179.060 Y145.049 E0.04065
G1 X179.071 Y146.000 E0.04065
G1 X179.060 Y146.951 E0.04065
G1 X179.028 Y147.901 E0.04065
G1 X178.974 Y148.850 E0.04065
G1 X178.899 Y149.798 E0.04065
G1 X178.802 Y150.744 E0.04065
G1 X178.684 Y151.688 E0.04065
G1 X178.545 Y152.628 E0.04065
G1 X178.385 Y153.565 E0.04065
G1 X178.203 Y154.499 E0.04065
G1 X178.001 Y155.428 E0.04065
G1 X177.777 Y156.352 E0.04065
G1 X177.533 Y157.271 E0.04065
G1 X177.268 Y158.184 E0.04065
G1 X176.982 Y159.091 E0.04065
G1 X176.676 Y159.991 E0.04065
G1 X176.350 Y160.884 E0.04065
G1 X176.003 Y161.770 E0.04065
G1 X175.637 Y162.647 E0.04065
G1 X175.251 Y163.516 E0.04065
G1 X174.845 Y164.376 E0.04065
G1 X174.420 Y165.227 E0.04065
G1 X173.976 Y166.067 E0.04065
G1 X173.513 Y166.898 E0.04065
G1 X173.032 Y167.718 E0.04065
G1 X172.532 Y168.527 E0.04065
G1 X172.013 Y169.324 E0.04065
G1 X171.477 Y170.109 E0.04065
G1 X170.924 Y170.882 E0.04065
G1 X170.353 Y171.642 E0.04065
G1 X169.765 Y172.390 E0.04065
G1 X169.160 Y173.123 E0.04065
G1 X168.539 Y173.843 E0.04065
G1 X167.902 Y174.549 E0.04065
G1 X167.248 Y175.240 E0.04065
G1 X166.580 Y175.916 E0.04065
G1 X165.896 Y176.577 E0.04065
G1 X165.198 Y177.222 E0.04065
G1 X164.485 Y177.851 E0.04065
G1 X163.758 Y178.464 E0.04065
G1 X163.018 Y179.061 E0.04065
G1 X162.264 Y179.640 E0.04065
G1 X161.497 Y180.203 E0.04065
G1 X160.718 Y180.748 E0.04065
G1 X159.927 Y181.275 E0.04065
G1 X159.124 Y181.784 E0.04065
G1 X158.309 Y182.275 E0.04065
G1 X157.484 Y182.747 E0.04065
G1 X156.648 Y183.201 E0.04065
G1 X155.803 Y183.635 E0.04065
G1 X154.947 Y184.050 E0.04065
G1 X154.083 Y184.446 E0.04065
G1 X153.209 Y184.823 E0.04065
G1 X152.328 Y185.179 E0.04065
G1 X151.439 Y185.515 E0.04065
G1 X150.542 Y185.832 E0.04065
G1 X149.633 Y186.129 E0.04089
G1 X148.728 Y186.403 E0.04041
G1 X147.812 Y186.658 E0.04066
G1 X146.891 Y186.892 E0.04065
G1 X145.964 Y187.105 E0.04065
G1 X145.033 Y187.297 E0.04065
G1 X144.097 Y187.468 E0.04065
G1 X143.158 Y187.618 E0.04065
G1 X142.216 Y187.746 E0.04065
G1 X141.271 Y187.853 E0.04065
G1 X140.325 Y187.939 E0.04065
G1 X139.376 Y188.004 E0.04065
G1 X138.426 Y188.047 E0.04065
G1 X137.475 Y188.068 E0.04065
G1 X136.525 Y188.068 E0.04065
G1 X135.574 Y188.047 E0.04065
G1 X134.624 Y188.004 E0.04065
G1 X133.675 Y187.939 E0.04065
G1 X132.729 Y187.853 E0.04065
G1 X131.784 Y187.746 E0.04065
G1 X130.842 Y187.618 E0.04065
G1 X129.903 Y187.468 E0.04065
G1 X128.967 Y187.297 E0.04065
G1 X128.036 Y187.105 E0.04065
G1 X127.109 Y186.892 E0.04065
G1 X126.188 Y186.658 E0.04065
G1 X125.272 Y186.403 E0.04065
G1 X124.362 Y186.127 E0.04065
G1 X123.458 Y185.832 E0.04065
G1 X122.561 Y185.515 E0.04065
G1 X121.672 Y185.179 E0.04065
G1 X120.791 Y184.823 E0.04065
G1 X119.917 Y184.446 E0.04065
G1 X119.053 Y184.050 E0.04065
G1 X118.197 Y183.635 E0.04065
G1 X117.352 Y183.201 E0.04065
G1 X116.516 Y182.747 E0.04065
G1 X115.691 Y182.275 E0.04065
G1 X114.876 Y181.784 E0.04065
G1 X114.073 Y181.275 E0.04065
G1 X113.282 Y180.748 E0.04065
G1 X112.503 Y180.203 E0.04065
G1 X111.736 Y179.640 E0.04065
G1 X110.982 Y179.061 E0.04065
G1 X110.242 Y178.464 E0.04065
G1 X109.515 Y177.851 E0.04065
G1 X108.802 Y177.222 E0.04065
G1 X108.104 Y176.577 E0.04065
G1 X107.420 Y175.916 E0.04065
G1 X106.752 Y175.240 E0.04065
G1 X106.098 Y174.549 E0.04065
G1 X105.461 Y173.843 E0.04065
G1 X104.840 Y173.123 E0.04065
G1 X104.235 Y172.390 E0.04065
G1 X103.647 Y171.642 E0.04065
G1 X103.078 Y170.884 E0.04053
G1 X102.523 Y170.109 E0.04077
G1 X101.987 Y169.324 E0.04065
G1 X101.468 Y168.527 E0.04065
G1 X100.968 Y167.718 E0.04065
G1 X100.487 Y166.898 E0.04065
G1 X100.024 Y166.067 E0.04065
G1 X99.580 Y165.227 E0.04065
G1 X99.155 Y164.376 E0.04065
G1 X98.749 Y163.516 E0.04065
G1 X98.363 Y162.647 E0.04065
G1 X97.997 Y161.770 E0.04065
G1 X97.650 Y160.884 E0.04065
G1 X97.324 Y159.991 E0.04065
G1 X97.018 Y159.091 E0.04065
G1 X96.732 Y158.184 E0.04065
G1 X96.467 Y157.271 E0.04065
G1 X96.223 Y156.352 E0.04065
G1 X95.999 Y155.428 E0.04065
G1 X95.797 Y154.499 E0.04065
G1 X95.615 Y153.565 E0.04065
G1 X95.455 Y152.628 E0.04065
G1 X95.316 Y151.688 E0.04065
G1 X95.198 Y150.744 E0.04065
G1 X95.101 Y149.798 E0.04065
G1 X95.026 Y148.850 E0.04065
G1 X94.972 Y147.901 E0.04065
G1 X94.940 Y146.951 E0.04065
G1 X94.929 Y146.000 E0.04065
G1 X94.940 Y145.049 E0.04065
G1 X94.972 Y144.099 E0.04065
G1 X95.026 Y143.150 E0.04065
G1 X95.101 Y142.202 E0.04065
