; generated by SuperSlicer 2.5.59 on 2022-11-23 at 04:57:01 UTC


;
;

;
;
; 

; external perimeters extrusion width = 0.40mm
; perimeters extrusion width = 0.46mm
; infill extrusion width = 0.64mm
; solid infill extrusion width = 0.56mm
; top infill extrusion width = 0.40mm
; support material extrusion width = 0.46mm
; first layer extrusion width = 0.50mm

; external perimeters extrusion width = 0.40mm
; perimeters extrusion width = 0.46mm
; infill extrusion width = 0.64mm
; solid infill extrusion width = 0.56mm
; top infill extrusion width = 0.40mm
; support material extrusion width = 0.46mm
; first layer extrusion width = 0.50mm

; object:{"name":"hook","id":"hook.stl id:0 copy 0","object_center":[135.011458,153.354142,0.000000],"boundingbox_center":[135.011458,153.354142,2.250000],"boundingbox_size":[38.000000,78.000000,4.500000]}
; object:{"name":"test","id":"test.stl id:1 copy 0","object_center":[169.988543,146.645858,0.000000],"boundingbox_center":[169.988543,146.645858,2.250000],"boundingbox_size":[38.000000,78.000000,4.500000]}
; plater:{"center":[152.500000,150.000000,0.000000],"boundingbox_center":[152.500000,150.000000,2.250000],"boundingbox_size":[72.977085,84.708284,4.500000]}

M73 P0 R24


; Pre-Processed for Cancel-Object support by preprocess_cancellation v0.2.0
; 2 known objects
EXCLUDE_OBJECT_DEFINE NAME=hook_stl_id_0_copy_0 CENTER=141.379,160.285 POLYGON=[[116.211,114.554],[116.211,192.154],[153.811,192.154],[153.811,114.554]]
EXCLUDE_OBJECT_DEFINE NAME=test_stl_id_1_copy_0 CENTER=176.353,153.603 POLYGON=[[151.189,107.846],[151.189,185.446],[188.789,185.446],[188.789,107.846]]
;TYPE:Custom
START_PRINT T_BED=60 T_EXTRUDER=200
M107
G21 ; set units to millimeters
G90 ; use absolute coordinates
M83 ; use relative distances for extrusion
; Filament gcode
;_TOOLCHANGE 0
M104 S200 ; set temperature
M109 S200 ; set temperature and wait for it to be reached
M190 S60 ; set bed temperature and wait for it to be reached
M107
;LAYER_CHANGE
;Z:0.2
;HEIGHT:0.2
G1 Z0.2 F9000
G92 E0
M73 P0 R24
G1 E-0.8 F3000
M204 S1000
G1 X113.89 Y111.475 F9000
G1 E0.8 F1800
;TYPE:Skirt
;WIDTH:0.52
G1 X112.79 Y112.788 E0.06657
G1 X112.396 Y114.454 E0.06657
G1 X112.396 Y120.254 E0.22548
G1 X112.484 Y121.06 E0.03152
G1 X128.484 Y193.06 E2.86735
G1 X129.133 Y194.475 E0.06051
G1 X130.445 Y195.575 E0.06657
G1 X132.111 Y195.97 E0.06657
G1 X153.911 Y195.97 E0.8475
G1 X154.681 Y195.889 E0.03007
G1 X189.085 Y188.608 E1.36713
G1 X190.537 Y187.952 E0.06194
G1 X191.637 Y186.64 E0.06657
G1 X192.032 Y184.973 E0.06657
G1 X192.032 Y169.319 E0.60859
G1 X189.965 Y144.119 E0.98296
G1 X182.965 Y107.619 E1.44483
G1 X182.295 Y106.098 E0.06462
G1 X180.982 Y104.998 E0.06657
G1 X179.316 Y104.603 E0.06657
G1 X151.661 Y104.603 E1.0751
M73 P1 R24
G1 X151.029 Y104.657 E0.02466
G1 X115.48 Y110.793 E1.40246
G1 X113.89 Y111.475 E0.06723
G1 X114.268 Y111.826 F9000
G1 F1800
G1 X113.267 Y112.906 E0.05728
G1 X112.873 Y114.454 E0.06209
G1 X112.873 Y120.254 E0.22548
G1 X112.95 Y120.957 E0.02748
G1 X128.95 Y192.957 E2.86735
G1 X129.392 Y194.013 E0.04453
G1 X130.564 Y195.099 E0.06209
G1 X132.111 Y195.493 E0.06209
G1 X153.911 Y195.493 E0.8475
G1 X154.582 Y195.423 E0.02621
G1 X188.986 Y188.142 E1.36713
M73 P1 R24
G1 X190.075 Y187.692 E0.04578
G1 X191.161 Y186.521 E0.06209
G1 X191.554 Y184.973 E0.06209
G1 X191.554 Y169.319 E0.60859
G1 X189.496 Y144.209 E0.97945
G1 X182.496 Y107.709 E1.44483
G1 X182.035 Y106.559 E0.04814
G1 X180.864 Y105.474 E0.06209
G1 X179.316 Y105.08 E0.06209
G1 X151.11 Y105.127 E1.09652
G1 X115.561 Y111.263 E1.40246
G1 X114.352 Y111.735 E0.05043
G1 X114.268 Y111.826 E0.00481
G1 E-0.8 F3000
; printing object hook.stl id:0 copy 0
EXCLUDE_OBJECT_START NAME=hook_stl_id_0_copy_0
G1 X141.2 Y119.823 F9000
G1 E0.8 F1800
;TYPE:Internal perimeter
;WIDTH:0.457079
G1 X141 Y119.488 E0.01317
G1 X140.736 Y119.262 E0.01171
G1 X140.453 Y119.136 E0.01048
G1 X140.133 Y119.09 E0.0109
G1 X117.276 Y119.09 E0.7714
G1 X117.276 Y115.618 E0.11716
G1 X143.747 Y115.618 E0.89338
G1 X143.747 Y150.976 E1.19326
M73 P2 R24
G1 X143.764 Y151.173 E0.00669
G1 X143.939 Y151.609 E0.01585
G1 X144.138 Y151.836 E0.01017
G1 X144.36 Y151.988 E0.00909
G1 X144.601 Y152.081 E0.00871
G1 X144.89 Y152.118 E0.00985
G1 X150.747 Y152.118 E0.19768
G1 X150.747 Y155.59 E0.11716
G1 X144.89 Y155.59 E0.19768
G1 X144.79 Y155.594 E0.00336
G1 X144.36 Y155.72 E0.01514
G1 X144.138 Y155.873 E0.00909
G1 X143.939 Y156.099 E0.01017
G1 X143.798 Y156.395 E0.01104
G1 X143.747 Y156.733 E0.01154
G1 X143.747 Y186.476 E1.00378
G1 X143.782 Y186.754 E0.00946
G1 X143.977 Y187.163 E0.0153
G1 X144.305 Y187.457 E0.01487
G1 X144.581 Y187.576 E0.01014
G1 X144.89 Y187.618 E0.01052
G1 X149.133 Y187.618 E0.14319
G1 X149.33 Y187.601 E0.00669
G1 X149.736 Y187.446 E0.01467
G1 X150 Y187.22 E0.01171
G1 X150.2 Y186.885 E0.01317
G1 X150.276 Y186.476 E0.01405
G1 X150.276 Y176.618 E0.33267
G1 X152.747 Y176.618 E0.08342
G1 X152.747 Y191.09 E0.4884
G1 X133.276 Y191.09 E0.65714
G1 X133.276 Y181.618 E0.31966
G1 X135.747 Y181.618 E0.08342
G1 X135.747 Y186.476 E0.16393
G1 X135.823 Y186.885 E0.01405
G1 X136.023 Y187.22 E0.01317
G1 X136.287 Y187.446 E0.01171
G1 X136.57 Y187.573 E0.01048
G1 X136.89 Y187.618 E0.0109
G1 X140.133 Y187.618 E0.10944
G1 X140.33 Y187.601 E0.00669
G1 X140.718 Y187.457 E0.01396
G1 X141.046 Y187.163 E0.01487
G1 X141.241 Y186.754 E0.0153
G1 X141.276 Y186.476 E0.00946
G1 X141.276 Y120.233 E2.23561
G1 X141.2 Y119.823 E0.01405
G1 X140.325 Y119.574 F9000
G1 F1800
G1 X140.133 Y119.547 E0.00654
G1 X116.819 Y119.547 E0.78683
G1 X116.819 Y115.161 E0.14802
G1 X144.204 Y115.161 E0.92424
G1 X144.204 Y150.976 E1.20869
G1 X144.215 Y151.094 E0.00401
G1 X144.319 Y151.356 E0.00951
G1 X144.572 Y151.583 E0.01147
G1 X144.89 Y151.661 E0.01106
G1 X151.204 Y151.661 E0.2131
G1 X151.204 Y156.047 E0.14802
G1 X144.89 Y156.047 E0.2131
G1 X144.572 Y156.125 E0.01106
G1 X144.319 Y156.353 E0.01147
G1 X144.235 Y156.53 E0.00663
G1 X144.204 Y156.733 E0.00692
G1 X144.204 Y186.476 E1.00378
G1 X144.225 Y186.642 E0.00567
G1 X144.342 Y186.888 E0.00918
G1 X144.539 Y187.065 E0.00892
G1 X144.89 Y187.161 E0.01229
G1 X149.133 Y187.161 E0.14319
G1 X149.251 Y187.151 E0.00401
G1 X149.495 Y187.058 E0.0088
G1 X149.653 Y186.922 E0.00703
G1 X149.773 Y186.721 E0.0079
G1 X149.819 Y186.476 E0.00843
G1 X149.819 Y176.161 E0.3481
G1 X153.204 Y176.161 E0.11427
G1 X153.204 Y191.547 E0.51925
G1 X132.819 Y191.547 E0.688
G1 X132.819 Y181.161 E0.35051
G1 X136.204 Y181.161 E0.11427
G1 X136.204 Y186.476 E0.17935
G1 X136.215 Y186.594 E0.00401
G1 X136.37 Y186.922 E0.01225
G1 X136.528 Y187.058 E0.00703
G1 X136.698 Y187.134 E0.00629
G1 X136.89 Y187.161 E0.00654
G1 X140.133 Y187.161 E0.10944
M73 P3 R23
G1 X140.318 Y187.136 E0.00631
G1 X140.617 Y186.961 E0.01167
G1 X140.746 Y186.783 E0.00742
G1 X140.819 Y186.476 E0.01067
G1 X140.819 Y120.233 E2.23561
G1 X140.773 Y119.987 E0.00843
G1 X140.653 Y119.786 E0.0079
G1 X140.495 Y119.65 E0.00703
G1 X140.325 Y119.574 E0.00629
G1 X140.306 Y120.084 F9000
;TYPE:External perimeter
G1 F1800
G1 X140.133 Y120.004 E0.00644
G1 X116.361 Y120.004 E0.80226
G1 X116.361 Y114.704 E0.17887
G1 X144.661 Y114.704 E0.95509
G1 X144.661 Y150.976 E1.22411
G1 X144.665 Y151.015 E0.00134
G1 X144.74 Y151.148 E0.00513
G1 X144.89 Y151.204 E0.00542
G1 X151.661 Y151.204 E0.22853
G1 X151.661 Y156.504 E0.17887
G1 X144.89 Y156.504 E0.22853
G1 X144.74 Y156.561 E0.00542
G1 X144.661 Y156.733 E0.00637
G1 X144.661 Y186.476 E1.00378
G1 X144.729 Y186.637 E0.00592
G1 X144.89 Y186.704 E0.00589
G1 X149.133 Y186.704 E0.14319
G1 X149.172 Y186.701 E0.00134
G1 X149.306 Y186.625 E0.0052
G1 X149.361 Y186.476 E0.00536
G1 X149.361 Y175.704 E0.36352
G1 X153.661 Y175.704 E0.14512
G1 X153.661 Y192.004 E0.5501
G1 X132.361 Y192.004 E0.71885
G1 X132.361 Y180.704 E0.38136
G1 X136.661 Y180.704 E0.14512
G1 X136.661 Y186.476 E0.19478
G1 X136.717 Y186.625 E0.00536
G1 X136.89 Y186.704 E0.00644
G1 X140.133 Y186.704 E0.10944
G1 X140.294 Y186.637 E0.00589
G1 X140.361 Y186.476 E0.00592
G1 X140.361 Y120.233 E2.23561
G1 X140.306 Y120.084 E0.00536
;WIPE_START
M204 S3000
G1 X140.373 Y119.689 F9000
;WIPE_END
G1 E-0.8 F3000
M204 S1000
G1 X143.679 Y116.611 F9000
G1 E0.8 F1800
;TYPE:Solid infill
;WIDTH:0.509027
G1 F2400
G1 X142.755 Y115.687 E0.04955
G1 X142.108 Y115.687 F9000
G1 F2400
G1 X143.679 Y117.257 E0.08421
G1 X143.679 Y117.904 F9000
G1 F2400
G1 X141.462 Y115.687 E0.11888
G1 X140.816 Y115.687 F9000
G1 F2400
G1 X143.679 Y118.55 E0.15354
G1 X143.679 Y119.196 F9000
G1 F2400
G1 X140.169 Y115.687 E0.1882
G1 X139.523 Y115.687 F9000
G1 F2400
G1 X143.679 Y119.843 E0.22287
G1 X143.679 Y120.489 F9000
G1 F2400
G1 X138.876 Y115.687 E0.25753
G1 X138.23 Y115.687 F9000
G1 F2400
G1 X143.679 Y121.136 E0.29219
G1 X143.679 Y121.782 F9000
G1 F2400
G1 X137.584 Y115.687 E0.32686
G1 X136.937 Y115.687 F9000
G1 F2400
G1 X140.297 Y119.046 E0.18016
G1 X139.625 Y119.021 F9000
G1 F2400
G1 X136.291 Y115.687 E0.17882
G1 X135.644 Y115.687 F9000
G1 F2400
G1 X138.979 Y119.021 E0.17882
M73 P4 R23
G1 X138.333 Y119.021 F9000
G1 F2400
G1 X134.998 Y115.687 E0.17882
G1 X134.351 Y115.687 F9000
G1 F2400
G1 X137.686 Y119.021 E0.17882
G1 X137.04 Y119.021 F9000
G1 F2400
G1 X133.705 Y115.687 E0.17882
G1 X133.059 Y115.687 F9000
G1 F2400
G1 X136.393 Y119.021 E0.17882
G1 X135.747 Y119.021 F9000
G1 F2400
G1 X132.412 Y115.687 E0.17882
G1 X131.766 Y115.687 F9000
G1 F2400
G1 X135.1 Y119.021 E0.17882
G1 X134.454 Y119.021 F9000
G1 F2400
G1 X131.119 Y115.687 E0.17882
G1 X130.473 Y115.687 F9000
G1 F2400
G1 X133.808 Y119.021 E0.17882
G1 X133.161 Y119.021 F9000
G1 F2400
G1 X129.827 Y115.687 E0.17882
G1 X129.18 Y115.687 F9000
G1 F2400
G1 X132.515 Y119.021 E0.17882
G1 X131.868 Y119.021 F9000
G1 F2400
G1 X128.534 Y115.687 E0.17882
G1 X127.887 Y115.687 F9000
G1 F2400
G1 X131.222 Y119.021 E0.17882
G1 X130.576 Y119.021 F9000
G1 F2400
G1 X127.241 Y115.687 E0.17882
G1 X126.595 Y115.687 F9000
G1 F2400
G1 X129.929 Y119.021 E0.17882
G1 X129.283 Y119.021 F9000
G1 F2400
G1 X125.948 Y115.687 E0.17882
G1 X125.302 Y115.687 F9000
G1 F2400
G1 X128.636 Y119.021 E0.17882
G1 X127.99 Y119.021 F9000
G1 F2400
G1 X124.655 Y115.687 E0.17882
G1 X124.009 Y115.687 F9000
G1 F2400
G1 X127.344 Y119.021 E0.17882
G1 X126.697 Y119.021 F9000
G1 F2400
G1 X123.363 Y115.687 E0.17882
G1 X122.716 Y115.687 F9000
G1 F2400
G1 X126.051 Y119.021 E0.17882
G1 X125.404 Y119.021 F9000
G1 F2400
G1 X122.07 Y115.687 E0.17882
G1 X121.423 Y115.687 F9000
G1 F2400
G1 X124.758 Y119.021 E0.17882
G1 X124.112 Y119.021 F9000
G1 F2400
G1 X120.777 Y115.687 E0.17882
G1 X120.131 Y115.687 F9000
G1 F2400
G1 X123.465 Y119.021 E0.17882
G1 X122.819 Y119.021 F9000
G1 F2400
G1 X119.484 Y115.687 E0.17882
G1 X118.838 Y115.687 F9000
G1 F2400
G1 X122.172 Y119.021 E0.17882
G1 X121.526 Y119.021 F9000
G1 F2400
G1 X118.191 Y115.687 E0.17882
G1 X117.545 Y115.687 F9000
G1 F2400
G1 X120.88 Y119.021 E0.17882
G1 X120.233 Y119.021 F9000
G1 F2400
G1 X117.344 Y116.133 E0.15492
G1 X117.344 Y116.779 F9000
G1 F2400
G1 X119.587 Y119.021 E0.12026
G1 X118.94 Y119.021 F9000
G1 F2400
G1 X117.344 Y117.425 E0.08559
G1 X117.344 Y118.072 F9000
G1 F2400
G1 X118.294 Y119.021 E0.05093
G1 E-0.8 F3000
G1 X141.309 Y120.059 F9000
G1 E0.8 F1800
G1 F2400
G1 X143.679 Y122.428 E0.12706
G1 X143.679 Y123.075 F9000
G1 F2400
G1 X141.344 Y120.74 E0.1252
G1 X141.344 Y121.387 F9000
G1 F2400
G1 X143.679 Y123.721 E0.1252
G1 X143.679 Y124.368 F9000
G1 F2400
G1 X141.344 Y122.033 E0.1252
G1 X141.344 Y122.679 F9000
G1 F2400
G1 X143.679 Y125.014 E0.1252
G1 X143.679 Y125.661 F9000
G1 F2400
G1 X141.344 Y123.326 E0.12521
G1 X141.344 Y123.972 F9000
G1 F2400
G1 X143.679 Y126.307 E0.12521
G1 X143.679 Y126.953 F9000
G1 F2400
G1 X141.344 Y124.618 E0.12521
G1 X141.344 Y125.265 F9000
G1 F2400
G1 X143.679 Y127.6 E0.12521
G1 X143.679 Y128.246 F9000
G1 F2400
G1 X141.344 Y125.911 E0.12522
G1 X141.344 Y126.557 F9000
G1 F2400
G1 X143.679 Y128.893 E0.12522
G1 X143.679 Y129.539 F9000
G1 F2400
G1 X141.344 Y127.204 E0.12522
G1 X141.344 Y127.85 F9000
G1 F2400
G1 X143.679 Y130.185 E0.12523
G1 X143.679 Y130.832 F9000
G1 F2400
G1 X141.344 Y128.497 E0.12523
G1 X141.343 Y129.143 F9000
G1 F2400
G1 X143.679 Y131.478 E0.12523
G1 X143.679 Y132.125 F9000
G1 F2400
G1 X141.343 Y129.789 E0.12523
G1 X141.343 Y130.436 F9000
G1 F2400
G1 X143.679 Y132.771 E0.12524
G1 X143.679 Y133.417 F9000
G1 F2400
G1 X141.343 Y131.082 E0.12524
G1 X141.343 Y131.728 F9000
G1 F2400
G1 X143.679 Y134.064 E0.12524
G1 X143.679 Y134.71 F9000
G1 F2400
G1 X141.343 Y132.375 E0.12524
G1 X141.343 Y133.021 F9000
G1 F2400
G1 X143.679 Y135.357 E0.12525
G1 X143.679 Y136.003 F9000
G1 F2400
G1 X141.343 Y133.667 E0.12525
G1 X141.343 Y134.314 F9000
G1 F2400
G1 X143.679 Y136.649 E0.12525
G1 X143.679 Y137.296 F9000
G1 F2400
G1 X141.343 Y134.96 E0.12526
G1 X141.343 Y135.606 F9000
G1 F2400
G1 X143.679 Y137.942 E0.12526
G1 X143.679 Y138.589 F9000
G1 F2400
G1 X141.343 Y136.253 E0.12526
G1 X141.343 Y136.899 F9000
G1 F2400
G1 X143.679 Y139.235 E0.12526
G1 X143.679 Y139.881 F9000
G1 F2400
G1 X141.343 Y137.546 E0.12527
G1 X141.343 Y138.192 F9000
G1 F2400
G1 X143.679 Y140.528 E0.12527
G1 X143.679 Y141.174 F9000
G1 F2400
G1 X141.343 Y138.838 E0.12527
G1 X141.343 Y139.485 F9000
G1 F2400
G1 X143.679 Y141.821 E0.12527
G1 X143.679 Y142.467 F9000
G1 F2400
G1 X141.343 Y140.131 E0.12528
G1 X141.343 Y140.777 F9000
G1 F2400
G1 X143.679 Y143.114 E0.12528
G1 X143.679 Y143.76 F9000
G1 F2400
G1 X141.342 Y141.424 E0.12528
G1 X141.342 Y142.07 F9000
G1 F2400
G1 X143.679 Y144.406 E0.12529
G1 X143.679 Y145.053 F9000
G1 F2400
G1 X141.342 Y142.716 E0.12529
G1 X141.342 Y143.363 F9000
G1 F2400
G1 X143.679 Y145.699 E0.12529
G1 X143.679 Y146.346 F9000
G1 F2400
G1 X141.342 Y144.009 E0.12529
G1 X141.342 Y144.655 F9000
G1 F2400
G1 X143.679 Y146.992 E0.1253
G1 X143.679 Y147.638 F9000
G1 F2400
G1 X141.342 Y145.302 E0.1253
G1 X141.342 Y145.948 F9000
G1 F2400
G1 X143.679 Y148.285 E0.1253
G1 X143.679 Y148.931 F9000
G1 F2400
G1 X141.342 Y146.595 E0.1253
G1 X141.342 Y147.241 F9000
G1 F2400
G1 X143.679 Y149.578 E0.12531
G1 X143.679 Y150.224 F9000
G1 F2400
G1 X141.342 Y147.887 E0.12531
G1 X141.342 Y148.534 F9000
G1 F2400
G1 X143.679 Y150.87 E0.12531
G1 E-0.8 F3000
G1 X150.166 Y152.187 F9000
G1 E0.8 F1800
G1 F2400
G1 X150.679 Y152.699 E0.02747
G1 X150.679 Y153.346 F9000
G1 F2400
G1 X149.52 Y152.187 E0.06214
G1 X148.874 Y152.187 F9000
G1 F2400
G1 X150.679 Y153.992 E0.0968
G1 X150.679 Y154.638 F9000
G1 F2400
G1 X148.227 Y152.187 E0.13146
G1 X147.581 Y152.187 F9000
G1 F2400
G1 X150.679 Y155.285 E0.16613
G1 X150.269 Y155.522 F9000
G1 F2400
G1 X146.934 Y152.187 E0.17883
G1 X146.288 Y152.187 F9000
G1 F2400
G1 X149.623 Y155.522 E0.17886
G1 X148.978 Y155.523 F9000
G1 F2400
G1 X145.642 Y152.187 E0.17889
G1 X144.995 Y152.187 F9000
G1 F2400
G1 X148.332 Y155.523 E0.17892
G1 X147.686 Y155.524 F9000
G1 F2400
G1 X141.342 Y149.18 E0.3402
G1 X141.342 Y149.826 F9000
G1 F2400
G1 X147.04 Y155.525 E0.30557
G1 X146.394 Y155.525 F9000
M73 P5 R23
G1 F2400
G1 X141.342 Y150.473 E0.27094
G1 X141.342 Y151.119 F9000
G1 F2400
G1 X145.749 Y155.526 E0.23631
G1 X145.103 Y155.526 F9000
G1 F2400
G1 X141.342 Y151.765 E0.20168
G1 X141.342 Y152.412 F9000
G1 F2400
G1 X144.517 Y155.587 E0.1703
G1 X144.1 Y155.817 F9000
G1 F2400
G1 X141.342 Y153.058 E0.14794
G1 X141.342 Y153.704 F9000
G1 F2400
G1 X143.824 Y156.187 E0.13312
G1 X143.686 Y156.696 F9000
G1 F2400
G1 X141.341 Y154.351 E0.12574
G1 X141.341 Y154.997 F9000
G1 F2400
G1 X143.679 Y157.334 E0.12534
G1 X143.679 Y157.981 F9000
G1 F2400
G1 X141.341 Y155.643 E0.12534
G1 X141.341 Y156.29 F9000
G1 F2400
G1 X143.679 Y158.627 E0.12535
G1 X143.679 Y159.274 F9000
G1 F2400
G1 X141.341 Y156.936 E0.12535
G1 X141.341 Y157.583 F9000
G1 F2400
G1 X143.679 Y159.92 E0.12535
G1 X143.679 Y160.567 F9000
G1 F2400
G1 X141.341 Y158.229 E0.12535
G1 X141.341 Y158.875 F9000
G1 F2400
G1 X143.679 Y161.213 E0.12536
G1 X143.679 Y161.859 F9000
G1 F2400
G1 X141.341 Y159.522 E0.12536
G1 X141.341 Y160.168 F9000
G1 F2400
G1 X143.679 Y162.506 E0.12536
G1 X143.679 Y163.152 F9000
G1 F2400
G1 X141.341 Y160.814 E0.12536
G1 X141.341 Y161.461 F9000
G1 F2400
G1 X143.679 Y163.799 E0.12537
G1 X143.679 Y164.445 F9000
G1 F2400
