; generated by SuperSlicer 2.3.56 on 2021-10-09 at 18:54:31 UTC


;
;

;
;
; 

; external perimeters extrusion width = 0.40mm
; perimeters extrusion width = 0.40mm
; infill extrusion width = 0.40mm
; solid infill extrusion width = 0.40mm
; top infill extrusion width = 0.40mm
; first layer extrusion width = 0.48mm


;TYPE:Custom
START_PRINT T_BED=70 T_EXTRUDER=235
M107
G21 ; set units to millimeters
G90 ; use absolute coordinates
M83 ; use relative distances for extrusion
M104 S235 ; set temperature
M109 S235 ; set temperature and wait for it to be reached
M190 S70 ; set bed temperature and wait for it to be reached
M107
;LAYER_CHANGE
;Z:0.24
;HEIGHT:0.24
G1 Z0.240000 F6000.000
G1 E-1.50000 F3000.000
G1 X111.087 Y73.905 F6000.000
G1 E1.50000 F1800.000
;TYPE:Skirt
;WIDTH:0.48
G1 F1200.000
G1 X115.527 Y67.230 E0.34278
G1 X116.155 Y66.467 E0.04222
G1 X116.926 Y65.761 E0.04469
G1 X117.818 Y65.166 E0.04585
G1 X118.565 Y64.798 E0.03560
G1 X119.852 Y64.413 E0.05744
G1 X123.118 Y63.791 E0.14216
G1 X124.271 Y63.702 E0.04941
G1 X151.887 Y63.932 E1.18080
G1 X152.866 Y64.051 E0.04216
G1 X156.463 Y64.842 E0.15746
G1 X157.607 Y65.282 E0.05241
G1 X158.690 Y65.952 E0.05447
G1 X159.656 Y66.833 E0.05587
G1 X223.914 Y136.285 E4.04546
G1 X224.414 Y136.921 E0.03460
G1 X224.821 Y137.627 E0.03485
G1 X225.121 Y138.385 E0.03485
G1 X225.310 Y139.178 E0.03485
G1 X225.383 Y140.060 E0.03785
G1 X225.369 Y153.481 E0.57383
G1 X225.238 Y154.351 E0.03760
G1 X224.974 Y155.190 E0.03760
G1 X224.580 Y155.983 E0.03785
G1 X224.071 Y156.700 E0.03760
G1 X157.824 Y225.675 E4.08898
G1 X156.762 Y226.552 E0.05889
G1 X155.407 Y227.258 E0.06530
G1 X154.394 Y227.561 E0.04520
G1 X151.007 Y228.208 E0.14743
G1 X149.791 Y228.297 E0.05216
G1 X121.977 Y227.867 E1.18931
G1 X121.016 Y227.746 E0.04144
G1 X117.313 Y226.920 E0.16221
G1 X116.079 Y226.406 E0.05714
G1 X114.863 Y225.565 E0.06321
G1 X114.158 Y224.869 E0.04235
G1 X113.552 Y224.081 E0.04252
G1 X66.221 Y155.012 E3.57994
G1 X65.643 Y153.925 E0.05259
G1 X65.315 Y152.740 E0.05259
G1 X65.243 Y151.875 E0.03710
G1 X65.258 Y144.092 E0.33279
G1 X65.546 Y142.693 E0.06106
G1 X66.179 Y141.406 E0.06131
G1 X111.053 Y73.955 E3.46385
G1 X111.409 Y74.191 F6000.000
G1 F1200.000
G1 X115.864 Y67.495 E0.34387
G1 X116.460 Y66.769 E0.04019
G1 X117.191 Y66.097 E0.04243
G1 X118.042 Y65.532 E0.04367
G1 X118.740 Y65.190 E0.03325
G1 X119.936 Y64.833 E0.05333
G1 X123.181 Y64.215 E0.14127
G1 X124.273 Y64.131 E0.04682
G1 X151.849 Y64.359 E1.17904
G1 X152.782 Y64.471 E0.04020
G1 X156.324 Y65.247 E0.15502
G1 X157.410 Y65.662 E0.04971
G1 X158.433 Y66.295 E0.05145
G1 X159.342 Y67.125 E0.05262
G1 X223.594 Y136.571 E4.04508
G1 X224.061 Y137.164 E0.03229
G1 X224.435 Y137.814 E0.03205
G1 X224.712 Y138.511 E0.03205
G1 X224.887 Y139.245 E0.03229
G1 X224.954 Y140.060 E0.03494
G1 X224.943 Y153.426 E0.57150
G1 X224.825 Y154.235 E0.03494
G1 X224.581 Y155.021 E0.03518
G1 X224.215 Y155.758 E0.03518
G1 X223.742 Y156.424 E0.03494
G1 X157.527 Y225.365 E4.08696
G1 X156.527 Y226.194 E0.05555
G1 X155.243 Y226.862 E0.06189
G1 X154.301 Y227.143 E0.04203
G1 X150.944 Y227.784 E0.14610
G1 X149.790 Y227.869 E0.04947
G1 X122.013 Y227.440 E1.18776
G1 X121.100 Y227.326 E0.03933
G1 X117.462 Y226.518 E0.15935
G1 X116.300 Y226.038 E0.05377
G1 X115.143 Y225.240 E0.06009
G1 X114.479 Y224.585 E0.03986
G1 X113.903 Y223.836 E0.04040
G1 X66.574 Y154.770 E3.57977
G1 X66.041 Y153.765 E0.04863
G1 X65.739 Y152.675 E0.04839
G1 X65.671 Y151.872 E0.03446
G1 X65.684 Y144.142 E0.33047
G1 X65.948 Y142.841 E0.05677
G1 X66.535 Y141.644 E0.05701
G1 X111.376 Y74.241 E3.46130
G1 E-1.50000 F3000.000
G1 X111.070 Y139.933 F6000.000
G1 E1.50000 F1800.000
;TYPE:Internal perimeter
G1 F1200.000
G1 X111.070 Y150.739 E0.46202
G1 X71.982 Y150.739 E1.67122
G1 X71.982 Y149.605 E0.04851
G1 X71.982 Y145.617 E0.17052
G1 X93.652 Y145.616 E0.92652
G1 X94.497 Y145.560 E0.03620
G1 X95.362 Y145.385 E0.03776
G1 X96.197 Y145.097 E0.03776
G1 X96.986 Y144.701 E0.03776
G1 X97.716 Y144.204 E0.03776
G1 X98.374 Y143.615 E0.03776
G1 X98.948 Y142.944 E0.03776
G1 X99.428 Y142.202 E0.03776
G1 X99.805 Y141.404 E0.03776
G1 X100.073 Y140.562 E0.03776
G1 X100.185 Y139.933 E0.02732
G1 X102.191 Y139.933 E0.08575
G1 X101.092 Y141.837 E0.09397
G1 X103.388 Y145.814 E0.19636
G1 X107.981 Y145.814 E0.19636
G1 X110.277 Y141.837 E0.19636
G1 X109.178 Y139.933 E0.09397
G1 X111.010 Y139.933 E0.07831
G1 X111.498 Y139.505 F6000.000
G1 F1200.000
G1 X111.499 Y151.168 E0.49866
G1 X71.554 Y151.168 E1.70786
G1 X71.554 Y149.605 E0.06682
G1 X71.553 Y145.188 E0.18885
G1 X93.638 Y145.188 E0.94423
G1 X94.440 Y145.134 E0.03437
G1 X95.249 Y144.971 E0.03532
G1 X96.030 Y144.701 E0.03532
G1 X96.769 Y144.331 E0.03532
G1 X97.452 Y143.866 E0.03532
G1 X98.067 Y143.315 E0.03532
G1 X98.604 Y142.687 E0.03532
G1 X99.052 Y141.993 E0.03532
G1 X99.406 Y141.246 E0.03532
G1 X99.657 Y140.459 E0.03532
G1 X99.826 Y139.505 E0.04145
G1 X102.933 Y139.505 E0.13283
G1 X101.587 Y141.837 E0.11512
G1 X103.636 Y145.386 E0.17521
G1 X107.734 Y145.386 E0.17521
G1 X109.783 Y141.837 E0.17521
G1 X108.436 Y139.505 E0.11512
G1 X111.438 Y139.505 E0.12836
G1 X111.927 Y139.076 F6000.000
;TYPE:External perimeter
G1 F1200.000
G1 X111.927 Y151.596 E0.53530
G1 X71.125 Y151.596 E1.74450
G1 X71.125 Y149.605 E0.08513
G1 X71.125 Y144.760 E0.20718
G1 X93.623 Y144.759 E0.96194
G1 X94.383 Y144.709 E0.03254
G1 X95.137 Y144.556 E0.03288
G1 X95.864 Y144.306 E0.03288
G1 X96.551 Y143.961 E0.03288
G1 X97.187 Y143.528 E0.03288
G1 X97.760 Y143.015 E0.03288
G1 X98.259 Y142.430 E0.03288
G1 X98.677 Y141.784 E0.03288
G1 X99.006 Y141.089 E0.03288
G1 X99.240 Y140.356 E0.03288
G1 X99.374 Y139.599 E0.03288
G1 X99.397 Y139.076 E0.02237
G1 X103.675 Y139.076 E0.18292
G1 X102.082 Y141.837 E0.13628
G1 X103.883 Y144.957 E0.15405
G1 X107.486 Y144.957 E0.15405
G1 X109.288 Y141.837 E0.15405
G1 X107.694 Y139.076 E0.13628
G1 X111.867 Y139.076 E0.17841
G1 X111.727 Y139.423 F6000.000
G1 E-1.50000 F3000.000
G1 X110.164 Y142.333 F6000.000
G1 E1.50000 F1800.000
;TYPE:Solid infill
;WIDTH:0.488053
G1 X110.727 Y142.896 E0.03462
G1 X110.727 Y143.502 E0.02634
G1 X110.083 Y142.858 E0.03958
G1 X109.862 Y143.242 E0.01928
G1 X110.727 Y144.108 E0.05322
G1 X110.727 Y144.714 E0.02634
G1 X109.640 Y143.627 E0.06685
G1 X109.418 Y144.011 E0.01929
G1 X110.727 Y145.320 E0.08049
G1 X110.727 Y145.926 E0.02634
G1 X109.196 Y144.395 E0.09413
G1 X108.974 Y144.779 E0.01928
G1 X110.727 Y146.532 E0.10776
G1 X110.727 Y147.138 E0.02634
G1 X108.753 Y145.163 E0.12140
G1 X108.531 Y145.547 E0.01929
G1 X110.727 Y147.744 E0.13504
G1 X110.727 Y148.350 E0.02634
G1 X108.309 Y145.932 E0.14867
G1 X108.179 Y146.157 E0.01131
G1 X107.928 Y146.157 E0.01090
G1 X110.727 Y148.956 E0.17208
G1 X110.727 Y149.562 E0.02634
G1 X107.322 Y146.157 E0.20934
G1 X106.716 Y146.157 E0.02634
G1 X110.727 Y150.168 E0.24659
G1 X110.727 Y150.397 E0.00995
G1 X110.350 Y150.397 E0.01640
G1 X106.110 Y146.157 E0.26066
G1 X105.504 Y146.157 E0.02634
G1 X109.744 Y150.397 E0.26066
G1 X109.138 Y150.397 E0.02634
G1 X104.898 Y146.157 E0.26066
G1 X104.292 Y146.157 E0.02634
G1 X108.532 Y150.397 E0.26066
G1 X107.926 Y150.397 E0.02634
G1 X103.494 Y145.964 E0.27251
G1 E-1.50000 F3000.000
G1 X101.681 Y140.516 F6000.000
G1 E1.50000 F1800.000
G1 X101.442 Y140.276 E0.01474
G1 X100.836 Y140.276 E0.02634
G1 X101.318 Y140.759 E0.02968
G1 X101.097 Y141.143 E0.01928
G1 X100.436 Y140.482 E0.04062
G1 X100.407 Y140.645 E0.00717
G1 X100.307 Y140.959 E0.01434
G1 X100.875 Y141.527 E0.03492
G1 X100.696 Y141.837 E0.01553
G1 X100.857 Y142.116 E0.01401
G1 X100.160 Y141.419 E0.04286
G1 X100.125 Y141.530 E0.00507
G1 X99.977 Y141.842 E0.01500
G1 X102.212 Y144.076 E0.13739
G1 E-1.50000 F3000.000
G1 X103.040 Y145.510 F6000.000
G1 E1.50000 F1800.000
G1 X99.783 Y142.253 E0.20024
G1 X99.728 Y142.369 E0.00558
G1 X99.557 Y142.633 E0.01367
G1 X107.320 Y150.397 E0.47728
G1 X106.714 Y150.397 E0.02634
G1 X99.319 Y143.001 E0.45466
G1 X99.223 Y143.149 E0.00765
G1 X99.056 Y143.344 E0.01118
G1 X106.108 Y150.397 E0.43356
G1 X105.502 Y150.397 E0.02634
G1 X98.777 Y143.671 E0.41348
G1 X98.620 Y143.855 E0.01051
G1 X98.480 Y143.980 E0.00817
G1 X104.896 Y150.397 E0.39448
G1 X104.290 Y150.397 E0.02634
G1 X98.160 Y144.267 E0.37687
G1 X97.928 Y144.475 E0.01355
G1 X97.829 Y144.542 E0.00519
G1 X103.684 Y150.397 E0.35995
G1 X103.078 Y150.397 E0.02634
G1 X97.469 Y144.787 E0.34486
G1 X97.160 Y144.997 E0.01622
G1 X97.102 Y145.027 E0.00283
G1 X102.472 Y150.397 E0.33015
G1 X101.866 Y150.397 E0.02634
G1 X96.699 Y145.229 E0.31771
G1 X96.330 Y145.414 E0.01791
G1 X96.291 Y145.427 E0.00181
G1 X101.260 Y150.397 E0.30551
G1 X100.654 Y150.397 E0.02634
G1 X95.840 Y145.583 E0.29596
G1 X95.452 Y145.717 E0.01785
G1 X95.382 Y145.731 E0.00310
G1 X100.048 Y150.397 E0.28686
G1 X99.442 Y150.397 E0.02634
G1 X94.878 Y145.833 E0.28060
G1 X94.542 Y145.900 E0.01491
G1 X94.353 Y145.913 E0.00825
G1 X98.836 Y150.397 E0.27565
G1 X98.230 Y150.397 E0.02634
G1 X93.785 Y145.951 E0.27333
G1 X93.663 Y145.959 E0.00529
G1 X93.187 Y145.959 E0.02072
G1 X97.624 Y150.397 E0.27283
G1 X97.018 Y150.397 E0.02634
G1 X92.581 Y145.959 E0.27283
G1 X91.975 Y145.959 E0.02634
G1 X96.412 Y150.397 E0.27283
G1 X95.806 Y150.397 E0.02634
G1 X91.369 Y145.959 E0.27283
G1 X90.763 Y145.959 E0.02634
G1 X95.200 Y150.397 E0.27283
G1 X94.594 Y150.397 E0.02634
G1 X90.157 Y145.959 E0.27282
G1 X89.551 Y145.959 E0.02634
G1 X93.988 Y150.397 E0.27282
G1 X93.383 Y150.397 E0.02634
G1 X88.945 Y145.959 E0.27282
G1 X88.339 Y145.959 E0.02634
G1 X92.777 Y150.397 E0.27282
G1 X92.171 Y150.397 E0.02634
G1 X87.733 Y145.959 E0.27282
G1 X87.127 Y145.959 E0.02634
G1 X91.565 Y150.397 E0.27282
G1 X90.959 Y150.397 E0.02634
G1 X86.521 Y145.959 E0.27282
G1 X85.915 Y145.959 E0.02634
G1 X90.353 Y150.397 E0.27282
G1 X89.747 Y150.397 E0.02634
G1 X85.309 Y145.959 E0.27282
G1 X84.703 Y145.959 E0.02634
G1 X89.141 Y150.397 E0.27282
G1 X88.535 Y150.397 E0.02634
G1 X84.097 Y145.959 E0.27282
G1 X83.491 Y145.959 E0.02634
G1 X87.929 Y150.397 E0.27282
G1 X87.323 Y150.397 E0.02634
G1 X82.885 Y145.959 E0.27282
G1 X82.279 Y145.959 E0.02634
G1 X86.717 Y150.397 E0.27282
G1 X86.111 Y150.397 E0.02634
G1 X81.673 Y145.959 E0.27281
G1 X81.067 Y145.959 E0.02634
G1 X85.505 Y150.397 E0.27281
G1 X84.899 Y150.397 E0.02634
G1 X80.461 Y145.959 E0.27281
G1 X79.855 Y145.959 E0.02634
G1 X84.293 Y150.397 E0.27281
G1 X83.687 Y150.397 E0.02634
G1 X79.249 Y145.959 E0.27281
G1 X78.643 Y145.959 E0.02634
G1 X83.081 Y150.397 E0.27281
G1 X82.475 Y150.397 E0.02634
G1 X78.037 Y145.959 E0.27281
G1 X77.431 Y145.959 E0.02634
G1 X81.869 Y150.397 E0.27281
G1 X81.263 Y150.397 E0.02634
G1 X76.825 Y145.959 E0.27281
G1 X76.219 Y145.959 E0.02634
G1 X80.657 Y150.397 E0.27281
G1 X80.051 Y150.397 E0.02634
G1 X75.614 Y145.959 E0.27281
G1 X75.008 Y145.959 E0.02634
G1 X79.445 Y150.397 E0.27281
G1 X78.839 Y150.397 E0.02634
G1 X74.402 Y145.959 E0.27281
G1 X73.796 Y145.959 E0.02634
G1 X78.233 Y150.397 E0.27280
G1 X77.627 Y150.397 E0.02634
G1 X73.190 Y145.959 E0.27280
G1 X72.584 Y145.959 E0.02634
G1 X77.021 Y150.397 E0.27280
G1 X76.415 Y150.397 E0.02634
G1 X72.325 Y146.306 E0.25148
G1 X72.325 Y146.912 E0.02635
G1 X75.809 Y150.397 E0.21422
G1 X75.203 Y150.397 E0.02634
G1 X72.325 Y147.518 E0.17696
G1 X72.325 Y148.124 E0.02635
G1 X74.597 Y150.397 E0.13970
G1 X73.991 Y150.397 E0.02634
G1 X72.325 Y148.730 E0.10244
G1 X72.325 Y149.336 E0.02635
G1 X73.385 Y150.397 E0.06518
G1 X72.779 Y150.397 E0.02634
G1 X72.132 Y149.750 E0.03978
G1 E-1.50000 F3000.000
G1 X110.054 Y140.083 F6000.000
G1 E1.50000 F1800.000
G1 X110.727 Y140.757 E0.04140
G1 X110.727 Y141.308 E0.02396
G1 X110.684 Y141.319 E0.00195
G1 X109.448 Y140.083 E0.07599
G1 E-1.50000 F3000.000
G1 X110.575 Y141.516 F6000.000
G1 E1.50000 F1800.000
;TYPE:Gap fill
;WIDTH:0.436527
G1 F1200.000
G1 X110.619 Y141.621 E0.00434
G1 X110.625 Y141.636 E0.00063
;WIDTH:0.406251
G1 X110.631 Y141.651 E0.00058
G1 X110.673 Y141.726 E0.00303
G1 X110.678 Y141.748 E0.00079
G1 X110.678 Y141.837 E0.00314
G1 X110.678 Y141.925 E0.00314
G1 X110.664 Y141.980 E0.00202
;WIDTH:0.445543
G1 X110.649 Y142.035 E0.00224
;WIDTH:0.484835
G1 X110.634 Y142.090 E0.00246
;WIDTH:0.524127
G1 X110.619 Y142.145 E0.00268
G1 X110.605 Y142.215 E0.00335
;WIDTH:0.557894
G1 X110.592 Y142.284 E0.00359
;WIDTH:0.591661
G1 X110.578 Y142.354 E0.00383
;WIDTH:0.625428
G1 X110.564 Y142.424 E0.00406
G1 E-1.50000 F3000.000
G1 X147.739 Y207.841 F6000.000
G1 E1.50000 F1800.000
;TYPE:Internal perimeter
;WIDTH:0.48
G1 F1200.000
G1 X147.690 Y207.869 E0.00241
G1 X147.096 Y208.455 E0.03569
G1 X146.673 Y209.175 E0.03569
G1 X146.452 Y209.980 E0.03569
G1 X146.446 Y210.815 E0.03569
G1 X146.657 Y211.623 E0.03569
G1 X147.069 Y212.348 E0.03569
G1 X147.655 Y212.943 E0.03569
G1 X148.375 Y213.365 E0.03569
G1 X149.180 Y213.586 E0.03569
G1 X150.015 Y213.592 E0.03569
G1 X150.823 Y213.382 E0.03569
G1 X151.549 Y212.969 E0.03569
G1 X152.143 Y212.383 E0.03569
G1 X152.565 Y211.663 E0.03569
G1 X152.787 Y210.858 E0.03569
G1 X152.792 Y210.023 E0.03569
G1 X152.582 Y209.216 E0.03569
G1 X152.169 Y208.490 E0.03569
G1 X151.583 Y207.895 E0.03569
G1 X150.863 Y207.473 E0.03569
G1 X150.058 Y207.252 E0.03569
G1 X149.224 Y207.246 E0.03569
G1 X148.416 Y207.456 E0.03569
G1 X147.791 Y207.811 E0.03072
G1 X148.003 Y208.184 F6000.000
;TYPE:External perimeter
G1 F1200.000
G1 X147.951 Y208.214 E0.00256
G1 X147.437 Y208.721 E0.03087
G1 X147.072 Y209.343 E0.03087
G1 X146.880 Y210.039 E0.03087
G1 X146.875 Y210.761 E0.03087
G1 X147.057 Y211.460 E0.03087
G1 X147.414 Y212.088 E0.03087
G1 X147.921 Y212.602 E0.03087
G1 X148.543 Y212.967 E0.03087
G1 X149.240 Y213.158 E0.03087
G1 X149.961 Y213.163 E0.03087
G1 X150.660 Y212.981 E0.03087
G1 X151.288 Y212.625 E0.03087
G1 X151.802 Y212.118 E0.03087
G1 X152.167 Y211.495 E0.03087
G1 X152.359 Y210.799 E0.03087
G1 X152.364 Y210.077 E0.03087
G1 X152.181 Y209.378 E0.03087
G1 X151.825 Y208.751 E0.03087
G1 X151.318 Y208.237 E0.03087
G1 X150.695 Y207.871 E0.03087
G1 X149.999 Y207.680 E0.03087
G1 X149.277 Y207.675 E0.03087
G1 X148.578 Y207.857 E0.03087
G1 X148.055 Y208.154 E0.02574
G1 X147.951 Y208.154 F6000.000
G1 E-1.50000 F3000.000
G1 X146.289 Y211.843 F6000.000
G1 E1.50000 F1800.000
;TYPE:Internal perimeter
G1 F1200.000
G1 X146.724 Y212.609 E0.03766
G1 X147.390 Y213.284 E0.04051
G1 X148.207 Y213.763 E0.04052
G1 X149.121 Y214.015 E0.04051
G1 X150.068 Y214.021 E0.04051
G1 X150.985 Y213.782 E0.04051
G1 X151.809 Y213.314 E0.04052
G1 X152.484 Y212.648 E0.04051
G1 X152.963 Y211.831 E0.04051
G1 X153.003 Y211.688 E0.00632
G1 X153.325 Y211.701 E0.01382
G1 X153.389 Y212.033 E0.01445
G1 X153.520 Y212.769 E0.03196
G1 X153.630 Y213.497 E0.03146
G1 X153.721 Y214.218 E0.03108
G1 X153.791 Y214.928 E0.03050
G1 X153.840 Y215.621 E0.02972
G1 X153.868 Y216.294 E0.02877
G1 X153.874 Y216.940 E0.02763
G1 X153.860 Y217.555 E0.02631
G1 X153.825 Y218.134 E0.02482
G1 X153.771 Y218.673 E0.02316
G1 X153.698 Y219.167 E0.02132
G1 X153.608 Y219.609 E0.01931
G1 X153.505 Y219.996 E0.01713
G1 X153.392 Y220.323 E0.01476
G1 X153.275 Y220.583 E0.01220
G1 X153.164 Y220.774 E0.00943
G1 X153.070 Y220.893 E0.00651
G1 X152.998 Y220.959 E0.00416
G1 X152.934 Y220.980 E0.00289
G1 X149.963 Y221.548 E0.12930
G1 X149.896 Y221.552 E0.00290
G1 X149.805 Y221.518 E0.00417
G1 X149.673 Y221.441 E0.00651
G1 X149.499 Y221.305 E0.00943
G1 X149.295 Y221.106 E0.01220
G1 X149.069 Y220.844 E0.01476
G1 X148.831 Y220.523 E0.01713
G1 X148.584 Y220.144 E0.01931
G1 X148.334 Y219.712 E0.02132
G1 X148.085 Y219.232 E0.02315
G1 X147.839 Y218.706 E0.02482
G1 X147.599 Y218.139 E0.02631
G1 X147.366 Y217.536 E0.02763
G1 X147.144 Y216.901 E0.02877
G1 X146.934 Y216.239 E0.02973
G1 X146.737 Y215.553 E0.03050
G1 X146.555 Y214.849 E0.03108
G1 X146.390 Y214.132 E0.03146
G1 X146.240 Y213.400 E0.03196
G1 X145.965 Y211.962 E0.06258
G1 X146.233 Y211.864 E0.01220
G1 E-1.50000 F3000.000
G1 X126.570 Y210.161 F6000.000
G1 E1.50000 F1800.000
G1 F1200.000
G1 X126.474 Y209.332 E0.03569
G1 X126.166 Y208.556 E0.03569
G1 X125.668 Y207.886 E0.03569
G1 X125.013 Y207.368 E0.03569
G1 X124.247 Y207.037 E0.03569
G1 X123.421 Y206.915 E0.03569
G1 X122.592 Y207.012 E0.03569
G1 X121.816 Y207.320 E0.03569
G1 X121.146 Y207.818 E0.03569
