; generated by SuperSlicer 2.5.59 on 2022-11-23 at 04:14:25 UTC


;
;

;
;
; 

; external perimeters extrusion width = 0.40mm
; perimeters extrusion width = 0.46mm
; infill extrusion width = 0.64mm
; solid infill extrusion width = 0.56mm
; top infill extrusion width = 0.40mm
; support material extrusion width = 0.46mm
; first layer extrusion width = 0.50mm

; object:{"name":"Body1","id":"Body1.stl id:0 copy 0","object_center":[152.500001,150.000000,0.000000],"boundingbox_center":[152.500001,150.000000,30.000000],"boundingbox_size":[57.500000,56.500000,60.000000]}
; plater:{"center":[152.500001,150.000000,0.000000],"boundingbox_center":[152.500001,150.000000,30.000000],"boundingbox_size":[57.500000,56.500000,60.000000]}

M73 P0 R144


; Pre-Processed for Cancel-Object support by preprocess_cancellation v0.2.0
; 1 known objects
EXCLUDE_OBJECT_DEFINE NAME=Body1_stl_id_0_copy_0 CENTER=149.808,147.627 POLYGON=[[123.95,116.72],[123.95,178.05],[181.05,178.05],[181.05,116.72]]
;TYPE:Custom
START_PRINT T_BED=60 T_EXTRUDER=200
M107
G21 ; set units to millimeters
G90 ; use absolute coordinates
M83 ; use relative distances for extrusion
; Filament gcode
;_TOOLCHANGE 0
M104 S200 ; set temperature
M109 S200 ; set temperature and wait for it to be reached
M190 S60 ; set bed temperature and wait for it to be reached
M107
;LAYER_CHANGE
;Z:0.2
;HEIGHT:0.2
G1 Z0.2 F9000
G92 E0
M73 P0 R144
G1 E-0.8 F3000
M204 S1000
G1 X122.981 Y114.571 F9000
G1 E0.8 F1800
;TYPE:Skirt
;WIDTH:0.52
G1 X122.339 Y116.158 E0.06657
G1 X120.134 Y130.85 E0.57754
G1 X120.134 Y178.15 E1.83883
G1 X120.871 Y180.371 E0.09097
G1 X122.184 Y181.471 E0.06657
G1 X123.85 Y181.866 E0.06657
G1 X181.15 Y181.866 E2.22759
G1 X183.371 Y181.129 E0.09097
G1 X184.471 Y179.816 E0.06657
G1 X184.866 Y178.15 E0.06657
G1 X184.866 Y130.85 E1.83883
G1 X182.661 Y116.158 E0.57754
G1 X181.967 Y114.499 E0.06992
G1 X180.655 Y113.399 E0.06657
G1 X178.988 Y113.005 E0.06657
G1 X126.011 Y113.005 E2.05953
G1 X124.267 Y113.44 E0.06992
G1 X122.981 Y114.571 E0.06657
G1 X123.433 Y114.762 F9000
G1 F1800
G1 X122.81 Y116.231 E0.06199
G1 X120.611 Y130.85 E0.57474
G1 X120.611 Y178.15 E1.83883
G1 X121.131 Y179.909 E0.0713
G1 X122.302 Y180.995 E0.06209
G1 X123.85 Y181.389 E0.06209
G1 X181.15 Y181.389 E2.22759
G1 X182.909 Y180.869 E0.0713
G1 X183.995 Y179.698 E0.06209
G1 X184.389 Y178.15 E0.06209
G1 X184.389 Y130.85 E1.83883
G1 X182.19 Y116.231 E0.57474
G1 X181.708 Y114.961 E0.05278
G1 X180.536 Y113.876 E0.06209
G1 X178.988 Y113.482 E0.06209
G1 X126.011 Y113.482 E2.05953
G1 X124.684 Y113.766 E0.05279
G1 X123.433 Y114.762 E0.06218
G1 E-0.8 F3000
; printing object Body1.stl id:0 copy 0
EXCLUDE_OBJECT_START NAME=Body1_stl_id_0_copy_0
G1 X126.011 Y116.72 F9000
G1 E0.8 F1800
;TYPE:Support material
;WIDTH:0.5
G1 X138.241 Y116.72 E0.45551
G1 X138.241 Y130.071 E0.49728
G1 X126.011 Y130.071 E0.45551
G1 X126.011 Y116.72 E0.49728
G1 X137.772 Y129.957 F9000
G1 F1800
G1 X137.772 Y117.031 E0.48145
G1 X137.264 Y117.031 E0.01892
G1 X137.264 Y129.761 E0.47413
G1 X136.756 Y129.761 E0.01892
G1 X136.756 Y117.031 E0.47413
G1 X136.248 Y117.031 E0.01892
G1 X136.248 Y129.761 E0.47413
G1 X135.74 Y129.761 E0.01892
G1 X135.74 Y117.031 E0.47413
G1 X135.233 Y117.031 E0.01892
G1 X135.233 Y129.761 E0.47413
G1 X134.725 Y129.761 E0.01892
G1 X134.725 Y117.031 E0.47413
G1 X134.217 Y117.031 E0.01892
G1 X134.217 Y129.761 E0.47413
G1 X133.709 Y129.761 E0.01892
G1 X133.709 Y117.031 E0.47413
G1 X133.201 Y117.031 E0.01892
G1 X133.201 Y129.761 E0.47413
G1 X132.693 Y129.761 E0.01892
G1 X132.693 Y117.031 E0.47413
G1 X132.185 Y117.031 E0.01892
G1 X132.185 Y129.761 E0.47413
G1 X131.677 Y129.761 E0.01892
G1 X131.677 Y117.031 E0.47413
G1 X131.17 Y117.031 E0.01892
G1 X131.17 Y129.761 E0.47413
G1 X130.662 Y129.761 E0.01892
G1 X130.662 Y117.031 E0.47413
G1 X130.154 Y117.031 E0.01892
G1 X130.154 Y129.761 E0.47413
G1 X129.646 Y129.761 E0.01892
G1 X129.646 Y117.031 E0.47413
G1 X129.138 Y117.031 E0.01892
G1 X129.138 Y129.761 E0.47413
G1 X128.63 Y129.761 E0.01892
G1 X128.63 Y117.031 E0.47413
G1 X128.122 Y117.031 E0.01892
G1 X128.122 Y129.761 E0.47413
G1 X127.615 Y129.761 E0.01892
G1 X127.615 Y117.031 E0.47413
G1 X127.107 Y117.031 E0.01892
G1 X127.107 Y129.761 E0.47413
G1 X126.599 Y129.761 E0.01892
G1 X126.599 Y116.835 E0.48145
G1 E-0.8 F3000
G1 X166.759 Y116.835 F9000
G1 E0.8 F1800
G1 X166.759 Y116.72 E0.00426
G1 X178.988 Y116.72 E0.45551
G1 X178.988 Y130.071 E0.49728
G1 X166.759 Y130.071 E0.45551
G1 X166.759 Y116.835 E0.49303
G1 X178.401 Y129.957 F9000
G1 F1800
G1 X178.401 Y117.031 E0.48145
G1 X177.893 Y117.031 E0.01892
G1 X177.893 Y129.761 E0.47413
G1 X177.385 Y129.761 E0.01892
G1 X177.385 Y117.031 E0.47413
G1 X176.878 Y117.031 E0.01892
G1 X176.878 Y129.761 E0.47413
G1 X176.37 Y129.761 E0.01892
G1 X176.37 Y117.031 E0.47413
G1 X175.862 Y117.031 E0.01892
G1 X175.862 Y129.761 E0.47413
G1 X175.354 Y129.761 E0.01892
G1 X175.354 Y117.031 E0.47413
G1 X174.846 Y117.031 E0.01892
G1 X174.846 Y129.761 E0.47413
G1 X174.338 Y129.761 E0.01892
G1 X174.338 Y117.031 E0.47413
G1 X173.83 Y117.031 E0.01892
G1 X173.83 Y129.761 E0.47413
G1 X173.323 Y129.761 E0.01892
G1 X173.323 Y117.031 E0.47413
G1 X172.815 Y117.031 E0.01892
G1 X172.815 Y129.761 E0.47413
G1 X172.307 Y129.761 E0.01892
G1 X172.307 Y117.031 E0.47413
G1 X171.799 Y117.031 E0.01892
M73 P0 R144
G1 X171.799 Y129.761 E0.47413
G1 X171.291 Y129.761 E0.01892
G1 X171.291 Y117.031 E0.47413
G1 X170.783 Y117.031 E0.01892
G1 X170.783 Y129.761 E0.47413
G1 X170.275 Y129.761 E0.01892
G1 X170.275 Y117.031 E0.47413
G1 X169.767 Y117.031 E0.01892
G1 X169.767 Y129.761 E0.47413
G1 X169.26 Y129.761 E0.01892
G1 X169.26 Y117.031 E0.47413
G1 X168.752 Y117.031 E0.01892
G1 X168.752 Y129.761 E0.47413
G1 X168.244 Y129.761 E0.01892
G1 X168.244 Y117.031 E0.47413
G1 X167.736 Y117.031 E0.01892
G1 X167.736 Y129.761 E0.47413
G1 X167.228 Y129.761 E0.01892
G1 X167.228 Y116.835 E0.48145
G1 E-0.8 F3000
G1 X179.986 Y176.986 F9000
G1 E0.8 F1800
;TYPE:Internal perimeter
;WIDTH:0.457079
G1 X125.014 Y176.986 E1.85522
G1 X125.014 Y132.014 E1.51774
G1 X179.986 Y132.014 E1.85522
G1 X179.986 Y176.986 E1.51774
G1 X180.443 Y177.443 F9000
G1 F1800
G1 X124.557 Y177.443 E1.88607
G1 X124.557 Y131.557 E1.54859
G1 X180.443 Y131.557 E1.88607
G1 X180.443 Y177.443 E1.54859
G1 X180.9 Y177.9 F9000
;TYPE:External perimeter
G1 F1800
G1 X124.1 Y177.9 E1.91693
G1 X124.1 Y131.1 E1.57944
G1 X180.9 Y131.1 E1.91693
G1 X180.9 Y177.9 E1.57944
;WIPE_START
M204 S3000
G1 X180.554 Y177.7 F9000
;WIPE_END
G1 E-0.8 F3000
M204 S1000
G1 X178.993 Y132.083 F9000
M73 P1 R143
G1 E0.8 F1800
;TYPE:Solid infill
;WIDTH:0.500958
G1 F2400
G1 X179.917 Y133.007 E0.04876
G1 X179.917 Y133.653 F9000
G1 F2400
G1 X178.347 Y132.083 E0.08288
G1 X177.701 Y132.083 F9000
G1 F2400
G1 X179.917 Y134.299 E0.11699
G1 X179.917 Y134.946 F9000
G1 F2400
G1 X177.054 Y132.083 E0.15111
G1 X176.408 Y132.083 F9000
G1 F2400
G1 X179.917 Y135.592 E0.18522
G1 X179.917 Y136.239 F9000
G1 F2400
G1 X175.761 Y132.083 E0.21933
G1 X175.115 Y132.083 F9000
G1 F2400
G1 X179.917 Y136.885 E0.25345
G1 X179.917 Y137.532 F9000
G1 F2400
G1 X174.468 Y132.083 E0.28756
G1 X173.822 Y132.083 F9000
G1 F2400
G1 X179.917 Y138.178 E0.32168
G1 X179.917 Y138.824 F9000
G1 F2400
G1 X173.176 Y132.083 E0.35579
G1 X172.529 Y132.083 F9000
G1 F2400
G1 X179.917 Y139.471 E0.3899
G1 X179.917 Y140.117 F9000
G1 F2400
G1 X171.883 Y132.083 E0.42402
G1 X171.236 Y132.083 F9000
G1 F2400
G1 X179.917 Y140.764 E0.45813
G1 X179.917 Y141.41 F9000
G1 F2400
G1 X170.59 Y132.083 E0.49225
G1 X169.944 Y132.083 F9000
G1 F2400
G1 X179.917 Y142.056 E0.52636
G1 X179.917 Y142.703 F9000
G1 F2400
G1 X169.297 Y132.083 E0.56047
G1 X168.651 Y132.083 F9000
G1 F2400
G1 X179.917 Y143.349 E0.59459
G1 X179.917 Y143.996 F9000
G1 F2400
G1 X168.004 Y132.083 E0.6287
G1 X167.358 Y132.083 F9000
G1 F2400
G1 X179.917 Y144.642 E0.66282
G1 X179.917 Y145.288 F9000
G1 F2400
G1 X166.712 Y132.083 E0.69693
G1 X166.065 Y132.083 F9000
G1 F2400
G1 X179.917 Y145.935 E0.73105
G1 X179.917 Y146.581 F9000
G1 F2400
G1 X165.419 Y132.083 E0.76516
G1 X164.772 Y132.083 F9000
G1 F2400
G1 X179.917 Y147.228 E0.79927
G1 X179.917 Y147.874 F9000
G1 F2400
G1 X164.126 Y132.083 E0.83339
G1 X163.48 Y132.083 F9000
G1 F2400
G1 X179.917 Y148.52 E0.8675
G1 X179.917 Y149.167 F9000
G1 F2400
G1 X162.833 Y132.083 E0.90162
G1 X162.187 Y132.083 F9000
G1 F2400
G1 X179.917 Y149.813 E0.93573
G1 X179.917 Y150.46 F9000
G1 F2400
G1 X161.54 Y132.083 E0.96984
G1 X160.894 Y132.083 F9000
G1 F2400
G1 X179.917 Y151.106 E1.00396
G1 X179.917 Y151.752 F9000
G1 F2400
G1 X160.248 Y132.083 E1.03807
G1 X159.601 Y132.083 F9000
G1 F2400
G1 X179.917 Y152.399 E1.07219
G1 X179.917 Y153.045 F9000
G1 F2400
G1 X158.955 Y132.083 E1.1063
G1 X158.308 Y132.083 F9000
G1 F2400
G1 X179.917 Y153.692 E1.14041
G1 X179.917 Y154.338 F9000
G1 F2400
G1 X157.662 Y132.083 E1.17453
G1 X157.015 Y132.083 F9000
G1 F2400
G1 X179.917 Y154.985 E1.20864
G1 X179.917 Y155.631 F9000
G1 F2400
G1 X156.369 Y132.083 E1.24276
G1 X155.723 Y132.083 F9000
G1 F2400
G1 X179.917 Y156.277 E1.27687
G1 X179.917 Y156.924 F9000
G1 F2400
G1 X155.076 Y132.083 E1.31099
G1 X154.43 Y132.083 F9000
G1 F2400
G1 X179.917 Y157.57 E1.3451
G1 X179.917 Y158.217 F9000
G1 F2400
G1 X153.783 Y132.083 E1.37921
G1 X153.137 Y132.083 F9000
G1 F2400
G1 X179.917 Y158.863 E1.41333
G1 X179.917 Y159.509 F9000
G1 F2400
G1 X152.491 Y132.083 E1.44744
G1 X151.844 Y132.083 F9000
G1 F2400
G1 X179.917 Y160.156 E1.48156
G1 X179.917 Y160.802 F9000
G1 F2400
G1 X151.198 Y132.083 E1.51567
G1 X150.551 Y132.083 F9000
G1 F2400
G1 X179.917 Y161.449 E1.54978
G1 X179.917 Y162.095 F9000
G1 F2400
G1 X149.905 Y132.083 E1.5839
G1 X149.259 Y132.083 F9000
G1 F2400
G1 X179.917 Y162.741 E1.61801
G1 X179.917 Y163.388 F9000
G1 F2400
G1 X148.612 Y132.083 E1.65213
G1 X147.966 Y132.083 F9000
G1 F2400
G1 X179.917 Y164.034 E1.68624
G1 X179.917 Y164.681 F9000
G1 F2400
G1 X147.319 Y132.083 E1.72035
G1 X146.673 Y132.083 F9000
G1 F2400
G1 X179.917 Y165.327 E1.75447
M73 P1 R143
G1 X179.917 Y165.973 F9000
G1 F2400
G1 X146.027 Y132.083 E1.78858
G1 X145.38 Y132.083 F9000
G1 F2400
G1 X179.917 Y166.62 E1.8227
G1 X179.917 Y167.266 F9000
G1 F2400
G1 X144.734 Y132.083 E1.85681
G1 X144.087 Y132.083 F9000
G1 F2400
G1 X179.917 Y167.913 E1.89093
G1 X179.917 Y168.559 F9000
G1 F2400
G1 X143.441 Y132.083 E1.92504
G1 X142.795 Y132.083 F9000
G1 F2400
G1 X179.917 Y169.205 E1.95915
G1 X179.917 Y169.852 F9000
G1 F2400
G1 X142.148 Y132.083 E1.99327
G1 X141.502 Y132.083 F9000
G1 F2400
G1 X179.917 Y170.498 E2.02738
G1 X179.917 Y171.145 F9000
G1 F2400
G1 X140.855 Y132.083 E2.0615
G1 X140.209 Y132.083 F9000
G1 F2400
G1 X179.917 Y171.791 E2.09561
G1 X179.917 Y172.438 F9000
G1 F2400
G1 X139.562 Y132.083 E2.12972
G1 X138.916 Y132.083 F9000
G1 F2400
G1 X179.917 Y173.084 E2.16384
G1 X179.917 Y173.73 F9000
G1 F2400
G1 X138.27 Y132.083 E2.19795
G1 X137.623 Y132.083 F9000
G1 F2400
G1 X179.917 Y174.377 E2.23207
G1 X179.917 Y175.023 F9000
G1 F2400
G1 X136.977 Y132.083 E2.26618
G1 X136.33 Y132.083 F9000
G1 F2400
G1 X179.917 Y175.67 E2.30029
G1 X179.917 Y176.316 F9000
G1 F2400
G1 X135.684 Y132.083 E2.33441
G1 X135.038 Y132.083 F9000
G1 F2400
G1 X179.872 Y176.917 E2.36614
G1 X179.226 Y176.917 F9000
G1 F2400
G1 X134.391 Y132.083 E2.36614
G1 X133.745 Y132.083 F9000
G1 F2400
G1 X178.579 Y176.917 E2.36614
G1 X177.933 Y176.917 F9000
G1 F2400
G1 X133.098 Y132.083 E2.36614
G1 X132.452 Y132.083 F9000
G1 F2400
G1 X177.287 Y176.917 E2.36614
G1 X176.64 Y176.917 F9000
G1 F2400
G1 X131.806 Y132.083 E2.36614
G1 X131.159 Y132.083 F9000
G1 F2400
G1 X175.994 Y176.917 E2.36614
G1 X175.347 Y176.917 F9000
G1 F2400
G1 X130.513 Y132.083 E2.36614
G1 X129.866 Y132.083 F9000
G1 F2400
G1 X174.701 Y176.917 E2.36614
G1 X174.055 Y176.917 F9000
G1 F2400
G1 X129.22 Y132.083 E2.36614
G1 X128.574 Y132.083 F9000
G1 F2400
G1 X173.408 Y176.917 E2.36614
G1 X172.762 Y176.917 F9000
G1 F2400
G1 X127.927 Y132.083 E2.36614
G1 X127.281 Y132.083 F9000
G1 F2400
G1 X172.115 Y176.917 E2.36614
G1 X171.469 Y176.917 F9000
G1 F2400
G1 X126.634 Y132.083 E2.36614
G1 X125.988 Y132.083 F9000
G1 F2400
G1 X170.823 Y176.917 E2.36614
G1 X170.176 Y176.917 F9000
G1 F2400
G1 X125.342 Y132.083 E2.36614
G1 X125.083 Y132.47 F9000
G1 F2400
G1 X169.53 Y176.917 E2.34569
M73 P2 R142
G1 X168.883 Y176.917 F9000
G1 F2400
G1 X125.083 Y133.117 E2.31158
G1 X125.083 Y133.763 F9000
G1 F2400
G1 X168.237 Y176.917 E2.27746
G1 X167.59 Y176.917 F9000
G1 F2400
G1 X125.083 Y134.41 E2.24335
G1 X125.083 Y135.056 F9000
G1 F2400
G1 X166.944 Y176.917 E2.20923
G1 X166.298 Y176.917 F9000
G1 F2400
G1 X125.083 Y135.702 E2.17512
M73 P2 R142
G1 X125.083 Y136.349 F9000
G1 F2400
G1 X165.651 Y176.917 E2.14101
G1 X165.005 Y176.917 F9000
G1 F2400
G1 X125.083 Y136.995 E2.10689
G1 X125.083 Y137.642 F9000
G1 F2400
G1 X164.358 Y176.917 E2.07278
G1 X163.712 Y176.917 F9000
G1 F2400
G1 X125.083 Y138.288 E2.03866
G1 X125.083 Y138.934 F9000
G1 F2400
G1 X163.066 Y176.917 E2.00455
G1 X162.419 Y176.917 F9000
G1 F2400
G1 X125.083 Y139.581 E1.97043
G1 X125.083 Y140.227 F9000
G1 F2400
G1 X161.773 Y176.917 E1.93632
G1 X161.126 Y176.917 F9000
G1 F2400
G1 X125.083 Y140.874 E1.90221
G1 X125.083 Y141.52 F9000
G1 F2400
G1 X160.48 Y176.917 E1.86809
G1 X159.834 Y176.917 F9000
G1 F2400
G1 X125.083 Y142.166 E1.83398
G1 X125.083 Y142.813 F9000
G1 F2400
G1 X159.187 Y176.917 E1.79986
G1 X158.541 Y176.917 F9000
G1 F2400
G1 X125.083 Y143.459 E1.76575
G1 X125.083 Y144.106 F9000
G1 F2400
G1 X157.894 Y176.917 E1.73164
G1 X157.248 Y176.917 F9000
G1 F2400
G1 X125.083 Y144.752 E1.69752
G1 X125.083 Y145.398 F9000
G1 F2400
G1 X156.602 Y176.917 E1.66341
G1 X155.955 Y176.917 F9000
G1 F2400
G1 X125.083 Y146.045 E1.62929
G1 X125.083 Y146.691 F9000
G1 F2400
G1 X155.309 Y176.917 E1.59518
G1 X154.662 Y176.917 F9000
G1 F2400
G1 X125.083 Y147.338 E1.56106
G1 X125.083 Y147.984 F9000
G1 F2400
G1 X154.016 Y176.917 E1.52695
G1 X153.37 Y176.917 F9000
G1 F2400
G1 X125.083 Y148.63 E1.49284
G1 X125.083 Y149.277 F9000
G1 F2400
G1 X152.723 Y176.917 E1.45872
G1 X152.077 Y176.917 F9000
G1 F2400
G1 X125.083 Y149.923 E1.42461
G1 X125.083 Y150.57 F9000
G1 F2400
G1 X151.43 Y176.917 E1.39049
G1 X150.784 Y176.917 F9000
G1 F2400
G1 X125.083 Y151.216 E1.35638
G1 X125.083 Y151.863 F9000
G1 F2400
G1 X150.137 Y176.917 E1.32227
G1 X149.491 Y176.917 F9000
G1 F2400
G1 X125.083 Y152.509 E1.28815
G1 X125.083 Y153.155 F9000
G1 F2400
G1 X148.845 Y176.917 E1.25404
G1 X148.198 Y176.917 F9000
G1 F2400
G1 X125.083 Y153.802 E1.21992
G1 X125.083 Y154.448 F9000
G1 F2400
G1 X147.552 Y176.917 E1.18581
G1 X146.905 Y176.917 F9000
G1 F2400
G1 X125.083 Y155.095 E1.1517
G1 X125.083 Y155.741 F9000
G1 F2400
G1 X146.259 Y176.917 E1.11758
G1 X145.613 Y176.917 F9000
G1 F2400
G1 X125.083 Y156.387 E1.08347
G1 X125.083 Y157.034 F9000
G1 F2400
G1 X144.966 Y176.917 E1.04935
G1 X144.32 Y176.917 F9000
G1 F2400
G1 X125.083 Y157.68 E1.01524
G1 X125.083 Y158.327 F9000
G1 F2400
G1 X143.673 Y176.917 E0.98112
G1 X143.027 Y176.917 F9000
G1 F2400
G1 X125.083 Y158.973 E0.94701
G1 X125.083 Y159.619 F9000
G1 F2400
G1 X142.381 Y176.917 E0.9129
G1 X141.734 Y176.917 F9000
G1 F2400
G1 X125.083 Y160.266 E0.87878
G1 X125.083 Y160.912 F9000
G1 F2400
G1 X141.088 Y176.917 E0.84467
G1 X140.441 Y176.917 F9000
G1 F2400
G1 X125.083 Y161.559 E0.81055
G1 X125.083 Y162.205 F9000
G1 F2400
G1 X139.795 Y176.917 E0.77644
G1 X139.149 Y176.917 F9000
G1 F2400
G1 X125.083 Y162.851 E0.74233
G1 X125.083 Y163.498 F9000
G1 F2400
G1 X138.502 Y176.917 E0.70821
G1 X137.856 Y176.917 F9000
G1 F2400
G1 X125.083 Y164.144 E0.6741
G1 X125.083 Y164.791 F9000
G1 F2400
G1 X137.209 Y176.917 E0.63998
G1 X136.563 Y176.917 F9000
G1 F2400
G1 X125.083 Y165.437 E0.60587
G1 X125.083 Y166.083 F9000
G1 F2400
G1 X135.917 Y176.917 E0.57176
G1 X135.27 Y176.917 F9000
G1 F2400
G1 X125.083 Y166.73 E0.53764
G1 X125.083 Y167.376 F9000
G1 F2400
G1 X134.624 Y176.917 E0.50353
G1 X133.977 Y176.917 F9000
G1 F2400
G1 X125.083 Y168.023 E0.46941
G1 X125.083 Y168.669 F9000
G1 F2400
G1 X133.331 Y176.917 E0.4353
G1 X132.685 Y176.917 F9000
G1 F2400
G1 X125.083 Y169.315 E0.40118
G1 X125.083 Y169.962 F9000
G1 F2400
G1 X132.038 Y176.917 E0.36707
G1 X131.392 Y176.917 F9000
