; generated by SuperSlicer 2.5.59 on 2022-11-28 at 06:20:33 UTC


;
;

;
;
; 

; external perimeters extrusion width = 0.40mm
; perimeters extrusion width = 0.46mm
; infill extrusion width = 0.64mm
; solid infill extrusion width = 0.56mm
; top infill extrusion width = 0.40mm
; first layer extrusion width = 0.50mm

; object:{"name":"test","id":"test.stl id:0 copy 0","object_center":[165.000000,165.000003,0.000000],"boundingbox_center":[165.000000,165.000003,17.179001],"boundingbox_size":[29.523998,19.226000,34.358002]}
; plater:{"center":[165.000000,165.000003,0.000000],"boundingbox_center":[165.000000,165.000003,17.179001],"boundingbox_size":[29.523998,19.226000,34.358002]}

M73 P0 R35


; Pre-Processed for Cancel-Object support by preprocess_cancellation v0.2.0
; 1 known objects
EXCLUDE_OBJECT_DEFINE NAME=test_stl_id_0_copy_0 CENTER=162.581,166.456 POLYGON=[[150.438,155.587],[150.438,174.413],[179.562,174.413],[179.562,155.587]]
;TYPE:Custom
START_PRINT T_BED=70 T_EXTRUDER=235
M107
G21 ; set units to millimeters
G90 ; use absolute coordinates
M83 ; use relative distances for extrusion
; Filament gcode
;_TOOLCHANGE 0
M104 S235 ; set temperature
M109 S235 ; set temperature and wait for it to be reached
M190 S70 ; set bed temperature and wait for it to be reached
M107
;LAYER_CHANGE
;Z:0.2
;HEIGHT:0.2
G1 Z0.2 F9000
G92 E0
G1 E-1 F3000
M204 S1000
G1 X150.824 Y153.354 F9000
M73 P0 R35
G1 E1 F1800
;TYPE:Skirt
;WIDTH:0.52
G1 X150.174 Y154.137 E0.04035
G1 X149.725 Y155.025 E0.03947
G1 X149.47 Y156.026 E0.04098
G1 X149.412 Y156.739 E0.0284
G1 X149.425 Y173.572 E0.66772
G1 X149.545 Y174.389 E0.03277
G1 X149.777 Y175.115 E0.03023
G1 X150.182 Y175.876 E0.03421
G1 X150.697 Y176.521 E0.03274
G1 X151.871 Y177.39 E0.05795
G1 X152.993 Y177.804 E0.04745
G1 X154.092 Y177.929 E0.04385
G1 X178.732 Y177.915 E0.97748
G1 X179.744 Y177.742 E0.04072
G1 X180.619 Y177.389 E0.0374
G1 X181.667 Y176.645 E0.051
G1 X182.298 Y175.889 E0.03908
G1 X182.747 Y175.025 E0.03862
G1 X183.049 Y173.719 E0.05316
G1 X183.047 Y156.222 E0.69411
G1 X182.806 Y155.15 E0.04358
G1 X182.286 Y154.103 E0.04636
G1 X181.261 Y153.017 E0.05926
G1 X179.998 Y152.344 E0.05676
G1 X178.721 Y152.086 E0.05168
G1 X153.766 Y152.086 E0.98994
G1 X152.961 Y152.204 E0.03224
G1 X152.211 Y152.443 E0.03126
G1 X151.472 Y152.838 E0.03324
G1 X150.824 Y153.354 E0.03285
G1 X151.16 Y153.692 F9000
G1 F1800
G1 X150.579 Y154.39 E0.03604
G1 X150.175 Y155.183 E0.0353
G1 X149.944 Y156.081 E0.03679
G1 X149.889 Y156.739 E0.02621
G1 X149.901 Y173.532 E0.66615
G1 X150.007 Y174.271 E0.02963
G1 X150.22 Y174.939 E0.02779
G1 X150.586 Y175.621 E0.03072
G1 X151.035 Y176.183 E0.02853
G1 X152.104 Y176.974 E0.05275
G1 X153.109 Y177.341 E0.04245
G1 X154.092 Y177.452 E0.03924
G1 X178.413 Y177.452 E0.9648
G1 X179.623 Y177.28 E0.04851
G1 X180.626 Y176.838 E0.04346
G1 X181.33 Y176.307 E0.035
G1 X181.896 Y175.632 E0.03492
G1 X182.299 Y174.86 E0.03456
G1 X182.537 Y173.968 E0.03662
G1 X182.601 Y173.26 E0.02819
G1 X182.572 Y156.262 E0.67433
G1 X182.35 Y155.293 E0.03944
G1 X181.897 Y154.38 E0.04041
G1 X180.984 Y153.406 E0.05298
G1 X179.856 Y152.8 E0.0508
G1 X178.681 Y152.562 E0.04755
G1 X154.077 Y152.55 E0.97601
G1 X153.078 Y152.666 E0.0399
G1 X152.492 Y152.844 E0.02428
G1 X151.725 Y153.242 E0.03428
G1 X151.16 Y153.692 E0.02863
G1 E-1 F3000
; printing object test.stl id:0 copy 0
EXCLUDE_OBJECT_START NAME=test_stl_id_0_copy_0
G1 X171.62 Y164.927 F9000
G1 E1 F1800
;TYPE:Internal perimeter
;WIDTH:0.5
G1 X167.695 Y164.927 E0.14918
G1 X167.48 Y164.701 E0.01186
G1 X167.192 Y164.447 E0.01459
G1 X166.834 Y164.186 E0.01683
G1 X166.406 Y163.935 E0.01885
G1 X165.999 Y163.749 E0.01703
G1 X165.578 Y163.606 E0.01688
G1 X165.152 Y163.505 E0.01666
G1 X164.748 Y163.447 E0.0155
G1 X164.722 Y163.158 E0.01103
G1 X164.951 Y163.083 E0.00916
G1 X165.314 Y162.902 E0.0154
G1 X165.6 Y162.703 E0.01326
G1 X165.939 Y162.393 E0.01746
G1 X166.206 Y162.05 E0.0165
G1 X166.37 Y162.279 E0.01069
G1 X166.645 Y162.568 E0.01519
G1 X166.966 Y162.82 E0.0155
G1 X167.325 Y163.023 E0.01566
G1 X167.71 Y163.17 E0.01568
G1 X168.114 Y163.258 E0.01571
G1 X168.519 Y163.284 E0.0154
G1 X168.96 Y163.249 E0.01684
G1 X169.592 Y163.063 E0.02504
G1 X169.985 Y162.851 E0.01697
G1 X170.163 Y162.718 E0.00845
G1 X170.525 Y162.718 E0.01374
G1 X170.921 Y163.337 E0.02793
G1 X171.218 Y163.686 E0.0174
G1 X171.533 Y163.991 E0.01667
G1 X171.62 Y164.058 E0.00417
G1 X171.62 Y164.927 E0.03303
G1 E-1 F3000
G1 X160.956 Y164.849 F9000
G1 E1 F1800
G1 X160.956 Y163.954 E0.034
G1 X161.111 Y163.816 E0.00788
G1 X161.452 Y163.447 E0.01908
G1 X161.705 Y163.109 E0.01606
G1 X161.966 Y162.681 E0.01906
G1 X162.179 Y162.678 E0.00808
G1 X162.302 Y162.78 E0.00607
G1 X162.645 Y162.988 E0.01525
G1 X162.957 Y163.123 E0.01293
G1 X163.363 Y163.24 E0.01604
G1 X163.359 Y163.519 E0.0106
G1 X162.909 Y163.636 E0.0177
G1 X162.441 Y163.813 E0.019
G1 X162.043 Y164.011 E0.01691
G1 X161.669 Y164.244 E0.0167
G1 X161.318 Y164.511 E0.01678
G1 X160.956 Y164.849 E0.01881
G1 E-1 F3000
G1 X171.542 Y171.056 F9000
G1 E1 F1800
G1 X171.542 Y167.701 E0.12749
G1 X177.748 Y167.701 E0.23587
G1 X177.748 Y163.897 E0.14457
G1 X178.198 Y163.467 E0.02366
G1 X178.198 Y173.049 E0.36418
G1 X154.292 Y173.049 E0.90857
G1 X154.292 Y163.402 E0.36664
G1 X154.646 Y163.791 E0.01998
G1 X154.828 Y163.953 E0.00926
G1 X154.828 Y167.729 E0.14351
G1 X159.692 Y167.729 E0.18487
G1 X159.681 Y168.119 E0.01482
G1 X159.709 Y168.558 E0.01671
G1 X159.78 Y168.992 E0.01672
G1 X159.892 Y169.42 E0.0168
G1 X160.066 Y169.889 E0.01901
G1 X160.265 Y170.29 E0.01704
G1 X160.503 Y170.67 E0.01703
G1 X160.808 Y171.06 E0.01882
G1 X161.109 Y171.376 E0.01659
G1 X161.4 Y171.631 E0.01472
G1 X161.796 Y171.918 E0.01856
G1 X162.184 Y172.143 E0.01705
G1 X162.588 Y172.326 E0.01687
G1 X163.007 Y172.47 E0.01685
G1 X163.49 Y172.583 E0.01882
G1 X163.93 Y172.64 E0.01689
G1 X164.372 Y172.654 E0.01681
G1 X164.816 Y172.625 E0.01691
G1 X165.303 Y172.542 E0.01877
G1 X165.738 Y172.423 E0.01714
G1 X166.201 Y172.241 E0.01891
G1 X166.543 Y172.068 E0.01456
G1 X166.919 Y171.836 E0.01678
G1 X167.313 Y171.531 E0.01894
G1 X167.634 Y171.225 E0.01686
G1 X167.781 Y171.054 E0.00856
G1 X171.542 Y171.056 E0.14293
G1 E-1 F3000
G1 X172.077 Y167.244 F9000
G1 E1 F1800
G1 X177.291 Y167.244 E0.19817
G1 X177.291 Y163.702 E0.13462
G1 X177.621 Y163.386 E0.01737
G1 X177.898 Y163.056 E0.01637
G1 X178.141 Y162.702 E0.01634
G1 X178.38 Y162.266 E0.01888
G1 X178.655 Y162.336 E0.01079
G1 X178.655 Y173.216 E0.41352
G1 X178.621 Y173.485 E0.01029
G1 X178.382 Y173.506 E0.00913
G1 X154.117 Y173.506 E0.92225
G1 X154.004 Y173.498 E0.00429
G1 X153.854 Y173.46 E0.00588
G1 X153.835 Y173.233 E0.00868
G1 X153.835 Y162.313 E0.41503
G1 X154.12 Y162.248 E0.01109
G1 X154.233 Y162.484 E0.00992
G1 X154.453 Y162.844 E0.01607
G1 X154.684 Y163.153 E0.01464
G1 X154.968 Y163.466 E0.01607
G1 X155.285 Y163.748 E0.01614
G1 X155.285 Y167.272 E0.13392
G1 X160.209 Y167.272 E0.18715
G1 X160.15 Y167.714 E0.01696
G1 X160.139 Y168.111 E0.01507
G1 X160.164 Y168.506 E0.01506
G1 X160.228 Y168.897 E0.01506
G1 X160.328 Y169.282 E0.01512
G1 X160.486 Y169.707 E0.01722
G1 X160.665 Y170.067 E0.01528
G1 X160.878 Y170.408 E0.01527
G1 X161.154 Y170.761 E0.01705
G1 X161.425 Y171.046 E0.01495
G1 X161.685 Y171.274 E0.01313
G1 X162.045 Y171.534 E0.01688
G1 X162.393 Y171.736 E0.01529
G1 X162.757 Y171.9 E0.01517
G1 X163.134 Y172.03 E0.01516
G1 X163.571 Y172.132 E0.01708
G1 X163.967 Y172.184 E0.01516
G1 X164.365 Y172.197 E0.01511
G1 X164.763 Y172.17 E0.01516
G1 X165.204 Y172.095 E0.01703
G1 X165.594 Y171.989 E0.01534
G1 X166.014 Y171.823 E0.01716
G1 X166.32 Y171.669 E0.01301
G1 X166.658 Y171.46 E0.01512
G1 X167.015 Y171.184 E0.01714
G1 X167.303 Y170.909 E0.01513
G1 X167.573 Y170.597 E0.01568
G1 X171.085 Y170.598 E0.13349
G1 X171.085 Y165.384 E0.19818
G1 X167.499 Y165.384 E0.13631
G1 X167.162 Y165.03 E0.01854
G1 X166.905 Y164.804 E0.01303
G1 X166.583 Y164.568 E0.01515
G1 X166.195 Y164.341 E0.01709
G1 X165.83 Y164.174 E0.01528
G1 X165.452 Y164.046 E0.01518
G1 X165.067 Y163.954 E0.01504
G1 X164.672 Y163.898 E0.01514
G1 X164.222 Y163.882 E0.01711
G1 X163.826 Y163.909 E0.01511
G1 X163.435 Y163.971 E0.01505
G1 X163.048 Y164.073 E0.01521
G1 X162.624 Y164.233 E0.01721
G1 X162.266 Y164.411 E0.01521
G1 X161.929 Y164.62 E0.01505
G1 X161.613 Y164.861 E0.0151
G1 X161.321 Y165.134 E0.0152
G1 X161.027 Y165.47 E0.01699
G1 X160.753 Y165.853 E0.01788
G1 X160.499 Y165.771 E0.01014
G1 X160.499 Y163.75 E0.07683
G1 X160.79 Y163.489 E0.01483
G1 X161.1 Y163.154 E0.01736
G1 X161.326 Y162.852 E0.01434
G1 X161.543 Y162.497 E0.01582
G1 X161.674 Y162.228 E0.01137
G1 X162.341 Y162.219 E0.02536
G1 X162.567 Y162.406 E0.01118
G1 X162.855 Y162.581 E0.01279
G1 X163.112 Y162.692 E0.01064
G1 X163.436 Y162.785 E0.01279
G1 X163.776 Y162.829 E0.01304
G1 X164.113 Y162.822 E0.01282
G1 X164.45 Y162.767 E0.01297
G1 X164.777 Y162.659 E0.01308
G1 X165.08 Y162.508 E0.01288
G1 X165.314 Y162.345 E0.01085
G1 X165.602 Y162.082 E0.01482
G1 X165.812 Y161.812 E0.01299
G1 X165.955 Y161.569 E0.01071
G1 X166.213 Y160.949 E0.02555
G1 X166.4 Y161.468 E0.02097
G1 X166.561 Y161.761 E0.01272
G1 X166.723 Y161.986 E0.01053
G1 X166.954 Y162.229 E0.01274
G1 X167.221 Y162.439 E0.01293
G1 X167.52 Y162.608 E0.01306
G1 X167.842 Y162.731 E0.01307
G1 X168.178 Y162.805 E0.01309
G1 X168.515 Y162.826 E0.01284
G1 X168.877 Y162.797 E0.01379
G1 X169.417 Y162.638 E0.02141
G1 X169.739 Y162.465 E0.01387
G1 X170.011 Y162.261 E0.01295
G1 X170.819 Y162.261 E0.0307
G1 X170.907 Y162.468 E0.00854
G1 X171.289 Y163.065 E0.02694
G1 X171.552 Y163.373 E0.01538
G1 X171.831 Y163.644 E0.01481
G1 X172.077 Y163.832 E0.01174
G1 X172.077 Y167.244 E0.12969
G1 E-1 F3000
G1 X171.63 Y156.953 F9000
G1 E1 F1800
G1 X171.063 Y157.562 E0.03162
G1 X170.753 Y157.974 E0.0196
G1 X170.503 Y158.391 E0.01847
G1 X170.229 Y158.391 E0.01041
G1 X169.853 Y158.115 E0.0177
G1 X169.379 Y157.908 E0.01969
G1 X168.98 Y157.808 E0.01562
G1 X168.642 Y157.77 E0.01292
G1 X168.248 Y157.777 E0.01499
G1 X167.842 Y157.844 E0.01562
G1 X167.456 Y157.971 E0.01547
G1 X167.142 Y158.125 E0.01328
G1 X166.758 Y158.384 E0.01761
G1 X166.454 Y158.674 E0.01598
G1 X166.193 Y159.007 E0.01608
G1 X166.038 Y158.785 E0.0103
G1 X165.757 Y158.488 E0.01554
G1 X165.432 Y158.235 E0.01567
G1 X165.076 Y158.034 E0.01552
G1 X164.692 Y157.886 E0.01565
G1 X164.287 Y157.798 E0.01575
G1 X163.882 Y157.772 E0.01544
G1 X163.44 Y157.807 E0.01683
G1 X162.81 Y157.992 E0.02495
G1 X162.416 Y158.204 E0.01703
G1 X162.237 Y158.338 E0.00848
G1 X161.967 Y158.338 E0.01026
G1 X161.723 Y157.938 E0.0178
G1 X161.445 Y157.565 E0.0177
G1 X160.888 Y156.953 E0.03145
G1 X171.63 Y156.953 E0.40827
G1 X172.817 Y156.767 F9000
G1 F1800
G1 X172.354 Y157.034 E0.0203
G1 X171.97 Y157.309 E0.01793
G1 X171.679 Y157.572 E0.01493
G1 X171.414 Y157.856 E0.01476
G1 X171.133 Y158.23 E0.0178
G1 X170.929 Y158.569 E0.01504
G1 X170.797 Y158.848 E0.0117
G1 X170.079 Y158.848 E0.02729
G1 X169.624 Y158.514 E0.02146
G1 X169.231 Y158.342 E0.01631
G1 X168.899 Y158.259 E0.01301
G1 X168.621 Y158.228 E0.01063
G1 X168.289 Y158.234 E0.01259
G1 X167.951 Y158.289 E0.01302
G1 X167.628 Y158.395 E0.01292
G1 X167.371 Y158.521 E0.01087
G1 X167.046 Y158.741 E0.01495
G1 X166.793 Y158.982 E0.01325
G1 X166.582 Y159.252 E0.01303
G1 X166.419 Y159.546 E0.01279
G1 X166.184 Y160.132 E0.02398
G1 X166.008 Y159.602 E0.02119
G1 X165.872 Y159.345 E0.01106
G1 X165.682 Y159.075 E0.01255
G1 X165.449 Y158.827 E0.01295
G1 X165.178 Y158.616 E0.01305
G1 X164.881 Y158.448 E0.01297
G1 X164.561 Y158.325 E0.01304
G1 X164.223 Y158.251 E0.01312
G1 X163.885 Y158.23 E0.01288
G1 X163.524 Y158.259 E0.01378
G1 X162.985 Y158.417 E0.02134
G1 X162.662 Y158.591 E0.01393
G1 X162.389 Y158.795 E0.01297
G1 X161.675 Y158.795 E0.02714
G1 X161.545 Y158.524 E0.01141
G1 X161.344 Y158.194 E0.01469
G1 X161.092 Y157.856 E0.01603
G1 X160.831 Y157.569 E0.01475
G1 X160.487 Y157.262 E0.01752
G1 X160.174 Y157.034 E0.01472
G1 X159.719 Y156.765 E0.02009
G1 X159.792 Y156.496 E0.01061
G1 X172.744 Y156.496 E0.49225
G1 X172.817 Y156.767 E0.01067
G1 E-1 F3000
G1 X178.198 Y156.96 F9000
G1 E1 F1800
G1 X178.198 Y157.613 E0.0248
G1 X177.524 Y156.958 E0.03571
G1 X178.198 Y156.96 E0.02559
G1 X178.607 Y156.544 F9000
G1 F1800
G1 X178.647 Y156.669 E0.00499
G1 X178.655 Y156.767 E0.00375
G1 X178.655 Y158.742 E0.07505
G1 X178.379 Y158.812 E0.0108
G1 X178.123 Y158.341 E0.02038
G1 X177.898 Y158.015 E0.01507
G1 X177.622 Y157.691 E0.01616
G1 X177.341 Y157.417 E0.01492
G1 X177.006 Y157.152 E0.01623
G1 X176.677 Y156.939 E0.01489
G1 X176.359 Y156.776 E0.01359
G1 X176.427 Y156.496 E0.01094
G1 X178.382 Y156.496 E0.07431
G1 X178.481 Y156.504 E0.0038
G1 X178.607 Y156.544 E0.00502
G1 E-1 F3000
G1 X154.292 Y156.953 F9000
M73 P1 R34
G1 E1 F1800
G1 X154.95 Y156.953 E0.02499
G1 X154.292 Y157.559 E0.03399
G1 X154.292 Y156.953 E0.02304
G1 X154.122 Y158.768 F9000
G1 F1800
G1 X153.835 Y158.705 E0.01117
G1 X153.835 Y156.78 E0.07314
G1 X153.864 Y156.535 E0.00938
G1 X154.122 Y156.496 E0.00994
G1 X155.993 Y156.496 E0.0711
G1 X156.067 Y156.765 E0.01059
G1 X155.587 Y157.051 E0.02124
G1 X155.242 Y157.305 E0.01627
G1 X154.93 Y157.593 E0.01614
G1 X154.674 Y157.878 E0.01457
G1 X154.422 Y158.219 E0.01611
G1 X154.205 Y158.588 E0.01625
G1 X154.122 Y158.768 E0.00753
G1 E-1 F3000
G1 X170.628 Y170.141 F9000
G1 E1 F1800
;TYPE:External perimeter
G1 X170.628 Y165.841 E0.16343
G1 X167.264 Y165.841 E0.12787
G1 X167.121 Y165.65 E0.00907
G1 X166.845 Y165.36 E0.01521
G1 X166.618 Y165.16 E0.01148
G1 X166.332 Y164.951 E0.01347
G1 X165.984 Y164.748 E0.01532
G1 X165.661 Y164.6 E0.01352
G1 X165.325 Y164.485 E0.01348
G1 X164.982 Y164.404 E0.01341
G1 X164.632 Y164.354 E0.01343
G1 X164.229 Y164.339 E0.0153
G1 X163.878 Y164.363 E0.0134
G1 X163.529 Y164.419 E0.01342
G1 X163.187 Y164.509 E0.01344
G1 X162.807 Y164.652 E0.01542
G1 X162.489 Y164.811 E0.01352
G1 X162.189 Y164.997 E0.0134
G1 X161.908 Y165.211 E0.01342
G1 X161.649 Y165.452 E0.01345
G1 X161.385 Y165.754 E0.01525
G1 X161.18 Y166.042 E0.01343
G1 X161.002 Y166.35 E0.01354
G1 X160.839 Y166.721 E0.01537
G1 X160.743 Y167.006 E0.01145
G1 X160.66 Y167.351 E0.0135
G1 X160.606 Y167.751 E0.01533
G1 X160.596 Y168.103 E0.01336
G1 X160.619 Y168.454 E0.0134
G1 X160.676 Y168.802 E0.01339
G1 X160.765 Y169.145 E0.01344
G1 X160.906 Y169.525 E0.01543
G1 X161.064 Y169.844 E0.01352
G1 X161.253 Y170.145 E0.01351
G1 X161.5 Y170.462 E0.01528
G1 X161.742 Y170.716 E0.01331
G1 X161.971 Y170.916 E0.01155
G1 X162.294 Y171.15 E0.0152
G1 X162.602 Y171.329 E0.01353
G1 X162.925 Y171.475 E0.01348
G1 X163.261 Y171.59 E0.01347
G1 X163.653 Y171.682 E0.01533
G1 X164.004 Y171.728 E0.01343
G1 X164.357 Y171.739 E0.01342
G1 X164.709 Y171.716 E0.01342
G1 X165.106 Y171.648 E0.01529
G1 X165.45 Y171.554 E0.01355
G1 X165.827 Y171.405 E0.01542
G1 X166.096 Y171.27 E0.01146
G1 X166.397 Y171.084 E0.01345
G1 X166.716 Y170.837 E0.01533
G1 X166.971 Y170.593 E0.01341
G1 X167.203 Y170.327 E0.01342
G1 X167.333 Y170.14 E0.00864
G1 X170.628 Y170.141 E0.12524
;WIPE_START
M204 S3000
G1 X171.028 Y170.141 F9000
;WIPE_END
G1 E-1 F3000
M204 S1000
G1 X172.534 Y166.787 F9000
G1 E1 F1800
G1 X176.834 Y166.787 E0.16343
G1 X176.834 Y163.471 E0.12603
G1 X177.036 Y163.314 E0.00972
G1 X177.287 Y163.073 E0.01322
G1 X177.534 Y162.779 E0.01459
G1 X177.752 Y162.462 E0.01462
G1 X177.918 Y162.158 E0.01318
G1 X178.056 Y161.838 E0.01324
G1 X178.181 Y161.433 E0.0161
G1 X178.25 Y161.094 E0.01317
G1 X178.287 Y160.748 E0.0132
G1 X178.288 Y160.367 E0.0145
G1 X178.257 Y160.022 E0.01316
G1 X178.183 Y159.645 E0.0146
G1 X178.07 Y159.274 E0.01473
G1 X177.936 Y158.953 E0.01325
G1 X177.733 Y158.581 E0.01608
G1 X177.535 Y158.294 E0.01328
G1 X177.288 Y158.003 E0.01447
G1 X177.039 Y157.761 E0.01319
G1 X176.74 Y157.524 E0.01452
G1 X176.448 Y157.335 E0.0132
G1 X176.139 Y157.177 E0.01321
G1 X175.745 Y157.021 E0.01609
G1 X175.408 Y156.928 E0.01328
G1 X175.03 Y156.862 E0.01459
G1 X174.685 Y156.838 E0.01316
G1 X174.339 Y156.846 E0.01315
G1 X173.923 Y156.898 E0.01595
G1 X173.584 Y156.977 E0.01321
G1 X173.218 Y157.101 E0.01469
G1 X172.902 Y157.245 E0.0132
G1 X172.602 Y157.419 E0.01318
G1 X172.258 Y157.665 E0.01609
G1 X172 Y157.898 E0.01319
