; generated by SuperSlicer 2.5.59 on 2022-11-28 at 22:00:29 UTC


;
;

;
;
; 

; external perimeters extrusion width = 0.40mm
; perimeters extrusion width = 0.46mm
; infill extrusion width = 0.64mm
; solid infill extrusion width = 0.56mm
; top infill extrusion width = 0.40mm
; first layer extrusion width = 0.50mm

; object:{"name":"testdock","id":"testdock.stl id:0 copy 0","object_center":[165.000000,165.000000,0.000000],"boundingbox_center":[165.000000,165.000000,18.127562],"boundingbox_size":[42.526001,41.256001,36.253998]}
; plater:{"center":[165.000000,165.000000,0.000000],"boundingbox_center":[165.000000,165.000000,18.127562],"boundingbox_size":[42.526001,41.256001,36.253998]}

M73 P0 R44


; Pre-Processed for Cancel-Object support by preprocess_cancellation v0.2.0
; 1 known objects
EXCLUDE_OBJECT_DEFINE NAME=testdock_stl_id_0_copy_0 CENTER=171.847,175.176 POLYGON=[[143.937,144.572],[143.937,185.428],[186.063,185.428],[186.063,144.572]]
;TYPE:Custom
START_PRINT T_BED=70 T_EXTRUDER=235
M107
G21 ; set units to millimeters
G90 ; use absolute coordinates
M83 ; use relative distances for extrusion
; Filament gcode
;_TOOLCHANGE 0
M104 S235 ; set temperature
M109 S235 ; set temperature and wait for it to be reached
M190 S70 ; set bed temperature and wait for it to be reached
M107
;LAYER_CHANGE
;Z:0.2
;HEIGHT:0.2
G1 Z0.2 F9000
G92 E0
G1 E-1 F3000
M204 S1000
G1 X166.547 Y149.619 F9000
G1 E1 F1800
;TYPE:Skirt
;WIDTH:0.52
G1 X141.35 Y177.666 E1.49563
G1 X140.779 Y178.512 E0.04049
G1 X140.399 Y180.182 E0.06793
G1 X140.434 Y184.26 E0.16178
G1 X140.89 Y186.011 E0.07177
G1 X142.036 Y187.283 E0.06793
G1 X143.631 Y187.907 E0.06793
G1 X151.243 Y188.943 E0.30474
G1 X156.465 Y188.936 E0.20716
G1 X174.4 Y187.813 E0.71285
G1 X176.053 Y187.524 E0.06658
G1 X177.138 Y187.241 E0.04448
G1 X178.438 Y186.802 E0.05442
G1 X179.972 Y186.126 E0.06652
G1 X181.21 Y185.452 E0.0559
G1 X182.428 Y184.652 E0.05781
G1 X183.505 Y183.809 E0.05426
G1 X184.777 Y182.619 E0.0691
G1 X185.908 Y181.322 E0.06825
G1 X186.917 Y179.912 E0.06879
G1 X187.644 Y178.68 E0.05673
G1 X188.258 Y177.417 E0.05575
G1 X188.803 Y175.996 E0.06033
G1 X189.242 Y174.443 E0.06403
G1 X189.534 Y172.934 E0.06096
G1 X189.68 Y171.57 E0.05442
G1 X189.58 Y144.456 E1.07562
G1 X188.843 Y142.251 E0.09221
M73 P0 R43
G1 X187.53 Y141.151 E0.06793
G1 X185.864 Y140.756 E0.06793
G1 X176.166 Y140.756 E0.38473
G1 X174.809 Y141.013 E0.05478
G1 X173.402 Y141.989 E0.06793
G1 X166.547 Y149.619 E0.40691
G1 X166.9 Y149.937 F9000
G1 F1800
G1 X141.707 Y177.967 E1.49505
G1 X140.891 Y179.837 E0.08094
G1 X140.912 Y184.256 E0.17527
G1 X141.212 Y185.59 E0.05424
G1 X142.22 Y186.828 E0.06336
G1 X143.698 Y187.434 E0.06336
G1 X151.243 Y188.466 E0.3021
G1 X156.436 Y188.46 E0.20601
G1 X174.353 Y187.338 E0.71213
G1 X175.957 Y187.057 E0.06462
G1 X177.015 Y186.78 E0.04337
G1 X178.258 Y186.36 E0.05204
G1 X179.746 Y185.706 E0.0645
G1 X180.958 Y185.047 E0.0547
G1 X182.156 Y184.26 E0.05688
G1 X183.187 Y183.454 E0.05192
G1 X184.441 Y182.281 E0.0681
G1 X185.531 Y181.03 E0.06581
G1 X186.523 Y179.642 E0.06768
G1 X187.216 Y178.469 E0.05405
G1 X187.817 Y177.234 E0.0545
G1 X188.353 Y175.837 E0.05935
G1 X188.73 Y174.522 E0.05426
G1 X189.063 Y172.855 E0.06743
G1 X189.185 Y171.795 E0.04235
G1 X189.102 Y144.458 E1.08445
G1 X188.583 Y142.713 E0.07222
G1 X187.412 Y141.627 E0.06336
G1 X185.864 Y141.233 E0.06336
G1 X176.166 Y141.233 E0.38473
G1 X175.084 Y141.419 E0.04352
G1 X173.757 Y142.307 E0.06336
G1 X166.9 Y149.937 E0.40694
G1 E-1 F3000
; printing object testdock.stl id:0 copy 0
EXCLUDE_OBJECT_START NAME=testdock_stl_id_0_copy_0
G1 X155.479 Y182.967 F9000
G1 E1 F1800
;TYPE:Internal perimeter
;WIDTH:0.5
G1 X155.479 Y183.27 E0.0115
G1 X155.078 Y183.27 E0.01524
G1 X155.077 Y184.063 E0.03016
G1 X152.407 Y184.063 E0.10148
G1 X152.407 Y183.063 E0.03801
G1 X145.304 Y183.063 E0.26995
G1 X145.289 Y181.187 E0.07133
G1 X161.783 Y181.193 E0.62689
G1 X162.657 Y181.167 E0.03323
G1 X163.551 Y181.09 E0.03411
G1 X164.614 Y180.929 E0.04084
G1 X165.5 Y180.737 E0.03443
G1 X166.535 Y180.441 E0.04093
G1 X167.216 Y180.206 E0.02738
G1 X168.052 Y179.865 E0.03431
G1 X169.025 Y179.394 E0.04111
G1 X169.813 Y178.95 E0.03436
G1 X170.571 Y178.459 E0.03433
G1 X171.434 Y177.822 E0.04076
G1 X172.12 Y177.246 E0.03406
G1 X172.645 Y176.752 E0.02737
G1 X173.381 Y175.986 E0.04039
G1 X174.069 Y175.158 E0.04092
G1 X174.598 Y174.431 E0.03416
G1 X175.087 Y173.676 E0.03418
G1 X175.529 Y172.892 E0.0342
G1 X175.928 Y172.081 E0.03436
G1 X176.343 Y171.08 E0.04118
G1 X176.634 Y170.225 E0.03433
G1 X176.877 Y169.353 E0.0344
G1 X177.095 Y168.304 E0.04074
G1 X177.204 Y167.591 E0.02742
G1 X177.29 Y166.699 E0.03403
G1 X177.33 Y165.652 E0.03985
G1 X177.33 Y145.636 E0.76072
G1 X184.7 Y145.636 E0.2801
G1 X184.696 Y170.688 E0.95215
G1 X184.811 Y171.154 E0.01825
G1 X184.804 Y171.355 E0.00763
G1 X184.715 Y172.16 E0.03077
G1 X184.614 Y172.767 E0.02338
G1 X184.483 Y173.364 E0.02323
G1 X184.191 Y174.403 E0.04104
G1 X183.99 Y174.968 E0.02277
G1 X183.764 Y175.515 E0.02251
G1 X183.288 Y176.481 E0.04092
G1 X182.905 Y177.124 E0.02844
G1 X182.681 Y177.377 E0.01284
G1 X182.382 Y177.81 E0.02
G1 X182.277 Y178.042 E0.00968
G1 X182.116 Y178.249 E0.00998
G1 X181.894 Y178.446 E0.01128
G1 X181.556 Y178.839 E0.0197
G1 X181.411 Y179.072 E0.01042
G1 X180.9 Y179.592 E0.02773
G1 X180.281 Y180.146 E0.03155
G1 X179.621 Y180.659 E0.03177
G1 X179.148 Y180.988 E0.02189
G1 X178.662 Y181.29 E0.02174
G1 X177.698 Y181.809 E0.0416
G1 X176.626 Y182.271 E0.04439
G1 X175.843 Y182.536 E0.03142
G1 X175.04 Y182.751 E0.03158
G1 X174.468 Y182.868 E0.0222
G1 X173.886 Y182.96 E0.02238
G1 X173.058 Y183.042 E0.03164
G1 X171.976 Y183.081 E0.04113
G1 X170.11 Y183.089 E0.07094
G1 X165.933 Y182.985 E0.15879
G1 X155.479 Y182.967 E0.39733
G1 X155.936 Y183.425 F9000
G1 F1800
G1 X155.936 Y183.727 E0.01147
G1 X155.535 Y183.727 E0.01525
G1 X155.534 Y184.52 E0.03016
G1 X151.95 Y184.52 E0.13621
G1 X151.95 Y183.52 E0.03801
G1 X144.851 Y183.52 E0.26981
G1 X144.828 Y180.729 E0.10608
G1 X161.777 Y180.736 E0.64416
G1 X162.631 Y180.711 E0.03248
G1 X163.497 Y180.636 E0.03306
G1 X164.531 Y180.479 E0.03975
G1 X165.388 Y180.294 E0.03332
G1 X166.397 Y180.005 E0.03989
G1 X167.055 Y179.778 E0.02645
G1 X167.866 Y179.448 E0.03328
G1 X168.813 Y178.988 E0.04001
G1 X169.577 Y178.559 E0.03329
G1 X170.311 Y178.083 E0.03326
G1 X171.151 Y177.463 E0.03968
G1 X171.817 Y176.904 E0.03303
G1 X172.323 Y176.427 E0.02644
G1 X173.04 Y175.681 E0.03932
G1 X173.708 Y174.877 E0.03975
G1 X174.221 Y174.172 E0.03313
G1 X174.695 Y173.439 E0.03317
G1 X175.125 Y172.679 E0.03318
G1 X175.512 Y171.893 E0.0333
G1 X175.915 Y170.919 E0.04006
G1 X176.197 Y170.09 E0.03328
G1 X176.432 Y169.246 E0.03332
G1 X176.645 Y168.223 E0.03971
G1 X176.751 Y167.534 E0.02648
G1 X176.834 Y166.669 E0.03303
G1 X176.873 Y165.643 E0.03901
G1 X176.873 Y145.179 E0.77777
G1 X185.157 Y145.179 E0.31485
G1 X185.153 Y170.633 E0.9674
G1 X185.27 Y171.107 E0.01856
G1 X185.26 Y171.388 E0.01072
G1 X185.168 Y172.223 E0.0319
G1 X185.063 Y172.853 E0.02431
G1 X184.926 Y173.475 E0.02417
G1 X184.627 Y174.542 E0.04212
G1 X184.417 Y175.132 E0.0238
G1 X184.181 Y175.704 E0.02353
G1 X183.69 Y176.699 E0.04217
G1 X183.276 Y177.395 E0.03078
G1 X183.041 Y177.66 E0.01344
G1 X182.781 Y178.036 E0.01737
G1 X182.671 Y178.279 E0.01016
G1 X182.451 Y178.563 E0.01364
G1 X182.22 Y178.768 E0.01174
G1 X181.925 Y179.11 E0.01718
G1 X181.773 Y179.356 E0.011
G1 X181.215 Y179.923 E0.03022
G1 X180.574 Y180.497 E0.03271
G1 X179.892 Y181.028 E0.03285
G1 X179.399 Y181.37 E0.0228
G1 X178.892 Y181.686 E0.02272
G1 X177.897 Y182.22 E0.0429
G1 X177.35 Y182.47 E0.02286
M73 P1 R43
G1 X176.79 Y182.698 E0.02298
G1 X175.975 Y182.974 E0.03269
G1 X175.145 Y183.196 E0.03267
G1 X174.55 Y183.318 E0.0231
G1 X173.944 Y183.414 E0.02329
G1 X173.088 Y183.498 E0.03269
G1 X171.985 Y183.538 E0.04195
G1 X170.105 Y183.546 E0.07147
G1 X165.927 Y183.442 E0.15884
G1 X155.936 Y183.425 E0.37972
G1 X156.393 Y183.883 F9000
;TYPE:External perimeter
G1 F1800
G1 X156.393 Y184.184 E0.01145
G1 X155.991 Y184.184 E0.01526
G1 X155.991 Y184.977 E0.03016
G1 X151.493 Y184.977 E0.17094
G1 X151.493 Y183.977 E0.03801
G1 X144.398 Y183.977 E0.26966
G1 X144.368 Y180.342 E0.13817
G1 X144.769 Y180.272 E0.01549
G1 X161.77 Y180.279 E0.64614
G1 X162.604 Y180.254 E0.03173
G1 X163.443 Y180.182 E0.032
G1 X164.449 Y180.029 E0.03865
G1 X165.277 Y179.85 E0.03221
G1 X166.26 Y179.569 E0.03885
G1 X166.894 Y179.35 E0.02551
G1 X167.68 Y179.03 E0.03224
G1 X168.601 Y178.583 E0.03891
G1 X169.34 Y178.167 E0.03222
G1 X170.051 Y177.707 E0.03219
G1 X170.868 Y177.104 E0.03859
G1 X171.513 Y176.562 E0.032
G1 X172.002 Y176.102 E0.02552
G1 X172.699 Y175.376 E0.03825
G1 X173.347 Y174.596 E0.03857
G1 X173.845 Y173.913 E0.03209
G1 X174.304 Y173.203 E0.03216
G1 X174.72 Y172.466 E0.03217
G1 X175.095 Y171.704 E0.03225
G1 X175.487 Y170.758 E0.03894
G1 X175.761 Y169.955 E0.03223
G1 X175.988 Y169.138 E0.03225
G1 X176.195 Y168.141 E0.03868
G1 X176.297 Y167.477 E0.02553
G1 X176.378 Y166.638 E0.03203
G1 X176.416 Y165.635 E0.03818
G1 X176.416 Y144.722 E0.79481
G1 X185.614 Y144.722 E0.3496
G1 X185.614 Y144.852 E0.00495
G1 X185.61 Y170.577 E0.97769
G1 X185.729 Y171.059 E0.01887
G1 X185.717 Y171.422 E0.0138
G1 X185.621 Y172.286 E0.03304
G1 X185.512 Y172.94 E0.02523
G1 X185.37 Y173.586 E0.02511
G1 X185.062 Y174.68 E0.0432
G1 X184.844 Y175.296 E0.02483
G1 X184.597 Y175.893 E0.02455
G1 X184.092 Y176.917 E0.04342
G1 X183.647 Y177.666 E0.03313
G1 X183.401 Y177.943 E0.01404
G1 X183.181 Y178.262 E0.01474
G1 X183.065 Y178.516 E0.01063
G1 X182.787 Y178.876 E0.0173
G1 X182.547 Y179.089 E0.01219
G1 X182.295 Y179.382 E0.01466
G1 X182.134 Y179.64 E0.01157
G1 X181.531 Y180.254 E0.0327
G1 X180.867 Y180.848 E0.03386
G1 X180.163 Y181.396 E0.03392
G1 X179.65 Y181.752 E0.02371
G1 X179.121 Y182.081 E0.0237
G1 X178.101 Y182.63 E0.04403
G1 X177.531 Y182.89 E0.02379
G1 X176.95 Y183.126 E0.02386
G1 X176.108 Y183.412 E0.03378
G1 X175.25 Y183.641 E0.03375
G1 X174.631 Y183.768 E0.02399
G1 X174.003 Y183.867 E0.02419
G1 X173.119 Y183.955 E0.03375
G1 X171.995 Y183.995 E0.04277
G1 X170.1 Y184.003 E0.072
G1 X165.921 Y183.899 E0.15888
G1 X156.393 Y183.883 E0.36212
;WIPE_START
M204 S3000
G1 X155.993 Y183.883 F9000
;WIPE_END
G1 E-1 F3000
M204 S1000
G1 X184.631 Y146.629 F9000
G1 E1 F1800
;TYPE:Solid infill
;WIDTH:0.489612
G1 F2400
G1 X183.707 Y145.705 E0.04862
G1 X183.061 Y145.705 F9000
G1 F2400
G1 X184.631 Y147.275 E0.08264
G1 X184.631 Y147.921 F9000
G1 F2400
G1 X182.414 Y145.705 E0.11666
G1 X181.768 Y145.705 F9000
G1 F2400
G1 X184.631 Y148.567 E0.15067
G1 X184.631 Y149.214 F9000
G1 F2400
G1 X181.121 Y145.705 E0.18469
G1 X180.475 Y145.705 F9000
G1 F2400
G1 X184.63 Y149.86 E0.21871
G1 X184.63 Y150.506 F9000
G1 F2400
G1 X179.829 Y145.705 E0.25272
G1 X179.182 Y145.705 F9000
G1 F2400
G1 X184.63 Y151.153 E0.28674
G1 X184.63 Y151.799 F9000
G1 F2400
G1 X178.536 Y145.705 E0.32076
G1 X177.889 Y145.705 F9000
G1 F2400
G1 X184.63 Y152.445 E0.35477
G1 X184.63 Y153.092 F9000
G1 F2400
G1 X177.398 Y145.86 E0.38062
G1 X177.398 Y146.506 F9000
G1 F2400
G1 X184.63 Y153.738 E0.38061
G1 X184.63 Y154.384 F9000
G1 F2400
G1 X177.398 Y147.153 E0.38061
G1 X177.398 Y147.799 F9000
G1 F2400
G1 X184.63 Y155.03 E0.3806
G1 X184.629 Y155.677 F9000
G1 F2400
G1 X177.398 Y148.446 E0.3806
G1 X177.398 Y149.092 F9000
M73 P1 R43
G1 F2400
G1 X184.629 Y156.323 E0.38059
G1 X184.629 Y156.969 F9000
G1 F2400
G1 X177.398 Y149.738 E0.38059
G1 X177.398 Y150.385 F9000
G1 F2400
G1 X184.629 Y157.616 E0.38058
G1 X184.629 Y158.262 F9000
G1 F2400
G1 X177.398 Y151.031 E0.38057
G1 X177.398 Y151.678 F9000
G1 F2400
G1 X184.629 Y158.908 E0.38057
G1 X184.629 Y159.555 F9000
G1 F2400
G1 X177.398 Y152.324 E0.38056
G1 X177.398 Y152.97 F9000
G1 F2400
G1 X184.629 Y160.201 E0.38056
G1 X184.629 Y160.847 F9000
G1 F2400
G1 X177.398 Y153.617 E0.38055
G1 X177.398 Y154.263 F9000
G1 F2400
G1 X184.629 Y161.494 E0.38055
G1 X184.628 Y162.14 F9000
G1 F2400
G1 X177.398 Y154.91 E0.38054
G1 X177.398 Y155.556 F9000
G1 F2400
G1 X184.628 Y162.786 E0.38054
G1 X184.628 Y163.432 F9000
G1 F2400
G1 X177.398 Y156.202 E0.38053
G1 X177.398 Y156.849 F9000
G1 F2400
G1 X184.628 Y164.079 E0.38053
G1 X184.628 Y164.725 F9000
G1 F2400
G1 X177.398 Y157.495 E0.38052
G1 X177.398 Y158.142 F9000
G1 F2400
G1 X184.628 Y165.371 E0.38052
G1 X184.628 Y166.018 F9000
G1 F2400
G1 X177.398 Y158.788 E0.38051
G1 X177.398 Y159.434 F9000
G1 F2400
G1 X184.628 Y166.664 E0.38051
G1 X184.628 Y167.31 F9000
G1 F2400
G1 X177.398 Y160.081 E0.3805
G1 X177.398 Y160.727 F9000
G1 F2400
G1 X184.628 Y167.957 E0.38049
G1 X184.627 Y168.603 F9000
G1 F2400
G1 X177.398 Y161.374 E0.38049
G1 X177.398 Y162.02 F9000
G1 F2400
G1 X184.627 Y169.249 E0.38048
G1 X184.627 Y169.896 F9000
G1 F2400
G1 X177.398 Y162.667 E0.38048
G1 X177.398 Y163.313 F9000
G1 F2400
G1 X184.627 Y170.542 E0.38047
G1 X184.73 Y171.291 F9000
G1 F2400
G1 X177.398 Y163.959 E0.38586
G1 X177.398 Y164.606 F9000
G1 F2400
G1 X184.673 Y171.881 E0.3829
G1 X184.581 Y172.435 F9000
G1 F2400
G1 X177.398 Y165.252 E0.37803
G1 X177.383 Y165.884 F9000
G1 F2400
G1 X184.458 Y172.959 E0.37236
G1 X184.336 Y173.482 F9000
G1 F2400
G1 X177.344 Y166.491 E0.36798
G1 X177.305 Y167.098 F9000
G1 F2400
G1 X184.213 Y174.006 E0.36359
G1 X184.075 Y174.514 F9000
G1 F2400
G1 X177.255 Y167.694 E0.35894
G1 X177.154 Y168.239 F9000
G1 F2400
G1 X183.895 Y174.981 E0.35484
G1 X183.716 Y175.449 F9000
G1 F2400
G1 X177.052 Y168.785 E0.35074
G1 X176.951 Y169.33 F9000
G1 F2400
G1 X183.506 Y175.884 E0.34499
G1 X183.292 Y176.317 F9000
G1 F2400
G1 X176.813 Y169.838 E0.341
G1 X176.665 Y170.337 F9000
G1 F2400
G1 X183.05 Y176.722 E0.33605
G1 X182.796 Y177.114 F9000
G1 F2400
G1 X176.487 Y170.805 E0.33205
G1 X176.309 Y171.273 F9000
G1 F2400
G1 X182.542 Y177.506 E0.32805
G1 X182.288 Y177.899 F9000
G1 F2400
G1 X176.131 Y171.742 E0.32405
G1 X175.943 Y172.2 F9000
G1 F2400
G1 X181.997 Y178.254 E0.31861
G1 X181.693 Y178.596 F9000
G1 F2400
G1 X175.72 Y172.623 E0.31436
G1 X175.497 Y173.047 F9000
G1 F2400
G1 X181.389 Y178.939 E0.31012
G1 X181.085 Y179.281 F9000
G1 F2400
G1 X175.273 Y173.47 E0.30587
G1 X175.037 Y173.88 F9000
G1 F2400
G1 X180.769 Y179.612 E0.30172
G1 X180.417 Y179.906 F9000
G1 F2400
G1 X174.783 Y174.272 E0.29653
G1 X174.514 Y174.65 F9000
G1 F2400
G1 X180.065 Y180.2 E0.29213
G1 X179.712 Y180.494 F9000
G1 F2400
G1 X174.23 Y175.012 E0.28853
G1 X173.946 Y175.375 F9000
G1 F2400
G1 X179.327 Y180.755 E0.28319
G1 X178.922 Y180.997 F9000
G1 F2400
G1 X173.663 Y175.737 E0.27684
G1 X173.372 Y176.094 F9000
G1 F2400
G1 X178.518 Y181.239 E0.27081
G1 X178.113 Y181.481 F9000
G1 F2400
G1 X173.056 Y176.423 E0.26618
G1 X172.739 Y176.753 F9000
G1 F2400
G1 X177.708 Y181.723 E0.26155
G1 X177.25 Y181.911 F9000
G1 F2400
G1 X172.4 Y177.06 E0.25528
G1 X172.057 Y177.364 F9000
G1 F2400
G1 X176.786 Y182.093 E0.2489
G1 X176.322 Y182.275 F9000
G1 F2400
G1 X171.714 Y177.667 E0.24253
G1 X171.359 Y177.959 F9000
G1 F2400
G1 X175.857 Y182.457 E0.23678
G1 X175.331 Y182.577 F9000
G1 F2400
G1 X170.978 Y178.224 E0.22914
G1 X170.596 Y178.489 F9000
G1 F2400
G1 X174.8 Y182.692 E0.22124
G1 X174.268 Y182.807 F9000
G1 F2400
G1 X170.215 Y178.754 E0.21334
G1 X169.832 Y179.017 F9000
G1 F2400
G1 X173.717 Y182.902 E0.20447
G1 X173.109 Y182.941 F9000
G1 F2400
G1 X169.407 Y179.239 E0.19485
G1 X168.981 Y179.46 F9000
G1 F2400
G1 X172.501 Y182.979 E0.18524
G1 X171.886 Y183.011 F9000
G1 F2400
G1 X168.556 Y179.681 E0.17528
G1 X168.131 Y179.902 F9000
G1 F2400
G1 X171.23 Y183.001 E0.16309
G1 X170.573 Y182.99 F9000
G1 F2400
G1 X167.667 Y180.085 E0.15291
G1 X167.199 Y180.263 F9000
G1 F2400
G1 X169.916 Y182.98 E0.143
G1 X169.259 Y182.969 F9000
G1 F2400
G1 X166.73 Y180.44 E0.13309
G1 X166.24 Y180.597 F9000
G1 F2400
G1 X168.602 Y182.959 E0.12431
G1 X167.945 Y182.948 F9000
G1 F2400
G1 X165.738 Y180.741 E0.11619
G1 X165.21 Y180.859 F9000
G1 F2400
G1 X167.288 Y182.938 E0.10938
G1 X166.631 Y182.927 F9000
G1 F2400
G1 X164.663 Y180.959 E0.10362
G1 X164.115 Y181.058 F9000
G1 F2400
G1 X165.975 Y182.917 E0.09785
G1 X165.326 Y182.915 F9000
G1 F2400
G1 X163.568 Y181.157 E0.09255
G1 X162.958 Y181.193 F9000
G1 F2400
G1 X164.679 Y182.914 E0.09058
