; generated by SuperSlicer 2.4 on 2022-05-25 at 00:40:33 UTC


;
;

;
;
; 

; external perimeters extrusion width = 0.40mm
; perimeters extrusion width = 0.40mm
; infill extrusion width = 0.72mm
; solid infill extrusion width = 0.56mm
; top infill extrusion width = 0.40mm
; first layer extrusion width = 0.48mm

; external perimeters extrusion width = 0.40mm
; perimeters extrusion width = 0.40mm
; infill extrusion width = 0.72mm
; solid infill extrusion width = 0.56mm
; top infill extrusion width = 0.40mm
; first layer extrusion width = 0.48mm

; external perimeters extrusion width = 0.40mm
; perimeters extrusion width = 0.40mm
; infill extrusion width = 0.72mm
; solid infill extrusion width = 0.56mm
; top infill extrusion width = 0.40mm
; first layer extrusion width = 0.48mm

; external perimeters extrusion width = 0.40mm
; perimeters extrusion width = 0.40mm
; infill extrusion width = 0.72mm
; solid infill extrusion width = 0.56mm
; top infill extrusion width = 0.40mm
; first layer extrusion width = 0.48mm

; external perimeters extrusion width = 0.40mm
; perimeters extrusion width = 0.40mm
; infill extrusion width = 0.72mm
; solid infill extrusion width = 0.56mm
; top infill extrusion width = 0.40mm
; first layer extrusion width = 0.48mm

; external perimeters extrusion width = 0.40mm
; perimeters extrusion width = 0.40mm
; infill extrusion width = 0.72mm
; solid infill extrusion width = 0.56mm
; top infill extrusion width = 0.40mm
; first layer extrusion width = 0.48mm

; external perimeters extrusion width = 0.40mm
; perimeters extrusion width = 0.40mm
; infill extrusion width = 0.72mm
; solid infill extrusion width = 0.56mm
; top infill extrusion width = 0.40mm
; first layer extrusion width = 0.48mm

; object:{"name":"150mm_cable_tie","id":"150mm_cable_tie.stl id:0 copy 0","object_center":[152.500000,131.000000,0.000000],"boundingbox_center":[152.500000,131.000000,1.247719],"boundingbox_size":[169.999992,13.000000,2.495439]}
; object:{"name":"150mm_cable_tie","id":"150mm_cable_tie.stl id:1 copy 0","object_center":[152.500000,150.000000,0.000000],"boundingbox_center":[152.500000,150.000000,1.247719],"boundingbox_size":[169.999992,13.000000,2.495439]}
; object:{"name":"150mm_cable_tie","id":"150mm_cable_tie.stl id:2 copy 0","object_center":[152.500000,112.000000,0.000000],"boundingbox_center":[152.500000,112.000000,1.247719],"boundingbox_size":[169.999992,13.000000,2.495439]}
; object:{"name":"150mm_cable_tie","id":"150mm_cable_tie.stl id:3 copy 0","object_center":[152.500000,169.000000,0.000000],"boundingbox_center":[152.500000,169.000000,1.247719],"boundingbox_size":[169.999992,13.000000,2.495439]}
; object:{"name":"150mm_cable_tie","id":"150mm_cable_tie.stl id:4 copy 0","object_center":[152.500000,93.000000,0.000000],"boundingbox_center":[152.500000,93.000000,1.247719],"boundingbox_size":[169.999992,13.000000,2.495439]}
; object:{"name":"150mm_cable_tie","id":"150mm_cable_tie.stl id:5 copy 0","object_center":[152.500000,188.000000,0.000000],"boundingbox_center":[152.500000,188.000000,1.247719],"boundingbox_size":[169.999992,13.000000,2.495439]}
; object:{"name":"150mm_cable_tie","id":"150mm_cable_tie.stl id:6 copy 0","object_center":[152.500001,207.000000,0.000000],"boundingbox_center":[152.500001,207.000000,1.247719],"boundingbox_size":[169.999992,13.000000,2.495439]}
; plater:{"center":[152.500000,150.000000,0.000000],"boundingbox_center":[152.500000,150.000000,1.247719],"boundingbox_size":[169.999993,127.000000,2.495439]}

M73 P0 R82
;TYPE:Custom
START_PRINT T_BED=60 T_EXTRUDER=220
M107
G21 ; set units to millimeters
G90 ; use absolute coordinates
M83 ; use relative distances for extrusion
; Filament gcode
M104 S220 ; set temperature
M109 S220 ; set temperature and wait for it to be reached
M190 S60 ; set bed temperature and wait for it to be reached
M107
;LAYER_CHANGE
;Z:0.24
;HEIGHT:0.24
G1 Z0.24 F9000
G92 E0
M204 S1000
G1 X65.395 Y89.608
;TYPE:Skirt
;WIDTH:0.52
G1 F1800
G1 X64.295 Y90.916 E0.07988
G1 X63.9 Y92.578 E0.07988
G1 X63.9 Y207.422 E5.36857
G1 X64.183 Y208.841 E0.06764
G1 X65.186 Y210.225 E0.07988
G1 X66.703 Y211.011 E0.07988
M73 P0 R81
G1 X74.615 Y212.989 E0.38126
G1 X75.41 Y213.098 E0.03752
G1 X220.4 Y217.098 E6.78037
G1 X235.028 Y217.075 E0.68381
G1 X236.449 Y216.798 E0.06768
G1 X237.514 Y216.364 E0.05377
G1 X238.321 Y215.877 E0.04404
G1 X239.384 Y214.929 E0.06657
G1 X240.332 Y213.575 E0.07727
G1 X240.93 Y211.971 E0.08002
G1 X241.1 Y210.497 E0.06938
G1 X241.1 Y89.504 E5.65599
G1 X240.949 Y88.116 E0.06528
G1 X240.656 Y87.125 E0.04831
G1 X240.039 Y85.918 E0.06335
G1 X239.384 Y85.072 E0.05003
G1 X238.541 Y84.291 E0.05372
G1 X237.065 Y83.423 E0.08002
G1 X236.087 Y83.096 E0.04821
G1 X234.625 Y82.903 E0.06895
G1 X220.4 Y82.902 E0.66497
G1 X75.41 Y86.902 E6.78037
G1 X74.615 Y87.011 E0.03752
G1 X66.703 Y88.989 E0.38126
G1 X65.395 Y89.608 E0.06764
G1 X65.764 Y89.95 F9000
G1 F1800
G1 X64.761 Y91.032 E0.06895
G1 X64.367 Y92.578 E0.0746
G1 X64.367 Y207.422 E5.36857
G1 X64.54 Y208.465 E0.04941
G1 X65.411 Y209.801 E0.0746
G1 X66.816 Y210.559 E0.0746
G1 X74.728 Y212.537 E0.38126
G1 X75.423 Y212.632 E0.03279
G1 X220.413 Y216.632 E6.78037
M73 P1 R81
G1 X234.977 Y216.611 E0.68083
G1 X236.329 Y216.348 E0.06435
G1 X237.317 Y215.941 E0.04997
G1 X238.062 Y215.489 E0.04071
G1 X239.026 Y214.629 E0.0604
G1 X239.928 Y213.342 E0.07347
G1 X240.472 Y211.88 E0.07292
G1 X240.633 Y210.497 E0.06511
G1 X240.633 Y89.504 E5.65599
G1 X240.496 Y88.227 E0.06006
G1 X240.217 Y87.285 E0.04593
G1 X239.64 Y86.16 E0.05908
G1 X239.027 Y85.371 E0.0467
G1 X238.241 Y84.648 E0.04993
G1 X236.896 Y83.858 E0.07292
G1 X235.967 Y83.546 E0.04584
G1 X234.625 Y83.37 E0.06326
G1 X220.413 Y83.368 E0.66436
G1 X75.423 Y87.368 E6.78037
G1 X74.728 Y87.463 E0.03279
G1 X66.816 Y89.441 E0.38126
G1 X65.846 Y89.862 E0.04941
G1 X65.764 Y89.95 E0.00565
; printing object 150mm_cable_tie.stl id:0 copy 0
G1 X222.732 Y128.16 F9000
;TYPE:Internal perimeter
;WIDTH:0.48
G1 F1800
G1 X222.732 Y134.268 E0.26117
G1 X225.269 Y134.268 E0.10847
G1 X225.269 Y127.732 E0.27949
G1 X222.732 Y127.732 E0.10847
G1 X222.732 Y128.16 E0.01832
G1 X223.16 Y128.16 F9000
;TYPE:External perimeter
G1 F1800
G1 X223.16 Y133.84 E0.24285
G1 X224.84 Y133.84 E0.07183
G1 X224.84 Y128.16 E0.24285
G1 X223.16 Y128.16 E0.07183
;WIPE_START
M204 S3000
G1 X222.76 Y128.16 F9000
;WIPE_END
M204 S1000
G1 X229.732 Y128.16
;TYPE:Internal perimeter
G1 F1800
G1 X229.732 Y134.268 E0.26117
G1 X232.269 Y134.268 E0.10847
G1 X232.269 Y127.732 E0.27949
G1 X229.732 Y127.732 E0.10847
G1 X229.732 Y128.16 E0.01832
G1 X230.16 Y128.16 F9000
;TYPE:External perimeter
G1 F1800
G1 X230.16 Y133.84 E0.24285
G1 X231.84 Y133.84 E0.07183
G1 X231.84 Y128.16 E0.24285
G1 X230.16 Y128.16 E0.07183
;WIPE_START
M204 S3000
G1 X229.76 Y128.16 F9000
;WIPE_END
M204 S1000
G1 X217.839 Y132.732
;TYPE:Internal perimeter
G1 F1800
G1 X75.595 Y132.732 E6.08173
G1 X69.204 Y131.134 E0.28165
G1 X69.204 Y130.866 E0.01144
G1 X75.595 Y129.268 E0.28165
G1 X218.267 Y129.268 E6.10001
G1 X218.271 Y127.412 E0.07937
G1 X218.303 Y127.121 E0.01251
G1 X218.406 Y126.738 E0.01697
G1 X218.574 Y126.378 E0.01697
G1 X218.736 Y126.136 E0.01247
G1 X218.85 Y125.999 E0.0076
G1 X219.073 Y125.786 E0.01319
G1 X219.207 Y125.683 E0.00724
G1 X219.573 Y125.472 E0.01805
G1 X219.729 Y125.407 E0.00724
G1 X220.017 Y125.323 E0.01283
G1 X220.304 Y125.279 E0.01242
G1 X220.992 Y125.269 E0.02941
G1 X234.58 Y125.271 E0.58097
G1 X234.999 Y125.326 E0.01806
G1 X235.163 Y125.37 E0.00724
G1 X235.435 Y125.476 E0.01247
G1 X235.778 Y125.674 E0.01697
G1 X236.076 Y125.924 E0.01661
G1 X236.331 Y126.228 E0.01697
G1 X236.475 Y126.465 E0.01184
G1 X236.628 Y126.836 E0.01715
G1 X236.694 Y127.105 E0.01184
G1 X236.731 Y127.534 E0.01841
G1 X236.731 Y134.475 E0.29678
G1 X236.711 Y134.791 E0.01355
G1 X236.656 Y135.069 E0.01211
G1 X236.52 Y135.442 E0.01697
G1 X236.326 Y135.778 E0.01661
G1 X236.07 Y136.082 E0.01697
G1 X235.857 Y136.269 E0.01211
G1 X235.622 Y136.426 E0.01211
G1 X235.262 Y136.594 E0.01697
G1 X234.879 Y136.697 E0.01697
G1 X234.589 Y136.729 E0.01247
G1 X220.3 Y136.72 E0.61095
G1 X220.017 Y136.677 E0.01221
G1 X219.729 Y136.593 E0.01283
G1 X219.573 Y136.528 E0.00724
G1 X219.207 Y136.317 E0.01805
G1 X219.073 Y136.214 E0.00724
G1 X218.85 Y136.001 E0.01319
G1 X218.736 Y135.864 E0.0076
G1 X218.574 Y135.622 E0.01247
G1 X218.406 Y135.262 E0.01697
G1 X218.303 Y134.879 E0.01697
G1 X218.271 Y134.588 E0.01251
G1 X218.267 Y132.732 E0.07937
G1 X217.839 Y132.732 E0.01827
G1 X217.839 Y133.16 F9000
;TYPE:External perimeter
G1 F1800
G1 X75.542 Y133.16 E6.08399
G1 X67.84 Y131.235 E0.33943
G1 X67.84 Y130.765 E0.02006
G1 X75.542 Y128.84 E0.33943
G1 X217.839 Y128.84 E6.08399
M73 P1 R80
G1 X217.843 Y127.388 E0.06208
G1 X217.881 Y127.042 E0.01489
G1 X218.002 Y126.591 E0.01997
G1 X218.199 Y126.167 E0.01997
G1 X218.392 Y125.878 E0.01487
G1 X218.537 Y125.706 E0.0096
G1 X218.793 Y125.46 E0.01519
G1 X218.969 Y125.326 E0.00944
G1 X219.383 Y125.087 E0.02045
G1 X219.587 Y125.002 E0.00944
G1 X219.924 Y124.904 E0.01503
G1 X220.268 Y124.851 E0.01488
G1 X220.989 Y124.84 E0.03081
G1 X234.609 Y124.843 E0.58231
G1 X235.083 Y124.905 E0.02046
G1 X235.296 Y124.962 E0.00944
G1 X235.62 Y125.089 E0.01487
G1 X236.025 Y125.322 E0.01997
G1 X236.38 Y125.62 E0.01982
G1 X236.68 Y125.978 E0.01997
G1 X236.858 Y126.271 E0.01465
G1 X237.037 Y126.702 E0.01995
G1 X237.118 Y127.035 E0.01465
G1 X237.16 Y127.515 E0.02061
G1 X237.16 Y134.489 E0.29818
G1 X237.137 Y134.847 E0.01535
G1 X237.069 Y135.185 E0.01471
G1 X236.91 Y135.624 E0.01997
G1 X236.678 Y136.025 E0.01981
G1 X236.378 Y136.383 E0.01998
G1 X236.119 Y136.61 E0.01471
G1 X235.833 Y136.801 E0.01472
G1 X235.409 Y136.998 E0.01997
G1 X234.958 Y137.119 E0.01997
G1 X234.612 Y137.157 E0.01487
G1 X220.267 Y137.149 E0.61335
G1 X219.924 Y137.096 E0.01481
G1 X219.587 Y136.998 E0.01503
G1 X219.383 Y136.913 E0.00944
G1 X218.969 Y136.674 E0.02045
G1 X218.793 Y136.54 E0.00944
G1 X218.537 Y136.294 E0.01519
G1 X218.392 Y136.122 E0.0096
G1 X218.199 Y135.833 E0.01487
G1 X218.002 Y135.409 E0.01997
G1 X217.881 Y134.958 E0.01997
G1 X217.843 Y134.612 E0.01489
G1 X217.839 Y133.16 E0.06208
;WIPE_START
M204 S3000
G1 X217.839 Y132.76 F9000
;WIPE_END
M204 S1000
G1 X236.629 Y127.451
;TYPE:Solid infill
;WIDTH:0.460577
G1 F1800
G1 X234.828 Y125.65 E0.10449
G1 X234.529 Y125.52 E0.01338
G1 X234.093 Y125.522 E0.01789
G1 X236.479 Y127.908 E0.13845
G1 X236.473 Y128.508 E0.02461
G1 X233.489 Y125.524 E0.17314
G1 X232.885 Y125.526 E0.02477
G1 X236.467 Y129.108 E0.20782
G1 X236.461 Y129.708 E0.02461
G1 X232.281 Y125.528 E0.2425
G1 X231.677 Y125.53 E0.02477
G1 X236.455 Y130.308 E0.27719
G1 X236.449 Y130.908 E0.02461
G1 X231.074 Y125.532 E0.31187
G1 X230.47 Y125.534 E0.02477
G1 X236.443 Y131.508 E0.34655
G1 X236.437 Y132.107 E0.02461
G1 X232.517 Y128.188 E0.22743
G1 X232.517 Y128.794 E0.02486
G1 X236.431 Y132.707 E0.22707
G1 X236.425 Y133.307 E0.02461
G1 X232.517 Y129.4 E0.22672
G1 X232.517 Y130.006 E0.02486
G1 X236.419 Y133.907 E0.22637
G1 X236.413 Y134.507 E0.02461
G1 X232.517 Y130.612 E0.22602
G1 X232.517 Y131.218 E0.02486
G1 X236.362 Y135.062 E0.22306
G1 X236.12 Y135.426 E0.01793
G1 X232.517 Y131.823 E0.20902
G1 X232.517 Y132.429 E0.02486
G1 X235.878 Y135.79 E0.19498
G1 X235.696 Y136.063 E0.01346
G1 X235.585 Y136.103 E0.00484
G1 X232.517 Y133.035 E0.178
G1 X232.517 Y133.641 E0.02486
G1 X235.14 Y136.265 E0.15219
G1 X234.695 Y136.426 E0.01941
G1 X232.517 Y134.247 E0.12639
G1 X232.517 Y134.517 E0.01106
G1 X232.181 Y134.517 E0.0138
G1 X234.142 Y136.479 E0.11381
G1 X233.534 Y136.476 E0.02495
G1 X231.575 Y134.517 E0.11368
G1 X230.969 Y134.517 E0.02486
G1 X232.926 Y136.474 E0.11356
G1 X232.318 Y136.472 E0.02495
G1 X230.178 Y134.333 E0.12412
G1 X231.997 Y127.667 F9000
G1 F1800
G1 X229.866 Y125.537 E0.12362
G1 X229.262 Y125.539 E0.02477
G1 X231.206 Y127.483 E0.11281
G1 X230.6 Y127.483 E0.02486
G1 X228.658 Y125.541 E0.11268
G1 X228.054 Y125.543 E0.02477
G1 X229.994 Y127.483 E0.11256
G1 X229.483 Y127.483 E0.02098
G1 X229.483 Y127.578 E0.00388
G1 X227.451 Y125.545 E0.11792
G1 X226.847 Y125.547 E0.02477
G1 X229.483 Y128.184 E0.15295
G1 X229.483 Y128.79 E0.02486
G1 X226.243 Y125.549 E0.18799
G1 X225.639 Y125.552 E0.02477
G1 X229.483 Y129.395 E0.22302
G1 X229.483 Y130.001 E0.02486
G1 X225.035 Y125.554 E0.25805
G1 X224.431 Y125.556 E0.02477
G1 X229.483 Y130.607 E0.29309
G1 X229.483 Y131.213 E0.02486
G1 X223.828 Y125.558 E0.32812
G1 X223.224 Y125.56 E0.02477
G1 X225.147 Y127.483 E0.11156
G1 X225.517 Y127.483 E0.0152
G1 X225.517 Y127.853 E0.0152
G1 X229.483 Y131.819 E0.2301
G1 X229.483 Y132.425 E0.02486
G1 X225.517 Y128.459 E0.2301
G1 X225.517 Y129.065 E0.02486
G1 X229.483 Y133.031 E0.2301
G1 X229.483 Y133.637 E0.02486
G1 X225.517 Y129.671 E0.2301
G1 X225.517 Y130.277 E0.02486
G1 X231.71 Y136.47 E0.35929
G1 X231.101 Y136.468 E0.02495
G1 X225.517 Y130.883 E0.324
G1 X225.517 Y131.489 E0.02486
G1 X230.493 Y136.466 E0.28872
G1 X229.885 Y136.463 E0.02495
G1 X225.517 Y132.095 E0.25344
G1 X225.517 Y132.701 E0.02486
G1 X229.277 Y136.461 E0.21815
G1 X228.669 Y136.459 E0.02495
M73 P2 R80
G1 X225.517 Y133.307 E0.18287
G1 X225.517 Y133.913 E0.02486
G1 X228.061 Y136.457 E0.14759
G1 X227.453 Y136.455 E0.02495
G1 X225.515 Y134.517 E0.11243
G1 X224.909 Y134.517 E0.02486
G1 X226.844 Y136.453 E0.11231
G1 X226.236 Y136.451 E0.02495
G1 X224.303 Y134.517 E0.11218
G1 X223.697 Y134.517 E0.02486
G1 X225.628 Y136.448 E0.11206
G1 X225.02 Y136.446 E0.02495
G1 X222.907 Y134.333 E0.12262
G1 X224.725 Y127.667 F9000
G1 F1800
G1 X222.62 Y125.562 E0.12213
G1 X222.016 Y125.564 E0.02477
G1 X223.935 Y127.483 E0.11131
G1 X223.329 Y127.483 E0.02486
G1 X221.412 Y125.567 E0.11119
G1 X220.808 Y125.569 E0.02477
G1 X222.723 Y127.483 E0.11107
G1 X222.483 Y127.483 E0.00983
G1 X222.483 Y127.849 E0.01503
G1 X220.205 Y125.571 E0.1322
G1 X220.075 Y125.571 E0.0053
G1 X219.756 Y125.728 E0.01461
G1 X222.483 Y128.455 E0.15824
G1 X222.483 Y129.061 E0.02486
G1 X219.349 Y125.927 E0.18183
G1 X219.24 Y125.981 E0.005
G1 X219.057 Y126.241 E0.01304
G1 X222.483 Y129.667 E0.19877
G1 X222.483 Y130.273 E0.02486
G1 X218.807 Y126.598 E0.21325
G1 X218.65 Y126.822 E0.01125
G1 X218.638 Y127.035 E0.00872
G1 X222.483 Y130.879 E0.22306
G1 X222.483 Y131.485 E0.02486
G1 X218.607 Y127.609 E0.2249
G1 X218.575 Y128.183 E0.0236
G1 X222.483 Y132.091 E0.22673
G1 X222.483 Y132.697 E0.02486
G1 X218.544 Y128.758 E0.22856
G1 X218.512 Y129.332 E0.0236
G1 X222.483 Y133.303 E0.2304
G1 X222.483 Y133.909 E0.02486
G1 X218.091 Y129.517 E0.25483
G1 X217.485 Y129.517 E0.02486
G1 X224.412 Y136.444 E0.4019
G1 X223.804 Y136.442 E0.02495
G1 X216.879 Y129.517 E0.40177
G1 X216.273 Y129.517 E0.02486
G1 X223.196 Y136.44 E0.40165
G1 X222.588 Y136.438 E0.02495
G1 X215.667 Y129.517 E0.40152
G1 X215.061 Y129.517 E0.02486
G1 X218.027 Y132.483 E0.17208
G1 X218.502 Y132.483 E0.01948
G1 X218.529 Y132.985 E0.02065
G1 X221.979 Y136.435 E0.20016
G1 X221.371 Y136.433 E0.02495
G1 X218.565 Y133.627 E0.16283
G1 X218.6 Y134.268 E0.02635
G1 X220.763 Y136.431 E0.1255
G1 X220.155 Y136.429 E0.02495
G1 X218.44 Y134.714 E0.0995
G1 X217.605 Y132.667 F9000
G1 F1800
G1 X214.455 Y129.517 E0.18277
G1 X213.849 Y129.517 E0.02486
G1 X216.815 Y132.483 E0.17208
G1 X216.209 Y132.483 E0.02486
G1 X213.243 Y129.517 E0.17208
G1 X212.637 Y129.517 E0.02486
G1 X215.603 Y132.483 E0.17208
G1 X214.997 Y132.483 E0.02486
G1 X212.031 Y129.517 E0.17208
G1 X211.425 Y129.517 E0.02486
G1 X214.391 Y132.483 E0.17208
G1 X213.785 Y132.483 E0.02486
G1 X210.819 Y129.517 E0.17208
G1 X210.213 Y129.517 E0.02486
G1 X213.179 Y132.483 E0.17208
G1 X212.573 Y132.483 E0.02486
G1 X209.607 Y129.517 E0.17208
G1 X209.001 Y129.517 E0.02486
G1 X211.967 Y132.483 E0.17208
G1 X211.361 Y132.483 E0.02486
G1 X208.395 Y129.517 E0.17208
G1 X207.789 Y129.517 E0.02486
G1 X210.755 Y132.483 E0.17208
G1 X210.149 Y132.483 E0.02486
G1 X207.183 Y129.517 E0.17208
G1 X206.577 Y129.517 E0.02486
G1 X209.543 Y132.483 E0.17208
G1 X208.937 Y132.483 E0.02486
G1 X205.971 Y129.517 E0.17208
G1 X205.365 Y129.517 E0.02486
G1 X208.331 Y132.483 E0.17208
G1 X207.725 Y132.483 E0.02486
G1 X204.759 Y129.517 E0.17208
