; generated by SuperSlicer 2.3.57 on 2022-02-07 at 22:10:18 UTC


;
;

;
;
; 

; external perimeters extrusion width = 0.40mm
; perimeters extrusion width = 0.40mm
; infill extrusion width = 0.72mm
; solid infill extrusion width = 0.40mm
; top infill extrusion width = 0.40mm
; first layer extrusion width = 0.52mm


;TYPE:Custom
START_PRINT T_BED=70 T_EXTRUDER=230
M107
G21 ; set units to millimeters
G90 ; use absolute coordinates
M83 ; use relative distances for extrusion
; Filament gcode
M104 S230 ; set temperature
M109 S230 ; set temperature and wait for it to be reached
M190 S70 ; set bed temperature and wait for it to be reached
;LAYER_CHANGE
;Z:0.24
;HEIGHT:0.24
G1 Z0.24 F9000
G1 E-1 F3000
G1 X134.982 Y128.742 F9000
G1 E1 F1800
;TYPE:Skirt
;WIDTH:0.52
G1 F600
G1 X134.146 Y129.72 E0.06017
G1 X133.485 Y130.805 E0.05939
G1 X132.988 Y132.008 E0.06081
G1 X132.65 Y133.442 E0.0689
G1 X132.551 Y134.825 E0.06478
G1 X132.554 Y146.44 E0.54297
G1 X132.671 Y147.695 E0.05892
G1 X132.988 Y149.001 E0.06285
G1 X133.431 Y150.109 E0.05577
G1 X141.674 Y167.179 E0.88612
G1 X142.459 Y168.451 E0.06987
G1 X143.391 Y169.603 E0.06932
G1 X144.865 Y170.969 E0.09393
G1 X146.095 Y171.818 E0.06987
G1 X147.413 Y172.497 E0.06932
G1 X149.334 Y173.162 E0.09503
G1 X150.774 Y173.436 E0.06849
G1 X152.277 Y173.529 E0.07041
G1 X154.274 Y173.367 E0.09365
G1 X155.849 Y172.995 E0.07564
G1 X157.76 Y172.22 E0.09641
G1 X159.102 Y171.426 E0.07289
G1 X160.769 Y170.049 E0.10108
G1 X161.866 Y168.804 E0.07757
G1 X162.61 Y167.711 E0.06182
G1 X171.93 Y151.176 E0.88727
G1 X172.31 Y149.979 E0.0587
G1 X172.448 Y148.702 E0.06003
G1 X172.446 Y137.054 E0.54455
G1 X172.349 Y136.113 E0.04421
G1 X172.126 Y135.247 E0.04178
G1 X169.782 Y129.963 E0.27022
G1 X169.248 Y129.047 E0.04957
G1 X168.622 Y128.311 E0.04518
G1 X167.88 Y127.692 E0.04518
G1 X167.045 Y127.206 E0.04518
G1 X166.139 Y126.869 E0.04518
G1 X164.701 Y126.66 E0.06794
G1 X140.565 Y126.469 E1.1283
G1 X139.459 Y126.542 E0.05181
G1 X138.203 Y126.816 E0.06011
G1 X137.069 Y127.261 E0.05694
G1 X135.924 Y127.944 E0.06235
G1 X135.028 Y128.703 E0.05489
G1 X135.331 Y129.06 F9000
G1 F600
G1 X135.301 Y129.085 E0.00182
G1 X134.513 Y130.012 E0.05689
G1 X133.891 Y131.04 E0.05615
G1 X133.415 Y132.209 E0.05901
G1 X133.116 Y133.493 E0.06165
G1 X133.022 Y134.678 E0.05554
G1 X133.02 Y146.272 E0.542
G1 X133.127 Y147.575 E0.06111
G1 X133.437 Y148.869 E0.0622
G1 X133.853 Y149.906 E0.05225
G1 X142.09 Y166.962 E0.88541
G1 X142.837 Y168.175 E0.06659
G1 X143.709 Y169.258 E0.06501
G1 X145.154 Y170.6 E0.09219
G1 X146.326 Y171.41 E0.06659
G1 X147.591 Y172.064 E0.06659
G1 X149.455 Y172.709 E0.09219
G1 X150.973 Y172.987 E0.07212
G1 X152.919 Y173.043 E0.09103
G1 X154.353 Y172.88 E0.06748
G1 X155.72 Y172.544 E0.0658
G1 X157.558 Y171.797 E0.09272
G1 X158.837 Y171.04 E0.06949
G1 X160.448 Y169.708 E0.09773
G1 X161.5 Y168.511 E0.07449
G1 X162.203 Y167.479 E0.05835
G1 X171.503 Y150.983 E0.88525
G1 X171.853 Y149.876 E0.05431
G1 X171.979 Y148.688 E0.05582
G1 X171.978 Y137.07 E0.54313
G1 X171.887 Y136.19 E0.04133
G1 X171.676 Y135.379 E0.03918
G1 X169.359 Y130.164 E0.26675
G1 X168.884 Y129.343 E0.04433
G1 X168.302 Y128.653 E0.04222
G1 X167.609 Y128.074 E0.04222
G1 X166.827 Y127.622 E0.04222
G1 X165.979 Y127.311 E0.04222
G1 X164.684 Y127.129 E0.06114
G1 X140.564 Y126.937 E1.12754
G1 X139.525 Y127.006 E0.04869
G1 X138.338 Y127.265 E0.0568
G1 X137.269 Y127.685 E0.05371
G1 X136.184 Y128.335 E0.05911
G1 X135.377 Y129.021 E0.04953
G1 E-1 F3000
G1 X153.428 Y133.002 F9000
G1 E1 F1800
;TYPE:Internal perimeter
G1 F600
G1 X164.022 Y133.086 E0.49525
G1 X164.047 Y133.308 E0.01042
G1 X164.04 Y133.517 E0.0098
G1 X164.016 Y133.646 E0.00612
G1 X163.968 Y133.78 E0.00667
G1 X163.807 Y134.125 E0.01779
G1 X163.719 Y134.392 E0.01313
G1 X163.669 Y134.663 E0.01291
G1 X163.662 Y134.924 E0.01219
G1 X163.692 Y135.131 E0.00978
G1 X163.747 Y135.314 E0.00891
G1 X163.827 Y135.479 E0.0086
G1 X163.935 Y135.634 E0.00884
G1 X164.086 Y135.79 E0.01012
G1 X164.282 Y135.937 E0.01147
G1 X164.372 Y135.993 E0.00494
G1 X164.941 Y136.311 E0.03048
G1 X165.165 Y136.481 E0.01314
G1 X165.808 Y137.086 E0.04127
G1 X140.594 Y136.835 E1.17872
G1 X140.39 Y136.816 E0.00958
G1 X140.2 Y136.768 E0.00918
G1 X139.977 Y136.675 E0.01128
G1 X139.756 Y136.537 E0.01217
G1 X139.567 Y136.371 E0.01177
G1 X139.385 Y136.148 E0.01346
G1 X139.232 Y135.886 E0.0142
G1 X139.102 Y135.559 E0.01642
G1 X139.016 Y135.19 E0.01774
G1 X138.985 Y134.816 E0.01752
G1 X139.009 Y134.417 E0.0187
G1 X139.092 Y134.042 E0.01796
G1 X139.226 Y133.71 E0.01676
G1 X139.361 Y133.487 E0.01216
G1 X139.522 Y133.3 E0.01153
G1 X139.706 Y133.149 E0.01112
G1 X139.904 Y133.036 E0.01067
G1 X140.122 Y132.956 E0.01086
G1 X140.374 Y132.909 E0.01196
G1 X140.571 Y132.9 E0.00923
G1 X153.368 Y133.002 E0.59826
G1 X153.372 Y132.533 F9000
;TYPE:External perimeter
G1 F600
G1 X164.404 Y132.621 E0.51573
G1 X164.473 Y132.9 E0.01347
G1 X164.516 Y133.289 E0.01829
G1 X164.507 Y133.568 E0.01302
G1 X164.47 Y133.769 E0.00956
G1 X164.402 Y133.959 E0.00947
G1 X164.243 Y134.298 E0.01749
G1 X164.174 Y134.508 E0.01034
G1 X164.136 Y134.712 E0.00968
G1 X164.132 Y134.897 E0.00865
G1 X164.151 Y135.03 E0.0063
G1 X164.185 Y135.143 E0.00551
G1 X164.232 Y135.242 E0.00513
G1 X164.298 Y135.335 E0.00534
G1 X164.396 Y135.437 E0.00662
G1 X164.547 Y135.55 E0.00881
G1 X164.61 Y135.59 E0.00348
G1 X165.198 Y135.918 E0.03148
G1 X165.468 Y136.123 E0.01583
G1 X166.084 Y136.702 E0.03951
G1 X166.235 Y136.836 E0.00945
G1 X166.386 Y136.993 E0.01019
G1 X166.44 Y137.071 E0.00444
G1 X166.466 Y137.124 E0.00276
G1 X166.479 Y137.166 E0.00206
G1 X166.485 Y137.206 E0.00189
G1 X166.484 Y137.253 E0.00217
G1 X166.475 Y137.309 E0.00265
G1 X166.453 Y137.374 E0.00321
G1 X166.419 Y137.44 E0.00347
G1 X166.384 Y137.487 E0.00277
G1 X166.349 Y137.521 E0.00225
G1 X166.318 Y137.543 E0.00177
G1 X166.283 Y137.559 E0.00182
G1 X140.57 Y137.303 E1.20205
G1 X140.311 Y137.279 E0.01218
G1 X140.051 Y137.214 E0.01251
G1 X139.762 Y137.092 E0.01468
G1 X139.476 Y136.915 E0.01574
G1 X139.229 Y136.697 E0.01538
G1 X138.999 Y136.416 E0.01697
G1 X138.809 Y136.092 E0.01758
G1 X138.654 Y135.7 E0.01972
G1 X138.552 Y135.263 E0.02096
G1 X138.515 Y134.822 E0.0207
G1 X138.544 Y134.352 E0.022
G1 X138.643 Y133.903 E0.02148
G1 X138.806 Y133.499 E0.02039
G1 X138.981 Y133.211 E0.01575
G1 X139.193 Y132.964 E0.0152
G1 X139.439 Y132.762 E0.01488
G1 X139.706 Y132.609 E0.0144
G1 X139.998 Y132.503 E0.01453
G1 X140.319 Y132.443 E0.01528
G1 X140.562 Y132.432 E0.01133
G1 X153.312 Y132.533 E0.59606
;WIPE_START
G1 X153.569 Y132.881 F9000
;WIPE_END
G1 E-1 F3000
G1 X163.726 Y133.9 F9000
G1 E1 F1800
;TYPE:Solid infill
;WIDTH:0.525664
G1 X163.272 Y133.446 E0.03037
G1 X162.604 Y133.441 E0.03155
G1 X163.389 Y134.226 E0.05244
G1 X163.364 Y134.301 E0.00375
G1 X163.304 Y134.626 E0.01561
G1 X163.3 Y134.799 E0.00821
G1 X161.937 Y133.436 E0.09111
G1 X161.269 Y133.431 E0.03155
G1 X164.256 Y136.418 E0.19961
G1 X164.163 Y136.704 E0.01421
G1 X163.876 Y136.701 E0.01355
G1 X160.601 Y133.426 E0.21886
G1 X159.934 Y133.421 E0.03155
G1 X163.207 Y136.694 E0.21875
G1 X162.538 Y136.688 E0.03163
G1 X159.266 Y133.416 E0.21864
G1 X158.599 Y133.411 E0.03155
G1 X161.869 Y136.681 E0.21853
G1 X161.2 Y136.674 E0.03163
G1 X157.931 Y133.406 E0.21842
G1 X157.264 Y133.401 E0.03155
G1 X160.53 Y136.668 E0.21831
G1 X159.861 Y136.661 E0.03163
G1 X156.596 Y133.396 E0.2182
G1 X155.929 Y133.391 E0.03155
G1 X159.192 Y136.654 E0.21809
G1 X158.523 Y136.648 E0.03163
G1 X155.261 Y133.386 E0.21798
G1 X154.594 Y133.381 E0.03155
G1 X157.854 Y136.641 E0.21787
G1 X157.184 Y136.635 E0.03163
G1 X153.926 Y133.376 E0.21776
G1 X153.258 Y133.371 E0.03155
G1 X156.515 Y136.628 E0.21765
G1 X155.846 Y136.621 E0.03163
G1 X152.591 Y133.366 E0.21754
G1 X151.923 Y133.361 E0.03155
G1 X155.177 Y136.615 E0.21743
G1 X154.508 Y136.608 E0.03163
G1 X151.256 Y133.356 E0.21731
G1 X150.588 Y133.351 E0.03155
G1 X153.838 Y136.601 E0.2172
G1 X153.169 Y136.595 E0.03163
G1 X149.921 Y133.346 E0.21709
G1 X149.253 Y133.341 E0.03155
G1 X152.5 Y136.588 E0.21698
G1 X151.831 Y136.581 E0.03163
G1 X148.586 Y133.336 E0.21687
G1 X147.918 Y133.331 E0.03155
G1 X151.162 Y136.575 E0.21676
G1 X150.492 Y136.568 E0.03163
G1 X147.251 Y133.326 E0.21665
G1 X146.583 Y133.321 E0.03155
G1 X149.823 Y136.561 E0.21654
G1 X149.154 Y136.555 E0.03163
G1 X145.916 Y133.316 E0.21643
G1 X145.248 Y133.311 E0.03155
G1 X148.485 Y136.548 E0.21632
G1 X147.816 Y136.541 E0.03163
G1 X144.58 Y133.306 E0.21621
G1 X143.913 Y133.301 E0.03155
G1 X147.146 Y136.535 E0.2161
G1 X146.477 Y136.528 E0.03163
G1 X143.245 Y133.296 E0.21599
G1 X142.578 Y133.291 E0.03155
G1 X145.808 Y136.522 E0.21588
G1 X145.139 Y136.515 E0.03163
G1 X141.91 Y133.286 E0.21577
G1 X141.243 Y133.281 E0.03155
G1 X144.47 Y136.508 E0.21566
G1 X143.8 Y136.502 E0.03163
G1 X140.575 Y133.276 E0.21554
G1 X140.406 Y133.275 E0.00799
G1 X140.219 Y133.31 E0.00899
G1 X140.058 Y133.369 E0.00809
G1 X140.024 Y133.388 E0.00184
G1 X143.131 Y136.495 E0.20764
G1 X142.462 Y136.488 E0.03163
G1 X139.667 Y133.693 E0.18682
G1 X139.554 Y133.874 E0.01009
G1 X139.448 Y134.137 E0.01338
G1 X141.793 Y136.482 E0.15672
G1 X141.124 Y136.475 E0.03163
G1 X139.357 Y134.709 E0.11804
G1 X139.351 Y134.812 E0.00491
G1 X139.378 Y135.133 E0.0152
G1 X139.452 Y135.45 E0.01539
G1 X139.462 Y135.476 E0.00131
G1 X140.658 Y136.672 E0.07993
G1 E-1 F3000
G1 X161.806 Y144.511 F9000
G1 E1 F1800
;TYPE:Internal perimeter
;WIDTH:0.52
G1 F600
G1 X164.022 Y144.528 E0.10361
G1 X164.047 Y144.75 E0.01042
G1 X164.04 Y144.959 E0.0098
G1 X164.016 Y145.088 E0.00612
G1 X163.968 Y145.222 E0.00667
G1 X163.807 Y145.567 E0.01779
G1 X163.719 Y145.834 E0.01313
G1 X163.669 Y146.105 E0.01291
G1 X163.662 Y146.366 E0.01219
G1 X163.692 Y146.573 E0.00978
G1 X163.747 Y146.756 E0.00891
G1 X163.827 Y146.921 E0.0086
G1 X163.935 Y147.076 E0.00884
G1 X164.086 Y147.232 E0.01012
G1 X164.282 Y147.379 E0.01147
G1 X164.372 Y147.435 E0.00494
G1 X164.941 Y147.753 E0.03048
G1 X165.165 Y147.923 E0.01314
G1 X165.808 Y148.528 E0.04127
G1 X140.594 Y148.277 E1.17872
G1 X140.39 Y148.258 E0.00958
G1 X140.2 Y148.21 E0.00918
G1 X139.977 Y148.117 E0.01128
G1 X139.756 Y147.979 E0.01217
G1 X139.567 Y147.813 E0.01177
G1 X139.385 Y147.59 E0.01346
G1 X139.232 Y147.328 E0.0142
G1 X139.102 Y147.001 E0.01642
G1 X139.016 Y146.632 E0.01774
G1 X138.985 Y146.258 E0.01752
G1 X139.009 Y145.859 E0.0187
G1 X139.092 Y145.484 E0.01796
G1 X139.226 Y145.151 E0.01676
G1 X139.361 Y144.929 E0.01216
G1 X139.522 Y144.742 E0.01153
G1 X139.706 Y144.591 E0.01112
G1 X139.904 Y144.478 E0.01067
G1 X140.122 Y144.398 E0.01086
G1 X140.374 Y144.351 E0.01196
G1 X140.571 Y144.342 E0.00923
G1 X161.746 Y144.51 E0.9899
G1 X161.75 Y144.042 F9000
;TYPE:External perimeter
G1 F600
G1 X164.404 Y144.063 E0.12409
G1 X164.473 Y144.342 E0.01347
G1 X164.516 Y144.731 E0.01829
G1 X164.507 Y145.01 E0.01302
G1 X164.47 Y145.211 E0.00956
G1 X164.402 Y145.401 E0.00947
G1 X164.243 Y145.74 E0.01749
G1 X164.174 Y145.95 E0.01034
G1 X164.136 Y146.154 E0.00968
G1 X164.132 Y146.339 E0.00865
G1 X164.151 Y146.472 E0.0063
G1 X164.185 Y146.585 E0.00551
G1 X164.232 Y146.684 E0.00513
G1 X164.298 Y146.777 E0.00534
G1 X164.396 Y146.879 E0.00662
G1 X164.547 Y146.992 E0.00881
G1 X164.61 Y147.032 E0.00348
G1 X165.198 Y147.36 E0.03148
G1 X165.468 Y147.565 E0.01583
G1 X166.084 Y148.144 E0.03951
G1 X166.235 Y148.278 E0.00945
G1 X166.386 Y148.435 E0.01019
G1 X166.44 Y148.513 E0.00444
G1 X166.466 Y148.566 E0.00276
G1 X166.479 Y148.608 E0.00206
G1 X166.485 Y148.648 E0.00189
G1 X166.484 Y148.695 E0.00217
G1 X166.475 Y148.751 E0.00265
G1 X166.453 Y148.816 E0.00321
G1 X166.419 Y148.882 E0.00347
G1 X166.384 Y148.929 E0.00277
G1 X166.349 Y148.963 E0.00225
G1 X166.318 Y148.985 E0.00177
G1 X166.283 Y149.001 E0.00182
G1 X140.57 Y148.745 E1.20205
G1 X140.311 Y148.721 E0.01218
G1 X140.051 Y148.656 E0.01251
G1 X139.762 Y148.534 E0.01468
G1 X139.476 Y148.357 E0.01574
G1 X139.229 Y148.139 E0.01538
G1 X138.999 Y147.858 E0.01697
G1 X138.809 Y147.534 E0.01758
G1 X138.654 Y147.142 E0.01972
G1 X138.552 Y146.705 E0.02096
G1 X138.515 Y146.264 E0.0207
G1 X138.544 Y145.794 E0.022
G1 X138.643 Y145.345 E0.02148
G1 X138.806 Y144.941 E0.02039
G1 X138.981 Y144.653 E0.01575
G1 X139.193 Y144.406 E0.0152
G1 X139.439 Y144.204 E0.01488
G1 X139.706 Y144.051 E0.0144
G1 X139.998 Y143.945 E0.01453
G1 X140.319 Y143.885 E0.01528
G1 X140.562 Y143.873 E0.01133
G1 X161.69 Y144.041 E0.9877
;WIPE_START
G1 X161.947 Y144.39 F9000
;WIPE_END
G1 E-1 F3000
G1 X163.726 Y145.342 F9000
G1 E1 F1800
;TYPE:Solid infill
;WIDTH:0.525664
G1 X163.272 Y144.888 E0.03037
G1 X162.604 Y144.883 E0.03155
G1 X163.389 Y145.668 E0.05244
G1 X163.364 Y145.743 E0.00375
G1 X163.304 Y146.068 E0.01561
G1 X163.3 Y146.241 E0.00821
G1 X161.937 Y144.878 E0.09111
G1 X161.269 Y144.873 E0.03155
G1 X164.256 Y147.86 E0.19961
G1 X164.163 Y148.146 E0.01421
G1 X163.876 Y148.143 E0.01355
G1 X160.601 Y144.868 E0.21886
G1 X159.934 Y144.863 E0.03155
G1 X163.207 Y148.136 E0.21875
G1 X162.538 Y148.13 E0.03163
G1 X159.266 Y144.858 E0.21864
G1 X158.599 Y144.853 E0.03155
G1 X161.869 Y148.123 E0.21853
G1 X161.2 Y148.116 E0.03163
G1 X157.931 Y144.848 E0.21842
G1 X157.264 Y144.843 E0.03155
G1 X160.53 Y148.11 E0.21831
G1 X159.861 Y148.103 E0.03163
G1 X156.596 Y144.838 E0.2182
G1 X155.929 Y144.833 E0.03155
G1 X159.192 Y148.096 E0.21809
G1 X158.523 Y148.09 E0.03163
G1 X155.261 Y144.828 E0.21798
G1 X154.594 Y144.823 E0.03155
G1 X157.854 Y148.083 E0.21787
G1 X157.184 Y148.076 E0.03163
G1 X153.926 Y144.818 E0.21776
G1 X153.258 Y144.813 E0.03155
G1 X156.515 Y148.07 E0.21765
G1 X155.846 Y148.063 E0.03163
G1 X152.591 Y144.808 E0.21754
G1 X151.923 Y144.803 E0.03155
G1 X155.177 Y148.057 E0.21743
G1 X154.508 Y148.05 E0.03163
G1 X151.256 Y144.798 E0.21731
G1 X150.588 Y144.793 E0.03155
G1 X153.838 Y148.043 E0.2172
G1 X153.169 Y148.037 E0.03163
G1 X149.921 Y144.788 E0.21709
G1 X149.253 Y144.783 E0.03155
G1 X152.5 Y148.03 E0.21698
G1 X151.831 Y148.023 E0.03163
G1 X148.586 Y144.778 E0.21687
G1 X147.918 Y144.773 E0.03155
G1 X151.162 Y148.017 E0.21676
G1 X150.492 Y148.01 E0.03163
G1 X147.251 Y144.768 E0.21665
G1 X146.583 Y144.763 E0.03155
G1 X149.823 Y148.003 E0.21654
G1 X149.154 Y147.997 E0.03163
G1 X145.916 Y144.758 E0.21643
G1 X145.248 Y144.753 E0.03155
G1 X148.485 Y147.99 E0.21632
G1 X147.816 Y147.983 E0.03163
G1 X144.58 Y144.748 E0.21621
G1 X143.913 Y144.743 E0.03155
G1 X147.146 Y147.977 E0.2161
G1 X146.477 Y147.97 E0.03163
G1 X143.245 Y144.738 E0.21599
G1 X142.578 Y144.733 E0.03155
G1 X145.808 Y147.963 E0.21588
G1 X145.139 Y147.957 E0.03163
G1 X141.91 Y144.728 E0.21577
G1 X141.243 Y144.723 E0.03155
G1 X144.47 Y147.95 E0.21566
G1 X143.8 Y147.944 E0.03163
G1 X140.575 Y144.718 E0.21554
G1 X140.406 Y144.717 E0.00799
G1 X140.219 Y144.752 E0.00899
G1 X140.058 Y144.811 E0.00809
G1 X140.024 Y144.83 E0.00184
G1 X143.131 Y147.937 E0.20764
G1 X142.462 Y147.93 E0.03163
G1 X139.667 Y145.135 E0.18682
G1 X139.554 Y145.316 E0.01009
G1 X139.448 Y145.579 E0.01338
G1 X141.793 Y147.924 E0.15672
G1 X141.124 Y147.917 E0.03163
G1 X139.357 Y146.151 E0.11804
G1 X139.351 Y146.254 E0.00491
G1 X139.378 Y146.575 E0.0152
G1 X139.452 Y146.892 E0.01539
G1 X139.462 Y146.918 E0.00131
G1 X140.658 Y148.114 E0.07993
G1 E-1 F3000
G1 X154.049 Y162.249 F9000
G1 E1 F1800
;TYPE:Internal perimeter
;WIDTH:0.52
G1 F600
G1 X153.895 Y162.058 E0.01147
G1 X153.534 Y161.741 E0.02244
G1 X153.125 Y161.489 E0.02244
G1 X152.68 Y161.31 E0.02244
G1 X152.211 Y161.209 E0.02244
G1 X151.731 Y161.189 E0.02244
G1 X151.255 Y161.25 E0.02244
G1 X150.796 Y161.39 E0.02244
G1 X150.367 Y161.607 E0.02244
G1 X149.981 Y161.892 E0.02244
G1 X149.649 Y162.239 E0.02244
G1 X149.38 Y162.636 E0.02244
G1 X149.182 Y163.074 E0.02244
G1 X149.061 Y163.539 E0.02244
G1 X149.02 Y164.017 E0.02244
G1 X149.061 Y164.495 E0.02244
G1 X149.182 Y164.96 E0.02244
G1 X149.38 Y165.397 E0.02244
G1 X149.649 Y165.795 E0.02244
G1 X150.063 Y166.227 E0.02798
G1 X149.834 Y166.53 E0.01774
G1 X149.398 Y166.298 E0.0231
G1 X148.917 Y165.974 E0.02708
G1 X148.472 Y165.603 E0.02708
G1 X148.068 Y165.188 E0.02708
G1 X147.709 Y164.734 E0.02708
G1 X147.398 Y164.246 E0.02708
G1 X147.139 Y163.727 E0.02708
