;FLAVOR:Marlin
;TIME:2477
;Filament used: 0.366678m
;Layer height: 0.12
;MINX:140.246
;MINY:141.149
;MINZ:0.12
;MAXX:203.435
;MAXY:198.706
;MAXZ:4.8
;POSTPROCESSED
;Generated with Cura_SteamEngine 4.13.0
M82 ;absolute extrusion mode
START_PRINT T_BED=60 T_EXTRUDER=200
G92 E0
G92 E0
G1 F3000 E-0.8
;LAYER_COUNT:40
;LAYER:0
M107
G0 F2700 X144.357 Y172.085 Z0.12
;TYPE:SKIRT
G1 F1800 E0
G1 X144.491 Y171.978 E0.00171
G1 X145.231 Y171.438 E0.01085
G1 X146.016 Y170.965 E0.02
G1 X146.524 Y170.705 E0.02569
G1 X147.213 Y170.376 E0.03331
G1 X149.515 Y169.238 E0.05893
G1 X151.763 Y168.046 E0.08432
G1 X153.946 Y166.807 E0.10937
G1 X156.138 Y165.48 E0.13493
G1 X158.247 Y164.121 E0.15997
G1 X160.343 Y162.684 E0.18533
G1 X162.397 Y161.19 E0.21067
G1 X164.371 Y159.666 E0.23555
G1 X166.35 Y158.047 E0.26106
G1 X168.26 Y156.392 E0.28628
G1 X170.134 Y154.674 E0.31165
G1 X171.941 Y152.92 E0.33678
G1 X173.707 Y151.105 E0.36205
G1 X175.426 Y149.238 E0.38737
G1 X177.088 Y147.324 E0.41266
G1 X178.973 Y145.019 E0.44237
G1 X179.583 Y144.336 E0.45151
G1 X180.251 Y143.708 E0.46066
G1 X180.971 Y143.141 E0.4698
G1 X181.738 Y142.639 E0.47895
G1 X182.545 Y142.206 E0.48809
G1 X183.387 Y141.845 E0.49723
G1 X184.258 Y141.558 E0.50638
G1 X185.15 Y141.349 E0.51552
G1 X186.056 Y141.218 E0.52465
G1 X186.908 Y141.168 E0.53317
G1 X188.028 Y141.149 E0.54435
G1 X192.228 Y141.149 E0.58625
G1 X193.076 Y141.16 E0.59472
G1 X193.991 Y141.213 E0.60386
G1 X194.898 Y141.346 E0.61301
G1 X195.789 Y141.557 E0.62215
G1 X196.659 Y141.845 E0.63129
G1 X197.501 Y142.208 E0.64044
G1 X198.307 Y142.643 E0.64958
G1 X199.073 Y143.146 E0.65872
G1 X199.792 Y143.715 E0.66787
G1 X200.458 Y144.343 E0.677
G1 X201.067 Y145.028 E0.68615
G1 X201.614 Y145.763 E0.69529
G1 X202.095 Y146.543 E0.70444
G1 X202.506 Y147.362 E0.71358
G1 X202.845 Y148.213 E0.72272
G1 X203.107 Y149.091 E0.73186
G1 X203.292 Y149.989 E0.74101
G1 X203.398 Y150.899 E0.75015
G1 X203.422 Y151.358 E0.75474
G1 X203.431 Y151.672 E0.75787
G1 X203.435 Y151.973 E0.76088
G1 X203.434 Y179.586 E1.0364
G1 X203.423 Y180.316 E1.04368
G1 X203.369 Y181.231 E1.05283
G1 X203.236 Y182.137 E1.06197
G1 X203.024 Y183.029 E1.07111
G1 X202.735 Y183.899 E1.08026
G1 X202.372 Y184.74 E1.0894
G1 X201.936 Y185.546 E1.09855
G1 X201.432 Y186.311 E1.10769
G1 X200.863 Y187.029 E1.11683
G1 X200.234 Y187.695 E1.12597
G1 X199.549 Y188.304 E1.13511
G1 X198.814 Y188.851 E1.14426
G1 X198.033 Y189.331 E1.1534
G1 X197.214 Y189.742 E1.16255
G1 X196.362 Y190.079 E1.17169
G1 X195.15 Y190.419 E1.18425
G1 X192.621 Y190.968 E1.21007
G1 X190.146 Y191.577 E1.2355
G1 X187.714 Y192.25 E1.26068
G1 X185.268 Y193.001 E1.28621
G1 X182.899 Y193.804 E1.31117
G1 X180.525 Y194.683 E1.33643
G1 X178.162 Y195.635 E1.36185
G1 X175.71 Y196.699 E1.38852
G1 X174.685 Y197.126 E1.3996
G1 X173.676 Y197.551 E1.41052
G1 X172.817 Y197.869 E1.41966
G1 X171.933 Y198.112 E1.42881
G1 X171.032 Y198.276 E1.43795
G1 X170.537 Y198.332 E1.44292
G1 X169.344 Y198.439 E1.45487
G1 X168.347 Y198.533 E1.46486
G1 X167.64 Y198.607 E1.47196
G1 X167.415 Y198.628 E1.47421
G1 X166.899 Y198.671 E1.47938
G1 X165.898 Y198.706 E1.48937
G1 X163.217 Y198.673 E1.51613
G1 X161.227 Y198.705 E1.53598
G1 X160.746 Y198.706 E1.54078
G1 X159.831 Y198.666 E1.54992
G1 X158.922 Y198.546 E1.55907
G1 X158.028 Y198.348 E1.56821
G1 X157.154 Y198.072 E1.57735
G1 X156.307 Y197.722 E1.5865
G1 X155.494 Y197.298 E1.59565
G1 X154.829 Y196.88 E1.60348
G1 X153.907 Y196.251 E1.61462
G1 X153.721 Y196.121 E1.61689
G1 X148.627 Y192.482 E1.67935
G1 X145.497 Y190.34 E1.7172
G1 X144.999 Y190.014 E1.72313
G1 X144.255 Y189.479 E1.73228
G1 X143.561 Y188.881 E1.74142
G1 X142.921 Y188.225 E1.75056
G1 X142.341 Y187.516 E1.7597
G1 X141.825 Y186.759 E1.76884
G1 X141.377 Y185.959 E1.77799
G1 X141 Y185.124 E1.78714
G1 X140.698 Y184.259 E1.79628
G1 X140.472 Y183.371 E1.80542
G1 X140.324 Y182.467 E1.81456
G1 X140.254 Y181.494 E1.82429
G1 X140.248 Y181.256 E1.82667
G1 X140.246 Y180.843 E1.83079
G1 X140.253 Y180.348 E1.83573
G1 X140.306 Y179.433 E1.84488
G1 X140.438 Y178.526 E1.85402
G1 X140.649 Y177.634 E1.86317
G1 X140.937 Y176.765 E1.8723
G1 X141.3 Y175.923 E1.88145
G1 X141.735 Y175.116 E1.8906
G1 X142.401 Y174.131 E1.90246
G1 X142.558 Y173.925 E1.90505
G1 X143.145 Y173.221 E1.91419
G1 X143.79 Y172.571 E1.92333
G1 X144.357 Y172.085 E1.93078
G0 F2700 X144.482 Y172.241
G1 F1800 X144.616 Y172.134 E1.93249
G1 X145.349 Y171.6 E1.94154
G1 X146.127 Y171.132 E1.9506
G1 X146.61 Y170.886 E1.95601
G1 X147.27 Y170.571 E1.96331
G1 X149.622 Y169.408 E1.98949
G1 X151.837 Y168.233 E2.01451
G1 X154.061 Y166.972 E2.04002
G1 X156.231 Y165.658 E2.06533
G1 X158.366 Y164.282 E2.09067
G1 X160.447 Y162.855 E2.11585
G1 X162.517 Y161.349 E2.14139
G1 X164.516 Y159.806 E2.16659
G1 X166.466 Y158.211 E2.19173
G1 X168.422 Y156.516 E2.21755
G1 X170.249 Y154.84 E2.24229
G1 X172.082 Y153.062 E2.26777
G1 X173.857 Y151.238 E2.29317
G1 X175.581 Y149.366 E2.31856
G1 X177.223 Y147.474 E2.34356
G1 X179.128 Y145.145 E2.37358
G1 X179.733 Y144.469 E2.38263
G1 X180.395 Y143.848 E2.39169
G1 X181.109 Y143.288 E2.40074
G1 X181.87 Y142.793 E2.4098
G1 X182.671 Y142.367 E2.41885
G1 X183.507 Y142.013 E2.42791
G1 X184.37 Y141.735 E2.43696
G1 X185.255 Y141.533 E2.44601
G1 X186.154 Y141.41 E2.45507
G1 X186.912 Y141.368 E2.46264
G1 X188.028 Y141.349 E2.47378
G1 X192.228 Y141.349 E2.51569
G1 X193.074 Y141.36 E2.52413
G1 X193.98 Y141.413 E2.53319
G1 X194.877 Y141.546 E2.54223
G1 X195.76 Y141.757 E2.55129
G1 X196.621 Y142.044 E2.56035
G1 X197.453 Y142.407 E2.56941
G1 X198.249 Y142.841 E2.57845
G1 X199.005 Y143.344 E2.58751
G1 X199.713 Y143.912 E2.59657
G1 X200.369 Y144.539 E2.60562
G1 X200.967 Y145.222 E2.61468
G1 X201.502 Y145.955 E2.62374
G1 X201.971 Y146.732 E2.63279
G1 X202.37 Y147.547 E2.64185
G1 X202.695 Y148.394 E2.6509
G1 X202.944 Y149.267 E2.65996
G1 X203.116 Y150.158 E2.66901
G1 X203.222 Y151.364 E2.68109
G1 X203.231 Y151.678 E2.68423
G1 X203.235 Y151.973 E2.68717
G1 X203.234 Y179.583 E2.96266
G1 X203.223 Y180.313 E2.96995
G1 X203.169 Y181.219 E2.97901
G1 X203.036 Y182.117 E2.98806
G1 X202.824 Y182.999 E2.99711
G1 X202.536 Y183.86 E3.00617
G1 X202.173 Y184.691 E3.01522
G1 X201.738 Y185.488 E3.02428
G1 X201.234 Y186.243 E3.03334
G1 X200.666 Y186.951 E3.0424
G1 X200.038 Y187.606 E3.05145
G1 X199.355 Y188.203 E3.0605
G1 X198.622 Y188.738 E3.06956
G1 X197.845 Y189.207 E3.07861
G1 X197.029 Y189.605 E3.08767
G1 X196.182 Y189.929 E3.09672
G1 X195.107 Y190.224 E3.10784
G1 X192.57 Y190.774 E3.13375
G1 X190.085 Y191.386 E3.15928
G1 X187.666 Y192.055 E3.18432
G1 X185.218 Y192.807 E3.20988
G1 X182.808 Y193.624 E3.23527
G1 X180.455 Y194.495 E3.2603
G1 X178.069 Y195.457 E3.28597
G1 X176.039 Y196.337 E3.30805
G1 X175.633 Y196.515 E3.31247
G1 X174.566 Y196.958 E3.324
G1 X173.598 Y197.366 E3.33448
G1 X172.747 Y197.681 E3.34354
G1 X171.872 Y197.92 E3.35259
G1 X170.979 Y198.081 E3.36164
G1 X170.519 Y198.133 E3.36626
G1 X169.325 Y198.24 E3.37822
G1 X168.309 Y198.335 E3.38841
G1 X167.619 Y198.408 E3.39533
G1 X166.882 Y198.471 E3.40271
G1 X165.9 Y198.506 E3.41251
G1 X163.216 Y198.473 E3.4393
G1 X161.224 Y198.505 E3.45918
G1 X160.746 Y198.506 E3.46395
G1 X159.839 Y198.466 E3.473
G1 X158.94 Y198.346 E3.48205
G1 X158.054 Y198.148 E3.49111
G1 X157.189 Y197.872 E3.50017
G1 X156.352 Y197.522 E3.50922
G1 X155.549 Y197.099 E3.51828
G1 X154.941 Y196.715 E3.52546
G1 X154.019 Y196.086 E3.53659
G1 X153.837 Y195.958 E3.53881
G1 X148.745 Y192.32 E3.60126
G1 X145.575 Y190.151 E3.63958
G1 X145.109 Y189.846 E3.64514
G1 X144.372 Y189.316 E3.6542
G1 X143.685 Y188.723 E3.66325
G1 X143.053 Y188.072 E3.67231
G1 X142.48 Y187.368 E3.68136
G1 X141.972 Y186.616 E3.69042
G1 X141.532 Y185.823 E3.69947
G1 X141.164 Y184.993 E3.70853
G1 X140.869 Y184.135 E3.71758
G1 X140.652 Y183.254 E3.72663
G1 X140.513 Y182.357 E3.73569
G1 X140.454 Y181.489 E3.74437
G1 X140.448 Y181.251 E3.74675
G1 X140.446 Y180.845 E3.7508
G1 X140.453 Y180.35 E3.75574
G1 X140.506 Y179.444 E3.76479
G1 X140.638 Y178.547 E3.77384
G1 X140.849 Y177.664 E3.7829
G1 X141.137 Y176.803 E3.79196
G1 X141.499 Y175.971 E3.80101
G1 X141.933 Y175.174 E3.81007
G1 X142.56 Y174.253 E3.82118
G1 X142.717 Y174.047 E3.82377
G1 X143.298 Y173.35 E3.83282
G1 X143.939 Y172.707 E3.84188
G1 X144.482 Y172.241 E3.84902
G0 F2700 X144.607 Y172.397
G1 F1800 X144.741 Y172.29 E3.85073
G1 X145.467 Y171.762 E3.85969
G1 X146.238 Y171.299 E3.86866
G1 X146.696 Y171.066 E3.87379
G1 X147.356 Y170.752 E3.88108
G1 X149.701 Y169.592 E3.90719
G1 X151.968 Y168.389 E3.93279
G1 X154.16 Y167.145 E3.95794
G1 X156.341 Y165.825 E3.98338
G1 X158.468 Y164.454 E4.00863
G1 X160.575 Y163.01 E4.03412
G1 X162.614 Y161.526 E4.05928
G1 X164.644 Y159.96 E4.08486
G1 X166.598 Y158.361 E4.11006
G1 X168.547 Y156.672 E4.13579
G1 X170.4 Y154.973 E4.16088
G1 X172.224 Y153.204 E4.18623
G1 X174.006 Y151.372 E4.21173
G1 X175.722 Y149.508 E4.23701
G1 X177.387 Y147.591 E4.26235
G1 X179.283 Y145.272 E4.29223
G1 X179.882 Y144.602 E4.3012
G1 X180.538 Y143.989 E4.31016
G1 X181.247 Y143.436 E4.31913
G1 X182.002 Y142.948 E4.3281
G1 X182.797 Y142.529 E4.33707
G1 X183.626 Y142.183 E4.34603
G1 X184.483 Y141.911 E4.355
G1 X185.36 Y141.717 E4.36397
G1 X186.251 Y141.602 E4.37293
G1 X186.916 Y141.568 E4.37957
G1 X188.028 Y141.549 E4.39067
G1 X192.228 Y141.549 E4.43258
G1 X193.071 Y141.56 E4.44099
G1 X193.968 Y141.613 E4.44996
G1 X194.857 Y141.745 E4.45893
G1 X195.73 Y141.956 E4.46789
G1 X196.582 Y142.244 E4.47686
G1 X197.404 Y142.606 E4.48582
G1 X198.191 Y143.04 E4.49479
G1 X198.936 Y143.542 E4.50375
G1 X199.634 Y144.108 E4.51272
G1 X200.279 Y144.735 E4.5217
G1 X200.865 Y145.416 E4.53066
G1 X201.389 Y146.146 E4.53963
G1 X201.845 Y146.92 E4.54859
G1 X202.231 Y147.732 E4.55756
G1 X202.543 Y148.574 E4.56652
G1 X202.78 Y149.441 E4.57549
G1 X202.938 Y150.326 E4.58446
G1 X203.022 Y151.37 E4.59491
G1 X203.031 Y151.684 E4.59805
G1 X203.035 Y151.973 E4.60093
G1 X203.034 Y179.58 E4.87639
G1 X203.023 Y180.31 E4.88368
G1 X202.969 Y181.207 E4.89264
G1 X202.836 Y182.096 E4.90161
G1 X202.625 Y182.969 E4.91058
G1 X202.337 Y183.821 E4.91955
G1 X201.974 Y184.643 E4.92852
G1 X201.539 Y185.429 E4.93748
G1 X201.037 Y186.174 E4.94644
G1 X200.47 Y186.872 E4.95542
G1 X199.843 Y187.516 E4.96438
G1 X199.162 Y188.102 E4.97335
G1 X198.431 Y188.625 E4.98232
G1 X197.656 Y189.081 E4.99129
G1 X196.845 Y189.466 E5.00025
G1 X196.002 Y189.778 E5.00922
G1 X195.065 Y190.029 E5.0189
G1 X192.478 Y190.59 E5.04531
G1 X190.048 Y191.188 E5.07028
G1 X187.594 Y191.867 E5.09568
G1 X185.169 Y192.612 E5.121
G1 X182.769 Y193.425 E5.14628
G1 X180.354 Y194.32 E5.17198
G1 X178.035 Y195.254 E5.19693
G1 X175.918 Y196.172 E5.21995
G1 X175.556 Y196.33 E5.22389
G1 X174.53 Y196.757 E5.23498
G1 X173.521 Y197.182 E5.2459
G1 X172.678 Y197.494 E5.25487
G1 X171.81 Y197.729 E5.26385
G1 X170.501 Y197.934 E5.27707
G1 X169.293 Y198.042 E5.28917
G1 X168.271 Y198.138 E5.29941
G1 X167.598 Y198.209 E5.30616
G1 X166.866 Y198.272 E5.31349
G1 X165.903 Y198.306 E5.32311
G1 X163.216 Y198.273 E5.34992
G1 X161.221 Y198.305 E5.36983
G1 X160.746 Y198.306 E5.37457
G1 X159.848 Y198.266 E5.38354
G1 X158.958 Y198.146 E5.3925
G1 X158.081 Y197.948 E5.40147
G1 X157.226 Y197.673 E5.41043
G1 X156.398 Y197.322 E5.41941
G1 X155.605 Y196.9 E5.42837
G1 X155.054 Y196.549 E5.43489
G1 X154.132 Y195.92 E5.44602
G1 X153.953 Y195.795 E5.4482
G1 X148.862 Y192.159 E5.51063
G1 X145.709 Y190 E5.54876
G1 X145.218 Y189.679 E5.55461
G1 X144.489 Y189.154 E5.56357
G1 X143.81 Y188.566 E5.57254
G1 X143.185 Y187.92 E5.5815
G1 X142.62 Y187.221 E5.59047
G1 X142.12 Y186.474 E5.59944
G1 X141.688 Y185.686 E5.60841
G1 X141.327 Y184.863 E5.61738
G1 X141.042 Y184.011 E5.62634
G1 X140.833 Y183.137 E5.63531
G1 X140.703 Y182.248 E5.64427
G1 X140.654 Y181.484 E5.65191
G1 X140.648 Y181.246 E5.65429
G1 X140.646 Y180.848 E5.65826
G1 X140.653 Y180.353 E5.6632
G1 X140.706 Y179.456 E5.67216
G1 X140.838 Y178.567 E5.68113
G1 X141.049 Y177.694 E5.69009
G1 X141.336 Y176.842 E5.69906
G1 X141.698 Y176.02 E5.70802
G1 X142.132 Y175.233 E5.71699
G1 X142.719 Y174.374 E5.72737
G1 X142.876 Y174.168 E5.72996
G1 X143.452 Y173.478 E5.73893
G1 X144.087 Y172.842 E5.74789
G1 X144.607 Y172.397 E5.75472
G1 F3000 E4.95472
;MESH:LogoMountains.STL
G0 F2700 X156.215 Y179.294
G0 X156.347 Y180.17
G0 X151.442 Y180.819
G0 X160.661 Y187.461
G0 X163.096 Y185.051
G0 X166.007 Y187.436
G0 X167.072 Y186.577
;TYPE:WALL-INNER
G1 F1800 E5.75472
G1 X167.053 Y186.515 E5.75537
G1 X166.013 Y187.545 E5.76998
G1 X163.102 Y185.16 E5.80753
G1 X160.669 Y187.565 E5.84166
G1 X151.357 Y180.914 E5.95584
G1 X151.357 Y180.715 E5.95783
G1 X151.737 Y180.79 E5.96169
G1 X152.34 Y180.853 E5.96774
G1 X153.022 Y180.854 E5.97455
G1 X153.485 Y180.822 E5.97918
G1 X153.863 Y180.748 E5.98302
G1 X154.684 Y180.447 E5.99175
G1 X155.077 Y180.403 E5.99569
G1 X155.653 Y180.405 E6.00144
G1 X156.203 Y180.463 E6.00696
G1 X156.392 Y180.448 E6.00885
G1 X156.654 Y180.384 E6.01154
G1 X156.937 Y180.343 E6.01439
G1 X158.197 Y180.341 E6.02697
G1 X158.544 Y180.349 E6.03043
G1 X158.905 Y180.454 E6.03418
G1 X159.258 Y180.611 E6.03804
G1 X159.797 Y180.732 E6.04355
G1 X160.117 Y180.728 E6.04674
G1 X160.5 Y180.657 E6.05063
G1 X161.199 Y180.482 E6.05782
G1 X161.67 Y180.325 E6.06277
G1 X161.804 Y180.295 E6.06414
G1 X162.125 Y180.283 E6.06735
G1 X162.699 Y180.316 E6.07308
G1 X163.158 Y180.395 E6.07773
G1 X163.526 Y180.523 E6.08162
G1 X163.97 Y180.712 E6.08643
G1 X164.315 Y180.819 E6.09004
G1 X164.717 Y180.85 E6.09406
G1 X165.056 Y180.759 E6.09756
G1 X165.348 Y180.601 E6.10088
G1 X165.733 Y180.444 E6.10502
G1 X165.944 Y180.41 E6.10716
G1 X166.229 Y180.404 E6.11
G1 X166.63 Y180.455 E6.11404
G1 X167.126 Y180.566 E6.11911
G1 X167.571 Y180.644 E6.12361
G1 X167.914 Y180.59 E6.12708
G1 X168.165 Y180.483 E6.1298
G1 X168.468 Y180.435 E6.13286
G1 X168.964 Y180.494 E6.13785
G1 X170.146 Y180.538 E6.14965
G1 X170.528 Y180.514 E6.15347
G1 X171.133 Y180.407 E6.1596
G1 X171.768 Y180.349 E6.16596
G1 X172.14 Y180.362 E6.16968
G1 X172.511 Y180.435 E6.17345
G1 X173.108 Y180.595 E6.17962
G1 X173.37 Y180.675 E6.18235
G1 X173.969 Y180.99 E6.1891
G1 X174.655 Y181.236 E6.19637
G1 X175.022 Y181.314 E6.20012
G1 X175.457 Y181.333 E6.20446
G1 X175.857 Y181.395 E6.2085
G1 X176.151 Y181.573 E6.21193
G1 X176.507 Y181.704 E6.21571
G1 X176.814 Y181.686 E6.21878
G1 X177.1 Y181.607 E6.22174
G1 X177.37 Y181.602 E6.22444
G1 X177.716 Y181.708 E6.22805
G1 X178.027 Y181.796 E6.23127
G1 X178.051 Y181.799 E6.23152
G1 X174.862 Y184.05 E6.27046
G1 X171.698 Y186.375 E6.30964
G1 X170.2 Y184.969 E6.33014
G1 X169.639 Y185.147 E6.33601
G1 X169.55 Y185.595 E6.34057
G1 X169.434 Y185.128 E6.34302
G1 X167.072 Y186.577 E6.37067
G0 F2700 X167.039 Y187.151
G1 F1800 X166.959 Y186.89 E6.37339
G1 X166.026 Y187.814 E6.3865
G1 X163.115 Y185.429 E6.42405
G1 X160.69 Y187.826 E6.45807
G1 X151.042 Y180.935 E6.57637
G1 X151.042 Y180.791 E6.57781
G1 X151.157 Y180.791 E6.57877
G1 X151.157 Y180.481 E6.58187
G1 X151.222 Y180.484 E6.58252
G1 X151.767 Y180.592 E6.58806
G1 X152.351 Y180.653 E6.59392
G1 X153.015 Y180.654 E6.60054
G1 X153.459 Y180.623 E6.60499
G1 X153.809 Y180.555 E6.60854
G1 X154.638 Y180.251 E6.61735
G1 X155.064 Y180.203 E6.62163
G1 X155.665 Y180.205 E6.62763
G1 X156.206 Y180.262 E6.63306
G1 X156.36 Y180.25 E6.6346
G1 X156.617 Y180.187 E6.63724
G1 X156.923 Y180.143 E6.64032
G1 X158.202 Y180.141 E6.65308
G1 X158.575 Y180.15 E6.65681
G1 X158.975 Y180.266 E6.66096
G1 X159.321 Y180.42 E6.66474
G1 X159.818 Y180.532 E6.66983
G1 X160.097 Y180.528 E6.67261
G1 X160.457 Y180.461 E6.67626
G1 X161.143 Y180.29 E6.68332
G1 X161.614 Y180.133 E6.68827
G1 X161.78 Y180.096 E6.68997
G1 X162.129 Y180.083 E6.69345
