; generated by SuperSlicer 2.4 on 2022-10-13 at 23:53:42 UTC


;
;

;
;
; 

; external perimeters extrusion width = 0.40mm
; perimeters extrusion width = 0.46mm
; infill extrusion width = 0.64mm
; solid infill extrusion width = 0.56mm
; top infill extrusion width = 0.40mm
; support material extrusion width = 0.46mm
; first layer extrusion width = 0.50mm

; object:{"name":"Untitled","id":"Untitled.stl id:0 copy 0","object_center":[152.517466,150.012715,0.000000],"boundingbox_center":[152.517466,150.012715,30.000011],"boundingbox_size":[99.333054,91.900867,60.000049]}
; plater:{"center":[152.517466,150.012715,0.000000],"boundingbox_center":[152.517466,150.012715,30.000011],"boundingbox_size":[99.333054,91.900867,60.000049]}

M73 P0 R109
;TYPE:Custom
START_PRINT T_BED=70 T_EXTRUDER=235
M107
G21 ; set units to millimeters
G90 ; use absolute coordinates
M83 ; use relative distances for extrusion
; Filament gcode
;_TOOLCHANGE 0
M104 S235 ; set temperature
M109 S235 ; set temperature and wait for it to be reached
M190 S70 ; set bed temperature and wait for it to be reached
M107
;LAYER_CHANGE
;Z:0.2
;HEIGHT:0.2
G1 Z0.2 F9000
G92 E0
G1 E-1 F3000
M204 S1000
G1 X121.306 Y141.944 F9000
G1 E1 F1800
;TYPE:Skirt
;WIDTH:0.52
G1 X106.364 Y154.713 E0.77968
G1 X95.904 Y165.158 E0.58641
G1 X95.21 Y166.119 E0.04702
G1 X94.816 Y167.785 E0.06793
G1 X94.816 Y180.079 E0.48769
G1 X95.559 Y182.309 E0.09322
G1 X105.81 Y195.977 E0.67776
G1 X112.989 Y203.209 E0.40425
G1 X113.95 Y203.903 E0.04702
G1 X115.617 Y204.297 E0.06793
G1 X127.911 Y204.297 E0.48769
G1 X130.232 Y203.483 E0.09758
G1 X147.317 Y189.815 E0.86796
G1 X168.366 Y168.774 E1.18063
G1 X204.91 Y124.432 E2.27942
G1 X205.678 Y122.838 E0.07019
G1 X205.637 Y121.126 E0.06793
G1 X204.832 Y119.614 E0.06793
G1 X189.111 Y101.749 E0.94405
G1 X187.702 Y100.754 E0.06841
G1 X186.008 Y100.501 E0.06793
G1 X184.381 Y101.035 E0.06793
G1 X130.762 Y133.863 E2.49403
G1 X121.306 Y141.944 E0.49344
G1 X121.614 Y142.304 F9000
G1 F1800
G1 X106.675 Y155.075 E0.77965
G1 X96.241 Y165.495 E0.58496
G1 X95.687 Y166.237 E0.03676
G1 X95.293 Y167.785 E0.06336
G1 X95.293 Y180.079 E0.48769
G1 X95.941 Y182.022 E0.08125
G1 X106.192 Y195.691 E0.67776
G1 X113.327 Y202.872 E0.40157
G1 X114.069 Y203.426 E0.03676
G1 X115.617 Y203.82 E0.06336
G1 X127.911 Y203.82 E0.48769
G1 X129.934 Y203.11 E0.08505
G1 X147.019 Y189.442 E0.86796
G1 X167.998 Y168.471 E1.17672
G1 X204.542 Y124.129 E2.27942
G1 X205.16 Y122.948 E0.05285
G1 X205.201 Y121.352 E0.06336
G1 X204.474 Y119.929 E0.06336
G1 X188.752 Y102.064 E0.94405
G1 X187.722 Y101.283 E0.05129
G1 X186.156 Y100.969 E0.06336
G1 X184.63 Y101.441 E0.06336
G1 X131.011 Y134.27 E2.49403
G1 X121.614 Y142.304 E0.49046
G1 E-1 F3000
; printing object Untitled.stl id:0 copy 0
G1 X125.868 Y143.866 F9000
G1 E1 F1800
;TYPE:Support material
;WIDTH:0.5
G1 X129.285 Y143.866 E0.12987
G1 X129.285 Y140.449 E0.12987
G1 X132.702 Y140.449 E0.12987
G1 X132.702 Y137.032 E0.12987
G1 X143.6 Y137.032 E0.41418
G1 X143.111 Y137.461 E0.02473
G1 X142.737 Y137.791 E0.01895
G1 X142.362 Y138.12 E0.01895
G1 X141.988 Y138.45 E0.01895
G1 X141.614 Y138.779 E0.01895
G1 X141.239 Y139.109 E0.01895
G1 X140.865 Y139.438 E0.01895
G1 X140.49 Y139.768 E0.01895
G1 X140.116 Y140.097 E0.01895
G1 X139.717 Y140.449 E0.02022
G1 X139.481 Y140.656 E0.01191
G1 X139.424 Y141.547 E0.03396
G1 X139.984 Y142.183 E0.03218
G1 X140.314 Y142.558 E0.019
G1 X140.644 Y142.934 E0.019
G1 X140.975 Y143.309 E0.019
G1 X141.305 Y143.684 E0.019
G1 X141.635 Y144.06 E0.019
G1 X141.966 Y144.435 E0.019
G1 X142.296 Y144.81 E0.019
G1 X142.626 Y145.186 E0.019
G1 X142.956 Y145.561 E0.019
G1 X143.287 Y145.936 E0.019
G1 X143.617 Y146.312 E0.019
G1 X143.947 Y146.687 E0.019
G1 X144.278 Y147.062 E0.019
G1 X144.608 Y147.438 E0.019
G1 X144.938 Y147.813 E0.019
G1 X145.268 Y148.188 E0.019
G1 X145.599 Y148.564 E0.019
G1 X145.929 Y148.939 E0.019
G1 X146.259 Y149.314 E0.019
G1 X146.59 Y149.69 E0.019
G1 X146.92 Y150.065 E0.019
G1 X147.25 Y150.44 E0.019
G1 X147.58 Y150.816 E0.019
G1 X147.911 Y151.191 E0.019
G1 X148.241 Y151.566 E0.019
G1 X148.571 Y151.942 E0.019
G1 X148.902 Y152.317 E0.019
G1 X149.232 Y152.692 E0.019
G1 X149.562 Y153.068 E0.019
G1 X149.893 Y153.443 E0.019
G1 X150.223 Y153.818 E0.019
G1 X150.553 Y154.194 E0.019
G1 X150.883 Y154.569 E0.019
G1 X151.214 Y154.944 E0.019
G1 X151.544 Y155.32 E0.019
G1 X151.874 Y155.695 E0.019
G1 X152.205 Y156.07 E0.019
G1 X152.535 Y156.446 E0.019
G1 X152.865 Y156.821 E0.019
G1 X153.195 Y157.196 E0.019
G1 X153.526 Y157.572 E0.019
G1 X153.856 Y157.947 E0.019
G1 X154.186 Y158.322 E0.019
G1 X154.517 Y158.698 E0.019
G1 X154.847 Y159.073 E0.019
G1 X155.177 Y159.448 E0.019
G1 X155.507 Y159.824 E0.019
G1 X155.838 Y160.199 E0.019
G1 X156.168 Y160.574 E0.019
G1 X156.498 Y160.95 E0.019
G1 X156.829 Y161.325 E0.019
G1 X157.159 Y161.7 E0.019
G1 X157.489 Y162.076 E0.019
G1 X157.82 Y162.451 E0.019
G1 X158.15 Y162.826 E0.019
G1 X158.48 Y163.202 E0.019
G1 X159.039 Y163.837 E0.03218
G1 X159.931 Y163.894 E0.03396
G1 X161.315 Y162.677 E0.07004
G1 X161.689 Y162.347 E0.01896
G1 X162.438 Y161.688 E0.03791
G1 X162.812 Y161.359 E0.01895
G1 X163.187 Y161.029 E0.01895
G1 X163.561 Y160.7 E0.01895
G1 X163.935 Y160.37 E0.01895
G1 X164.31 Y160.041 E0.01895
G1 X164.684 Y159.711 E0.01895
G1 X165.059 Y159.382 E0.01895
G1 X165.498 Y158.995 E0.02227
G1 X165.498 Y166.411 E0.28186
G1 X162.081 Y166.411 E0.12987
G1 X162.081 Y169.828 E0.12987
G1 X158.664 Y169.828 E0.12987
G1 X158.664 Y173.245 E0.12987
G1 X155.247 Y173.245 E0.12987
G1 X155.247 Y176.662 E0.12987
G1 X151.83 Y176.662 E0.12987
G1 X151.83 Y180.079 E0.12987
G1 X148.413 Y180.079 E0.12987
G1 X148.413 Y183.496 E0.12987
G1 X144.996 Y183.496 E0.12987
G1 X144.996 Y186.913 E0.12987
G1 X138.162 Y186.913 E0.25974
G1 X138.162 Y190.33 E0.12987
G1 X134.745 Y190.33 E0.12987
G1 X134.745 Y193.747 E0.12987
G1 X131.328 Y193.747 E0.12987
G1 X131.328 Y197.165 E0.12987
G1 X127.911 Y197.165 E0.12987
G1 X127.911 Y200.582 E0.12987
G1 X115.617 Y200.582 E0.46725
G1 X115.617 Y197.165 E0.12987
G1 X112.2 Y197.165 E0.12987
G1 X112.2 Y193.747 E0.12987
G1 X108.783 Y193.747 E0.12987
G1 X108.783 Y186.913 E0.25974
G1 X105.366 Y186.913 E0.12987
G1 X105.366 Y183.496 E0.12987
G1 X101.948 Y183.496 E0.12987
G1 X101.948 Y180.079 E0.12987
G1 X98.531 Y180.079 E0.12987
M73 P0 R108
G1 X98.531 Y167.785 E0.46725
G1 X101.948 Y167.785 E0.12987
G1 X101.948 Y164.368 E0.12987
G1 X105.366 Y164.368 E0.12987
G1 X105.366 Y160.951 E0.12987
G1 X108.783 Y160.951 E0.12987
G1 X108.783 Y157.534 E0.12987
G1 X115.617 Y157.534 E0.25974
G1 X115.617 Y154.117 E0.12987
G1 X119.034 Y154.117 E0.12987
G1 X119.034 Y150.7 E0.12987
G1 X122.451 Y150.7 E0.12987
G1 X122.451 Y147.283 E0.12987
G1 X125.868 Y147.283 E0.12987
G1 X125.868 Y143.866 E0.12987
G1 E-1 F3000
G1 X164.706 Y166.297 F9000
G1 E1 F1800
G1 X164.706 Y160.106 E0.23528
G1 X164.515 Y160.274 E0.00967
G1 X164.198 Y160.553 E0.01604
G1 X164.198 Y166.1 E0.21083
G1 X163.691 Y166.1 E0.0193
G1 X163.691 Y161 E0.19384
G1 X163.392 Y161.263 E0.01511
G1 X163.183 Y161.447 E0.0106
G1 X163.183 Y166.1 E0.17685
G1 X162.675 Y166.1 E0.0193
G1 X162.675 Y161.894 E0.15987
G1 X162.643 Y161.922 E0.0016
G1 X162.167 Y162.341 E0.02411
G1 X162.167 Y166.1 E0.14288
G1 X161.771 Y166.1 E0.01506
G1 X161.771 Y169.517 E0.12987
G1 X161.659 Y169.517 E0.00424
G1 X161.659 Y162.788 E0.25577
G1 X161.52 Y162.91 E0.00704
G1 X161.151 Y163.234 E0.01867
G1 X161.151 Y169.517 E0.23878
G1 X160.643 Y169.517 E0.0193
G1 X160.643 Y163.681 E0.2218
G1 X160.135 Y164.128 E0.02571
G1 X160.135 Y169.517 E0.20481
G1 X159.628 Y169.517 E0.0193
G1 X159.628 Y164.186 E0.20261
G1 X159.12 Y164.154 E0.01934
G1 X159.12 Y169.517 E0.20384
G1 X158.612 Y169.517 E0.0193
G1 X158.612 Y163.822 E0.21646
G1 X158.247 Y163.407 E0.021
G1 X158.104 Y163.245 E0.00821
G1 X158.104 Y172.934 E0.36827
G1 X157.596 Y172.934 E0.0193
G1 X157.596 Y162.668 E0.3902
G1 X157.586 Y162.656 E0.00057
G1 X157.256 Y162.281 E0.019
G1 X157.088 Y162.09 E0.00964
G1 X157.088 Y172.934 E0.41213
G1 X156.58 Y172.934 E0.0193
G1 X156.58 Y161.513 E0.43407
G1 X156.265 Y161.155 E0.01814
G1 X156.073 Y160.936 E0.01107
G1 X156.073 Y172.934 E0.456
G1 X155.565 Y172.934 E0.0193
G1 X155.565 Y160.359 E0.47794
G1 X155.274 Y160.029 E0.01671
G1 X155.057 Y159.782 E0.0125
G1 X155.057 Y172.934 E0.49987
G1 X154.936 Y172.934 E0.00457
G1 X154.936 Y176.351 E0.12987
G1 X154.549 Y176.351 E0.01473
G1 X154.549 Y159.205 E0.65168
G1 X154.283 Y158.903 E0.01528
G1 X154.041 Y158.628 E0.01393
G1 X154.041 Y176.351 E0.67361
G1 X153.533 Y176.351 E0.0193
G1 X153.533 Y158.051 E0.69554
G1 X153.292 Y157.777 E0.01385
G1 X153.025 Y157.473 E0.01536
G1 X153.025 Y176.351 E0.71748
G1 X152.517 Y176.351 E0.0193
G1 X152.517 Y156.896 E0.73941
G1 X152.302 Y156.651 E0.01242
G1 X152.01 Y156.319 E0.01679
G1 X152.01 Y176.351 E0.76135
G1 X151.519 Y176.351 E0.01863
G1 X151.519 Y179.768 E0.12987
G1 X151.502 Y179.768 E0.00067
G1 X151.502 Y155.742 E0.91315
G1 X151.311 Y155.525 E0.01099
G1 X150.994 Y155.165 E0.01822
G1 X150.994 Y179.768 E0.93508
M73 P1 R108
G1 X150.486 Y179.768 E0.0193
G1 X150.486 Y154.588 E0.95702
G1 X150.32 Y154.399 E0.00956
G1 X149.989 Y154.024 E0.019
G1 X149.978 Y154.011 E0.00065
G1 X149.978 Y179.768 E0.97895
G1 X149.47 Y179.768 E0.0193
G1 X149.47 Y153.434 E1.00089
G1 X149.329 Y153.273 E0.00813
G1 X148.999 Y152.898 E0.019
G1 X148.962 Y152.856 E0.00208
G1 X148.962 Y179.768 E1.02282
G1 X148.455 Y179.768 E0.0193
G1 X148.455 Y152.279 E1.04476
G1 X148.338 Y152.147 E0.0067
G1 X148.008 Y151.772 E0.019
G1 X147.947 Y151.702 E0.00351
G1 X147.947 Y183.185 E1.19656
G1 X147.439 Y183.185 E0.0193
G1 X147.439 Y151.125 E1.21849
G1 X147.347 Y151.021 E0.00527
G1 X147.017 Y150.646 E0.019
G1 X146.931 Y150.548 E0.00494
G1 X146.931 Y183.185 E1.24043
G1 X146.423 Y183.185 E0.0193
G1 X146.423 Y149.971 E1.26236
G1 X146.356 Y149.895 E0.00384
G1 X146.026 Y149.52 E0.019
G1 X145.915 Y149.394 E0.00637
G1 X145.915 Y183.185 E1.2843
G1 X145.407 Y183.185 E0.0193
G1 X145.407 Y148.817 E1.30623
G1 X145.365 Y148.769 E0.00241
G1 X145.035 Y148.394 E0.019
G1 X144.899 Y148.24 E0.0078
G1 X144.899 Y183.185 E1.32817
G1 X144.685 Y183.185 E0.00814
G1 X144.685 Y186.602 E0.12987
G1 X144.392 Y186.602 E0.01116
G1 X144.392 Y147.662 E1.47997
G1 X144.375 Y147.643 E0.00098
G1 X144.044 Y147.268 E0.019
G1 X143.884 Y147.085 E0.00923
G1 X143.884 Y186.602 E1.5019
G1 X143.376 Y186.602 E0.0193
G1 X143.376 Y146.508 E1.52384
G1 X143.053 Y146.142 E0.01855
G1 X142.868 Y145.931 E0.01066
G1 X142.868 Y186.602 E1.54577
G1 X142.36 Y186.602 E0.0193
G1 X142.36 Y145.354 E1.56771
G1 X142.062 Y145.016 E0.01712
G1 X141.852 Y144.777 E0.01209
G1 X141.852 Y186.602 E1.58964
G1 X141.344 Y186.602 E0.0193
G1 X141.344 Y144.2 E1.61158
G1 X141.072 Y143.89 E0.01569
G1 X140.837 Y143.623 E0.01352
G1 X140.837 Y186.602 E1.63351
G1 X140.329 Y186.602 E0.0193
G1 X140.329 Y143.045 E1.65544
G1 X140.081 Y142.764 E0.01426
G1 X139.821 Y142.468 E0.01495
G1 X139.821 Y186.602 E1.67738
G1 X139.313 Y186.602 E0.0193
G1 X139.313 Y141.891 E1.69931
G1 X139.106 Y141.656 E0.0119
G1 X139.179 Y140.507 E0.04374
G1 X139.313 Y140.39 E0.00676
G1 X139.313 Y137.342 E0.11582
G1 X139.821 Y137.342 E0.0193
G1 X139.821 Y139.943 E0.09884
G1 X139.911 Y139.864 E0.00455
G1 X140.285 Y139.534 E0.01895
G1 X140.329 Y139.496 E0.00221
G1 X140.329 Y137.342 E0.08185
G1 X140.837 Y137.342 E0.0193
G1 X140.837 Y139.049 E0.06487
G1 X141.034 Y138.875 E0.00999
G1 X141.344 Y138.602 E0.01572
G1 X141.344 Y137.342 E0.04788
G1 X141.852 Y137.342 E0.0193
G1 X141.852 Y138.155 E0.03089
G1 X142.157 Y137.887 E0.01543
G1 X142.36 Y137.708 E0.01028
G1 X142.36 Y137.146 E0.02138
G1 E-1 F3000
G1 X138.805 Y186.799 F9000
G1 E1 F1800
G1 X138.805 Y137.342 E1.87967
G1 X138.297 Y137.342 E0.0193
G1 X138.297 Y186.602 E1.8722
G1 X137.851 Y186.602 E0.01696
G1 X137.851 Y190.02 E0.12987
G1 X137.789 Y190.02 E0.00235
G1 X137.789 Y137.342 E2.00207
G1 X137.281 Y137.342 E0.0193
G1 X137.281 Y190.02 E2.00207
G1 X136.774 Y190.02 E0.0193
G1 X136.774 Y137.342 E2.00207
G1 X136.266 Y137.342 E0.0193
G1 X136.266 Y190.02 E2.00207
G1 X135.758 Y190.02 E0.0193
G1 X135.758 Y137.342 E2.00207
G1 X135.25 Y137.342 E0.0193
G1 X135.25 Y190.02 E2.00207
G1 X134.742 Y190.02 E0.0193
G1 X134.742 Y137.342 E2.00207
M73 P1 R107
G1 X134.234 Y137.342 E0.0193
G1 X134.234 Y193.437 E2.13194
G1 X133.726 Y193.437 E0.0193
G1 X133.726 Y137.342 E2.13194
G1 X133.219 Y137.342 E0.0193
G1 X133.219 Y193.437 E2.13194
G1 X132.711 Y193.437 E0.0193
G1 X132.711 Y140.759 E2.00207
G1 X132.203 Y140.759 E0.0193
G1 X132.203 Y193.437 E2.00207
G1 X131.695 Y193.437 E0.0193
G1 X131.695 Y140.759 E2.00207
G1 X131.187 Y140.759 E0.0193
G1 X131.187 Y193.437 E2.00207
G1 X131.017 Y193.437 E0.00647
G1 X131.017 Y196.854 E0.12987
G1 X130.679 Y196.854 E0.01284
G1 X130.679 Y140.759 E2.13194
G1 X130.171 Y140.759 E0.0193
G1 X130.171 Y196.854 E2.13194
G1 X129.663 Y196.854 E0.0193
G1 X129.663 Y140.759 E2.13194
M73 P2 R107
G1 X129.596 Y140.759 E0.00257
G1 X129.596 Y144.177 E0.12987
G1 X129.156 Y144.177 E0.01673
G1 X129.156 Y196.854 E2.00207
G1 X128.648 Y196.854 E0.0193
G1 X128.648 Y144.177 E2.00207
G1 X128.14 Y144.177 E0.0193
G1 X128.14 Y196.854 E2.00207
G1 X127.632 Y196.854 E0.0193
G1 X127.632 Y144.177 E2.00207
G1 X127.124 Y144.177 E0.0193
G1 X127.124 Y200.271 E2.13194
G1 X126.616 Y200.271 E0.0193
G1 X126.616 Y144.177 E2.13194
G1 X126.179 Y144.177 E0.01663
G1 X126.179 Y147.594 E0.12987
G1 X126.108 Y147.594 E0.00267
G1 X126.108 Y200.271 E2.00207
G1 X125.601 Y200.271 E0.0193
G1 X125.601 Y147.594 E2.00207
G1 X125.093 Y147.594 E0.0193
G1 X125.093 Y200.271 E2.00207
G1 X124.585 Y200.271 E0.0193
G1 X124.585 Y147.594 E2.00207
G1 X124.077 Y147.594 E0.0193
G1 X124.077 Y200.271 E2.00207
G1 X123.569 Y200.271 E0.0193
G1 X123.569 Y147.594 E2.00207
G1 X123.061 Y147.594 E0.0193
G1 X123.061 Y200.271 E2.00207
G1 X122.553 Y200.271 E0.0193
G1 X122.553 Y151.011 E1.8722
G1 X122.046 Y151.011 E0.0193
G1 X122.046 Y200.271 E1.8722
G1 X121.538 Y200.271 E0.0193
G1 X121.538 Y151.011 E1.8722
G1 X121.03 Y151.011 E0.0193
G1 X121.03 Y200.271 E1.8722
G1 X120.522 Y200.271 E0.0193
G1 X120.522 Y151.011 E1.8722
G1 X120.014 Y151.011 E0.0193
G1 X120.014 Y200.271 E1.8722
G1 X119.506 Y200.271 E0.0193
G1 X119.506 Y151.011 E1.8722
G1 X119.345 Y151.011 E0.00614
G1 X119.345 Y154.428 E0.12987
G1 X118.998 Y154.428 E0.01316
G1 X118.998 Y200.271 E1.74233
G1 X118.49 Y200.271 E0.0193
G1 X118.49 Y154.428 E1.74233
G1 X117.983 Y154.428 E0.0193
G1 X117.983 Y200.271 E1.74233
M73 P2 R106
G1 X117.475 Y200.271 E0.0193
G1 X117.475 Y154.428 E1.74233
G1 X116.967 Y154.428 E0.0193
G1 X116.967 Y200.271 E1.74233
G1 X116.459 Y200.271 E0.0193
G1 X116.459 Y154.428 E1.74233
G1 X115.951 Y154.428 E0.0193
G1 X115.951 Y200.271 E1.74233
G1 X115.928 Y200.271 E0.0009
G1 X115.928 Y196.854 E0.12987
G1 X115.443 Y196.854 E0.01841
G1 X115.443 Y157.845 E1.48258
G1 X114.935 Y157.845 E0.0193
G1 X114.935 Y196.854 E1.48258
G1 X114.428 Y196.854 E0.0193
G1 X114.428 Y157.845 E1.48258
G1 X113.92 Y157.845 E0.0193
G1 X113.92 Y196.854 E1.48258
G1 X113.412 Y196.854 E0.0193
G1 X113.412 Y157.845 E1.48258
G1 X112.904 Y157.845 E0.0193
G1 X112.904 Y196.854 E1.48258
G1 X112.51 Y196.854 E0.01495
G1 X112.51 Y193.437 E0.12987
G1 X112.396 Y193.437 E0.00435
G1 X112.396 Y157.845 E1.35271
G1 X111.888 Y157.845 E0.0193
G1 X111.888 Y193.437 E1.35271
G1 X111.38 Y193.437 E0.0193
G1 X111.38 Y157.845 E1.35271
G1 X110.872 Y157.845 E0.0193
G1 X110.872 Y193.437 E1.35271
G1 X110.365 Y193.437 E0.0193
G1 X110.365 Y157.845 E1.35271
G1 X109.857 Y157.845 E0.0193
G1 X109.857 Y193.437 E1.35271
G1 X109.349 Y193.437 E0.0193
G1 X109.349 Y157.845 E1.35271
M73 P3 R106
G1 X109.093 Y157.845 E0.00971
G1 X109.093 Y161.262 E0.12987
G1 X108.841 Y161.262 E0.00959
G1 X108.841 Y186.602 E0.9631
G1 X108.333 Y186.602 E0.0193
G1 X108.333 Y161.262 E0.9631
G1 X107.825 Y161.262 E0.0193
G1 X107.825 Y186.602 E0.9631
G1 X107.317 Y186.602 E0.0193
G1 X107.317 Y161.262 E0.9631
G1 X106.81 Y161.262 E0.0193
G1 X106.81 Y186.602 E0.9631
G1 X106.302 Y186.602 E0.0193
G1 X106.302 Y161.262 E0.9631
G1 X105.794 Y161.262 E0.0193
G1 X105.794 Y186.602 E0.9631
G1 X105.676 Y186.602 E0.00446
G1 X105.676 Y183.185 E0.12987
G1 X105.286 Y183.185 E0.01484
G1 X105.286 Y164.679 E0.70336
