; generated by SuperSlicer 2.3.56 on 2021-10-11 at 05:52:47 UTC


;
;

;
;
; 

; external perimeters extrusion width = 0.40mm
; perimeters extrusion width = 0.40mm
; infill extrusion width = 0.40mm
; solid infill extrusion width = 0.40mm
; top infill extrusion width = 0.40mm
; first layer extrusion width = 0.48mm


;TYPE:Custom
START_PRINT T_BED=60 T_EXTRUDER=200
M107
G21 ; set units to millimeters
G90 ; use absolute coordinates
M83 ; use relative distances for extrusion
; Filament gcode
M104 S200 ; set temperature
M109 S200 ; set temperature and wait for it to be reached
M190 S60 ; set bed temperature and wait for it to be reached
M107
;LAYER_CHANGE
;Z:0.24
;HEIGHT:0.24
G1 Z0.240000 F6000.000
G1 E-0.80000 F3000.000
G1 X63.409 Y86.648 F6000.000
G1 E0.80000 F1500.000
;TYPE:Skirt
;WIDTH:0.48
G1 F1200.000
G1 X64.194 Y86.104 E0.04085
G1 X65.066 Y85.699 E0.04110
G1 X65.994 Y85.448 E0.04110
G1 X66.951 Y85.357 E0.04110
G1 X207.006 Y85.357 E5.98811
G1 X208.085 Y85.463 E0.04635
G1 X209.124 Y85.772 E0.04635
G1 X210.084 Y86.275 E0.04635
G1 X210.935 Y86.956 E0.04660
G1 X211.636 Y87.783 E0.04635
G1 X212.165 Y88.729 E0.04635
G1 X212.504 Y89.758 E0.04635
G1 X212.640 Y90.834 E0.04635
G1 X212.642 Y201.100 E4.71448
G1 X212.490 Y202.303 E0.05184
G1 X212.083 Y203.451 E0.05209
G1 X211.438 Y204.485 E0.05209
G1 X210.591 Y205.352 E0.05184
G1 X209.806 Y205.896 E0.04085
G1 X208.934 Y206.301 E0.04110
G1 X208.006 Y206.552 E0.04110
G1 X207.049 Y206.643 E0.04110
G1 X66.971 Y206.643 E5.98911
G1 X65.743 Y206.501 E0.05284
G1 X64.581 Y206.098 E0.05259
G1 X63.534 Y205.453 E0.05259
G1 X62.648 Y204.591 E0.05284
G1 X62.104 Y203.806 E0.04085
G1 X61.701 Y202.939 E0.04085
G1 X61.450 Y202.018 E0.04085
G1 X61.358 Y201.067 E0.04085
G1 X61.357 Y90.965 E4.70745
G1 X61.500 Y89.737 E0.05284
G1 X61.905 Y88.576 E0.05259
G1 X62.551 Y87.529 E0.05259
G1 X63.367 Y86.691 E0.05002
G1 X63.672 Y86.988 F6000.000
G1 F1200.000
G1 X63.685 Y86.975 E0.00077
G1 X64.418 Y86.470 E0.03806
G1 X65.221 Y86.099 E0.03782
G1 X66.075 Y85.868 E0.03782
G1 X66.956 Y85.786 E0.03782
G1 X207.006 Y85.786 E5.98790
G1 X208.004 Y85.883 E0.04287
G1 X208.964 Y86.170 E0.04287
G1 X209.852 Y86.635 E0.04287
G1 X210.635 Y87.262 E0.04287
G1 X211.283 Y88.027 E0.04287
G1 X211.773 Y88.901 E0.04287
G1 X212.087 Y89.854 E0.04287
G1 X212.212 Y90.854 E0.04311
G1 X212.214 Y201.085 E4.71296
G1 X212.074 Y202.202 E0.04815
G1 X211.697 Y203.263 E0.04815
G1 X211.102 Y204.219 E0.04815
G1 X210.315 Y205.025 E0.04815
G1 X209.582 Y205.530 E0.03806
G1 X208.779 Y205.901 E0.03782
G1 X207.925 Y206.132 E0.03782
G1 X207.044 Y206.214 E0.03782
G1 X66.972 Y206.214 E5.98887
G1 X65.842 Y206.084 E0.04863
G1 X64.762 Y205.710 E0.04887
G1 X63.790 Y205.109 E0.04887
G1 X62.975 Y204.315 E0.04863
G1 X62.473 Y203.587 E0.03782
G1 X62.101 Y202.785 E0.03782
G1 X61.870 Y201.936 E0.03758
G1 X61.786 Y201.056 E0.03782
G1 X61.786 Y90.966 E4.70693
G1 X61.917 Y89.836 E0.04863
G1 X62.290 Y88.762 E0.04863
G1 X62.891 Y87.790 E0.04887
G1 X63.630 Y87.031 E0.04529
G1 E-0.80000 F3000.000
G1 X68.097 Y92.097 F6000.000
G1 E0.80000 F1500.000
;TYPE:Internal perimeter
G1 F1200.000
G1 X205.903 Y92.097 E5.89196
G1 X205.903 Y199.903 E4.60930
G1 X68.097 Y199.903 E5.89196
G1 X68.097 Y92.157 E4.60673
G1 X67.668 Y91.668 F6000.000
G1 F1200.000
G1 X206.332 Y91.668 E5.92860
G1 X206.332 Y200.332 E4.64594
G1 X67.668 Y200.332 E5.92860
G1 X67.668 Y91.728 E4.64337
G1 X67.240 Y91.240 F6000.000
;TYPE:External perimeter
G1 F1200.000
G1 X206.760 Y91.240 E5.96524
G1 X206.760 Y200.760 E4.68258
G1 X67.240 Y200.760 E5.96524
G1 X67.240 Y91.300 E4.68001
G1 X67.586 Y91.440 F6000.000
G1 E-0.80000 F3000.000
G1 X205.753 Y93.113 F6000.000
G1 E0.80000 F1500.000
;TYPE:Solid infill
;WIDTH:0.480348
G1 F1800.000
G1 X205.080 Y92.440 E0.04075
G1 X204.474 Y92.440 E0.02593
G1 X205.560 Y93.526 E0.06575
G1 X205.560 Y94.132 E0.02593
G1 X203.868 Y92.440 E0.10241
G1 X203.262 Y92.440 E0.02593
G1 X205.560 Y94.738 E0.13908
G1 X205.560 Y95.344 E0.02593
G1 X202.656 Y92.440 E0.17575
G1 X202.050 Y92.440 E0.02593
G1 X205.560 Y95.950 E0.21242
G1 X205.560 Y96.556 E0.02593
G1 X201.444 Y92.440 E0.24908
G1 X200.838 Y92.440 E0.02593
G1 X205.560 Y97.162 E0.28575
G1 X205.560 Y97.768 E0.02593
G1 X200.232 Y92.440 E0.32242
G1 X199.626 Y92.440 E0.02593
G1 X205.560 Y98.374 E0.35909
G1 X205.560 Y98.980 E0.02593
G1 X199.020 Y92.440 E0.39575
G1 X198.414 Y92.440 E0.02593
G1 X205.560 Y99.586 E0.43242
G1 X205.560 Y100.192 E0.02593
G1 X197.808 Y92.440 E0.46909
G1 X197.202 Y92.440 E0.02593
G1 X205.560 Y100.798 E0.50576
G1 X205.560 Y101.404 E0.02593
G1 X196.596 Y92.440 E0.54242
G1 X195.990 Y92.440 E0.02593
G1 X205.560 Y102.010 E0.57909
G1 X205.560 Y102.616 E0.02593
G1 X195.384 Y92.440 E0.61576
G1 X194.778 Y92.440 E0.02593
G1 X205.560 Y103.222 E0.65243
G1 X205.560 Y103.828 E0.02593
G1 X194.172 Y92.440 E0.68909
G1 X193.566 Y92.440 E0.02593
G1 X205.560 Y104.434 E0.72576
G1 X205.560 Y105.040 E0.02593
G1 X192.960 Y92.440 E0.76243
G1 X192.354 Y92.440 E0.02593
G1 X205.560 Y105.646 E0.79910
G1 X205.560 Y106.252 E0.02593
G1 X191.748 Y92.440 E0.83576
G1 X191.142 Y92.440 E0.02593
G1 X205.560 Y106.858 E0.87243
G1 X205.560 Y107.464 E0.02593
G1 X190.536 Y92.440 E0.90910
G1 X189.930 Y92.440 E0.02593
G1 X205.560 Y108.070 E0.94577
G1 X205.560 Y108.676 E0.02593
G1 X189.324 Y92.440 E0.98243
G1 X188.718 Y92.440 E0.02593
G1 X205.560 Y109.282 E1.01910
G1 X205.560 Y109.888 E0.02593
G1 X188.112 Y92.440 E1.05577
G1 X187.506 Y92.440 E0.02593
G1 X205.560 Y110.494 E1.09244
G1 X205.560 Y111.100 E0.02593
G1 X186.900 Y92.440 E1.12910
G1 X186.294 Y92.440 E0.02593
G1 X205.560 Y111.706 E1.16577
G1 X205.560 Y112.312 E0.02593
G1 X185.688 Y92.440 E1.20244
G1 X185.082 Y92.440 E0.02593
G1 X205.560 Y112.918 E1.23911
G1 X205.560 Y113.524 E0.02593
G1 X184.476 Y92.440 E1.27578
G1 X183.870 Y92.440 E0.02593
G1 X205.560 Y114.130 E1.31244
G1 X205.560 Y114.736 E0.02593
G1 X183.264 Y92.440 E1.34911
G1 X182.658 Y92.440 E0.02593
G1 X205.560 Y115.342 E1.38578
G1 X205.560 Y115.948 E0.02593
G1 X182.052 Y92.440 E1.42245
G1 X181.446 Y92.440 E0.02593
G1 X205.560 Y116.554 E1.45911
G1 X205.560 Y117.160 E0.02593
G1 X180.840 Y92.440 E1.49578
G1 X180.234 Y92.440 E0.02593
G1 X205.560 Y117.766 E1.53245
G1 X205.560 Y118.372 E0.02593
G1 X179.628 Y92.440 E1.56912
G1 X179.022 Y92.440 E0.02593
G1 X205.560 Y118.978 E1.60578
G1 X205.560 Y119.584 E0.02593
G1 X178.416 Y92.440 E1.64245
G1 X177.810 Y92.440 E0.02593
G1 X205.560 Y120.190 E1.67912
G1 X205.560 Y120.796 E0.02593
G1 X177.204 Y92.440 E1.71579
G1 X176.598 Y92.440 E0.02593
G1 X205.560 Y121.402 E1.75245
G1 X205.560 Y122.008 E0.02593
G1 X175.992 Y92.440 E1.78912
G1 X175.386 Y92.440 E0.02593
G1 X205.560 Y122.614 E1.82579
G1 X205.560 Y123.219 E0.02593
G1 X174.781 Y92.440 E1.86246
G1 X174.175 Y92.440 E0.02593
G1 X205.560 Y123.825 E1.89912
G1 X205.560 Y124.431 E0.02593
G1 X173.569 Y92.440 E1.93579
G1 X172.963 Y92.440 E0.02593
G1 X205.560 Y125.037 E1.97246
G1 X205.560 Y125.643 E0.02593
G1 X172.357 Y92.440 E2.00913
G1 X171.751 Y92.440 E0.02593
G1 X205.560 Y126.249 E2.04579
G1 X205.560 Y126.855 E0.02593
G1 X171.145 Y92.440 E2.08246
G1 X170.539 Y92.440 E0.02593
G1 X205.560 Y127.461 E2.11913
G1 X205.560 Y128.067 E0.02593
G1 X169.933 Y92.440 E2.15580
G1 X169.327 Y92.440 E0.02593
G1 X205.560 Y128.673 E2.19246
G1 X205.560 Y129.279 E0.02593
G1 X168.721 Y92.440 E2.22913
G1 X168.115 Y92.440 E0.02593
G1 X205.560 Y129.885 E2.26580
G1 X205.560 Y130.491 E0.02593
G1 X167.509 Y92.440 E2.30247
G1 X166.903 Y92.440 E0.02593
G1 X205.560 Y131.097 E2.33913
G1 X205.560 Y131.703 E0.02593
G1 X166.297 Y92.440 E2.37580
G1 X165.691 Y92.440 E0.02593
G1 X205.560 Y132.309 E2.41247
G1 X205.560 Y132.915 E0.02593
G1 X165.085 Y92.440 E2.44914
G1 X164.479 Y92.440 E0.02593
G1 X205.560 Y133.521 E2.48581
G1 X205.560 Y134.127 E0.02593
G1 X163.873 Y92.440 E2.52247
G1 X163.267 Y92.440 E0.02593
G1 X205.560 Y134.733 E2.55914
G1 X205.560 Y135.339 E0.02593
G1 X162.661 Y92.440 E2.59581
G1 X162.055 Y92.440 E0.02593
G1 X205.560 Y135.945 E2.63248
G1 X205.560 Y136.551 E0.02593
G1 X161.449 Y92.440 E2.66914
G1 X160.843 Y92.440 E0.02593
G1 X205.560 Y137.157 E2.70581
G1 X205.560 Y137.763 E0.02593
G1 X160.237 Y92.440 E2.74248
G1 X159.631 Y92.440 E0.02593
G1 X205.560 Y138.369 E2.77915
G1 X205.560 Y138.975 E0.02593
G1 X159.025 Y92.440 E2.81581
G1 X158.419 Y92.440 E0.02593
G1 X205.560 Y139.581 E2.85248
G1 X205.560 Y140.187 E0.02593
G1 X157.813 Y92.440 E2.88915
G1 X157.207 Y92.440 E0.02593
G1 X205.560 Y140.793 E2.92582
G1 X205.560 Y141.399 E0.02593
G1 X156.601 Y92.440 E2.96248
G1 X155.995 Y92.440 E0.02593
G1 X205.560 Y142.005 E2.99915
G1 X205.560 Y142.611 E0.02593
G1 X155.389 Y92.440 E3.03582
G1 X154.783 Y92.440 E0.02593
G1 X205.560 Y143.217 E3.07249
G1 X205.560 Y143.823 E0.02593
G1 X154.177 Y92.440 E3.10915
G1 X153.571 Y92.440 E0.02593
G1 X205.560 Y144.429 E3.14582
G1 X205.560 Y145.035 E0.02593
G1 X152.965 Y92.440 E3.18249
G1 X152.359 Y92.440 E0.02593
G1 X205.560 Y145.641 E3.21916
G1 X205.560 Y146.247 E0.02593
G1 X151.753 Y92.440 E3.25582
G1 X151.147 Y92.440 E0.02593
G1 X205.560 Y146.853 E3.29249
G1 X205.560 Y147.459 E0.02593
G1 X150.541 Y92.440 E3.32916
G1 X149.935 Y92.440 E0.02593
G1 X205.560 Y148.065 E3.36583
G1 X205.560 Y148.671 E0.02593
G1 X149.329 Y92.440 E3.40249
G1 X148.723 Y92.440 E0.02593
G1 X205.560 Y149.277 E3.43916
G1 X205.560 Y149.883 E0.02593
G1 X148.117 Y92.440 E3.47583
G1 X147.511 Y92.440 E0.02593
G1 X205.560 Y150.489 E3.51250
G1 X205.560 Y151.095 E0.02593
G1 X146.905 Y92.440 E3.54916
G1 X146.299 Y92.440 E0.02593
G1 X205.560 Y151.701 E3.58583
G1 X205.560 Y152.307 E0.02593
G1 X145.693 Y92.440 E3.62250
G1 X145.087 Y92.440 E0.02593
G1 X205.560 Y152.913 E3.65917
G1 X205.560 Y153.519 E0.02593
G1 X144.481 Y92.440 E3.69584
G1 X143.875 Y92.440 E0.02593
G1 X205.560 Y154.125 E3.73250
G1 X205.560 Y154.731 E0.02593
G1 X143.269 Y92.440 E3.76917
G1 X142.663 Y92.440 E0.02593
G1 X205.560 Y155.337 E3.80584
G1 X205.560 Y155.943 E0.02593
G1 X142.057 Y92.440 E3.84251
G1 X141.451 Y92.440 E0.02593
G1 X205.560 Y156.549 E3.87917
G1 X205.560 Y157.155 E0.02593
G1 X140.845 Y92.440 E3.91584
G1 X140.239 Y92.440 E0.02593
G1 X205.560 Y157.761 E3.95251
G1 X205.560 Y158.367 E0.02593
G1 X139.633 Y92.440 E3.98918
G1 X139.027 Y92.440 E0.02593
G1 X205.560 Y158.973 E4.02584
G1 X205.560 Y159.579 E0.02593
G1 X138.421 Y92.440 E4.06251
G1 X137.816 Y92.440 E0.02593
G1 X205.560 Y160.184 E4.09918
G1 X205.560 Y160.790 E0.02593
G1 X137.210 Y92.440 E4.13585
G1 X136.604 Y92.440 E0.02593
G1 X205.560 Y161.396 E4.17251
G1 X205.560 Y162.002 E0.02593
G1 X135.998 Y92.440 E4.20918
G1 X135.392 Y92.440 E0.02593
G1 X205.560 Y162.608 E4.24585
G1 X205.560 Y163.214 E0.02593
G1 X134.786 Y92.440 E4.28252
G1 X134.180 Y92.440 E0.02593
G1 X205.560 Y163.820 E4.31918
G1 X205.560 Y164.426 E0.02593
G1 X133.574 Y92.440 E4.35585
G1 X132.968 Y92.440 E0.02593
G1 X205.560 Y165.032 E4.39252
G1 X205.560 Y165.638 E0.02593
G1 X132.362 Y92.440 E4.42919
G1 X131.756 Y92.440 E0.02593
G1 X205.560 Y166.244 E4.46585
G1 X205.560 Y166.850 E0.02593
G1 X131.150 Y92.440 E4.50252
G1 X130.544 Y92.440 E0.02593
G1 X205.560 Y167.456 E4.53919
G1 X205.560 Y168.062 E0.02593
G1 X129.938 Y92.440 E4.57586
G1 X129.332 Y92.440 E0.02593
G1 X205.560 Y168.668 E4.61252
G1 X205.560 Y169.274 E0.02593
G1 X128.726 Y92.440 E4.64919
G1 X128.120 Y92.440 E0.02593
G1 X205.560 Y169.880 E4.68586
G1 X205.560 Y170.486 E0.02593
G1 X127.514 Y92.440 E4.72253
G1 X126.908 Y92.440 E0.02593
G1 X205.560 Y171.092 E4.75919
G1 X205.560 Y171.698 E0.02593
G1 X126.302 Y92.440 E4.79586
G1 X125.696 Y92.440 E0.02593
G1 X205.560 Y172.304 E4.83253
G1 X205.560 Y172.910 E0.02593
G1 X125.090 Y92.440 E4.86920
G1 X124.484 Y92.440 E0.02593
G1 X205.560 Y173.516 E4.90586
G1 X205.560 Y174.122 E0.02593
G1 X123.878 Y92.440 E4.94253
G1 X123.272 Y92.440 E0.02593
G1 X205.560 Y174.728 E4.97920
G1 X205.560 Y175.334 E0.02593
G1 X122.666 Y92.440 E5.01587
G1 X122.060 Y92.440 E0.02593
G1 X205.560 Y175.940 E5.05254
G1 X205.560 Y176.546 E0.02593
G1 X121.454 Y92.440 E5.08920
G1 X120.848 Y92.440 E0.02593
G1 X205.560 Y177.152 E5.12587
G1 X205.560 Y177.758 E0.02593
G1 X120.242 Y92.440 E5.16254
G1 X119.636 Y92.440 E0.02593
G1 X205.560 Y178.364 E5.19921
G1 X205.560 Y178.970 E0.02593
G1 X119.030 Y92.440 E5.23587
G1 X118.424 Y92.440 E0.02593
G1 X205.560 Y179.576 E5.27254
G1 X205.560 Y180.182 E0.02593
G1 X117.818 Y92.440 E5.30921
G1 X117.212 Y92.440 E0.02593
G1 X205.560 Y180.788 E5.34588
G1 X205.560 Y181.394 E0.02593
G1 X116.606 Y92.440 E5.38254
G1 X116.000 Y92.440 E0.02593
G1 X205.560 Y182.000 E5.41921
G1 X205.560 Y182.606 E0.02593
G1 X115.394 Y92.440 E5.45588
G1 X114.788 Y92.440 E0.02593
G1 X205.560 Y183.212 E5.49255
G1 X205.560 Y183.818 E0.02593
G1 X114.182 Y92.440 E5.52921
G1 X113.576 Y92.440 E0.02593
G1 X205.560 Y184.424 E5.56588
G1 X205.560 Y185.030 E0.02593
G1 X112.970 Y92.440 E5.60255
G1 X112.364 Y92.440 E0.02593
G1 X205.560 Y185.636 E5.63922
G1 X205.560 Y186.242 E0.02593
G1 X111.758 Y92.440 E5.67588
G1 X111.152 Y92.440 E0.02593
G1 X205.560 Y186.848 E5.71255
G1 X205.560 Y187.454 E0.02593
G1 X110.546 Y92.440 E5.74922
G1 X109.940 Y92.440 E0.02593
G1 X205.560 Y188.060 E5.78589
G1 X205.560 Y188.666 E0.02593
G1 X109.334 Y92.440 E5.82255
G1 X108.728 Y92.440 E0.02593
G1 X205.560 Y189.272 E5.85922
G1 X205.560 Y189.878 E0.02593
G1 X108.122 Y92.440 E5.89589
G1 X107.516 Y92.440 E0.02593
G1 X205.560 Y190.484 E5.93256
G1 X205.560 Y191.090 E0.02593
G1 X106.910 Y92.440 E5.96922
G1 X106.304 Y92.440 E0.02593
G1 X205.560 Y191.696 E6.00589
G1 X205.560 Y192.302 E0.02593
G1 X105.698 Y92.440 E6.04256
G1 X105.092 Y92.440 E0.02593
G1 X205.560 Y192.908 E6.07923
G1 X205.560 Y193.514 E0.02593
G1 X104.486 Y92.440 E6.11589
G1 X103.880 Y92.440 E0.02593
G1 X205.560 Y194.120 E6.15256
G1 X205.560 Y194.726 E0.02593
G1 X103.274 Y92.440 E6.18923
G1 X102.668 Y92.440 E0.02593
G1 X205.560 Y195.332 E6.22590
G1 X205.560 Y195.938 E0.02593
G1 X102.062 Y92.440 E6.26257
G1 X101.457 Y92.440 E0.02593
G1 X205.560 Y196.543 E6.29923
G1 X205.560 Y197.149 E0.02593
G1 X100.851 Y92.440 E6.33590
G1 X100.245 Y92.440 E0.02593
G1 X205.560 Y197.755 E6.37257
G1 X205.560 Y198.361 E0.02593
G1 X99.639 Y92.440 E6.40924
G1 X99.033 Y92.440 E0.02593
G1 X205.560 Y198.967 E6.44590
G1 X205.560 Y199.560 E0.02536
G1 X205.547 Y199.560 E0.00056
G1 X98.427 Y92.440 E6.48177
G1 X97.821 Y92.440 E0.02593
G1 X204.941 Y199.560 E6.48177
G1 X204.335 Y199.560 E0.02593
G1 X97.215 Y92.440 E6.48177
G1 X96.609 Y92.440 E0.02593
G1 X203.729 Y199.560 E6.48177
G1 X203.123 Y199.560 E0.02593
G1 X96.003 Y92.440 E6.48177
G1 X95.397 Y92.440 E0.02593
G1 X202.517 Y199.560 E6.48177
G1 X201.911 Y199.560 E0.02593
G1 X94.791 Y92.440 E6.48177
G1 X94.185 Y92.440 E0.02593
G1 X201.305 Y199.560 E6.48177
G1 X200.699 Y199.560 E0.02593
G1 X93.579 Y92.440 E6.48177
G1 X92.973 Y92.440 E0.02593
G1 X200.093 Y199.560 E6.48177
G1 X199.487 Y199.560 E0.02593
G1 X92.367 Y92.440 E6.48177
G1 X91.761 Y92.440 E0.02593
G1 X198.881 Y199.560 E6.48177
G1 X198.275 Y199.560 E0.02593
G1 X91.155 Y92.440 E6.48177
G1 X90.549 Y92.440 E0.02593
G1 X197.669 Y199.560 E6.48177
G1 X197.063 Y199.560 E0.02593
G1 X89.943 Y92.440 E6.48177
G1 X89.337 Y92.440 E0.02593
G1 X196.457 Y199.560 E6.48177
G1 X195.851 Y199.560 E0.02593
G1 X88.731 Y92.440 E6.48177
G1 X88.125 Y92.440 E0.02593
G1 X195.245 Y199.560 E6.48177
G1 X194.639 Y199.560 E0.02593
G1 X87.519 Y92.440 E6.48177
G1 X86.913 Y92.440 E0.02593
G1 X194.033 Y199.560 E6.48177
G1 X193.427 Y199.560 E0.02593
G1 X86.307 Y92.440 E6.48177
G1 X85.701 Y92.440 E0.02593
G1 X192.821 Y199.560 E6.48177
G1 X192.215 Y199.560 E0.02593
G1 X85.095 Y92.440 E6.48177
G1 X84.489 Y92.440 E0.02593
G1 X191.609 Y199.560 E6.48177
G1 X191.003 Y199.560 E0.02593
G1 X83.883 Y92.440 E6.48177
G1 X83.277 Y92.440 E0.02593
G1 X190.397 Y199.560 E6.48177
G1 X189.791 Y199.560 E0.02593
G1 X82.671 Y92.440 E6.48177
G1 X82.065 Y92.440 E0.02593
G1 X189.185 Y199.560 E6.48177
G1 X188.579 Y199.560 E0.02593
G1 X81.459 Y92.440 E6.48177
G1 X80.853 Y92.440 E0.02593
G1 X187.974 Y199.560 E6.48177
G1 X187.368 Y199.560 E0.02593
G1 X80.247 Y92.440 E6.48177
G1 X79.641 Y92.440 E0.02593
G1 X186.762 Y199.560 E6.48177
G1 X186.156 Y199.560 E0.02593
G1 X79.035 Y92.440 E6.48177
