; generated by SuperSlicer 2.3.57 on 2022-01-19 at 01:46:38 UTC


;
;

;
;
; 

; external perimeters extrusion width = 0.40mm
; perimeters extrusion width = 0.40mm
; infill extrusion width = 0.40mm
; solid infill extrusion width = 0.40mm
; top infill extrusion width = 0.40mm
; first layer extrusion width = 0.48mm


;TYPE:Custom
START_PRINT T_BED=60 T_EXTRUDER=200
M107
G21 ; set units to millimeters
G90 ; use absolute coordinates
M83 ; use relative distances for extrusion
; Filament gcode
M109 S200 ; set temperature and wait for it to be reached
M190 S60 ; set bed temperature and wait for it to be reached
;LAYER_CHANGE
;Z:0.24
;HEIGHT:0.24
G1 Z0.24 F9000
G1 E-0.6 F3000
M204 S1000
G1 X96.022 Y122.931 F9000
G1 E0.6 F1800
;TYPE:Skirt
;WIDTH:0.48
G1 F900
G1 X93.868 Y124.704 E0.11807
G1 X91.957 Y126.553 E0.11257
G1 X90.297 Y128.43 E0.10606
G1 X77.747 Y143.123 E0.8179
G1 X77.295 Y143.808 E0.03475
G1 X76.944 Y144.556 E0.03499
G1 X76.708 Y145.343 E0.03475
G1 X76.588 Y146.155 E0.03475
G1 X76.452 Y148.595 E0.10345
G1 X76.445 Y151.189 E0.10978
G1 X76.584 Y153.815 E0.11132
G1 X76.867 Y155.066 E0.05428
G1 X77.292 Y155.999 E0.04341
G1 X77.876 Y156.836 E0.04316
G1 X90.242 Y171.504 E0.81208
G1 X91.948 Y173.436 E0.10911
G1 X93.933 Y175.353 E0.1168
G1 X96.025 Y177.071 E0.11457
G1 X98.106 Y178.521 E0.10737
G1 X100.678 Y180.029 E0.12623
G1 X103.135 Y181.2 E0.11518
G1 X105.498 Y182.107 E0.10713
G1 X108.472 Y182.978 E0.13119
G1 X111.021 Y183.498 E0.1101
G1 X113.532 Y183.809 E0.10712
G1 X116.43 Y183.942 E0.12277
G1 X188.551 Y183.943 E3.05276
G1 X191.235 Y183.832 E0.11369
G1 X193.954 Y183.502 E0.11593
G1 X196.631 Y182.954 E0.11568
G1 X199.323 Y182.171 E0.11866
G1 X201.998 Y181.139 E0.12138
G1 X204.27 Y180.057 E0.10649
G1 X206.456 Y178.8 E0.10674
G1 X208.877 Y177.146 E0.12411
G1 X211.051 Y175.368 E0.1189
G1 X212.97 Y173.523 E0.11266
G1 X214.651 Y171.634 E0.10704
G1 X227.188 Y156.956 E0.81707
G1 X227.645 Y156.295 E0.034
G1 X228 Y155.581 E0.03376
G1 X228.253 Y154.819 E0.034
G1 X228.395 Y154.028 E0.034
G1 X228.548 Y151.424 E0.11041
G1 X228.558 Y148.971 E0.10382
G1 X228.375 Y145.884 E0.1309
G1 X227.973 Y144.526 E0.05996
G1 X227.249 Y143.315 E0.05971
G1 X214.799 Y128.543 E0.81774
G1 X213.067 Y126.579 E0.11084
G1 X211.247 Y124.812 E0.10736
G1 X208.941 Y122.903 E0.12672
G1 X206.707 Y121.354 E0.11506
G1 X204.331 Y119.976 E0.1163
G1 X201.85 Y118.794 E0.1163
G1 X199.28 Y117.815 E0.11641
G1 X196.664 Y117.054 E0.11531
G1 X193.973 Y116.501 E0.1163
G1 X191.246 Y116.168 E0.1163
G1 X188.506 Y116.057 E0.11607
G1 X116.17 Y116.059 E3.06181
G1 X113.53 Y116.187 E0.11187
G1 X110.833 Y116.534 E0.1151
G1 X108.178 Y117.093 E0.11485
G1 X105.527 Y117.88 E0.11708
G1 X102.842 Y118.93 E0.12204
G1 X100.588 Y120.018 E0.10591
G1 X98.425 Y121.275 E0.10591
G1 X96.071 Y122.897 E0.12099
G1 X96.193 Y123.073 F9000
M204 S500
G1 X96.314 Y123.249
G1 F900
G1 X96.278 Y123.275 E0.00189
G1 X94.153 Y125.024 E0.1165
G1 X92.265 Y126.851 E0.11122
G1 X90.621 Y128.71 E0.10503
G1 X78.097 Y143.371 E0.81615
G1 X77.673 Y144.009 E0.03245
G1 X77.347 Y144.703 E0.03245
G1 X77.126 Y145.437 E0.03245
G1 X77.015 Y146.196 E0.03245
G1 X76.88 Y148.608 E0.10225
G1 X76.872 Y151.161 E0.10809
G1 X77.008 Y153.746 E0.10956
G1 X77.265 Y154.905 E0.05027
G1 X77.66 Y155.778 E0.04054
G1 X78.207 Y156.564 E0.04054
G1 X90.569 Y171.226 E0.81176
G1 X92.255 Y173.138 E0.10792
G1 X94.215 Y175.031 E0.11532
G1 X96.286 Y176.731 E0.11341
G1 X98.35 Y178.169 E0.10648
G1 X100.875 Y179.649 E0.1239
G1 X103.307 Y180.807 E0.114
G1 X105.644 Y181.704 E0.10599
G1 X108.567 Y182.56 E0.12891
G1 X111.093 Y183.075 E0.10911
G1 X113.584 Y183.384 E0.10625
G1 X116.438 Y183.514 E0.12094
G1 X188.546 Y183.514 E3.0522
G1 X191.198 Y183.406 E0.11231
G1 X193.882 Y183.079 E0.11446
G1 X196.526 Y182.539 E0.11422
G1 X199.16 Y181.773 E0.11613
G1 X201.815 Y180.752 E0.12041
G1 X204.073 Y179.676 E0.10586
G1 X206.236 Y178.432 E0.10562
G1 X208.617 Y176.805 E0.12208
G1 X210.763 Y175.051 E0.11732
G1 X212.659 Y173.228 E0.11132
G1 X214.327 Y171.353 E0.1062
G1 X226.848 Y156.696 E0.81596
G1 X227.274 Y156.079 E0.03173
G1 X227.608 Y155.408 E0.03173
G1 X227.841 Y154.701 E0.03149
G1 X227.971 Y153.963 E0.03173
G1 X228.12 Y151.405 E0.10846
G1 X228.13 Y148.97 E0.10307
G1 X227.952 Y145.954 E0.1279
G1 X227.578 Y144.691 E0.05573
G1 X226.903 Y143.568 E0.05549
G1 X214.467 Y128.815 E0.81672
G1 X212.755 Y126.873 E0.10958
G1 X210.95 Y125.121 E0.10648
G1 X208.682 Y123.244 E0.12461
G1 X206.475 Y121.715 E0.11364
G1 X204.128 Y120.353 E0.11483
G1 X201.679 Y119.186 E0.11483
G1 X199.147 Y118.222 E0.1147
G1 X196.559 Y117.469 E0.11409
G1 X193.901 Y116.924 E0.11483
G1 X191.208 Y116.595 E0.11483
G1 X188.505 Y116.486 E0.11449
G1 X116.185 Y116.488 E3.06117
G1 X113.571 Y116.614 E0.11078
G1 X110.908 Y116.956 E0.11364
G1 X108.286 Y117.508 E0.1134
G1 X105.69 Y118.277 E0.1146
G1 X103.027 Y119.317 E0.12103
G1 X100.787 Y120.398 E0.10529
G1 X98.641 Y121.645 E0.10505
G1 X96.364 Y123.215 E0.11708
G1 E-0.6 F3000
M204 S1000
G1 X92.852 Y135.44 F9000
M204 S500
G1 X89.341 Y147.666
G1 E0.6 F1800
;TYPE:Internal perimeter
G1 F900
G1 X89.849 Y144.552 E0.13356
G1 X90.37 Y142.436 E0.09222
G1 X91.06 Y140.369 E0.09222
G1 X91.912 Y138.364 E0.09222
G1 X92.922 Y136.434 E0.09222
G1 X94.083 Y134.591 E0.09222
G1 X95.388 Y132.846 E0.09222
G1 X96.829 Y131.212 E0.09222
G1 X98.395 Y129.698 E0.09222
G1 X100.078 Y128.314 E0.09222
G1 X101.866 Y127.069 E0.09222
G1 X103.748 Y125.972 E0.09222
G1 X105.712 Y125.028 E0.09222
G1 X107.745 Y124.245 E0.09222
G1 X109.835 Y123.627 E0.09222
G1 X111.966 Y123.178 E0.09219
G1 X114.127 Y122.902 E0.09224
G1 X116.322 Y122.798 E0.093
G1 X137.868 Y122.798 E0.91202
G1 X140.842 Y125.548 E0.17144
G1 X142.565 Y127.394 E0.10689
G1 X144.149 Y129.361 E0.10689
G1 X145.584 Y131.439 E0.10689
G1 X147.214 Y134.211 E0.13612
G1 X148.454 Y136.987 E0.12869
G1 X149.254 Y139.157 E0.09788
G1 X149.907 Y141.375 E0.09788
G1 X150.41 Y143.632 E0.09788
G1 X150.829 Y146.369 E0.11717
G1 X152.498 Y146.241 E0.07086
G1 X154.171 Y146.369 E0.071
G1 X154.59 Y143.632 E0.11718
G1 X155.093 Y141.375 E0.09789
G1 X155.746 Y139.157 E0.09789
G1 X156.546 Y136.987 E0.09789
G1 X157.786 Y134.211 E0.12869
G1 X159.416 Y131.439 E0.13613
G1 X160.852 Y129.361 E0.1069
G1 X162.435 Y127.394 E0.1069
G1 X164.159 Y125.548 E0.1069
G1 X167.132 Y122.797 E0.17144
G1 X188.478 Y122.797 E0.90351
G1 X190.7 Y122.887 E0.09415
G1 X192.886 Y123.154 E0.09321
G1 X195.043 Y123.596 E0.09321
G1 X197.156 Y124.212 E0.09315
G1 X199.213 Y124.996 E0.09319
G1 X201.2 Y125.944 E0.09319
G1 X203.104 Y127.05 E0.09319
G1 X204.912 Y128.306 E0.09319
G1 X206.612 Y129.705 E0.09319
G1 X208.194 Y131.236 E0.09319
G1 X209.647 Y132.89 E0.09319
G1 X210.962 Y134.656 E0.09319
G1 X212.129 Y136.523 E0.09319
G1 X213.142 Y138.478 E0.09319
G1 X213.993 Y140.508 E0.09319
G1 X214.677 Y142.601 E0.09319
G1 X215.189 Y144.742 E0.09319
G1 X215.678 Y147.89 E0.13485
G1 X221.768 Y147.89 E0.25778
G1 X221.818 Y149.008 E0.04734
G1 X221.811 Y151.211 E0.09328
G1 X221.754 Y152.331 E0.04744
G1 X215.659 Y152.331 E0.25796
G1 X215.15 Y155.456 E0.13403
G1 X214.624 Y157.582 E0.09269
G1 X213.93 Y159.658 E0.09269
G1 X213.071 Y161.672 E0.09269
G1 X212.052 Y163.611 E0.09269
G1 X210.881 Y165.461 E0.09269
G1 X209.565 Y167.211 E0.09269
G1 X208.112 Y168.85 E0.09269
G1 X206.533 Y170.366 E0.09269
G1 X204.836 Y171.751 E0.09269
G1 X203.034 Y172.994 E0.09269
G1 X201.137 Y174.089 E0.09269
G1 X199.159 Y175.027 E0.09269
G1 X197.111 Y175.803 E0.09269
G1 X195.009 Y176.412 E0.09264
G1 X192.863 Y176.85 E0.09271
G1 X190.688 Y177.114 E0.09271
G1 X188.478 Y177.203 E0.09364
G1 X167.132 Y177.203 E0.90352
G1 X164.158 Y174.452 E0.1715
G1 X162.434 Y172.604 E0.10695
G1 X160.849 Y170.636 E0.10695
G1 X159.413 Y168.557 E0.10695
G1 X157.783 Y165.784 E0.13617
G1 X156.544 Y163.008 E0.12865
G1 X155.745 Y160.84 E0.09783
G1 X155.092 Y158.622 E0.09783
G1 X154.59 Y156.366 E0.09783
G1 X154.171 Y153.631 E0.11712
G1 X152.501 Y153.759 E0.07091
G1 X150.829 Y153.631 E0.07095
G1 X150.41 Y156.368 E0.11718
G1 X149.907 Y158.625 E0.09789
G1 X149.254 Y160.843 E0.09789
G1 X148.454 Y163.013 E0.09789
G1 X147.214 Y165.789 E0.1287
G1 X145.584 Y168.562 E0.13613
G1 X144.148 Y170.639 E0.1069
G1 X142.564 Y172.606 E0.1069
G1 X140.841 Y174.452 E0.1069
G1 X137.868 Y177.203 E0.17144
G1 X116.522 Y177.203 E0.90351
G1 X114.3 Y177.113 E0.09415
G1 X112.114 Y176.846 E0.09321
G1 X109.957 Y176.403 E0.09321
G1 X107.842 Y175.788 E0.09321
G1 X105.786 Y175.003 E0.09315
G1 X103.799 Y174.055 E0.0932
G1 X101.895 Y172.949 E0.0932
G1 X100.087 Y171.693 E0.0932
G1 X98.386 Y170.294 E0.0932
G1 X96.804 Y168.763 E0.0932
G1 X95.351 Y167.108 E0.0932
G1 X94.037 Y165.342 E0.0932
G1 X92.87 Y163.475 E0.0932
G1 X91.857 Y161.52 E0.0932
G1 X91.006 Y159.489 E0.0932
G1 X90.323 Y157.396 E0.0932
G1 X89.81 Y155.255 E0.0932
G1 X89.322 Y152.106 E0.13486
G1 X83.232 Y152.106 E0.25777
G1 X83.182 Y150.989 E0.04734
G1 X83.189 Y148.785 E0.09328
G1 X83.247 Y147.666 E0.04744
G1 X89.281 Y147.666 E0.25543
M204 S1000
G1 X89.129 Y147.452 F9000
M204 S500
G1 X88.977 Y147.237
G1 F900
G1 X89.429 Y144.466 E0.11886
G1 X89.959 Y142.317 E0.09367
G1 X90.659 Y140.218 E0.09367
G1 X91.524 Y138.181 E0.09367
G1 X92.55 Y136.22 E0.09367
G1 X93.73 Y134.348 E0.09367
G1 X95.055 Y132.576 E0.09367
G1 X96.519 Y130.915 E0.09367
G1 X98.11 Y129.378 E0.09367
G1 X99.819 Y127.972 E0.09367
G1 X101.636 Y126.708 E0.09367
G1 X103.547 Y125.593 E0.09367
G1 X105.542 Y124.635 E0.09367
G1 X107.607 Y123.839 E0.09367
G1 X109.729 Y123.211 E0.09367
G1 X111.894 Y122.756 E0.09364
G1 X114.09 Y122.474 E0.09369
G1 X116.312 Y122.369 E0.09416
G1 X138.036 Y122.369 E0.91955
G1 X141.144 Y125.244 E0.17921
G1 X142.889 Y127.113 E0.10822
G1 X144.492 Y129.105 E0.10822
G1 X145.946 Y131.208 E0.10822
G1 X147.447 Y133.763 E0.12545
G1 X147.483 Y133.763 E0.0015
G1 X148.851 Y136.825 E0.14197
G1 X149.661 Y139.022 E0.0991
G1 X150.322 Y141.268 E0.0991
G1 X150.831 Y143.553 E0.0991
G1 X151.193 Y145.911 E0.10097
G1 X152.498 Y145.812 E0.05543
G1 X153.808 Y145.911 E0.05557
G1 X154.169 Y143.553 E0.10098
G1 X154.678 Y141.268 E0.0991
G1 X155.339 Y139.022 E0.0991
G1 X156.149 Y136.825 E0.0991
G1 X157.517 Y133.763 E0.14197
G1 X157.553 Y133.763 E0.0015
G1 X159.055 Y131.208 E0.12545
G1 X160.508 Y129.104 E0.10822
G1 X162.112 Y127.113 E0.10822
G1 X163.856 Y125.244 E0.10822
G1 X166.964 Y122.369 E0.17921
G1 X188.486 Y122.368 E0.91098
G1 X190.735 Y122.46 E0.09525
G1 X192.955 Y122.731 E0.09467
G1 X195.146 Y123.18 E0.09468
G1 X197.292 Y123.805 E0.09462
G1 X199.382 Y124.602 E0.09466
G1 X201.4 Y125.565 E0.09466
G1 X203.334 Y126.688 E0.09466
G1 X205.171 Y127.964 E0.09466
G1 X206.898 Y129.385 E0.09466
G1 X208.505 Y130.94 E0.09466
G1 X209.981 Y132.62 E0.09466
G1 X211.316 Y134.414 E0.09466
G1 X212.502 Y136.31 E0.09466
G1 X213.53 Y138.296 E0.09466
G1 X214.395 Y140.359 E0.09466
G1 X215.089 Y142.484 E0.09466
G1 X215.61 Y144.659 E0.09466
G1 X216.045 Y147.462 E0.12005
G1 X222.175 Y147.462 E0.25945
G1 X222.188 Y147.7 E0.0101
G1 X222.247 Y148.999 E0.05502
G1 X222.24 Y151.223 E0.09416
G1 X222.173 Y152.519 E0.05495
G1 X222.158 Y152.759 E0.01016
G1 X216.024 Y152.759 E0.25964
G1 X215.57 Y155.542 E0.11934
G1 X215.036 Y157.701 E0.09415
G1 X214.331 Y159.811 E0.09415
G1 X213.458 Y161.856 E0.09415
G1 X212.424 Y163.826 E0.09415
G1 X211.234 Y165.705 E0.09415
G1 X209.897 Y167.483 E0.09415
G1 X208.422 Y169.147 E0.09415
G1 X206.817 Y170.687 E0.09415
G1 X205.094 Y172.094 E0.09415
G1 X203.263 Y173.357 E0.09415
G1 X201.336 Y174.468 E0.09415
G1 X199.327 Y175.422 E0.09415
G1 X197.247 Y176.21 E0.09415
G1 X195.111 Y176.828 E0.0941
G1 X192.931 Y177.273 E0.09417
G1 X190.723 Y177.541 E0.09417
G1 X188.487 Y177.632 E0.09474
G1 X166.964 Y177.632 E0.91099
G1 X163.856 Y174.755 E0.17927
G1 X162.11 Y172.885 E0.10828
G1 X160.506 Y170.893 E0.10828
G1 X159.052 Y168.788 E0.10828
G1 X157.55 Y166.231 E0.12551
G1 X157.514 Y166.231 E0.0015
G1 X156.147 Y163.17 E0.14191
G1 X155.338 Y160.974 E0.09905
G1 X154.677 Y158.73 E0.09905
G1 X154.169 Y156.445 E0.09905
G1 X153.808 Y154.089 E0.10092
G1 X152.501 Y154.188 E0.05548
G1 X151.193 Y154.089 E0.05552
G1 X150.831 Y156.447 E0.10098
G1 X150.322 Y158.732 E0.0991
G1 X149.661 Y160.978 E0.0991
G1 X148.851 Y163.175 E0.0991
G1 X147.483 Y166.237 E0.14198
G1 X147.447 Y166.237 E0.0015
G1 X145.945 Y168.792 E0.12545
G1 X144.492 Y170.896 E0.10823
G1 X142.888 Y172.887 E0.10823
G1 X141.144 Y174.756 E0.10823
G1 X138.036 Y177.632 E0.17921
G1 X116.514 Y177.632 E0.91098
G1 X114.265 Y177.54 E0.09525
G1 X112.045 Y177.269 E0.09468
G1 X109.854 Y176.82 E0.09468
G1 X107.706 Y176.194 E0.09468
G1 X105.617 Y175.398 E0.09462
G1 X103.599 Y174.434 E0.09467
G1 X101.665 Y173.311 E0.09467
G1 X99.828 Y172.035 E0.09467
G1 X98.101 Y170.614 E0.09467
G1 X96.494 Y169.058 E0.09467
G1 X95.018 Y167.378 E0.09467
G1 X93.683 Y165.584 E0.09467
G1 X92.497 Y163.687 E0.09467
G1 X91.469 Y161.701 E0.09467
G1 X90.605 Y159.638 E0.09467
G1 X89.91 Y157.513 E0.09467
G1 X89.389 Y155.337 E0.09467
G1 X88.955 Y152.535 E0.12006
G1 X82.825 Y152.535 E0.25945
G1 X82.811 Y152.296 E0.0101
G1 X82.753 Y150.998 E0.05502
G1 X82.761 Y148.773 E0.09416
G1 X82.827 Y147.477 E0.05495
G1 X82.843 Y147.237 E0.01016
G1 X88.917 Y147.237 E0.25711
G1 E-0.6 F3000
M204 S1000
G1 X120.914 Y150.912 F9000
M204 S500
G1 X152.91 Y154.587
G1 E0.6 F1800
;TYPE:External perimeter
G1 F900
G1 X152.91 Y165.84 E0.47631
G1 X156.87 Y165.84 E0.16762
G1 X155.75 Y163.332 E0.11627
G1 X154.931 Y161.109 E0.10026
G1 X154.262 Y158.837 E0.10026
G1 X153.747 Y156.525 E0.10026
G1 X153.444 Y154.546 E0.08472
G1 X152.97 Y154.582 E0.02013
;WIPE_START
G1 X152.51 Y154.597 F9000
;WIPE_END
M204 S1000
G1 X152.3 Y154.597
M204 S500
G1 X152.09 Y154.597
G1 F900
G1 X152.09 Y154.587 E0.00043
G1 X151.556 Y154.546 E0.02267
G1 X151.253 Y156.526 E0.08478
G1 X150.737 Y158.839 E0.10032
G1 X150.068 Y161.113 E0.10032
G1 X149.248 Y163.337 E0.10032
G1 X148.127 Y165.846 E0.11633
G1 X152.09 Y165.846 E0.16774
G1 X152.09 Y154.657 E0.4736
;WIPE_START
G1 X152.099 Y154.592 F9000
;WIPE_END
G1 E-0.6 F3000
M204 S1000
G1 X152.504 Y160.626 F9000
M204 S500
G1 X152.91 Y166.66
G1 E0.6 F1800
G1 F900
G1 X152.91 Y177.24 E0.44784
G1 X165.91 Y177.24 E0.55027
G1 X163.553 Y175.059 E0.13592
G1 X161.786 Y173.166 E0.10961
G1 X160.162 Y171.149 E0.10961
G1 X158.69 Y169.018 E0.10961
G1 X157.304 Y166.66 E0.1158
G1 X152.97 Y166.66 E0.18346
;WIPE_START
G1 X152.51 Y166.66 F9000
;WIPE_END
M204 S1000
G1 X152.3 Y166.663
M204 S500
G1 X152.09 Y166.666
G1 F900
G1 X147.693 Y166.666 E0.18614
G1 X146.307 Y169.023 E0.11574
G1 X144.835 Y171.152 E0.10955
G1 X143.212 Y173.168 E0.10955
G1 X141.446 Y175.06 E0.10955
G1 X139.09 Y177.24 E0.13587
G1 X152.09 Y177.24 E0.55027
G1 X152.09 Y166.726 E0.44504
;WIPE_START
G1 X152.09 Y166.266 F9000
;WIPE_END
G1 E-0.6 F3000
M204 S1000
G1 X151.823 Y155.86 F9000
M204 S500
G1 X151.556 Y145.454
G1 E0.6 F1800
G1 F900
G1 X152.09 Y145.413 E0.02267
G1 X152.09 Y134.154 E0.47656
G1 X148.127 Y134.154 E0.16773
G1 X149.248 Y136.663 E0.11632
G1 X150.068 Y138.887 E0.10032
G1 X150.737 Y141.161 E0.10032
G1 X151.253 Y143.474 E0.10032
G1 X151.547 Y145.394 E0.08223
;WIPE_START
G1 X151.596 Y145.852 F9000
;WIPE_END
M204 S1000
G1 X152.253 Y145.632
M204 S500
G1 X152.91 Y145.413
G1 F900
G1 X153.444 Y145.454 E0.02267
G1 X153.748 Y143.474 E0.08478
G1 X154.263 Y141.161 E0.10032
G1 X154.932 Y138.887 E0.10032
G1 X155.752 Y136.663 E0.10032
G1 X156.873 Y134.154 E0.11633
G1 X152.91 Y134.154 E0.16775
G1 X152.91 Y145.353 E0.47402
;WIPE_START
G1 X152.89 Y145.813 F9000
;WIPE_END
G1 E-0.6 F3000
M204 S1000
G1 X152.9 Y139.574 F9000
M204 S500
G1 X152.91 Y133.334
G1 E0.6 F1800
G1 F900
G1 X157.308 Y133.334 E0.18614
G1 X158.693 Y130.977 E0.11574
G1 X160.164 Y128.848 E0.10955
G1 X161.788 Y126.832 E0.10955
G1 X163.554 Y124.94 E0.10955
G1 X165.91 Y122.76 E0.13587
G1 X152.91 Y122.76 E0.55027
G1 X152.91 Y133.274 E0.44504
;WIPE_START
G1 X152.91 Y133.734 F9000
;WIPE_END
M204 S1000
G1 X152.5 Y133.534
M204 S500
G1 X152.09 Y133.334
G1 F900
G1 X152.09 Y122.76 E0.44757
G1 X139.09 Y122.761 E0.55024
G1 X141.447 Y124.94 E0.13586
G1 X143.213 Y126.832 E0.10955
G1 X144.836 Y128.848 E0.10955
G1 X146.307 Y130.977 E0.10955
G1 X147.693 Y133.334 E0.11573
G1 X152.03 Y133.334 E0.18359
;WIPE_START
G1 X152.49 Y133.334 F9000
