; generated by SuperSlicer 2.4 on 2022-07-19 at 18:01:07 UTC


;
;

;
;
; 

; external perimeters extrusion width = 0.15mm
; perimeters extrusion width = 0.17mm
; infill extrusion width = 0.27mm
; solid infill extrusion width = 0.21mm
; top infill extrusion width = 0.15mm
; support material extrusion width = 0.16mm
; first layer extrusion width = 0.18mm

; external perimeters extrusion width = 0.15mm
; perimeters extrusion width = 0.15mm
; infill extrusion width = 0.27mm
; solid infill extrusion width = 0.21mm
; top infill extrusion width = 0.15mm
; support material extrusion width = 0.16mm
; first layer extrusion width = 0.18mm

; external perimeters extrusion width = 0.15mm
; perimeters extrusion width = 0.18mm
; infill extrusion width = 0.27mm
; solid infill extrusion width = 0.21mm
; top infill extrusion width = 0.15mm
; support material extrusion width = 0.16mm
; first layer extrusion width = 0.18mm

; external perimeters extrusion width = 0.15mm
; perimeters extrusion width = 0.18mm
; infill extrusion width = 0.27mm
; solid infill extrusion width = 0.21mm
; top infill extrusion width = 0.15mm
; support material extrusion width = 0.16mm
; first layer extrusion width = 0.18mm

; external perimeters extrusion width = 0.15mm
; perimeters extrusion width = 0.18mm
; infill extrusion width = 0.27mm
; solid infill extrusion width = 0.21mm
; top infill extrusion width = 0.15mm
; support material extrusion width = 0.16mm
; first layer extrusion width = 0.18mm

; external perimeters extrusion width = 0.15mm
; perimeters extrusion width = 0.17mm
; infill extrusion width = 0.27mm
; solid infill extrusion width = 0.21mm
; top infill extrusion width = 0.15mm
; support material extrusion width = 0.16mm
; first layer extrusion width = 0.18mm

; external perimeters extrusion width = 0.15mm
; perimeters extrusion width = 0.17mm
; infill extrusion width = 0.27mm
; solid infill extrusion width = 0.21mm
; top infill extrusion width = 0.15mm
; support material extrusion width = 0.16mm
; first layer extrusion width = 0.18mm

; external perimeters extrusion width = 0.15mm
; perimeters extrusion width = 0.15mm
; infill extrusion width = 0.27mm
; solid infill extrusion width = 0.21mm
; top infill extrusion width = 0.15mm
; support material extrusion width = 0.16mm
; first layer extrusion width = 0.18mm

; external perimeters extrusion width = 0.15mm
; perimeters extrusion width = 0.18mm
; infill extrusion width = 0.27mm
; solid infill extrusion width = 0.21mm
; top infill extrusion width = 0.15mm
; support material extrusion width = 0.16mm
; first layer extrusion width = 0.18mm

; external perimeters extrusion width = 0.15mm
; perimeters extrusion width = 0.18mm
; infill extrusion width = 0.27mm
; solid infill extrusion width = 0.21mm
; top infill extrusion width = 0.15mm
; support material extrusion width = 0.16mm
; first layer extrusion width = 0.18mm

; external perimeters extrusion width = 0.15mm
; perimeters extrusion width = 0.18mm
; infill extrusion width = 0.27mm
; solid infill extrusion width = 0.21mm
; top infill extrusion width = 0.15mm
; support material extrusion width = 0.16mm
; first layer extrusion width = 0.18mm

; external perimeters extrusion width = 0.15mm
; perimeters extrusion width = 0.17mm
; infill extrusion width = 0.27mm
; solid infill extrusion width = 0.21mm
; top infill extrusion width = 0.15mm
; support material extrusion width = 0.16mm
; first layer extrusion width = 0.18mm

; external perimeters extrusion width = 0.15mm
; perimeters extrusion width = 0.17mm
; infill extrusion width = 0.27mm
; solid infill extrusion width = 0.21mm
; top infill extrusion width = 0.15mm
; support material extrusion width = 0.16mm
; first layer extrusion width = 0.18mm

; external perimeters extrusion width = 0.15mm
; perimeters extrusion width = 0.15mm
; infill extrusion width = 0.27mm
; solid infill extrusion width = 0.21mm
; top infill extrusion width = 0.15mm
; support material extrusion width = 0.16mm
; first layer extrusion width = 0.18mm

; external perimeters extrusion width = 0.15mm
; perimeters extrusion width = 0.18mm
; infill extrusion width = 0.27mm
; solid infill extrusion width = 0.21mm
; top infill extrusion width = 0.15mm
; support material extrusion width = 0.16mm
; first layer extrusion width = 0.18mm

; external perimeters extrusion width = 0.15mm
; perimeters extrusion width = 0.18mm
; infill extrusion width = 0.27mm
; solid infill extrusion width = 0.21mm
; top infill extrusion width = 0.15mm
; support material extrusion width = 0.16mm
; first layer extrusion width = 0.18mm

; external perimeters extrusion width = 0.15mm
; perimeters extrusion width = 0.18mm
; infill extrusion width = 0.27mm
; solid infill extrusion width = 0.21mm
; top infill extrusion width = 0.15mm
; support material extrusion width = 0.16mm
; first layer extrusion width = 0.18mm

; external perimeters extrusion width = 0.15mm
; perimeters extrusion width = 0.17mm
; infill extrusion width = 0.27mm
; solid infill extrusion width = 0.21mm
; top infill extrusion width = 0.15mm
; support material extrusion width = 0.16mm
; first layer extrusion width = 0.18mm

; external perimeters extrusion width = 0.15mm
; perimeters extrusion width = 0.17mm
; infill extrusion width = 0.27mm
; solid infill extrusion width = 0.21mm
; top infill extrusion width = 0.15mm
; support material extrusion width = 0.16mm
; first layer extrusion width = 0.18mm

; external perimeters extrusion width = 0.15mm
; perimeters extrusion width = 0.15mm
; infill extrusion width = 0.27mm
; solid infill extrusion width = 0.21mm
; top infill extrusion width = 0.15mm
; support material extrusion width = 0.16mm
; first layer extrusion width = 0.18mm

; external perimeters extrusion width = 0.15mm
; perimeters extrusion width = 0.18mm
; infill extrusion width = 0.27mm
; solid infill extrusion width = 0.21mm
; top infill extrusion width = 0.15mm
; support material extrusion width = 0.16mm
; first layer extrusion width = 0.18mm

; external perimeters extrusion width = 0.15mm
; perimeters extrusion width = 0.18mm
; infill extrusion width = 0.27mm
; solid infill extrusion width = 0.21mm
; top infill extrusion width = 0.15mm
; support material extrusion width = 0.16mm
; first layer extrusion width = 0.18mm

; external perimeters extrusion width = 0.15mm
; perimeters extrusion width = 0.18mm
; infill extrusion width = 0.27mm
; solid infill extrusion width = 0.21mm
; top infill extrusion width = 0.15mm
; support material extrusion width = 0.16mm
; first layer extrusion width = 0.18mm

; external perimeters extrusion width = 0.15mm
; perimeters extrusion width = 0.17mm
; infill extrusion width = 0.27mm
; solid infill extrusion width = 0.21mm
; top infill extrusion width = 0.15mm
; support material extrusion width = 0.16mm
; first layer extrusion width = 0.18mm

; external perimeters extrusion width = 0.15mm
; perimeters extrusion width = 0.17mm
; infill extrusion width = 0.27mm
; solid infill extrusion width = 0.21mm
; top infill extrusion width = 0.15mm
; support material extrusion width = 0.16mm
; first layer extrusion width = 0.18mm

; external perimeters extrusion width = 0.15mm
; perimeters extrusion width = 0.15mm
; infill extrusion width = 0.27mm
; solid infill extrusion width = 0.21mm
; top infill extrusion width = 0.15mm
; support material extrusion width = 0.16mm
; first layer extrusion width = 0.18mm

; external perimeters extrusion width = 0.15mm
; perimeters extrusion width = 0.18mm
; infill extrusion width = 0.27mm
; solid infill extrusion width = 0.21mm
; top infill extrusion width = 0.15mm
; support material extrusion width = 0.16mm
; first layer extrusion width = 0.18mm

; external perimeters extrusion width = 0.15mm
; perimeters extrusion width = 0.18mm
; infill extrusion width = 0.27mm
; solid infill extrusion width = 0.21mm
; top infill extrusion width = 0.15mm
; support material extrusion width = 0.16mm
; first layer extrusion width = 0.18mm

; external perimeters extrusion width = 0.15mm
; perimeters extrusion width = 0.18mm
; infill extrusion width = 0.27mm
; solid infill extrusion width = 0.21mm
; top infill extrusion width = 0.15mm
; support material extrusion width = 0.16mm
; first layer extrusion width = 0.18mm

; external perimeters extrusion width = 0.15mm
; perimeters extrusion width = 0.17mm
; infill extrusion width = 0.27mm
; solid infill extrusion width = 0.21mm
; top infill extrusion width = 0.15mm
; support material extrusion width = 0.16mm
; first layer extrusion width = 0.18mm

; external perimeters extrusion width = 0.15mm
; perimeters extrusion width = 0.17mm
; infill extrusion width = 0.27mm
; solid infill extrusion width = 0.21mm
; top infill extrusion width = 0.15mm
; support material extrusion width = 0.16mm
; first layer extrusion width = 0.18mm

; external perimeters extrusion width = 0.15mm
; perimeters extrusion width = 0.15mm
; infill extrusion width = 0.27mm
; solid infill extrusion width = 0.21mm
; top infill extrusion width = 0.15mm
; support material extrusion width = 0.16mm
; first layer extrusion width = 0.18mm

; external perimeters extrusion width = 0.15mm
; perimeters extrusion width = 0.18mm
; infill extrusion width = 0.27mm
; solid infill extrusion width = 0.21mm
; top infill extrusion width = 0.15mm
; support material extrusion width = 0.16mm
; first layer extrusion width = 0.18mm

; external perimeters extrusion width = 0.15mm
; perimeters extrusion width = 0.18mm
; infill extrusion width = 0.27mm
; solid infill extrusion width = 0.21mm
; top infill extrusion width = 0.15mm
; support material extrusion width = 0.16mm
; first layer extrusion width = 0.18mm

; external perimeters extrusion width = 0.15mm
; perimeters extrusion width = 0.18mm
; infill extrusion width = 0.27mm
; solid infill extrusion width = 0.21mm
; top infill extrusion width = 0.15mm
; support material extrusion width = 0.16mm
; first layer extrusion width = 0.18mm

; external perimeters extrusion width = 0.15mm
; perimeters extrusion width = 0.17mm
; infill extrusion width = 0.27mm
; solid infill extrusion width = 0.21mm
; top infill extrusion width = 0.15mm
; support material extrusion width = 0.16mm
; first layer extrusion width = 0.18mm

; object:{"name":"LogoVancouver","id":"LogoVancouver.STL id:0 copy 0","object_center":[135.242050,149.999575,0.000000],"boundingbox_center":[135.242050,149.999575,2.224427],"boundingbox_size":[28.515906,11.500000,4.448854]}
; object:{"name":"LogoVancouver","id":"LogoVancouver.STL id:1 copy 0","object_center":[135.242050,167.500426,0.000000],"boundingbox_center":[135.242050,167.500426,2.224427],"boundingbox_size":[28.515906,11.500000,4.448854]}
; object:{"name":"LogoVancouver","id":"LogoVancouver.STL id:2 copy 0","object_center":[169.757952,149.999575,0.000000],"boundingbox_center":[169.757952,149.999575,2.224427],"boundingbox_size":[28.515906,11.500000,4.448854]}
; object:{"name":"LogoVancouver","id":"LogoVancouver.STL id:3 copy 0","object_center":[169.757952,167.500426,0.000000],"boundingbox_center":[169.757952,167.500426,2.224427],"boundingbox_size":[28.515906,11.500000,4.448854]}
; object:{"name":"LogoVancouver","id":"LogoVancouver.STL id:4 copy 0","object_center":[135.242050,132.498724,0.000000],"boundingbox_center":[135.242050,132.498724,2.224427],"boundingbox_size":[28.515906,11.500000,4.448854]}
; object:{"name":"LogoVancouver","id":"LogoVancouver.STL id:5 copy 0","object_center":[169.757952,132.498724,0.000000],"boundingbox_center":[169.757952,132.498724,2.224427],"boundingbox_size":[28.515906,11.500000,4.448854]}
; plater:{"center":[152.500001,149.999575,0.000000],"boundingbox_center":[152.500001,149.999575,2.224427],"boundingbox_size":[63.031808,46.501702,4.448854]}

M73 P0 R80
M73 P0 R80
;TYPE:Custom
START_PRINT T_BED=60 T_EXTRUDER=200
M107
G21 ; set units to millimeters
G90 ; use absolute coordinates
M83 ; use relative distances for extrusion
; Filament gcode
M104 S200 ; set temperature
M109 S200 ; set temperature and wait for it to be reached
M190 S60 ; set bed temperature and wait for it to be reached
M107
;LAYER_CHANGE
;Z:0.12
;HEIGHT:0.12
G1 Z0.12 F9000
G92 E0
M73 P0 R80
M73 P0 R80
G1 E-0.8 F3000
M204 S1000
G1 X119.304 Y124.117 F9000
G1 E0.8 F1800
;TYPE:Skirt
;WIDTH:0.195
G1 X118.218 Y125.295 E0.01326
G1 X117.824 Y126.849 E0.01326
G1 X117.824 Y173.15 E0.38314
G1 X118.353 Y174.93 E0.01537
G1 X119.531 Y176.017 E0.01326
G1 X121.084 Y176.411 E0.01326
G1 X183.918 Y176.391 E0.51995
G1 X185.696 Y175.862 E0.01535
G1 X186.782 Y174.684 E0.01326
G1 X187.176 Y173.131 E0.01326
G1 X187.176 Y127.582 E0.37691
G1 X186.693 Y125.874 E0.01469
G1 X185.543 Y124.757 E0.01326
G1 X184.001 Y124.323 E0.01326
G1 X155.756 Y123.59 E0.2338
G1 X121.084 Y123.588 E0.28691
G1 X119.304 Y124.117 E0.01537
G1 X119.441 Y124.249 F9000
G1 F1800
G1 X118.391 Y125.341 E0.01254
G1 X117.997 Y126.849 E0.0129
G1 X117.997 Y173.15 E0.38314
G1 X118.452 Y174.763 E0.01387
G1 X119.576 Y175.844 E0.0129
G1 X121.084 Y176.237 E0.0129
G1 X183.918 Y176.218 E0.51995
G1 X185.529 Y175.763 E0.01385
G1 X186.609 Y174.639 E0.0129
G1 X187.003 Y173.131 E0.0129
G1 X187.003 Y127.582 E0.37691
G1 X186.589 Y126.038 E0.01323
G1 X185.493 Y124.929 E0.0129
G1 X183.996 Y124.497 E0.0129
G1 X155.751 Y123.763 E0.2338
G1 X121.084 Y123.762 E0.28687
G1 X119.471 Y124.217 E0.01387
G1 X119.441 Y124.249 E0.00036
G1 E-0.8 F3000
; printing object LogoVancouver.STL id:0 copy 0
G1 X136.518 Y151.898 F9000
G1 E0.8 F1800
;TYPE:Internal perimeter
;WIDTH:0.18
G1 X136.824 Y151.587 E0.00328
G1 X136.841 Y151.645 E0.00046
G1 X137.679 Y151.659 E0.00632
G1 X138.085 Y150.444 E0.00966
G1 X139.035 Y149.845 E0.00847
G1 X139.391 Y151.318 E0.01142
G1 X140.312 Y151.296 E0.00695
G1 X140.629 Y149.663 E0.01255
G1 X141.86 Y150.852 E0.01291
G1 X145.695 Y147.956 E0.03624
G1 X149.002 Y145.558 E0.0308
G1 X149.002 Y155.232 E0.07295
G1 X121.483 Y155.251 E0.20754
G1 X121.483 Y145.084 E0.07667
G1 X131.015 Y152.08 E0.08917
G1 X133.407 Y149.65 E0.02571
G1 X136.318 Y152.101 E0.02869
G1 X136.518 Y151.898 E0.00215
G1 X136.408 Y151.79 F9000
G1 F1800
G1 X136.897 Y151.293 E0.00525
G1 X136.956 Y151.493 E0.00157
G1 X137.568 Y151.503 E0.00462
G1 X137.956 Y150.343 E0.00923
G1 X139.134 Y149.6 E0.0105
G1 X139.511 Y151.16 E0.01211
G1 X140.184 Y151.145 E0.00508
G1 X140.532 Y149.354 E0.01376
G1 X141.872 Y150.649 E0.01406
G1 X145.603 Y147.832 E0.03526
G1 X149.057 Y145.327 E0.03218
G1 X149.156 Y145.327 E0.00074
G1 X149.156 Y155.386 E0.07586
G1 X121.328 Y155.405 E0.20986
G1 X121.328 Y144.78 E0.08013
G1 X130.999 Y151.876 E0.09046
G1 X133.398 Y149.44 E0.02578
G1 X136.308 Y151.891 E0.02869
G1 X136.408 Y151.79 E0.00108
G1 X136.298 Y151.681 F9000
;TYPE:External perimeter
G1 F1800
G1 X136.97 Y150.999 E0.00722
G1 X137.072 Y151.341 E0.00269
G1 X137.458 Y151.347 E0.00291
G1 X137.827 Y150.241 E0.00879
G1 X139.234 Y149.355 E0.01254
G1 X139.632 Y151.003 E0.01279
G1 X140.057 Y150.994 E0.0032
G1 X140.434 Y149.046 E0.01496
G1 X141.885 Y150.447 E0.01521
G1 X145.511 Y147.708 E0.03427
G1 X149.007 Y145.173 E0.03257
G1 X149.31 Y145.173 E0.00228
G1 X149.31 Y155.54 E0.07818
G1 X121.174 Y155.559 E0.21219
G1 X121.174 Y144.475 E0.08359
G1 X130.983 Y151.673 E0.09175
M73 P1 R80
G1 X133.388 Y149.23 E0.02585
G1 X136.298 Y151.681 E0.02869
;WIPE_START
M204 S3000
G1 X136.408 Y151.784 F9000
;WIPE_END
G1 E-0.8 F3000
M204 S1000
G1 X148.978 Y145.909 F9000
G1 E0.8 F1800
;TYPE:Solid infill
;WIDTH:0.184084
G1 F2400
G1 X148.851 Y145.781 E0.00139
G1 X148.726 Y145.874 E0.0012
G1 X148.912 Y146.06 E0.00203
G1 X148.912 Y146.278 E0.00168
G1 X148.601 Y145.967 E0.0034
G1 X148.475 Y146.06 E0.0012
G1 X148.912 Y146.497 E0.00476
G1 X148.912 Y146.715 E0.00168
G1 X148.35 Y146.153 E0.00613
G1 X148.225 Y146.246 E0.0012
G1 X148.912 Y146.933 E0.0075
G1 X148.912 Y147.151 E0.00168
G1 X148.099 Y146.338 E0.00886
G1 X147.974 Y146.431 E0.0012
G1 X148.912 Y147.369 E0.01023
G1 X148.912 Y147.587 E0.00168
G1 X147.849 Y146.524 E0.0116
G1 X147.724 Y146.617 E0.0012
G1 X148.912 Y147.805 E0.01296
G1 X148.912 Y148.024 E0.00168
G1 X147.598 Y146.71 E0.01433
G1 X147.473 Y146.803 E0.0012
