; generated by SuperSlicer 2.4 on 2022-09-06 at 05:37:12 UTC


;
;

;
;
; 

; external perimeters extrusion width = 0.40mm
; perimeters extrusion width = 0.50mm
; infill extrusion width = 0.72mm
; solid infill extrusion width = 0.56mm
; top infill extrusion width = 0.40mm
; support material extrusion width = 0.50mm

; object:{"name":"8cards","id":"8cards.stl id:0 copy 0","object_center":[165.000000,165.000000,0.000000],"boundingbox_center":[165.000000,165.000000,5.725000],"boundingbox_size":[65.229996,121.904022,11.450000]}
; plater:{"center":[165.000000,165.000000,0.000000],"boundingbox_center":[165.000000,165.000000,5.725000],"boundingbox_size":[65.229996,121.904022,11.450000]}

M73 P0 R69
;TYPE:Custom
START_PRINT T_BED=60 T_EXTRUDER=200
M107
G21 ; set units to millimeters
G90 ; use absolute coordinates
M83 ; use relative distances for extrusion
; Filament gcode
;_TOOLCHANGE 0
M109 S200 ; set temperature and wait for it to be reached
M190 S60 ; set bed temperature and wait for it to be reached
M107
;LAYER_CHANGE
;Z:0.2
;HEIGHT:0.2
G1 Z0.2 F9000
G92 E0
G1 E-0.8 F3000
M204 S1000
G1 X131.259 Y103.602 F9000
G1 E0.8 F1800
;TYPE:Skirt
;WIDTH:0.52
G1 X130.185 Y105.901 E0.09862
G1 X123.978 Y175.749 E2.72613
G1 X123.964 Y195.406 E0.76418
G1 X124.091 Y196.37 E0.03776
G1 X129.534 Y216.652 E0.81639
G1 X130.039 Y217.762 E0.0474
G1 X134.389 Y224.234 E0.30316
G1 X135.081 Y225.132 E0.04409
G1 X135.819 Y225.928 E0.04221
G1 X136.633 Y226.642 E0.04209
G1 X138.114 Y227.615 E0.06889
G1 X139.092 Y228.078 E0.04205
G1 X140.112 Y228.436 E0.04204
G1 X141.165 Y228.685 E0.04205
G1 X142.626 Y228.845 E0.05716
G1 X143.708 Y228.829 E0.04205
G1 X144.781 Y228.699 E0.04204
G1 X146.794 Y228.137 E0.08123
G1 X200.298 Y205.748 E2.25479
G1 X201.491 Y204.948 E0.05585
G1 X204.948 Y201.491 E0.19007
G1 X205.642 Y200.53 E0.04607
G1 X206.036 Y198.864 E0.06657
G1 X206.024 Y186.15 E0.49425
G1 X199.817 Y109.387 E2.99397
G1 X199.64 Y108.517 E0.03454
G1 X198.741 Y107.059 E0.06657
G1 X191.827 Y100.145 E0.38013
G1 X190.866 Y99.452 E0.04607
G1 X189.2 Y99.057 E0.06657
G1 X137.343 Y99.057 E2.01596
G1 X136.173 Y99.246 E0.04607
G1 X134.716 Y100.145 E0.06657
G1 X131.259 Y103.602 E0.19007
G1 X131.596 Y103.94 F9000
G1 F1800
G1 X130.66 Y105.943 E0.08596
G1 X124.453 Y175.792 E2.72613
M73 P0 R69
G1 X124.441 Y195.406 E0.76254
G1 X124.551 Y196.246 E0.03291
G1 X129.994 Y216.528 E0.81639
G1 X130.434 Y217.495 E0.04131
G1 X134.785 Y223.967 E0.30316
G1 X135.437 Y224.814 E0.04155
G1 X136.14 Y225.576 E0.04029
G1 X136.915 Y226.257 E0.04015
G1 X138.355 Y227.203 E0.06695
G1 X139.288 Y227.643 E0.0401
G1 X140.262 Y227.983 E0.0401
G1 X141.266 Y228.219 E0.0401
G1 X142.628 Y228.368 E0.05328
G1 X143.66 Y228.354 E0.0401
G1 X144.684 Y228.232 E0.0401
G1 X146.61 Y227.697 E0.07771
G1 X200.114 Y205.308 E2.25479
M73 P0 R69
G1 X201.154 Y204.611 E0.04868
G1 X204.611 Y201.154 E0.19007
G1 X205.165 Y200.411 E0.03602
G1 X205.559 Y198.864 E0.06209
G1 X205.549 Y186.189 E0.49275
G1 X199.342 Y109.426 E2.99397
G1 X198.404 Y107.397 E0.0869
G1 X191.49 Y100.483 E0.38013
G1 X190.747 Y99.928 E0.03602
G1 X189.2 Y99.534 E0.06209
G1 X137.343 Y99.534 E2.01596
G1 X136.426 Y99.667 E0.03602
G1 X135.053 Y100.483 E0.06209
G1 X131.596 Y103.94 E0.19007
G1 E-0.8 F3000
; printing object 8cards.stl id:0 copy 0
G1 X133.886 Y106.23 F9000
G1 E0.8 F1800
;TYPE:Support material interface
;WIDTH:0.5

G1 X137.343 Y106.23 E0.12876
G1 X137.343 Y102.773 E0.12876
G1 X189.2 Y102.773 E1.93145
G1 X189.2 Y106.23 E0.12876
G1 X192.657 Y106.23 E0.12876
G1 X192.657 Y109.687 E0.12876
G1 X196.114 Y109.687 E0.12876
G1 X196.114 Y189.242 E2.96313
G1 X195.566 Y188.979 E0.02264
G1 X195.524 Y188.961 E0.00168
G1 X195.185 Y188.842 E0.01339
G1 X195.142 Y188.829 E0.00167
G1 X194.792 Y188.747 E0.01339
G1 X194.748 Y188.739 E0.00168
G1 X194.391 Y188.695 E0.01339
G1 X194.346 Y188.692 E0.00167
G1 X193.987 Y188.687 E0.01339
G1 X193.942 Y188.689 E0.00168
G1 X193.878 Y188.695 E0.00237
G1 X193.586 Y188.723 E0.01093
G1 X193.583 Y151.351 E1.39193
G1 X193.579 Y114.053 E1.38922
G1 X193.578 Y114.027 E0.00099
G1 X193.553 Y113.543 E0.01803
G1 X193.532 Y113.137 E0.01513
G1 X193.526 Y113.085 E0.00198
G1 X193.388 Y112.21 E0.03297
G1 X193.377 Y112.159 E0.00198
G1 X193.148 Y111.304 E0.03297
G1 X193.131 Y111.253 E0.00198
G1 X192.814 Y110.427 E0.03297
G1 X192.802 Y110.401 E0.00105
G1 X192.792 Y110.378 E0.00093
G1 X192.44 Y109.687 E0.0289
G1 X192.457 Y109.687 E0.00063
G1 X191.882 Y108.801 E0.03933
G1 X191.851 Y108.758 E0.00198
G1 X191.294 Y108.07 E0.03297
G1 X191.258 Y108.031 E0.00198
G1 X190.632 Y107.405 E0.03297
G1 X190.593 Y107.369 E0.00198
G1 X190.273 Y107.11 E0.01535
G1 X189.905 Y106.812 E0.01763
G1 X189.862 Y106.781 E0.00197
G1 X189.097 Y106.285 E0.03396
G1 X188.989 Y106.23 E0.00451
G1 X188.285 Y105.871 E0.02945
G1 X188.236 Y105.849 E0.00198
G1 X187.41 Y105.532 E0.03297
G1 X187.359 Y105.515 E0.00198
G1 X186.504 Y105.286 E0.03297
G1 X186.484 Y105.282 E0.00078
G1 X186.453 Y105.275 E0.0012
G1 X185.925 Y105.192 E0.0199
G1 X185.726 Y105.16 E0.00749
G1 X185.727 Y105.142 E0.00069
G1 X185.552 Y105.133 E0.00653
G1 X185.379 Y105.105 E0.00653
G1 X185.376 Y105.123 E0.00069
G1 X184.636 Y105.085 E0.02758
G1 X184.61 Y105.084 E0.00099
G1 X142.39 Y105.084 E1.57253
G1 X142.364 Y105.085 E0.00099
G1 X141.474 Y105.131 E0.03316
G1 X141.422 Y105.137 E0.00198
G1 X140.547 Y105.275 E0.03297
G1 X140.496 Y105.286 E0.00198
G1 X139.641 Y105.515 E0.03297
G1 X139.614 Y105.524 E0.00104
G1 X139.59 Y105.532 E0.00094
G1 X139.29 Y105.647 E0.01197
G1 X138.764 Y105.849 E0.021
G1 X138.715 Y105.871 E0.00198
G1 X138.011 Y106.23 E0.02945
G1 X137.926 Y106.273 E0.00352
G1 X137.881 Y106.299 E0.00198
G1 X137.343 Y106.648 E0.02386
G1 X137.138 Y106.781 E0.00911
G1 X137.11 Y106.802 E0.00132
G1 X137.095 Y106.812 E0.00066
G1 X136.684 Y107.146 E0.01973
G1 X136.407 Y107.369 E0.01324
G1 X136.368 Y107.405 E0.00198
G1 X135.742 Y108.031 E0.03297
G1 X135.706 Y108.07 E0.00198
G1 X135.149 Y108.758 E0.03297
G1 X135.118 Y108.801 E0.00198
G1 X134.984 Y109.008 E0.00919
G1 X134.636 Y109.544 E0.02378
G1 X134.617 Y109.577 E0.00145
G1 X134.61 Y109.589 E0.00053
G1 X134.208 Y110.378 E0.03297
G1 X133.886 Y111.009 E0.02637
G1 X133.886 Y106.23 E0.17801
G1 E-0.8 F3000
G1 X195.999 Y110.15 F9000
G1 E0.8 F1800

G1 X193.025 Y110.15 E0.11078
G1 X193.073 Y110.244 E0.00392
G1 X193.086 Y110.274 E0.00123
G1 X193.101 Y110.308 E0.00135
G1 X193.236 Y110.658 E0.01399
G1 X195.803 Y110.658 E0.09561
G1 X195.803 Y111.166 E0.01892
G1 X193.43 Y111.166 E0.08839
G1 X193.446 Y111.215 E0.00192
G1 X193.569 Y111.674 E0.01769
G1 X195.803 Y111.674 E0.08322
G1 X195.803 Y112.182 E0.01892
G1 X193.698 Y112.182 E0.0784
G1 X193.778 Y112.69 E0.01915
G1 X195.803 Y112.69 E0.07541
G1 X195.803 Y113.198 E0.01892
G1 X193.846 Y113.198 E0.07288
G1 X193.863 Y113.527 E0.01228
G1 X193.873 Y113.706 E0.00667
G1 X195.803 Y113.706 E0.07189
G1 X195.803 Y114.213 E0.01892
G1 X193.89 Y114.213 E0.07126
G1 X193.89 Y114.721 E0.01892
G1 X195.803 Y114.721 E0.07125
G1 X195.803 Y115.229 E0.01892
G1 X193.89 Y115.229 E0.07125
G1 X193.89 Y115.737 E0.01892
G1 X195.803 Y115.737 E0.07125
G1 X195.803 Y116.245 E0.01892
G1 X193.89 Y116.245 E0.07125
G1 X193.89 Y116.753 E0.01892
G1 X195.803 Y116.753 E0.07125
G1 X195.803 Y117.261 E0.01892
G1 X193.89 Y117.261 E0.07124
G1 X193.89 Y117.768 E0.01892
G1 X195.803 Y117.768 E0.07124
G1 X195.803 Y118.276 E0.01892
G1 X193.89 Y118.276 E0.07124
G1 X193.89 Y118.784 E0.01892
G1 X195.803 Y118.784 E0.07124
G1 X195.803 Y119.292 E0.01892
G1 X193.89 Y119.292 E0.07124
G1 X193.89 Y119.8 E0.01892
G1 X195.803 Y119.8 E0.07123
G1 X195.803 Y120.308 E0.01892
G1 X193.89 Y120.308 E0.07123
G1 X193.89 Y120.816 E0.01892
G1 X195.803 Y120.816 E0.07123
G1 X195.803 Y121.324 E0.01892
G1 X193.89 Y121.324 E0.07123
G1 X193.891 Y121.831 E0.01892
G1 X195.803 Y121.831 E0.07123
G1 X195.803 Y122.339 E0.01892
G1 X193.891 Y122.339 E0.07123
G1 X193.891 Y122.847 E0.01892
G1 X195.803 Y122.847 E0.07122
G1 X195.803 Y123.355 E0.01892
G1 X193.891 Y123.355 E0.07122
G1 X193.891 Y123.863 E0.01892
G1 X195.803 Y123.863 E0.07122
G1 X195.803 Y124.371 E0.01892
G1 X193.891 Y124.371 E0.07122
G1 X193.891 Y124.879 E0.01892
G1 X195.803 Y124.879 E0.07122
G1 X195.803 Y125.386 E0.01892
G1 X193.891 Y125.386 E0.07121
G1 X193.891 Y125.894 E0.01892
G1 X195.803 Y125.894 E0.07121
G1 X195.803 Y126.402 E0.01892
G1 X193.891 Y126.402 E0.07121
G1 X193.891 Y126.91 E0.01892
G1 X195.803 Y126.91 E0.07121
G1 X195.803 Y127.418 E0.01892
G1 X193.891 Y127.418 E0.07121
G1 X193.891 Y127.926 E0.01892
G1 X195.803 Y127.926 E0.07121
G1 X195.803 Y128.434 E0.01892
G1 X193.891 Y128.434 E0.0712
G1 X193.891 Y128.942 E0.01892
G1 X195.803 Y128.942 E0.0712
G1 X195.803 Y129.449 E0.01892
G1 X193.891 Y129.449 E0.0712
G1 X193.891 Y129.957 E0.01892
G1 X195.803 Y129.957 E0.0712
G1 X195.803 Y130.465 E0.01892
G1 X193.891 Y130.465 E0.0712
G1 X193.891 Y130.973 E0.01892
G1 X195.803 Y130.973 E0.07119
G1 X195.803 Y131.481 E0.01892
G1 X193.891 Y131.481 E0.07119
G1 X193.892 Y131.989 E0.01892
G1 X195.803 Y131.989 E0.07119
G1 X195.803 Y132.497 E0.01892
G1 X193.892 Y132.497 E0.07119
G1 X193.892 Y133.004 E0.01892
G1 X195.803 Y133.004 E0.07119
G1 X195.803 Y133.512 E0.01892
G1 X193.892 Y133.512 E0.07119
G1 X193.892 Y134.02 E0.01892
G1 X195.803 Y134.02 E0.07118
G1 X195.803 Y134.528 E0.01892
G1 X193.892 Y134.528 E0.07118
G1 X193.892 Y135.036 E0.01892
G1 X195.803 Y135.036 E0.07118
G1 X195.803 Y135.544 E0.01892
G1 X193.892 Y135.544 E0.07118
G1 X193.892 Y136.052 E0.01892
G1 X195.803 Y136.052 E0.07118
G1 X195.803 Y136.56 E0.01892
G1 X193.892 Y136.56 E0.07117
G1 X193.892 Y137.067 E0.01892
G1 X195.803 Y137.067 E0.07117
G1 X195.803 Y137.575 E0.01892
G1 X193.892 Y137.575 E0.07117
G1 X193.892 Y138.083 E0.01892
G1 X195.803 Y138.083 E0.07117
G1 X195.803 Y138.591 E0.01892
G1 X193.892 Y138.591 E0.07117
G1 X193.892 Y139.099 E0.01892
G1 X195.803 Y139.099 E0.07116
G1 X195.803 Y139.607 E0.01892
G1 X193.892 Y139.607 E0.07116
G1 X193.892 Y140.115 E0.01892
G1 X195.803 Y140.115 E0.07116
G1 X195.803 Y140.622 E0.01892
G1 X193.892 Y140.622 E0.07116
G1 X193.892 Y141.13 E0.01892
G1 X195.803 Y141.13 E0.07116
G1 X195.803 Y141.638 E0.01892
G1 X193.892 Y141.638 E0.07116
G1 X193.892 Y142.146 E0.01892
G1 X195.803 Y142.146 E0.07115
G1 X195.803 Y142.654 E0.01892
G1 X193.893 Y142.654 E0.07115
G1 X193.893 Y143.162 E0.01892
G1 X195.803 Y143.162 E0.07115
G1 X195.803 Y143.67 E0.01892
G1 X193.893 Y143.67 E0.07115
G1 X193.893 Y144.177 E0.01892
G1 X195.803 Y144.177 E0.07115
G1 X195.803 Y144.685 E0.01892
G1 X193.893 Y144.685 E0.07114
G1 X193.893 Y145.193 E0.01892
G1 X195.803 Y145.193 E0.07114
G1 X195.803 Y145.701 E0.01892
G1 X193.893 Y145.701 E0.07114
G1 X193.893 Y146.209 E0.01892
G1 X195.803 Y146.209 E0.07114
G1 X195.803 Y146.717 E0.01892
G1 X193.893 Y146.717 E0.07114
G1 X193.893 Y147.225 E0.01892
G1 X195.803 Y147.225 E0.07114
G1 X195.803 Y147.733 E0.01892
G1 X193.893 Y147.733 E0.07113
G1 X193.893 Y148.24 E0.01892
G1 X195.803 Y148.24 E0.07113
G1 X195.803 Y148.748 E0.01892
G1 X193.893 Y148.748 E0.07113
G1 X193.893 Y149.256 E0.01892
G1 X195.803 Y149.256 E0.07113
G1 X195.803 Y149.764 E0.01892
G1 X193.893 Y149.764 E0.07113
G1 X193.893 Y150.272 E0.01892
G1 X195.803 Y150.272 E0.07112
G1 X195.803 Y150.78 E0.01892
G1 X193.893 Y150.78 E0.07112
G1 X193.893 Y151.288 E0.01892
G1 X195.803 Y151.288 E0.07112
G1 X195.803 Y151.795 E0.01892
G1 X193.893 Y151.795 E0.07112
G1 X193.893 Y152.303 E0.01892
G1 X195.803 Y152.303 E0.07112
G1 X195.803 Y152.811 E0.01892
G1 X193.894 Y152.811 E0.07112
G1 X193.894 Y153.319 E0.01892
G1 X195.803 Y153.319 E0.07111
G1 X195.803 Y153.827 E0.01892
G1 X193.894 Y153.827 E0.07111
G1 X193.894 Y154.335 E0.01892
G1 X195.803 Y154.335 E0.07111
G1 X195.803 Y154.843 E0.01892
G1 X193.894 Y154.843 E0.07111
G1 X193.894 Y155.351 E0.01892
G1 X195.803 Y155.351 E0.07111
G1 X195.803 Y155.858 E0.01892
G1 X193.894 Y155.858 E0.0711
G1 X193.894 Y156.366 E0.01892
G1 X195.803 Y156.366 E0.0711
G1 X195.803 Y156.874 E0.01892
G1 X193.894 Y156.874 E0.0711
G1 X193.894 Y157.382 E0.01892
G1 X195.803 Y157.382 E0.0711
G1 X195.803 Y157.89 E0.01892
G1 X193.894 Y157.89 E0.0711
G1 X193.894 Y158.398 E0.01892
G1 X195.803 Y158.398 E0.0711
G1 X195.803 Y158.906 E0.01892
G1 X193.894 Y158.906 E0.07109
G1 X193.894 Y159.413 E0.01892
G1 X195.803 Y159.413 E0.07109
G1 X195.803 Y159.921 E0.01892
G1 X193.894 Y159.921 E0.07109
G1 X193.894 Y160.429 E0.01892
G1 X195.803 Y160.429 E0.07109
G1 X195.803 Y160.937 E0.01892
G1 X193.894 Y160.937 E0.07109
G1 X193.894 Y161.445 E0.01892
G1 X195.803 Y161.445 E0.07108
G1 X195.803 Y161.953 E0.01892
G1 X193.894 Y161.953 E0.07108
G1 X193.894 Y162.461 E0.01892
G1 X195.803 Y162.461 E0.07108
G1 X195.803 Y162.969 E0.01892
G1 X193.895 Y162.969 E0.07108
G1 X193.895 Y163.476 E0.01892
G1 X195.803 Y163.476 E0.07108
G1 X195.803 Y163.984 E0.01892
G1 X193.895 Y163.984 E0.07107
G1 X193.895 Y164.492 E0.01892
G1 X195.803 Y164.492 E0.07107
G1 X195.803 Y165 E0.01892
G1 X193.895 Y165 E0.07107
G1 X193.895 Y165.508 E0.01892
G1 X195.803 Y165.508 E0.07107
G1 X195.803 Y166.016 E0.01892
G1 X193.895 Y166.016 E0.07107
G1 X193.895 Y166.524 E0.01892
G1 X195.803 Y166.524 E0.07107
G1 X195.803 Y167.031 E0.01892
G1 X193.895 Y167.031 E0.07106
G1 X193.895 Y167.539 E0.01892
G1 X195.803 Y167.539 E0.07106
G1 X195.803 Y168.047 E0.01892
G1 X193.895 Y168.047 E0.07106
G1 X193.895 Y168.555 E0.01892
G1 X195.803 Y168.555 E0.07106
G1 X195.803 Y169.063 E0.01892
G1 X193.895 Y169.063 E0.07106
G1 X193.895 Y169.571 E0.01892
G1 X195.803 Y169.571 E0.07105
G1 X195.803 Y170.079 E0.01892
G1 X193.895 Y170.079 E0.07105
G1 X193.895 Y170.587 E0.01892
G1 X195.803 Y170.587 E0.07105
G1 X195.803 Y171.094 E0.01892
G1 X193.895 Y171.094 E0.07105
G1 X193.895 Y171.602 E0.01892
G1 X195.803 Y171.602 E0.07105
G1 X195.803 Y172.11 E0.01892
G1 X193.895 Y172.11 E0.07105
G1 X193.895 Y172.618 E0.01892
G1 X195.803 Y172.618 E0.07104
G1 X195.803 Y173.126 E0.01892
G1 X193.896 Y173.126 E0.07104
G1 X193.896 Y173.634 E0.01892
G1 X195.803 Y173.634 E0.07104
G1 X195.803 Y174.142 E0.01892
G1 X193.896 Y174.142 E0.07104
G1 X193.896 Y174.649 E0.01892
G1 X195.803 Y174.649 E0.07104
G1 X195.803 Y175.157 E0.01892
G1 X193.896 Y175.157 E0.07103
G1 X193.896 Y175.665 E0.01892
G1 X195.803 Y175.665 E0.07103
G1 X195.803 Y176.173 E0.01892
G1 X193.896 Y176.173 E0.07103
G1 X193.896 Y176.681 E0.01892
G1 X195.803 Y176.681 E0.07103
G1 X195.803 Y177.189 E0.01892
G1 X193.896 Y177.189 E0.07103
G1 X193.896 Y177.697 E0.01892
G1 X195.803 Y177.697 E0.07103
G1 X195.803 Y178.205 E0.01892
G1 X193.896 Y178.205 E0.07102
G1 X193.896 Y178.712 E0.01892
G1 X195.803 Y178.712 E0.07102
G1 X195.803 Y179.22 E0.01892
G1 X193.896 Y179.22 E0.07102
G1 X193.896 Y179.728 E0.01892
G1 X195.803 Y179.728 E0.07102
G1 X195.803 Y180.236 E0.01892
G1 X193.896 Y180.236 E0.07102
G1 X193.896 Y180.744 E0.01892
G1 X195.803 Y180.744 E0.07101
G1 X195.803 Y181.252 E0.01892
G1 X193.896 Y181.252 E0.07101
G1 X193.896 Y181.76 E0.01892
G1 X195.803 Y181.76 E0.07101
G1 X195.803 Y182.267 E0.01892
G1 X193.896 Y182.267 E0.07101
G1 X193.896 Y182.775 E0.01892
G1 X195.803 Y182.775 E0.07101
G1 X195.803 Y183.283 E0.01892
G1 X193.896 Y183.283 E0.071
G1 X193.897 Y183.791 E0.01892
G1 X195.803 Y183.791 E0.071
G1 X195.803 Y184.299 E0.01892
G1 X193.897 Y184.299 E0.071
G1 X193.897 Y184.807 E0.01892
G1 X195.803 Y184.807 E0.071
G1 X195.803 Y185.315 E0.01892
G1 X193.897 Y185.315 E0.071
G1 X193.897 Y185.823 E0.01892
G1 X195.803 Y185.823 E0.071
G1 X195.803 Y186.33 E0.01892
G1 X193.897 Y186.33 E0.07099
G1 X193.897 Y186.838 E0.01892
G1 X195.803 Y186.838 E0.07099
G1 X195.803 Y187.346 E0.01892
G1 X193.897 Y187.346 E0.07099
G1 X193.897 Y187.854 E0.01892
G1 X195.803 Y187.854 E0.07099
G1 X195.803 Y188.362 E0.01892
G1 X193.7 Y188.362 E0.07831
G1 E-0.8 F3000
G1 X137.144 Y106.595 F9000
G1 E0.8 F1800

G1 X134.197 Y106.595 E0.10975
G1 X134.197 Y107.103 E0.01892
G1 X136.242 Y107.103 E0.07617
G1 X136.205 Y107.133 E0.00176
G1 X136.154 Y107.179 E0.00258
G1 X135.722 Y107.611 E0.02274
G1 X134.197 Y107.611 E0.0568
G1 X134.197 Y108.119 E0.01892
G1 X135.267 Y108.119 E0.03985
G1 X134.903 Y108.569 E0.02156
G1 X134.861 Y108.627 E0.00266
G1 X134.197 Y108.627 E0.02472
G1 X134.197 Y109.135 E0.01892
