; generated by SuperSlicer 2.4 on 2022-11-12 at 21:13:13 UTC


;
;

;
;
; 

; external perimeters extrusion width = 0.60mm
; perimeters extrusion width = 0.69mm
; infill extrusion width = 0.96mm
; solid infill extrusion width = 0.84mm
; top infill extrusion width = 0.60mm
; support material extrusion width = 0.69mm
; first layer extrusion width = 0.75mm

; object:{"name":"Filament_Shelf_Version_D_v14","id":"Filament_Shelf_Version_D_v14.stl id:0 copy 0","object_center":[141.309737,163.571777,0.000000],"boundingbox_center":[141.309737,163.571777,94.050003],"boundingbox_size":[125.055908,38.099998,188.100006]}
; plater:{"center":[141.309737,163.571777,0.000000],"boundingbox_center":[141.309737,163.571777,94.050003],"boundingbox_size":[125.055908,38.099998,188.100006]}

M73 P0 R249
;TYPE:Custom
START_PRINT T_BED=70 T_EXTRUDER=235
M107
G21 ; set units to millimeters
G90 ; use absolute coordinates
M83 ; use relative distances for extrusion
; Filament gcode
;_TOOLCHANGE 0
M104 S235 ; set temperature
M109 S235 ; set temperature and wait for it to be reached
M190 S70 ; set bed temperature and wait for it to be reached
M107
;LAYER_CHANGE
;Z:0.4
;HEIGHT:0.4
G1 Z0.4 F9000
G92 E0
G1 E-1 F3000
M204 S1000
G1 Z0.6 F9000
G1 X76.344 Y141.477
G1 Z0.4
G1 E1 F1800
;TYPE:Skirt
;WIDTH:0.78
G1 X75.236 Y142.879 E0.20628
G1 X74.841 Y144.622 E0.20628
G1 X74.841 Y182.522 E4.37514
G1 X75.116 Y183.988 E0.17228
G1 X76.117 Y185.469 E0.20628
G1 X77.658 Y186.373 E0.20628
G1 X94.241 Y191.643 E2.00868
G1 X95.465 Y191.833 E0.14298
G1 X118.676 Y191.833 E2.67941
G1 X203.988 Y186.555 E9.86718
G1 X206.276 Y185.666 E0.2834
G1 X207.384 Y184.264 E0.20628
G1 X207.779 Y182.522 E0.20628
G1 X207.779 Y144.622 E4.37514
G1 X207.033 Y142.283 E0.2834
G1 X205.702 Y141.09 E0.20628
G1 X203.988 Y140.588 E0.20628
G1 X118.925 Y135.318 E9.83833
G1 X95.465 Y135.311 E2.70826
G1 X94.241 Y135.5 E0.14298
G1 X77.658 Y140.77 E2.00868
G1 X76.344 Y141.477 E0.17227
G1 X76.896 Y141.977 F9000
G1 F1800
G1 X75.929 Y143.046 E0.16646
G1 X75.535 Y144.622 E0.18748
G1 X75.535 Y182.522 E4.37514
G1 X75.668 Y183.456 E0.10893
G1 X76.486 Y184.859 E0.18748
G1 X77.868 Y185.712 E0.18748
G1 X94.451 Y190.981 E2.00868
G1 X95.465 Y191.139 E0.11842
G1 X118.676 Y191.139 E2.67941
G1 X203.945 Y185.862 E9.86222
G1 X205.601 Y185.302 E0.20191
G1 X206.691 Y184.097 E0.18748
G1 X207.085 Y182.522 E0.18748
G1 X207.085 Y144.622 E4.37514
G1 X206.628 Y142.934 E0.20191
G1 X205.493 Y141.772 E0.18748
G1 X203.945 Y141.281 E0.18748
G1 X118.882 Y136.011 E9.83833
G1 X95.465 Y136.005 E2.7033
G1 X94.451 Y136.162 E0.11842
G1 X77.868 Y141.432 E2.00868
G1 X77.018 Y141.842 E0.10893
G1 X76.896 Y141.977 E0.02102
G1 E-1 F3000
G1 Z0.6 F9000
; printing object Filament_Shelf_Version_D_v14.stl id:0 copy 0
G1 X95.465 Y184.129
G1 Z0.4
G1 E1 F1800
;TYPE:Support material
;WIDTH:0.75
G1 X118.676 Y184.129 E2.56361
G1 X118.676 Y187.792 E0.40455
G1 X95.465 Y187.792 E2.56361
G1 X95.465 Y184.129 E0.40455
G1 X117.695 Y187.626 F9000
G1 F1800
G1 X117.695 Y184.58 E0.33633
G1 X116.957 Y184.58 E0.08151
G1 X116.957 Y187.34 E0.30478
G1 X116.219 Y187.34 E0.08151
G1 X116.219 Y184.58 E0.30478
G1 X115.481 Y184.58 E0.08151
G1 X115.481 Y187.34 E0.30478
G1 X114.743 Y187.34 E0.08151
G1 X114.743 Y184.58 E0.30478
G1 X114.005 Y184.58 E0.08151
G1 X114.005 Y187.34 E0.30478
G1 X113.267 Y187.34 E0.08151
G1 X113.267 Y184.58 E0.30478
G1 X112.53 Y184.58 E0.08151
G1 X112.53 Y187.34 E0.30478
G1 X111.792 Y187.34 E0.08151
G1 X111.792 Y184.58 E0.30478
G1 X111.054 Y184.58 E0.08151
G1 X111.054 Y187.34 E0.30478
G1 X110.316 Y187.34 E0.08151
G1 X110.316 Y184.58 E0.30478
G1 X109.578 Y184.58 E0.08151
G1 X109.578 Y187.34 E0.30478
G1 X108.84 Y187.34 E0.08151
G1 X108.84 Y184.58 E0.30478
G1 X108.102 Y184.58 E0.08151
G1 X108.102 Y187.34 E0.30478
G1 X107.364 Y187.34 E0.08151
G1 X107.364 Y184.58 E0.30478
G1 X106.626 Y184.58 E0.08151
G1 X106.626 Y187.34 E0.30478
G1 X105.888 Y187.34 E0.08151
G1 X105.888 Y184.58 E0.30478
G1 X105.15 Y184.58 E0.08151
G1 X105.15 Y187.34 E0.30478
G1 X104.412 Y187.34 E0.08151
G1 X104.412 Y184.58 E0.30478
G1 X103.674 Y184.58 E0.08151
G1 X103.674 Y187.34 E0.30478
G1 X102.936 Y187.34 E0.08151
G1 X102.936 Y184.58 E0.30478
G1 X102.198 Y184.58 E0.08151
G1 X102.198 Y187.34 E0.30478
G1 X101.46 Y187.34 E0.08151
G1 X101.46 Y184.58 E0.30478
G1 X100.722 Y184.58 E0.08151
G1 X100.722 Y187.34 E0.30478
G1 X99.984 Y187.34 E0.08151
G1 X99.984 Y184.58 E0.30478
G1 X99.246 Y184.58 E0.08151
M73 P0 R248
G1 X99.246 Y187.34 E0.30478
G1 X98.508 Y187.34 E0.08151
G1 X98.508 Y184.58 E0.30478
G1 X97.77 Y184.58 E0.08151
G1 X97.77 Y187.34 E0.30478
G1 X97.032 Y187.34 E0.08151
G1 X97.032 Y184.58 E0.30478
G1 X96.295 Y184.58 E0.08151
G1 X96.295 Y187.626 E0.33633
G1 E-1 F3000
G1 Z0.6 F9000
G1 X96.295 Y143.015
G1 Z0.4
G1 E1 F1800
G1 X95.465 Y143.015 E0.09163
G1 X95.465 Y139.352 E0.40455
G1 X118.676 Y139.352 E2.56361
G1 X118.676 Y143.015 E0.40455
G1 X96.295 Y143.015 E2.47198
G1 X117.695 Y142.849 F9000
G1 F1800
G1 X117.695 Y139.804 E0.33633
G1 X116.957 Y139.804 E0.08151
G1 X116.957 Y142.563 E0.30479
G1 X116.219 Y142.563 E0.08151
G1 X116.219 Y139.804 E0.30479
G1 X115.481 Y139.804 E0.08151
G1 X115.481 Y142.563 E0.30479
G1 X114.743 Y142.563 E0.08151
G1 X114.743 Y139.804 E0.30479
G1 X114.005 Y139.804 E0.08151
G1 X114.005 Y142.563 E0.30479
G1 X113.267 Y142.563 E0.08151
G1 X113.267 Y139.804 E0.30479
G1 X112.53 Y139.804 E0.08151
G1 X112.53 Y142.563 E0.30479
G1 X111.792 Y142.563 E0.08151
G1 X111.792 Y139.804 E0.30479
G1 X111.054 Y139.804 E0.08151
G1 X111.054 Y142.563 E0.30479
G1 X110.316 Y142.563 E0.08151
G1 X110.316 Y139.804 E0.30479
G1 X109.578 Y139.804 E0.08151
G1 X109.578 Y142.563 E0.30479
G1 X108.84 Y142.563 E0.08151
G1 X108.84 Y139.804 E0.30479
G1 X108.102 Y139.804 E0.08151
G1 X108.102 Y142.563 E0.30479
G1 X107.364 Y142.563 E0.08151
G1 X107.364 Y139.804 E0.30479
G1 X106.626 Y139.804 E0.08151
G1 X106.626 Y142.563 E0.30479
G1 X105.888 Y142.563 E0.08151
G1 X105.888 Y139.804 E0.30479
G1 X105.15 Y139.804 E0.08151
G1 X105.15 Y142.563 E0.30479
G1 X104.412 Y142.563 E0.08151
G1 X104.412 Y139.804 E0.30479
G1 X103.674 Y139.804 E0.08151
G1 X103.674 Y142.563 E0.30479
G1 X102.936 Y142.563 E0.08151
G1 X102.936 Y139.804 E0.30479
G1 X102.198 Y139.804 E0.08151
G1 X102.198 Y142.563 E0.30479
G1 X101.46 Y142.563 E0.08151
G1 X101.46 Y139.804 E0.30479
G1 X100.722 Y139.804 E0.08151
G1 X100.722 Y142.563 E0.30479
G1 X99.984 Y142.563 E0.08151
G1 X99.984 Y139.804 E0.30479
G1 X99.246 Y139.804 E0.08151
G1 X99.246 Y142.563 E0.30479
G1 X98.508 Y142.563 E0.08151
G1 X98.508 Y139.804 E0.30479
G1 X97.77 Y139.804 E0.08151
G1 X97.77 Y142.563 E0.30479
G1 X97.032 Y142.563 E0.08151
G1 X97.032 Y139.804 E0.30479
G1 X96.295 Y139.804 E0.08151
G1 X96.295 Y142.849 E0.33633
G1 E-1 F3000
G1 Z0.6 F9000
G1 X191.138 Y158.237
G1 Z0.4
G1 E1 F1800
;TYPE:Internal perimeter
G1 X190.561 Y158.288 E0.06391
G1 X190.211 Y158.318 E0.03879
G1 X189.313 Y158.559 E0.1027
G1 X188.47 Y158.952 E0.1027
G1 X187.709 Y159.485 E0.1027
G1 X187.051 Y160.143 E0.1027
G1 X186.518 Y160.905 E0.1027
G1 X186.125 Y161.747 E0.1027
G1 X185.884 Y162.645 E0.1027
G1 X185.803 Y163.572 E0.1027
G1 X185.884 Y164.498 E0.1027
G1 X186.125 Y165.396 E0.1027
G1 X186.518 Y166.239 E0.1027
G1 X187.051 Y167.001 E0.1027
G1 X187.709 Y167.658 E0.1027
G1 X188.47 Y168.192 E0.1027
G1 X189.313 Y168.584 E0.1027
G1 X190.211 Y168.825 E0.1027
G1 X191.138 Y168.906 E0.1027
G1 X192.064 Y168.825 E0.1027
G1 X192.962 Y168.584 E0.1027
G1 X193.805 Y168.191 E0.1027
G1 X194.567 Y167.658 E0.1027
G1 X195.224 Y167.001 E0.1027
G1 X195.757 Y166.239 E0.1027
G1 X196.15 Y165.396 E0.1027
G1 X196.391 Y164.498 E0.1027
G1 X196.472 Y163.572 E0.1027
G1 X196.391 Y162.645 E0.1027
G1 X196.15 Y161.747 E0.1027
G1 X195.757 Y160.905 E0.1027
G1 X195.224 Y160.143 E0.1027
G1 X194.567 Y159.485 E0.1027
G1 X193.805 Y158.952 E0.1027
G1 X192.962 Y158.559 E0.1027
G1 X192.064 Y158.318 E0.1027
G1 X191.138 Y158.237 E0.1027
G1 X191.138 Y158.904 F9000
G1 F1800
G1 X190.619 Y158.949 E0.0575
G1 X190.327 Y158.975 E0.03237
G1 X189.541 Y159.186 E0.08987
G1 X188.804 Y159.529 E0.08987
G1 X188.137 Y159.996 E0.08986
G1 X187.562 Y160.571 E0.08987
G1 X187.095 Y161.238 E0.08987
G1 X186.751 Y161.975 E0.08987
G1 X186.541 Y162.761 E0.08987
G1 X186.47 Y163.572 E0.08986
G1 X186.541 Y164.382 E0.08986
G1 X186.751 Y165.168 E0.08987
G1 X187.095 Y165.906 E0.08987
G1 X187.562 Y166.572 E0.08987
G1 X188.137 Y167.147 E0.08987
G1 X188.804 Y167.614 E0.08986
G1 X189.541 Y167.958 E0.08987
G1 X190.327 Y168.169 E0.08986
G1 X191.138 Y168.239 E0.08987
G1 X191.948 Y168.169 E0.08987
G1 X192.734 Y167.958 E0.08987
G1 X193.472 Y167.614 E0.08987
G1 X194.138 Y167.147 E0.08986
G1 X194.713 Y166.572 E0.08987
G1 X195.18 Y165.906 E0.08987
G1 X195.524 Y165.168 E0.08987
G1 X195.734 Y164.382 E0.08986
G1 X195.805 Y163.572 E0.08987
G1 X195.734 Y162.761 E0.08987
G1 X195.524 Y161.975 E0.08987
G1 X195.18 Y161.238 E0.08987
G1 X194.713 Y160.571 E0.08987
G1 X194.138 Y159.996 E0.08986
G1 X193.472 Y159.529 E0.08987
G1 X192.734 Y159.186 E0.08987
G1 X191.948 Y158.975 E0.08987
G1 X191.138 Y158.904 E0.08987
G1 X191.138 Y159.571 F9000
G1 F1800
G1 X190.677 Y159.611 E0.05108
G1 X190.443 Y159.632 E0.02595
G1 X189.769 Y159.812 E0.07703
G1 X189.137 Y160.107 E0.07703
G1 X188.566 Y160.507 E0.07703
G1 X188.073 Y161 E0.07703
G1 X187.673 Y161.571 E0.07703
G1 X187.378 Y162.203 E0.07703
G1 X187.197 Y162.877 E0.07703
G1 X187.137 Y163.572 E0.07703
G1 X187.197 Y164.267 E0.07703
G1 X187.378 Y164.94 E0.07703
G1 X187.673 Y165.572 E0.07703
G1 X188.073 Y166.144 E0.07703
G1 X188.566 Y166.637 E0.07703
G1 X189.137 Y167.037 E0.07703
G1 X189.769 Y167.331 E0.07703
G1 X190.443 Y167.512 E0.07703
G1 X191.138 Y167.573 E0.07703
G1 X191.832 Y167.512 E0.07703
G1 X192.506 Y167.331 E0.07703
G1 X193.138 Y167.037 E0.07703
G1 X193.709 Y166.637 E0.07703
G1 X194.203 Y166.144 E0.07703
G1 X194.603 Y165.572 E0.07703
G1 X194.897 Y164.94 E0.07703
G1 X195.078 Y164.267 E0.07703
G1 X195.139 Y163.572 E0.07703
G1 X195.078 Y162.877 E0.07703
G1 X194.897 Y162.203 E0.07703
G1 X194.603 Y161.571 E0.07703
G1 X194.203 Y161 E0.07703
G1 X193.709 Y160.507 E0.07703
G1 X193.138 Y160.107 E0.07703
G1 X192.506 Y159.812 E0.07703
G1 X191.832 Y159.632 E0.07703
G1 X191.138 Y159.571 E0.07703
G1 X191.138 Y160.237 F9000
;TYPE:External perimeter
G1 F1800
G1 X190.735 Y160.273 E0.04466
G1 X190.559 Y160.288 E0.01954
G1 X189.997 Y160.439 E0.06419
G1 X189.471 Y160.684 E0.0642
G1 X188.994 Y161.018 E0.06419
G1 X188.583 Y161.429 E0.0642
G1 X188.25 Y161.905 E0.06419
G1 X188.004 Y162.431 E0.0642
G1 X187.854 Y162.993 E0.06419
G1 X187.803 Y163.572 E0.06419
G1 X187.854 Y164.151 E0.06419
G1 X188.004 Y164.712 E0.06419
G1 X188.25 Y165.239 E0.0642
G1 X188.583 Y165.715 E0.06419
G1 X188.994 Y166.126 E0.0642
G1 X189.471 Y166.459 E0.06419
G1 X189.997 Y166.705 E0.0642
G1 X190.559 Y166.855 E0.06419
G1 X191.138 Y166.906 E0.0642
G1 X191.717 Y166.855 E0.0642
G1 X192.278 Y166.705 E0.06419
G1 X192.805 Y166.459 E0.06419
G1 X193.281 Y166.126 E0.06419
G1 X193.692 Y165.715 E0.06419
G1 X194.025 Y165.239 E0.06419
G1 X194.271 Y164.712 E0.0642
G1 X194.421 Y164.151 E0.06419
G1 X194.472 Y163.572 E0.0642
G1 X194.421 Y162.993 E0.0642
G1 X194.271 Y162.431 E0.06419
G1 X194.025 Y161.905 E0.06419
G1 X193.692 Y161.429 E0.0642
G1 X193.281 Y161.018 E0.06419
G1 X192.805 Y160.684 E0.06419
G1 X192.278 Y160.439 E0.06419
G1 X191.717 Y160.288 E0.06419
G1 X191.138 Y160.237 E0.0642
;WIPE_START
M204 S3000
G1 X190.823 Y159.727 F9000
;WIPE_END
G1 E-1 F3000
M204 S1000
G1 Z0.6 F9000
G1 X91.482 Y158.237
G1 Z0.4
G1 E1 F1800
;TYPE:Internal perimeter
G1 X90.905 Y158.288 E0.06391
G1 X90.555 Y158.318 E0.03879
G1 X89.657 Y158.559 E0.1027
G1 X88.815 Y158.952 E0.1027
G1 X88.053 Y159.485 E0.1027
G1 X87.395 Y160.143 E0.1027
G1 X86.862 Y160.905 E0.1027
G1 X86.469 Y161.747 E0.1027
G1 X86.228 Y162.645 E0.1027
G1 X86.147 Y163.572 E0.1027
G1 X86.228 Y164.498 E0.1027
G1 X86.469 Y165.396 E0.1027
G1 X86.862 Y166.239 E0.1027
G1 X87.395 Y167.001 E0.1027
G1 X88.053 Y167.658 E0.1027
G1 X88.815 Y168.192 E0.1027
G1 X89.657 Y168.584 E0.1027
G1 X90.555 Y168.825 E0.1027
G1 X91.482 Y168.906 E0.1027
G1 X92.408 Y168.825 E0.1027
G1 X93.306 Y168.584 E0.1027
G1 X94.149 Y168.192 E0.1027
G1 X94.911 Y167.658 E0.1027
G1 X95.568 Y167.001 E0.1027
G1 X96.102 Y166.239 E0.1027
G1 X96.494 Y165.396 E0.1027
G1 X96.735 Y164.498 E0.1027
G1 X96.816 Y163.572 E0.1027
G1 X96.735 Y162.645 E0.1027
G1 X96.494 Y161.747 E0.1027
G1 X96.102 Y160.905 E0.1027
G1 X95.568 Y160.143 E0.1027
G1 X94.911 Y159.485 E0.1027
G1 X94.149 Y158.952 E0.1027
G1 X93.306 Y158.559 E0.1027
G1 X92.408 Y158.318 E0.1027
G1 X91.482 Y158.237 E0.1027
G1 X91.482 Y158.904 F9000
G1 F1800
G1 X90.963 Y158.949 E0.05749
G1 X90.671 Y158.975 E0.03237
G1 X89.885 Y159.186 E0.08987
G1 X89.148 Y159.529 E0.08987
G1 X88.481 Y159.996 E0.08987
G1 X87.906 Y160.571 E0.08987
G1 X87.439 Y161.238 E0.08986
G1 X87.096 Y161.975 E0.08987
G1 X86.885 Y162.761 E0.08987
G1 X86.814 Y163.572 E0.08987
G1 X86.885 Y164.382 E0.08987
G1 X87.096 Y165.168 E0.08987
G1 X87.439 Y165.906 E0.08987
G1 X87.906 Y166.572 E0.08986
G1 X88.481 Y167.147 E0.08987
G1 X89.148 Y167.614 E0.08987
G1 X89.885 Y167.958 E0.08987
G1 X90.671 Y168.169 E0.08986
G1 X91.482 Y168.239 E0.08987
G1 X92.292 Y168.169 E0.08987
G1 X93.078 Y167.958 E0.08987
G1 X93.816 Y167.614 E0.08987
G1 X94.482 Y167.147 E0.08987
G1 X95.057 Y166.572 E0.08987
G1 X95.524 Y165.906 E0.08986
G1 X95.868 Y165.168 E0.08987
G1 X96.079 Y164.382 E0.08987
G1 X96.149 Y163.572 E0.08987
G1 X96.079 Y162.761 E0.08987
G1 X95.868 Y161.975 E0.08987
G1 X95.524 Y161.238 E0.08987
G1 X95.057 Y160.571 E0.08987
G1 X94.482 Y159.996 E0.08987
G1 X93.816 Y159.529 E0.08987
G1 X93.078 Y159.186 E0.08987
G1 X92.292 Y158.975 E0.08987
G1 X91.482 Y158.904 E0.08987
G1 X91.482 Y159.571 F9000
G1 F1800
G1 X91.021 Y159.611 E0.05108
G1 X90.787 Y159.632 E0.02595
G1 X90.113 Y159.812 E0.07703
G1 X89.481 Y160.107 E0.07703
G1 X88.91 Y160.507 E0.07703
G1 X88.417 Y161 E0.07703
G1 X88.017 Y161.571 E0.07703
G1 X87.722 Y162.203 E0.07703
G1 X87.542 Y162.877 E0.07703
G1 X87.481 Y163.572 E0.07703
G1 X87.542 Y164.267 E0.07703
G1 X87.722 Y164.94 E0.07703
G1 X88.017 Y165.572 E0.07703
G1 X88.417 Y166.144 E0.07703
G1 X88.91 Y166.637 E0.07703
G1 X89.481 Y167.037 E0.07703
G1 X90.113 Y167.331 E0.07703
G1 X90.787 Y167.512 E0.07703
G1 X91.482 Y167.573 E0.07703
G1 X92.177 Y167.512 E0.07703
G1 X92.85 Y167.331 E0.07703
G1 X93.482 Y167.037 E0.07703
G1 X94.054 Y166.637 E0.07703
G1 X94.547 Y166.144 E0.07703
G1 X94.947 Y165.572 E0.07703
G1 X95.241 Y164.94 E0.07703
G1 X95.422 Y164.267 E0.07703
G1 X95.483 Y163.572 E0.07703
G1 X95.422 Y162.877 E0.07703
G1 X95.241 Y162.203 E0.07703
G1 X94.947 Y161.571 E0.07703
G1 X94.547 Y161 E0.07703
G1 X94.054 Y160.507 E0.07703
G1 X93.482 Y160.107 E0.07703
G1 X92.85 Y159.812 E0.07703
G1 X92.177 Y159.632 E0.07703
G1 X91.482 Y159.571 E0.07703
G1 X91.482 Y160.237 F9000
;TYPE:External perimeter
G1 F1800
G1 X91.079 Y160.273 E0.04466
G1 X90.903 Y160.288 E0.01954
G1 X90.341 Y160.439 E0.06419
G1 X89.815 Y160.684 E0.0642
G1 X89.339 Y161.018 E0.06419
G1 X88.928 Y161.429 E0.06419
G1 X88.594 Y161.905 E0.06419
G1 X88.349 Y162.431 E0.06419
G1 X88.198 Y162.993 E0.06419
G1 X88.147 Y163.572 E0.0642
G1 X88.198 Y164.151 E0.0642
G1 X88.349 Y164.712 E0.06419
G1 X88.594 Y165.239 E0.06419
G1 X88.928 Y165.715 E0.06419
G1 X89.339 Y166.126 E0.06419
G1 X89.815 Y166.459 E0.06419
G1 X90.341 Y166.705 E0.0642
G1 X90.903 Y166.855 E0.06419
G1 X91.482 Y166.906 E0.06419
G1 X92.061 Y166.855 E0.0642
G1 X92.622 Y166.705 E0.06419
G1 X93.149 Y166.459 E0.0642
G1 X93.625 Y166.126 E0.06419
G1 X94.036 Y165.715 E0.06419
G1 X94.369 Y165.239 E0.06419
G1 X94.615 Y164.712 E0.06419
G1 X94.765 Y164.151 E0.06419
G1 X94.816 Y163.572 E0.0642
G1 X94.765 Y162.993 E0.0642
G1 X94.615 Y162.431 E0.06419
G1 X94.369 Y161.905 E0.06419
G1 X94.036 Y161.429 E0.06419
G1 X93.625 Y161.018 E0.06419
G1 X93.149 Y160.684 E0.06419
G1 X92.622 Y160.439 E0.0642
G1 X92.061 Y160.288 E0.06419
G1 X91.482 Y160.237 E0.0642
;WIPE_START
M204 S3000
G1 X91.167 Y159.727 F9000
;WIPE_END
G1 E-1 F3000
M204 S1000
G1 Z0.6 F9000
G1 X201.37 Y180.154
G1 Z0.4
G1 E1 F1800
;TYPE:Internal perimeter
G1 X81.249 Y180.154 E13.26738
