; generated by SuperSlicer 2.4 on 2022-09-04 at 21:24:26 UTC


;
;

;
;
; 

; external perimeters extrusion width = 0.20mm
; perimeters extrusion width = 0.25mm
; infill extrusion width = 0.36mm
; solid infill extrusion width = 0.28mm
; top infill extrusion width = 0.20mm
; support material extrusion width = 0.25mm

; object:{"name":"Wallet_Minimalist_6_5mm","id":"Wallet_Minimalist_6_5mm.stl id:0 copy 0","object_center":[165.000000,165.000000,0.000000],"boundingbox_center":[165.000000,165.000000,4.450000],"boundingbox_size":[89.800003,57.580002,8.900000]}
; plater:{"center":[165.000000,165.000000,0.000000],"boundingbox_center":[165.000000,165.000000,4.450000],"boundingbox_size":[89.800003,57.580002,8.900000]}

M73 P0 R78
;TYPE:Custom
START_PRINT T_BED=70 T_EXTRUDER=235
M107
G21 ; set units to millimeters
G90 ; use absolute coordinates
M83 ; use relative distances for extrusion
; Filament gcode
;_TOOLCHANGE 0
M104 S235 ; set temperature
M109 S235 ; set temperature and wait for it to be reached
M190 S70 ; set bed temperature and wait for it to be reached
M107
;LAYER_CHANGE
;Z:0.12
;HEIGHT:0.12
G1 Z0.12 F9000
G92 E0
M73 P0 R78
G1 E-1 F3000
M204 S1000
G1 X119.789 Y135.069 F9000
G1 E1 F1800
;TYPE:Skirt
;WIDTH:0.26
G1 X119.205 Y135.623 E0.00941
G1 X118.748 Y136.155 E0.0082
G1 X118.373 Y136.686 E0.00759
G1 X117.969 Y137.39 E0.00949
G1 X117.678 Y138.049 E0.00842
G1 X117.455 Y138.727 E0.00834
G1 X117.314 Y139.34 E0.00735
G1 X117.205 Y140.153 E0.00959
G1 X117.182 Y140.712 E0.00654
G1 X117.186 Y189.62 E0.57157
G1 X117.236 Y190.324 E0.00824
G1 X117.354 Y191.016 E0.00821
G1 X117.538 Y191.694 E0.00821
G1 X117.786 Y192.352 E0.00821
G1 X118.098 Y192.981 E0.00821
G1 X118.469 Y193.578 E0.00821
G1 X119.157 Y194.398 E0.01251
G1 X120.197 Y195.1 E0.01466
G1 X120.572 Y195.255 E0.00474
G1 X124.162 Y196.52 E0.04448
G1 X124.996 Y196.68 E0.00993
G1 X125.491 Y196.708 E0.00579
G1 X204.509 Y196.708 E0.92345
G1 X205.004 Y196.68 E0.00579
G1 X205.838 Y196.52 E0.00993
G1 X209.428 Y195.255 E0.04448
G1 X209.803 Y195.1 E0.00474
G1 X210.843 Y194.398 E0.01466
G1 X211.312 Y193.878 E0.00818
G1 X211.71 Y193.306 E0.00815
G1 X212.054 Y192.693 E0.00821
G1 X212.337 Y192.05 E0.00821
G1 X212.556 Y191.383 E0.00821
G1 X212.709 Y190.697 E0.00821
G1 X212.818 Y189.458 E0.01454
G1 X212.818 Y140.712 E0.56967
G1 X212.763 Y139.828 E0.01036
G1 X212.547 Y138.734 E0.01303
G1 X212.322 Y138.049 E0.00843
G1 X211.878 Y137.101 E0.01223
G1 X211.497 Y136.489 E0.00843
G1 X211.041 Y135.899 E0.00871
G1 X210.487 Y135.315 E0.00941
G1 X209.621 Y134.613 E0.01302
G1 X208.72 Y134.08 E0.01223
G1 X208.061 Y133.788 E0.00843
G1 X207.376 Y133.563 E0.00843
G1 X206.282 Y133.347 E0.01303
G1 X205.46 Y133.295 E0.00963
G1 X178.508 Y133.294 E0.31498
G1 X124.4 Y133.298 E0.63235
G1 X123.652 Y133.356 E0.00876
G1 X123.007 Y133.468 E0.00765
G1 X122.28 Y133.668 E0.00881
G1 X121.568 Y133.943 E0.00891
G1 X120.991 Y134.232 E0.00754
G1 X120.379 Y134.613 E0.00843
G1 X119.789 Y135.069 E0.00871
G1 X119.949 Y135.245 F9000
G1 F1800
G1 X119.383 Y135.782 E0.00912
G1 X118.94 Y136.297 E0.00794
G1 X118.578 Y136.809 E0.00732
G1 X118.185 Y137.491 E0.0092
G1 X117.903 Y138.129 E0.00815
G1 X117.686 Y138.785 E0.00807
G1 X117.55 Y139.377 E0.0071
G1 X117.444 Y140.165 E0.00929
G1 X117.421 Y140.712 E0.00641
G1 X117.424 Y189.609 E0.57144
G1 X117.472 Y190.289 E0.00797
G1 X117.585 Y190.959 E0.00794
G1 X117.762 Y191.615 E0.00794
G1 X118.003 Y192.251 E0.00794
G1 X118.303 Y192.86 E0.00794
G1 X118.661 Y193.438 E0.00794
G1 X119.316 Y194.22 E0.01193
G1 X120.292 Y194.882 E0.01377
G1 X120.652 Y195.031 E0.00455
G1 X124.22 Y196.289 E0.04421
G1 X125.014 Y196.442 E0.00946
G1 X125.491 Y196.469 E0.00558
G1 X204.509 Y196.469 E0.92345
G1 X204.986 Y196.442 E0.00558
G1 X205.78 Y196.289 E0.00946
G1 X209.348 Y195.031 E0.04421
G1 X209.708 Y194.882 E0.00455
G1 X210.684 Y194.22 E0.01377
G1 X211.12 Y193.738 E0.0076
G1 X211.505 Y193.185 E0.00788
G1 X211.838 Y192.593 E0.00794
G1 X212.112 Y191.971 E0.00794
G1 X212.324 Y191.325 E0.00794
G1 X212.473 Y190.662 E0.00794
G1 X212.579 Y189.458 E0.01413
G1 X212.579 Y140.712 E0.56967
G1 X212.527 Y139.862 E0.00995
G1 X212.316 Y138.791 E0.01276
G1 X212.097 Y138.129 E0.00815
G1 X211.673 Y137.223 E0.01169
G1 X211.304 Y136.63 E0.00815
G1 X210.865 Y136.059 E0.00842
G1 X210.328 Y135.493 E0.00912
G1 X209.48 Y134.806 E0.01275
G1 X208.619 Y134.296 E0.01169
G1 X207.981 Y134.013 E0.00815
G1 X207.319 Y133.794 E0.00815
G1 X206.248 Y133.583 E0.01276
G1 X205.46 Y133.534 E0.00922
G1 X178.508 Y133.533 E0.31498
G1 X124.414 Y133.536 E0.63218
G1 X123.687 Y133.592 E0.00852
G1 X123.064 Y133.699 E0.00738
G1 X122.362 Y133.892 E0.00851
G1 X121.67 Y134.159 E0.00866
G1 X121.113 Y134.437 E0.00729
G1 X120.52 Y134.806 E0.00816
G1 X119.949 Y135.245 E0.00842
G1 E-1 F3000
; printing object Wallet_Minimalist_6_5mm.stl id:0 copy 0
G1 X121.797 Y180.815 F9000
G1 E1 F1800
;TYPE:Support material
;WIDTH:0.25
G1 X122.103 Y180.815 E0.00342
G1 X122.103 Y183.996 E0.03558
G1 X121.797 Y183.996 E0.00342
G1 X121.797 Y180.815 E0.03558
G1 E-1 F3000
G1 X207.897 Y180.815 F9000
G1 E1 F1800
G1 X208.203 Y180.815 E0.00342
G1 X208.203 Y183.996 E0.03558
G1 X207.897 Y183.996 E0.00342
G1 X207.897 Y180.815 E0.03558
G1 E-1 F3000
G1 X201.902 Y175.698 F9000
G1 E1 F1800
G1 X200.816 Y175.328 E0.01284
G1 X200.816 Y145.305 E0.33589
G1 X129.184 Y145.305 E0.8014
M73 P1 R78
G1 X129.184 Y175.328 E0.33589
G1 X128.098 Y175.698 E0.01284
G1 X127.624 Y175.082 E0.00869
G1 X127.321 Y174.688 E0.00556
G1 X126.716 Y173.901 E0.01111
G1 X126.413 Y173.507 E0.00556
G1 X125.807 Y172.72 E0.01111
G1 X125.505 Y172.327 E0.00556
G1 X125.202 Y171.933 E0.00556
G1 X124.906 Y171.549 E0.00542
G1 X124.72 Y171.278 E0.00368
G1 X124.571 Y170.998 E0.00355
G1 X124.452 Y170.704 E0.00355
G1 X124.367 Y170.399 E0.00355
G1 X124.315 Y170.086 E0.00355
G1 X124.297 Y169.758 E0.00368
G1 X124.297 Y140.709 E0.32499
G1 X124.311 Y140.554 E0.00174
G1 X124.346 Y140.423 E0.00152
G1 X124.403 Y140.299 E0.00152
G1 X124.44 Y140.247 E0.00071
G1 X124.482 Y140.188 E0.00081
G1 X124.578 Y140.092 E0.00152
G1 X124.689 Y140.013 E0.00152
G1 X124.813 Y139.956 E0.00152
G1 X124.944 Y139.921 E0.00152
G1 X125.002 Y139.916 E0.00065
G1 X125.099 Y139.907 E0.00109
G1 X204.901 Y139.907 E0.8928
G1 X204.998 Y139.916 E0.00109
G1 X205.056 Y139.921 E0.00065
G1 X205.187 Y139.956 E0.00152
G1 X205.311 Y140.013 E0.00152
G1 X205.422 Y140.092 E0.00152
G1 X205.518 Y140.188 E0.00152
G1 X205.56 Y140.247 E0.00081
G1 X205.597 Y140.299 E0.00071
G1 X205.654 Y140.423 E0.00152
G1 X205.689 Y140.554 E0.00152
G1 X205.703 Y140.709 E0.00174
G1 X205.703 Y169.758 E0.32499
G1 X205.685 Y170.086 E0.00368
G1 X205.633 Y170.399 E0.00355
G1 X205.548 Y170.704 E0.00355
G1 X205.429 Y170.998 E0.00355
G1 X205.28 Y171.278 E0.00355
G1 X205.094 Y171.549 E0.00368
G1 X204.798 Y171.933 E0.00542
G1 X204.495 Y172.327 E0.00556
G1 X204.193 Y172.72 E0.00556
G1 X203.587 Y173.507 E0.01111
G1 X203.284 Y173.901 E0.00556
G1 X202.679 Y174.688 E0.01111
G1 X202.376 Y175.082 E0.00556
G1 X202.187 Y175.328 E0.00347
G1 X201.902 Y175.698 E0.00522
G1 X205.365 Y171 F9000
G1 F1800
G1 X205.365 Y140.25 E0.34403
G1 X205.324 Y140.209 E0.00065
G1 X205.234 Y140.146 E0.00122
G1 X205.135 Y140.1 E0.00123
G1 X205.115 Y140.095 E0.00022
G1 X205.115 Y171.248 E0.34853
G1 X204.97 Y171.459 E0.00287
G1 X204.866 Y171.594 E0.00191
G1 X204.866 Y140.06 E0.3528
G1 X204.617 Y140.06 E0.00279
G1 X204.617 Y171.918 E0.35643
G1 X204.375 Y172.234 E0.00445
G1 X204.368 Y172.242 E0.00012
G1 X204.368 Y140.06 E0.36005
G1 X204.119 Y140.06 E0.00279
G1 X204.119 Y172.566 E0.36368
G1 X204.072 Y172.627 E0.00086
G1 X203.87 Y172.89 E0.00371
G1 X203.87 Y140.06 E0.3673
G1 X203.62 Y140.06 E0.00279
G1 X203.62 Y173.214 E0.37092
G1 X203.466 Y173.414 E0.00283
G1 X203.371 Y173.538 E0.00174
G1 X203.371 Y140.06 E0.37455
G1 X203.122 Y140.06 E0.00279
G1 X203.122 Y173.862 E0.37817
G1 X202.873 Y174.186 E0.00457
G1 X202.873 Y140.06 E0.3818
G1 X202.624 Y140.06 E0.00279
G1 X202.624 Y174.51 E0.38542
G1 X202.558 Y174.595 E0.00121
G1 X202.375 Y174.834 E0.00336
G1 X202.375 Y140.06 E0.38904
G1 X202.125 Y140.06 E0.00279
G1 X202.125 Y175.158 E0.39267
M73 P1 R78
G1 X202.066 Y175.235 E0.00109
G1 X201.876 Y175.481 E0.00348
G1 X201.876 Y140.06 E0.39629
G1 X201.627 Y140.06 E0.00279
G1 X201.627 Y175.443 E0.39586
G1 X201.378 Y175.358 E0.00294
G1 X201.378 Y140.06 E0.39491
G1 X201.129 Y140.06 E0.00279
G1 X201.129 Y175.274 E0.39397
G1 X200.968 Y175.219 E0.0019
G1 X200.968 Y145.153 E0.33638
G1 X200.88 Y145.153 E0.00099
G1 X200.88 Y140.06 E0.05698
G1 X200.63 Y140.06 E0.00279
G1 X200.63 Y145.153 E0.05698
G1 X200.381 Y145.153 E0.00279
G1 X200.381 Y140.06 E0.05698
G1 X200.132 Y140.06 E0.00279
G1 X200.132 Y145.153 E0.05698
G1 X199.883 Y145.153 E0.00279
G1 X199.883 Y140.06 E0.05698
G1 X199.634 Y140.06 E0.00279
G1 X199.634 Y145.153 E0.05698
G1 X199.385 Y145.153 E0.00279
G1 X199.385 Y140.06 E0.05698
G1 X199.135 Y140.06 E0.00279
G1 X199.135 Y145.153 E0.05698
G1 X198.886 Y145.153 E0.00279
G1 X198.886 Y140.06 E0.05698
G1 X198.637 Y140.06 E0.00279
G1 X198.637 Y145.153 E0.05698
G1 X198.388 Y145.153 E0.00279
G1 X198.388 Y140.06 E0.05698
G1 X198.139 Y140.06 E0.00279
G1 X198.139 Y145.153 E0.05698
G1 X197.89 Y145.153 E0.00279
G1 X197.89 Y140.06 E0.05698
G1 X197.64 Y140.06 E0.00279
G1 X197.64 Y145.153 E0.05698
G1 X197.391 Y145.153 E0.00279
G1 X197.391 Y140.06 E0.05698
G1 X197.142 Y140.06 E0.00279
G1 X197.142 Y145.153 E0.05698
G1 X196.893 Y145.153 E0.00279
G1 X196.893 Y140.06 E0.05698
G1 X196.644 Y140.06 E0.00279
G1 X196.644 Y145.153 E0.05698
G1 X196.395 Y145.153 E0.00279
G1 X196.395 Y140.06 E0.05698
G1 X196.146 Y140.06 E0.00279
G1 X196.146 Y145.153 E0.05698
G1 X195.896 Y145.153 E0.00279
G1 X195.896 Y140.06 E0.05698
G1 X195.647 Y140.06 E0.00279
G1 X195.647 Y145.153 E0.05698
G1 X195.398 Y145.153 E0.00279
G1 X195.398 Y140.06 E0.05698
G1 X195.149 Y140.06 E0.00279
G1 X195.149 Y145.153 E0.05698
G1 X194.9 Y145.153 E0.00279
G1 X194.9 Y140.06 E0.05698
G1 X194.651 Y140.06 E0.00279
G1 X194.651 Y145.153 E0.05698
G1 X194.401 Y145.153 E0.00279
G1 X194.401 Y140.06 E0.05698
G1 X194.152 Y140.06 E0.00279
G1 X194.152 Y145.153 E0.05698
G1 X193.903 Y145.153 E0.00279
G1 X193.903 Y140.06 E0.05698
G1 X193.654 Y140.06 E0.00279
G1 X193.654 Y145.153 E0.05698
G1 X193.405 Y145.153 E0.00279
G1 X193.405 Y140.06 E0.05698
G1 X193.156 Y140.06 E0.00279
G1 X193.156 Y145.153 E0.05698
G1 X192.906 Y145.153 E0.00279
G1 X192.906 Y140.06 E0.05698
G1 X192.657 Y140.06 E0.00279
G1 X192.657 Y145.153 E0.05698
G1 X192.408 Y145.153 E0.00279
G1 X192.408 Y140.06 E0.05698
G1 X192.159 Y140.06 E0.00279
G1 X192.159 Y145.153 E0.05698
G1 X191.91 Y145.153 E0.00279
G1 X191.91 Y140.06 E0.05698
G1 X191.661 Y140.06 E0.00279
G1 X191.661 Y145.153 E0.05698
G1 X191.411 Y145.153 E0.00279
G1 X191.411 Y140.06 E0.05698
G1 X191.162 Y140.06 E0.00279
G1 X191.162 Y145.153 E0.05698
G1 X190.913 Y145.153 E0.00279
G1 X190.913 Y140.06 E0.05698
G1 X190.664 Y140.06 E0.00279
G1 X190.664 Y145.153 E0.05698
G1 X190.415 Y145.153 E0.00279
G1 X190.415 Y140.06 E0.05698
G1 X190.166 Y140.06 E0.00279
G1 X190.166 Y145.153 E0.05698
G1 X189.916 Y145.153 E0.00279
G1 X189.916 Y140.06 E0.05698
G1 X189.667 Y140.06 E0.00279
G1 X189.667 Y145.153 E0.05698
G1 X189.418 Y145.153 E0.00279
G1 X189.418 Y140.06 E0.05698
G1 X189.169 Y140.06 E0.00279
G1 X189.169 Y145.153 E0.05698
G1 X188.92 Y145.153 E0.00279
G1 X188.92 Y140.06 E0.05698
G1 X188.671 Y140.06 E0.00279
G1 X188.671 Y145.153 E0.05698
G1 X188.421 Y145.153 E0.00279
G1 X188.421 Y140.06 E0.05698
G1 X188.172 Y140.06 E0.00279
G1 X188.172 Y145.153 E0.05698
G1 X187.923 Y145.153 E0.00279
G1 X187.923 Y140.06 E0.05698
G1 X187.674 Y140.06 E0.00279
G1 X187.674 Y145.153 E0.05698
G1 X187.425 Y145.153 E0.00279
G1 X187.425 Y140.06 E0.05698
G1 X187.176 Y140.06 E0.00279
G1 X187.176 Y145.153 E0.05698
G1 X186.926 Y145.153 E0.00279
G1 X186.926 Y140.06 E0.05698
G1 X186.677 Y140.06 E0.00279
G1 X186.677 Y145.153 E0.05698
G1 X186.428 Y145.153 E0.00279
G1 X186.428 Y140.06 E0.05698
G1 X186.179 Y140.06 E0.00279
G1 X186.179 Y145.153 E0.05698
G1 X185.93 Y145.153 E0.00279
G1 X185.93 Y140.06 E0.05698
G1 X185.681 Y140.06 E0.00279
G1 X185.681 Y145.153 E0.05698
G1 X185.431 Y145.153 E0.00279
G1 X185.431 Y140.06 E0.05698
G1 X185.182 Y140.06 E0.00279
G1 X185.182 Y145.153 E0.05698
G1 X184.933 Y145.153 E0.00279
G1 X184.933 Y140.06 E0.05698
G1 X184.684 Y140.06 E0.00279
G1 X184.684 Y145.153 E0.05698
G1 X184.435 Y145.153 E0.00279
G1 X184.435 Y140.06 E0.05698
G1 X184.186 Y140.06 E0.00279
G1 X184.186 Y145.153 E0.05698
G1 X183.936 Y145.153 E0.00279
G1 X183.936 Y140.06 E0.05698
G1 X183.687 Y140.06 E0.00279
G1 X183.687 Y145.153 E0.05698
G1 X183.438 Y145.153 E0.00279
G1 X183.438 Y140.06 E0.05698
G1 X183.189 Y140.06 E0.00279
G1 X183.189 Y145.153 E0.05698
G1 X182.94 Y145.153 E0.00279
G1 X182.94 Y140.06 E0.05698
G1 X182.691 Y140.06 E0.00279
G1 X182.691 Y145.153 E0.05698
G1 X182.441 Y145.153 E0.00279
G1 X182.441 Y140.06 E0.05698
G1 X182.192 Y140.06 E0.00279
G1 X182.192 Y145.153 E0.05698
G1 X181.943 Y145.153 E0.00279
G1 X181.943 Y140.06 E0.05698
G1 X181.694 Y140.06 E0.00279
G1 X181.694 Y145.153 E0.05698
G1 X181.445 Y145.153 E0.00279
G1 X181.445 Y140.06 E0.05698
G1 X181.196 Y140.06 E0.00279
G1 X181.196 Y145.153 E0.05698
G1 X180.946 Y145.153 E0.00279
G1 X180.946 Y140.06 E0.05698
G1 X180.697 Y140.06 E0.00279
G1 X180.697 Y145.153 E0.05698
M73 P2 R77
G1 X180.448 Y145.153 E0.00279
G1 X180.448 Y140.06 E0.05698
G1 X180.199 Y140.06 E0.00279
G1 X180.199 Y145.153 E0.05698
G1 X179.95 Y145.153 E0.00279
G1 X179.95 Y140.06 E0.05698
G1 X179.701 Y140.06 E0.00279
G1 X179.701 Y145.153 E0.05698
G1 X179.452 Y145.153 E0.00279
G1 X179.452 Y140.06 E0.05698
G1 X179.202 Y140.06 E0.00279
G1 X179.202 Y145.153 E0.05698
G1 X178.953 Y145.153 E0.00279
G1 X178.953 Y140.06 E0.05698
G1 X178.704 Y140.06 E0.00279
G1 X178.704 Y145.153 E0.05698
G1 X178.455 Y145.153 E0.00279
G1 X178.455 Y140.06 E0.05698
G1 X178.206 Y140.06 E0.00279
G1 X178.206 Y145.153 E0.05698
G1 X177.957 Y145.153 E0.00279
G1 X177.957 Y140.06 E0.05698
G1 X177.707 Y140.06 E0.00279
G1 X177.707 Y145.153 E0.05698
G1 X177.458 Y145.153 E0.00279
G1 X177.458 Y140.06 E0.05698
G1 X177.209 Y140.06 E0.00279
G1 X177.209 Y145.153 E0.05698
G1 X176.96 Y145.153 E0.00279
G1 X176.96 Y140.06 E0.05698
G1 X176.711 Y140.06 E0.00279
G1 X176.711 Y145.153 E0.05698
G1 X176.462 Y145.153 E0.00279
G1 X176.462 Y140.06 E0.05698
G1 X176.212 Y140.06 E0.00279
G1 X176.212 Y145.153 E0.05698
G1 X175.963 Y145.153 E0.00279
G1 X175.963 Y140.06 E0.05698
G1 X175.714 Y140.06 E0.00279
G1 X175.714 Y145.153 E0.05698
G1 X175.465 Y145.153 E0.00279
G1 X175.465 Y140.06 E0.05698
G1 X175.216 Y140.06 E0.00279
G1 X175.216 Y145.153 E0.05698
G1 X174.967 Y145.153 E0.00279
G1 X174.967 Y140.06 E0.05698
G1 X174.717 Y140.06 E0.00279
G1 X174.717 Y145.153 E0.05698
G1 X174.468 Y145.153 E0.00279
G1 X174.468 Y140.06 E0.05698
G1 X174.219 Y140.06 E0.00279
G1 X174.219 Y145.153 E0.05698
G1 X173.97 Y145.153 E0.00279
G1 X173.97 Y140.06 E0.05698
G1 X173.721 Y140.06 E0.00279
G1 X173.721 Y145.153 E0.05698
G1 X173.472 Y145.153 E0.00279
G1 X173.472 Y140.06 E0.05698
G1 X173.222 Y140.06 E0.00279
G1 X173.222 Y145.153 E0.05698
G1 X172.973 Y145.153 E0.00279
G1 X172.973 Y140.06 E0.05698
G1 X172.724 Y140.06 E0.00279
G1 X172.724 Y145.153 E0.05698
G1 X172.475 Y145.153 E0.00279
G1 X172.475 Y140.06 E0.05698
G1 X172.226 Y140.06 E0.00279
G1 X172.226 Y145.153 E0.05698
G1 X171.977 Y145.153 E0.00279
G1 X171.977 Y140.06 E0.05698
G1 X171.727 Y140.06 E0.00279
G1 X171.727 Y145.153 E0.05698
G1 X171.478 Y145.153 E0.00279
G1 X171.478 Y140.06 E0.05698
G1 X171.229 Y140.06 E0.00279
G1 X171.229 Y145.153 E0.05698
G1 X170.98 Y145.153 E0.00279
G1 X170.98 Y140.06 E0.05698
G1 X170.731 Y140.06 E0.00279
G1 X170.731 Y145.153 E0.05698
G1 X170.482 Y145.153 E0.00279
G1 X170.482 Y140.06 E0.05698
G1 X170.232 Y140.06 E0.00279
G1 X170.232 Y145.153 E0.05698
G1 X169.983 Y145.153 E0.00279
G1 X169.983 Y140.06 E0.05698
G1 X169.734 Y140.06 E0.00279
G1 X169.734 Y145.153 E0.05698
G1 X169.485 Y145.153 E0.00279
G1 X169.485 Y140.06 E0.05698
G1 X169.236 Y140.06 E0.00279
G1 X169.236 Y145.153 E0.05698
G1 X168.987 Y145.153 E0.00279
G1 X168.987 Y140.06 E0.05698
G1 X168.737 Y140.06 E0.00279
