; generated by SuperSlicer 2.4 on 2022-09-03 at 03:48:22 UTC


;
;

;
;
; 

; external perimeters extrusion width = 0.20mm
; perimeters extrusion width = 0.25mm
; infill extrusion width = 0.36mm
; solid infill extrusion width = 0.28mm
; top infill extrusion width = 0.20mm
; support material extrusion width = 0.25mm

; external perimeters extrusion width = 0.20mm
; perimeters extrusion width = 0.25mm
; infill extrusion width = 0.36mm
; solid infill extrusion width = 0.28mm
; top infill extrusion width = 0.20mm
; support material extrusion width = 0.25mm

; external perimeters extrusion width = 0.20mm
; perimeters extrusion width = 0.25mm
; infill extrusion width = 0.36mm
; solid infill extrusion width = 0.28mm
; top infill extrusion width = 0.20mm
; support material extrusion width = 0.25mm

; external perimeters extrusion width = 0.20mm
; perimeters extrusion width = 0.25mm
; infill extrusion width = 0.36mm
; solid infill extrusion width = 0.28mm
; top infill extrusion width = 0.20mm
; support material extrusion width = 0.25mm

; external perimeters extrusion width = 0.20mm
; perimeters extrusion width = 0.25mm
; infill extrusion width = 0.36mm
; solid infill extrusion width = 0.28mm
; top infill extrusion width = 0.20mm
; support material extrusion width = 0.25mm

; object:{"name":"jdo_wallet_v88_-_pressure_lock","id":"jdo_wallet_v88_-_pressure_lock.stl id:0 copy 0","object_center":[142.163011,150.000000,0.000000],"boundingbox_center":[142.163011,150.000000,3.762500],"boundingbox_size":[14.623978,3.000000,7.525001]}
; object:{"name":"jdo_wallet_v88_-_pressure_lock","id":"jdo_wallet_v88_-_pressure_lock.stl id:1 copy 0","object_center":[152.500001,159.000000,0.000000],"boundingbox_center":[152.500001,159.000000,3.762500],"boundingbox_size":[14.623978,3.000000,7.525001]}
; object:{"name":"jdo_wallet_v88_-_pressure_lock","id":"jdo_wallet_v88_-_pressure_lock.stl id:2 copy 0","object_center":[162.825002,141.000000,0.000000],"boundingbox_center":[162.825002,141.000000,3.762500],"boundingbox_size":[14.800000,3.000000,7.525001]}
; object:{"name":"jdo_wallet_v88_-_pressure_lock","id":"jdo_wallet_v88_-_pressure_lock.stl id:3 copy 0","object_center":[162.825002,150.000000,0.000000],"boundingbox_center":[162.825002,150.000000,3.762500],"boundingbox_size":[14.700000,3.000000,7.525001]}
; object:{"name":"jdo_wallet_v88_-_pressure_lock","id":"jdo_wallet_v88_-_pressure_lock.stl id:4 copy 0","object_center":[142.100000,141.000000,0.000000],"boundingbox_center":[142.100000,141.000000,3.762500],"boundingbox_size":[14.650000,3.000000,7.525001]}
; plater:{"center":[152.500001,150.000000,0.000000],"boundingbox_center":[152.500001,150.000000,3.762500],"boundingbox_size":[35.450002,21.000000,7.525001]}

M73 P0 R35
;TYPE:Custom
START_PRINT T_BED=60 T_EXTRUDER=220
M107
G21 ; set units to millimeters
G90 ; use absolute coordinates
M83 ; use relative distances for extrusion
; Filament gcode
;_TOOLCHANGE 0
M104 S220 ; set temperature
M109 S220 ; set temperature and wait for it to be reached
M190 S60 ; set bed temperature and wait for it to be reached
M107
;LAYER_CHANGE
;Z:0.12
;HEIGHT:0.12
G1 Z0.12 F9000
G92 E0
M204 S1000
M73 P0 R35
G1 X134.626 Y137.369
;TYPE:Skirt
;WIDTH:0.26
M73 P0 R35
G1 F1800
G1 X133.86 Y138.221 E0.01338
G1 X132.261 Y140.217 E0.0299
G1 X131.552 Y141.879 E0.02112
G1 X131.517 Y142.401 E0.00611
G1 X131.601 Y151.416 E0.10535
G1 X131.822 Y152.583 E0.01389
G1 X132.754 Y153.917 E0.01901
G1 X143.091 Y162.917 E0.16018
G1 X144.029 Y163.495 E0.01288
G1 X145.255 Y163.767 E0.01467
G1 X145.723 Y163.781 E0.00547
G1 X159.174 Y163.782 E0.1572
G1 X159.743 Y163.767 E0.00664
G1 X161.013 Y163.476 E0.01524
G1 X161.9 Y162.922 E0.01222
G1 X172.263 Y153.922 E0.16041
G1 X173.178 Y152.637 E0.01843
G1 X173.437 Y151.362 E0.0152
G1 X173.487 Y142.362 E0.10518
G1 X173.365 Y141.447 E0.01079
G1 X172.733 Y140.209 E0.01625
G1 X171.113 Y138.208 E0.03008
G1 X170.337 Y137.354 E0.01349
G1 X169.789 Y136.873 E0.00852
G1 X168.508 Y136.316 E0.01633
G1 X167.809 Y136.242 E0.00821
G1 X137.153 Y136.245 E0.35827
G1 X135.496 Y136.683 E0.02002
G1 X134.626 Y137.369 E0.01295
G1 X134.802 Y137.53 F9000
G1 F1800
G1 X134.047 Y138.37 E0.0132
G1 X132.447 Y140.366 E0.0299
G1 X131.789 Y141.91 E0.01962
G1 X131.755 Y142.396 E0.00569
G1 X131.831 Y151.396 E0.10518
G1 X132.25 Y152.931 E0.01859
G1 X132.91 Y153.737 E0.01217
G1 X143.247 Y162.737 E0.16018
G1 X144.123 Y163.276 E0.01202
G1 X145.262 Y163.528 E0.01363
G1 X145.73 Y163.543 E0.00547
G1 X159.174 Y163.544 E0.15712
G1 X159.735 Y163.529 E0.00656
G1 X160.92 Y163.257 E0.0142
G1 X161.744 Y162.742 E0.01135
G1 X172.106 Y153.742 E0.16041
G1 X172.957 Y152.545 E0.01716
G1 X173.198 Y151.361 E0.01412
G1 X173.248 Y142.361 E0.10518
G1 X173.134 Y141.509 E0.01004
G1 X172.547 Y140.359 E0.01509
G1 X170.927 Y138.358 E0.03008
G1 X170.162 Y137.515 E0.01331
G1 X169.651 Y137.068 E0.00794
G1 X168.458 Y136.549 E0.0152
G1 X167.809 Y136.481 E0.00763
G1 X137.153 Y136.484 E0.35827
G1 X135.614 Y136.89 E0.0186
G1 X134.802 Y137.53 E0.01207
; printing object jdo_wallet_v88_-_pressure_lock.stl id:0 copy 0
G1 X140.773 Y149.284 F9000
;TYPE:Internal perimeter
;WIDTH:0.25
G1 F1800
G1 X138.096 Y150.001 E0.03101
G1 X138.823 Y150.874 E0.01271
G1 X137.008 Y150.881 E0.02031
G1 X136.973 Y150.747 E0.00155
G1 X137.512 Y150.443 E0.00693
G1 X137.737 Y149.9 E0.00658
G1 X137.516 Y149.365 E0.00648
G1 X137.327 Y149.252 E0.00245
G1 X137.439 Y149.127 E0.00188
G1 X140.752 Y149.128 E0.03707
G1 X140.773 Y149.284 E0.00176
G1 X145.591 Y149.83 F9000
G1 F1800
G1 X143.557 Y149.285 E0.02356
G1 X143.577 Y149.129 E0.00176
G1 X146.883 Y149.13 E0.03698
G1 X146.995 Y149.254 E0.00188
G1 X146.81 Y149.365 E0.00241
G1 X146.589 Y149.9 E0.00648
G1 X146.814 Y150.443 E0.00658
G1 X147.358 Y150.749 E0.00698
G1 X147.322 Y150.883 E0.00155
G1 X145.502 Y150.876 E0.02037
G1 X146.23 Y150.001 E0.01273
G1 X145.591 Y149.83 E0.00741
G1 X145.833 Y150.127 F9000
G1 F1800
G1 X142.163 Y149.143 E0.04251
G1 X138.493 Y150.127 E0.04251
G1 X139.3 Y151.097 E0.01412
G1 X136.459 Y151.1 E0.03178
G1 X136.15 Y151.108 E0.00346
G1 X136.113 Y150.973 E0.00157
G1 X137.335 Y150.286 E0.01569
G1 X137.495 Y149.9 E0.00467
G1 X137.337 Y149.519 E0.00461
G1 X136.98 Y149.306 E0.00465
G1 X137.338 Y148.902 E0.00604
G1 X146.983 Y148.905 E0.1079
G1 X147.344 Y149.307 E0.00604
G1 X146.989 Y149.519 E0.00463
G1 X146.831 Y149.9 E0.00461
G1 X146.991 Y150.286 E0.00467
G1 X148.22 Y150.977 E0.01578
G1 X148.185 Y151.111 E0.00155
G1 X145.025 Y151.098 E0.03535
G1 X145.833 Y150.127 E0.01414
G1 X145.481 Y150.239 F9000
;TYPE:External perimeter
;WIDTH:0.2
G1 F1800
G1 X142.163 Y149.35 E0.02986
G1 X138.845 Y150.239 E0.02986
G1 X139.725 Y151.295 E0.01195
G1 X136.462 Y151.3 E0.02836
G1 X135.488 Y151.325 E0.00847
G1 X135.153 Y151.302 E0.00292
G1 X135.433 Y151.127 E0.00287
G1 X137.177 Y150.146 E0.0174
G1 X137.279 Y149.9 E0.00231
G1 X137.178 Y149.656 E0.00229
G1 X136.671 Y149.353 E0.00514
G1 X137.249 Y148.703 E0.00756
G1 X147.071 Y148.706 E0.08539
G1 X147.655 Y149.353 E0.00757
G1 X147.148 Y149.656 E0.00513
G1 X147.047 Y149.9 E0.00229
G1 X147.149 Y150.146 E0.00231
G1 X148.894 Y151.128 E0.01741
G1 X149.17 Y151.315 E0.00289
G1 X144.601 Y151.295 E0.03972
G1 X145.481 Y150.239 E0.01195
;WIPE_START
M204 S3000
G1 X145.56 Y150.055 F9000
;WIPE_END
M204 S1000
G1 X145.17 Y149.418
;TYPE:Gap fill
;WIDTH:0.377299
G1 F1800
G1 X145.007 Y149.396 E0.00288
;WIDTH:0.341532
G1 X144.829 Y149.373 E0.00282
;WIDTH:0.290526
G1 X144.651 Y149.35 E0.00237
;WIDTH:0.239521
G1 X144.474 Y149.326 E0.00191
;WIDTH:0.188515
G1 X144.296 Y149.303 E0.00146
;WIDTH:0.13751
G1 X144.118 Y149.279 E0.001
;WIDTH:0.086505
G1 X143.94 Y149.256 E0.00054
;WIDTH:0.070804
G1 X143.917 Y149.253 E0.00005
G1 X143.465 Y149.193 F9000
;WIDTH:0.377299
G1 F1800
G1 X143.302 Y149.172 E0.00288
;WIDTH:0.341533
G1 X143.124 Y149.148 E0.00282
;WIDTH:0.290527
G1 X142.946 Y149.125 E0.00237
;WIDTH:0.239522
G1 X142.768 Y149.101 E0.00191
;WIDTH:0.188516
G1 X142.591 Y149.078 E0.00146
;WIDTH:0.13751
G1 X142.413 Y149.054 E0.001
;WIDTH:0.086505
G1 X142.235 Y149.031 E0.00054
;WIDTH:0.070804
G1 X142.211 Y149.028 E0.00005
G1 X142.115 Y149.028 F9000
;WIDTH:0.070796
G1 F1800
G1 X142.091 Y149.031 E0.00005
;WIDTH:0.086496
G1 X141.914 Y149.054 E0.00054
;WIDTH:0.137466
G1 X141.737 Y149.078 E0.001
;WIDTH:0.188436
G1 X141.559 Y149.101 E0.00145
;WIDTH:0.239406
G1 X141.382 Y149.124 E0.00191
;WIDTH:0.290377
G1 X141.205 Y149.148 E0.00236
;WIDTH:0.341347
G1 X141.028 Y149.171 E0.00281
;WIDTH:0.377148
G1 X140.865 Y149.192 E0.00288
G1 X140.414 Y149.252 F9000
;WIDTH:0.070796
G1 F1800
G1 X140.39 Y149.255 E0.00005
;WIDTH:0.086496
G1 X140.212 Y149.278 E0.00054
;WIDTH:0.137466
G1 X140.035 Y149.301 E0.001
;WIDTH:0.188436
G1 X139.858 Y149.325 E0.00145
;WIDTH:0.239407
G1 X139.681 Y149.348 E0.00191
;WIDTH:0.290377
G1 X139.504 Y149.371 E0.00236
;WIDTH:0.341348
G1 X139.326 Y149.395 E0.00281
;WIDTH:0.37715
G1 X139.164 Y149.416 E0.00288
G1 X139.137 Y149.692 F9000
;TYPE:Solid infill
;WIDTH:0.337126
G1 F1800
G1 X138.71 Y149.266 E0.00921
G1 X138.351 Y149.265 E0.00549
G1 X138.764 Y149.679 E0.00893
G1 X138.48 Y149.755 E0.00448
G1 X137.991 Y149.265 E0.01057
G1 X137.631 Y149.265 E0.00549
G1 X138.197 Y149.831 E0.01221
G1 X137.913 Y149.907 E0.00448
G1 X137.672 Y149.665 E0.00522
G1 X137.704 Y150.057 F9000
G1 F1800
G1 X138.384 Y150.737 E0.01469
G1 X138.026 Y150.739 E0.00547
G1 X137.682 Y150.395 E0.00743
G1 X137.663 Y150.441 E0.00076
G1 X137.641 Y150.714 E0.00418
G1 X137.777 Y150.849 E0.00292
G1 X137.573 Y150.614 F9000
;TYPE:Gap fill
;WIDTH:0.169302
G1 F1800
G1 X137.45 Y150.693 E0.00104
;WIDTH:0.145214
G1 X137.259 Y150.743 E0.00118
;WIDTH:0.071694
G1 X137.198 Y150.759 E0.00015
G1 X136.891 Y150.84 F9000
;WIDTH:0.323121
G1 F1800
G1 X136.765 Y150.873 E0.00192
;WIDTH:0.245469
G1 X136.585 Y150.921 E0.00205
;WIDTH:0.139797
G1 X136.404 Y150.969 E0.00106
;WIDTH:0.071904
G1 X136.336 Y150.987 E0.00016
G1 X136.044 Y151.065 F9000
;WIDTH:0.333047
G1 F1800
G1 X135.914 Y151.101 E0.00207
;WIDTH:0.255688
G1 X135.726 Y151.153 E0.00224
;WIDTH:0.149625
G1 X135.537 Y151.205 E0.00121
;WIDTH:0.078136
G1 X135.451 Y151.227 E0.00023
G1 X146.356 Y149.159 F9000
;TYPE:Solid infill
;WIDTH:0.311032
G1 F1800
G1 X146.632 Y149.434 E0.00549
G1 X146.527 Y149.688 E0.00388
G1 X146.106 Y149.268 E0.00838
G1 X145.746 Y149.268 E0.00507
G1 X146.375 Y149.897 E0.01253
G1 X145.884 Y149.765 E0.00716
G1 X145.387 Y149.268 E0.00991
G1 X145.313 Y149.268 E0.00104
G1 X145.279 Y149.52 E0.00359
G1 X145.547 Y149.788 E0.00534
G1 X146.408 Y149.93 F9000
G1 F1800
G1 X146.481 Y150.003 E0.00145
G1 X146.685 Y150.495 E0.00751
G1 X146.658 Y150.539 E0.00073
G1 X146.278 Y150.159 E0.00756
G1 X146.115 Y150.355 E0.0036
G1 X146.501 Y150.741 E0.00769
G1 X146.14 Y150.74 E0.00509
G1 X145.874 Y150.474 E0.0053
G1 X146.754 Y150.615 F9000
;TYPE:Gap fill
;WIDTH:0.170491
G1 F1800
G1 X146.878 Y150.694 E0.00106
;WIDTH:0.146001
G1 X147.071 Y150.745 E0.0012
;WIDTH:0.071711
G1 X147.132 Y150.761 E0.00015
G1 X147.44 Y150.843 F9000
;WIDTH:0.323227
G1 F1800
G1 X147.565 Y150.876 E0.00193
;WIDTH:0.245578
G1 X147.746 Y150.923 E0.00205
;WIDTH:0.139839
G1 X147.926 Y150.971 E0.00106
;WIDTH:0.071908
G1 X147.995 Y150.989 E0.00016
G1 X148.29 Y151.067 F9000
;WIDTH:0.328982
G1 F1800
G1 X148.418 Y151.101 E0.002
;WIDTH:0.249656
G1 X148.603 Y151.15 E0.00214
;WIDTH:0.141407
G1 X148.788 Y151.199 E0.0011
;WIDTH:0.071936
G1 X148.857 Y151.217 E0.00017
; stop printing object jdo_wallet_v88_-_pressure_lock.stl id:0 copy 0
; printing object jdo_wallet_v88_-_pressure_lock.stl id:4 copy 0
G1 X140.708 Y140.284 F9000
;TYPE:Internal perimeter
;WIDTH:0.25
G1 F1800
G1 X138.026 Y141.001 E0.03105
G1 X138.755 Y141.874 E0.01272
G1 X136.935 Y141.881 E0.02036
G1 X136.9 Y141.747 E0.00155
G1 X137.44 Y141.443 E0.00693
G1 X137.665 Y140.9 E0.00658
G1 X137.443 Y140.364 E0.00649
G1 X137.255 Y140.252 E0.00245
G1 X137.367 Y140.127 E0.00188
G1 X140.687 Y140.128 E0.03715
G1 X140.708 Y140.284 E0.00176
G1 X145.444 Y141.875 F9000
G1 F1800
G1 X146.174 Y141.001 E0.01274
G1 X143.496 Y140.285 E0.03101
G1 X143.516 Y140.129 E0.00176
G1 X146.829 Y140.13 E0.03706
G1 X146.941 Y140.254 E0.00188
G1 X146.757 Y140.364 E0.00241
G1 X146.535 Y140.9 E0.00649
G1 X146.76 Y141.443 E0.00658
G1 X147.304 Y141.749 E0.00698
G1 X147.269 Y141.883 E0.00155
G1 X145.444 Y141.875 E0.02042
G1 X145.776 Y141.127 F9000
G1 F1800
G1 X142.1 Y140.143 E0.04258
G1 X138.424 Y141.127 E0.04258
G1 X139.233 Y142.097 E0.01413
G1 X136.386 Y142.1 E0.03184
G1 X136.076 Y142.108 E0.00347
G1 X136.039 Y141.973 E0.00157
G1 X137.263 Y141.286 E0.0157
G1 X137.423 Y140.9 E0.00467
G1 X137.264 Y140.519 E0.00462
G1 X136.907 Y140.306 E0.00466
G1 X137.266 Y139.902 E0.00604
G1 X146.929 Y139.905 E0.1081
G1 X147.291 Y140.307 E0.00605
G1 X146.935 Y140.519 E0.00463
G1 X146.777 Y140.9 E0.00462
G1 X146.937 Y141.286 E0.00467
G1 X148.168 Y141.977 E0.01579
G1 X148.133 Y142.111 E0.00155
G1 X144.966 Y142.098 E0.03542
G1 X145.776 Y141.127 E0.01415
G1 X145.424 Y141.239 F9000
;TYPE:External perimeter
;WIDTH:0.2
G1 F1800
G1 X142.1 Y140.35 E0.02991
G1 X138.776 Y141.239 E0.02991
G1 X139.658 Y142.295 E0.01196
G1 X136.389 Y142.3 E0.02842
G1 X135.413 Y142.325 E0.00849
G1 X135.077 Y142.302 E0.00293
G1 X135.357 Y142.127 E0.00287
G1 X137.105 Y141.146 E0.01742
G1 X137.207 Y140.9 E0.00231
G1 X137.106 Y140.656 E0.0023
G1 X136.598 Y140.353 E0.00514
G1 X137.177 Y139.703 E0.00757
G1 X147.017 Y139.706 E0.08554
G1 X147.602 Y140.353 E0.00758
G1 X147.094 Y140.656 E0.00514
G1 X146.993 Y140.9 E0.0023
G1 X147.095 Y141.146 E0.00231
G1 X148.844 Y142.128 E0.01743
G1 X149.119 Y142.315 E0.0029
G1 X144.542 Y142.295 E0.03979
G1 X145.424 Y141.239 E0.01196
;WIPE_START
M204 S3000
G1 X145.503 Y141.055 F9000
;WIPE_END
M204 S1000
G1 X145.112 Y140.418
;TYPE:Gap fill
;WIDTH:0.377405
G1 F1800
G1 X144.949 Y140.397 E0.00288
;WIDTH:0.341665
G1 X144.771 Y140.373 E0.00283
;WIDTH:0.290634
G1 X144.593 Y140.35 E0.00237
;WIDTH:0.239603
G1 X144.415 Y140.326 E0.00192
;WIDTH:0.188572
G1 X144.237 Y140.303 E0.00146
;WIDTH:0.137541
G1 X144.058 Y140.279 E0.001
;WIDTH:0.08651
G1 X143.88 Y140.256 E0.00054
;WIDTH:0.070808
G1 X143.856 Y140.253 E0.00005
G1 X143.404 Y140.193 F9000
;WIDTH:0.377402
G1 F1800
G1 X143.241 Y140.172 E0.00288
;WIDTH:0.341664
G1 X143.063 Y140.148 E0.00283
;WIDTH:0.290634
G1 X142.885 Y140.125 E0.00237
;WIDTH:0.239603
G1 X142.707 Y140.101 E0.00192
;WIDTH:0.188572
G1 X142.528 Y140.078 E0.00146
;WIDTH:0.137541
G1 X142.35 Y140.055 E0.001
;WIDTH:0.08651
G1 X142.172 Y140.031 E0.00054
;WIDTH:0.070808
G1 X142.148 Y140.028 E0.00005
G1 X142.052 Y140.028 F9000
;WIDTH:0.0708
G1 F1800
G1 X142.028 Y140.031 E0.00005
;WIDTH:0.086501
G1 X141.851 Y140.054 E0.00054
;WIDTH:0.137497
G1 X141.673 Y140.078 E0.001
;WIDTH:0.188493
G1 X141.495 Y140.101 E0.00145
;WIDTH:0.239489
G1 X141.318 Y140.124 E0.00191
;WIDTH:0.290485
G1 X141.14 Y140.148 E0.00237
;WIDTH:0.341481
G1 X140.962 Y140.171 E0.00282
;WIDTH:0.377258
G1 X140.8 Y140.192 E0.00288
G1 X140.348 Y140.252 F9000
;WIDTH:0.0708
G1 F1800
G1 X140.324 Y140.255 E0.00005
;WIDTH:0.086501
G1 X140.146 Y140.278 E0.00054
;WIDTH:0.137497
G1 X139.969 Y140.301 E0.001
;WIDTH:0.188493
G1 X139.791 Y140.325 E0.00145
;WIDTH:0.239489
G1 X139.613 Y140.348 E0.00191
;WIDTH:0.290485
G1 X139.436 Y140.371 E0.00237
;WIDTH:0.341481
G1 X139.258 Y140.395 E0.00282
;WIDTH:0.377258
G1 X139.095 Y140.416 E0.00288
G1 X139.068 Y140.692 F9000
;TYPE:Solid infill
;WIDTH:0.337098
G1 F1800
G1 X138.642 Y140.266 E0.00921
G1 X138.282 Y140.265 E0.00549
G1 X138.696 Y140.679 E0.00892
G1 X138.412 Y140.754 E0.00448
G1 X137.923 Y140.265 E0.01056
G1 X137.563 Y140.265 E0.00549
G1 X138.128 Y140.83 E0.01221
G1 X137.844 Y140.906 E0.00448
G1 X137.597 Y140.659 E0.00535
G1 X137.633 Y141.054 F9000
G1 F1800
G1 X138.316 Y141.737 E0.01475
G1 X137.958 Y141.739 E0.00547
G1 X137.611 Y141.392 E0.00749
G1 X137.591 Y141.441 E0.00081
G1 X137.569 Y141.71 E0.00411
G1 X137.708 Y141.849 E0.00301
G1 X137.5 Y141.614 F9000
;TYPE:Gap fill
;WIDTH:0.169096
G1 F1800
G1 X137.377 Y141.693 E0.00104
;WIDTH:0.145105
G1 X137.187 Y141.743 E0.00117
;WIDTH:0.071697
G1 X137.125 Y141.759 E0.00015
G1 X136.818 Y141.84 F9000
;WIDTH:0.323269
G1 F1800
G1 X136.692 Y141.873 E0.00193
