; generated by SuperSlicer 2.4 on 2022-09-09 at 23:31:50 UTC


;
;

;
;
; 

; external perimeters extrusion width = 0.40mm
; perimeters extrusion width = 0.50mm
; infill extrusion width = 0.72mm
; solid infill extrusion width = 0.56mm
; top infill extrusion width = 0.40mm
; support material extrusion width = 0.50mm

; object:{"name":"Watch_Stand_Base_v2","id":"Watch_Stand_Base_v2.stl id:0 copy 0","object_center":[152.500001,149.999998,0.000000],"boundingbox_center":[152.500001,149.999998,5.000001],"boundingbox_size":[39.999998,69.472553,10.000001]}
; plater:{"center":[152.500001,149.999998,0.000000],"boundingbox_center":[152.500001,149.999998,5.000001],"boundingbox_size":[39.999998,69.472553,10.000001]}

M73 P0 R38
;TYPE:Custom
START_PRINT T_BED=60 T_EXTRUDER=200
M107
G21 ; set units to millimeters
G90 ; use absolute coordinates
M83 ; use relative distances for extrusion
; Filament gcode
;_TOOLCHANGE 0
M104 S200 ; set temperature
M109 S200 ; set temperature and wait for it to be reached
M190 S60 ; set bed temperature and wait for it to be reached
M107
;LAYER_CHANGE
;Z:0.2
;HEIGHT:0.2
G1 Z0.2 F9000
G92 E0
G1 E-0.8 F3000
M204 S1000
G1 X145.572 Y115.172 F9000
G1 E0.8 F1800
;TYPE:Skirt
;WIDTH:0.52
G1 X130.56 Y134.602 E0.95456
G1 X129.784 Y136.874 E0.09332
G1 X129.784 Y175.837 E1.51471
M73 P0 R38
G1 X130.262 Y177.659 E0.07323
G1 X131.423 Y178.918 E0.06657
G1 X143.862 Y187.304 E0.58322
G1 X144.71 Y187.757 E0.03739
G1 X146.332 Y188.13 E0.06468
G1 X158.663 Y188.135 E0.47939
G1 X160.285 Y187.762 E0.0647
G1 X161.134 Y187.31 E0.03739
G1 X173.575 Y178.932 E0.58313
G1 X174.821 Y177.516 E0.0733
G1 X175.216 Y175.85 E0.06657
G1 X175.216 Y136.874 E1.51522
G1 X174.44 Y134.602 E0.09332
G1 X159.429 Y115.174 E0.9545
G1 X158.486 Y114.132 E0.05463
G1 X157.148 Y113.096 E0.06577
G1 X155.083 Y112.47 E0.08388
G1 X149.917 Y112.47 E0.20084
G1 X147.839 Y113.106 E0.08448
G1 X146.971 Y113.729 E0.04155
G1 X146.251 Y114.387 E0.0379
G1 X145.572 Y115.172 E0.04036
G1 X145.95 Y115.464 F9000
G1 F1800
G1 X130.937 Y134.894 E0.95456
G1 X130.261 Y136.874 E0.08134
G1 X130.261 Y175.837 E1.51471
G1 X130.626 Y177.33 E0.05977
G1 X131.69 Y178.522 E0.06209
G1 X144.129 Y186.909 E0.58322
G1 X144.919 Y187.328 E0.03477
G1 X146.332 Y187.653 E0.05637
G1 X158.663 Y187.658 E0.47939
G1 X160.077 Y187.333 E0.05639
G1 X160.867 Y186.914 E0.03477
G1 X173.309 Y178.536 E0.58313
G1 X174.345 Y177.398 E0.05983
G1 X174.739 Y175.85 E0.06209
G1 X174.739 Y136.874 E1.51522
G1 X174.063 Y134.894 E0.08134
G1 X159.051 Y115.465 E0.9545
G1 X158.171 Y114.49 E0.05106
G1 X156.883 Y113.493 E0.06335
G1 X155.083 Y112.947 E0.07311
G1 X149.917 Y112.947 E0.20084
G1 X148.106 Y113.501 E0.07363
G1 X147.286 Y114.087 E0.03916
G1 X146.599 Y114.713 E0.03613
G1 X145.95 Y115.464 E0.0386
G1 E-0.8 F3000
; printing object Watch_Stand_Base_v2.stl id:0 copy 0
G1 X167.647 Y136.296 F9000
G1 E0.8 F1800
;TYPE:Internal perimeter
;WIDTH:0.5
G1 X137.353 Y136.296 E1.1283
G1 X137.353 Y143.624 E0.27295
G1 X167.647 Y143.624 E1.1283
G1 X167.647 Y136.296 E0.27295
G1 X167.189 Y136.753 F9000
G1 F1800
G1 X137.811 Y136.753 E1.09425
G1 X137.811 Y143.167 E0.2389
G1 X167.189 Y143.167 E1.09425
G1 X167.189 Y136.753 E0.2389
G1 X166.782 Y137.16 F9000
;TYPE:External perimeter
;WIDTH:0.4
G1 F1800
G1 X138.218 Y137.16 E0.83116
G1 X138.218 Y142.76 E0.16295
G1 X166.782 Y142.76 E0.83116
G1 X166.782 Y137.16 E0.16295
;WIPE_START
M204 S3000
G1 X166.782 Y136.76 F9000
;WIPE_END
G1 E-0.8 F3000
M204 S1000
G1 X152.064 Y133.524 F9000
G1 E0.8 F1800
;TYPE:Internal perimeter
;WIDTH:0.5
G1 X152.064 Y132.624 E0.03352
G1 X152.936 Y132.624 E0.03247
G1 X152.936 Y133.524 E0.03352
G1 X166.645 Y133.524 E0.51061
G1 X170.436 Y137.315 E0.19968
G1 X170.436 Y175.279 E1.41402
G1 X160.433 Y181.92 E0.4472
M73 P1 R38
G1 X160.548 Y181.003 E0.03444
G1 X160.557 Y180.087 E0.0341
G1 X160.47 Y179.231 E0.03207
G1 X160.373 Y178.711 E0.01971
G1 X160.13 Y177.843 E0.03355
G1 X159.801 Y177.031 E0.03265
G1 X159.365 Y176.226 E0.03407
G1 X158.841 Y175.475 E0.03414
G1 X158.234 Y174.787 E0.03414
G1 X157.554 Y174.173 E0.03414
G1 X156.808 Y173.641 E0.03414
G1 X156.007 Y173.196 E0.03414
G1 X155.162 Y172.846 E0.03407
G1 X154.336 Y172.607 E0.03204
G1 X153.869 Y172.512 E0.01773
G1 X153.361 Y172.442 E0.01909
G1 X152.518 Y172.395 E0.03145
G1 X152.029 Y172.409 E0.01823
G1 X151.173 Y172.504 E0.03209
G1 X150.259 Y172.712 E0.03492
G1 X149.791 Y172.864 E0.01832
G1 X149.011 Y173.189 E0.03149
G1 X148.543 Y173.433 E0.01966
G1 X147.815 Y173.894 E0.03208
G1 X147.102 Y174.466 E0.03405
G1 X146.495 Y175.077 E0.03206
G1 X146.155 Y175.482 E0.0197
G1 X145.647 Y176.208 E0.033
G1 X145.402 Y176.632 E0.01825
G1 X145.033 Y177.411 E0.0321
G1 X144.726 Y178.312 E0.03548
G1 X144.538 Y179.169 E0.03266
G1 X144.443 Y180.082 E0.0342
G1 X144.452 Y180.996 E0.03404
G1 X144.564 Y181.914 E0.03443
G1 X134.564 Y175.266 E0.44724
G1 X134.564 Y137.315 E1.41355
M73 P1 R37
G1 X138.355 Y133.524 E0.19968
G1 X152.064 Y133.524 E0.51061
G1 X151.607 Y133.067 F9000
G1 F1800
G1 X151.607 Y132.167 E0.03352
G1 X153.393 Y132.167 E0.06652
G1 X153.393 Y133.067 E0.03352
G1 X166.834 Y133.067 E0.50064
G1 X170.893 Y137.126 E0.21378
G1 X170.893 Y175.524 E1.4302
G1 X159.712 Y182.948 E0.4999
G1 X159.984 Y181.83 E0.04285
G1 X160.091 Y180.972 E0.03221
G1 X160.1 Y180.108 E0.03218
G1 X160.017 Y179.296 E0.03041
G1 X159.928 Y178.815 E0.01824
G1 X159.696 Y177.992 E0.03184
G1 X159.386 Y177.226 E0.03076
G1 X158.976 Y176.466 E0.03216
G1 X158.481 Y175.758 E0.0322
G1 X157.909 Y175.109 E0.0322
G1 X157.267 Y174.53 E0.0322
G1 X156.564 Y174.028 E0.0322
G1 X155.808 Y173.608 E0.0322
G1 X155.01 Y173.278 E0.03216
G1 X154.226 Y173.051 E0.03039
G1 X153.792 Y172.963 E0.0165
G1 X153.317 Y172.897 E0.01786
G1 X152.512 Y172.852 E0.03003
G1 X152.061 Y172.865 E0.01681
G1 X151.249 Y172.956 E0.03042
G1 X150.38 Y173.154 E0.03321
G1 X149.949 Y173.293 E0.01686
G1 X149.204 Y173.603 E0.03006
G1 X148.771 Y173.829 E0.01821
G1 X148.081 Y174.266 E0.03042
G1 X147.408 Y174.807 E0.03215
G1 X146.833 Y175.386 E0.0304
G1 X146.517 Y175.76 E0.01824
G1 X146.033 Y176.454 E0.03151
G1 X145.807 Y176.844 E0.01682
G1 X145.457 Y177.583 E0.03043
G1 X145.167 Y178.435 E0.03355
G1 X144.99 Y179.242 E0.03074
G1 X144.9 Y180.104 E0.03228
G1 X144.909 Y180.966 E0.03212
G1 X145.008 Y181.777 E0.03042
G1 X145.108 Y182.257 E0.01828
G1 X145.326 Y182.969 E0.02776
G1 X134.107 Y175.511 E0.50179
G1 X134.107 Y137.126 E1.42972
G1 X138.166 Y133.067 E0.21378
G1 X151.607 Y133.067 E0.50064
G1 X151.2 Y132.66 F9000
;TYPE:External perimeter
;WIDTH:0.4
G1 F1800
G1 X151.2 Y125.098 E0.22004
G1 X150.469 Y124.809 E0.02287
G1 X150.197 Y124.671 E0.00888
G1 X149.664 Y124.331 E0.0184
G1 X149.153 Y123.9 E0.01944
G1 X148.942 Y123.681 E0.00885
G1 X148.57 Y123.214 E0.01737
G1 X148.227 Y122.646 E0.0193
G1 X147.967 Y122.036 E0.0193
G1 X147.806 Y121.461 E0.01738
G1 X147.752 Y121.161 E0.00887
G1 X147.701 Y120.526 E0.01855
G1 X147.708 Y120.186 E0.0099
G1 X147.781 Y119.588 E0.0175
G1 X147.855 Y119.252 E0.01002
G1 X147.954 Y118.922 E0.01002
G1 X148.182 Y118.365 E0.01753
G1 X148.324 Y118.095 E0.00886
G1 X148.672 Y117.565 E0.01845
G1 X149.105 Y117.067 E0.01921
G1 X149.551 Y116.675 E0.01727
G1 X149.851 Y116.472 E0.01055
G1 X150.101 Y116.904 E0.01453
G1 X149.828 Y117.09 E0.00959
G1 X149.364 Y117.516 E0.01834
G1 X148.968 Y118.006 E0.01834
G1 X148.647 Y118.549 E0.01834
G1 X148.409 Y119.132 E0.01834
G1 X148.259 Y119.745 E0.01834
G1 X148.2 Y120.372 E0.01834
G1 X148.233 Y120.995 E0.01816
G1 X148.358 Y121.619 E0.01852
G1 X148.572 Y122.212 E0.01834
G1 X148.868 Y122.763 E0.01818
G1 X149.053 Y123.031 E0.00949
G1 X149.457 Y123.499 E0.018
G1 X149.934 Y123.912 E0.01834
G1 X150.472 Y124.252 E0.01852
G1 X151.037 Y124.504 E0.018
G1 X151.348 Y124.603 E0.00949
G1 X151.7 Y124.674 E0.01045
G1 X151.7 Y131.76 E0.20618
G1 X153.3 Y131.76 E0.04656
G1 X153.3 Y124.674 E0.20618
G1 X153.657 Y124.602 E0.01061
G1 X154.25 Y124.388 E0.01834
G1 X154.806 Y124.09 E0.01834
G1 X155.312 Y123.714 E0.01834
G1 X155.749 Y123.277 E0.018
G1 X155.953 Y123.023 E0.00949
G1 X156.289 Y122.495 E0.01818
G1 X156.545 Y121.92 E0.01834
G1 X156.715 Y121.313 E0.01834
G1 X156.795 Y120.688 E0.01834
G1 X156.782 Y120.057 E0.01834
G1 X156.677 Y119.436 E0.01834
G1 X156.483 Y118.836 E0.01834
G1 X156.202 Y118.272 E0.01834
G1 X155.843 Y117.754 E0.01834
G1 X155.415 Y117.298 E0.01818
G1 X155.167 Y117.086 E0.0095
G1 X154.899 Y116.904 E0.00943
G1 X155.15 Y116.471 E0.01458
G1 X155.422 Y116.652 E0.00952
G1 X155.893 Y117.066 E0.01826
G1 X156.329 Y117.567 E0.0193
G1 X156.674 Y118.091 E0.01826
G1 X156.948 Y118.657 E0.0183
G1 X157.152 Y119.285 E0.01921
G1 X157.264 Y119.873 E0.01743
G1 X157.291 Y120.177 E0.00887
G1 X157.286 Y120.809 E0.0184
G1 X157.193 Y121.466 E0.0193
G1 X157.021 Y122.07 E0.01829
G1 X156.756 Y122.675 E0.01922
G1 X156.448 Y123.189 E0.01742
G1 X156.267 Y123.434 E0.00886
G1 X155.843 Y123.903 E0.0184
G1 X155.336 Y124.331 E0.0193
G1 X154.803 Y124.671 E0.0184
G1 X154.531 Y124.809 E0.00888
G1 X153.8 Y125.098 E0.02287
G1 X153.8 Y132.66 E0.22004
G1 X167.003 Y132.66 E0.38417
G1 X171.3 Y136.957 E0.17682
G1 X171.3 Y175.742 E1.12856
G1 X160.105 Y183.175 E0.391
G1 X159.699 Y183.458 E0.01439
G1 X158.951 Y184.058 E0.02791
G1 X158.704 Y184.177 E0.00797
G1 X158.658 Y184.132 E0.00187
G1 X158.733 Y183.986 E0.00477
G1 X158.856 Y183.65 E0.01042
G1 X159.08 Y183.31 E0.01185
G1 X159.388 Y182.555 E0.02373
G1 X159.583 Y181.756 E0.02391
G1 X159.684 Y180.945 E0.02381
G1 X159.693 Y180.127 E0.0238
G1 X159.614 Y179.354 E0.0226
G1 X159.531 Y178.907 E0.01323
G1 X159.311 Y178.123 E0.02369
G1 X159.018 Y177.4 E0.02272
G1 X158.629 Y176.68 E0.02379
G1 X158.16 Y176.01 E0.02381
G1 X157.619 Y175.396 E0.02381
G1 X157.012 Y174.848 E0.02381
G1 X156.346 Y174.373 E0.02381
G1 X155.63 Y173.976 E0.02381
G1 X154.875 Y173.663 E0.02379
G1 X154.129 Y173.446 E0.02259
G1 X153.724 Y173.365 E0.01204
G1 X153.278 Y173.303 E0.0131
G1 X152.507 Y173.26 E0.02247
G1 X152.089 Y173.271 E0.01214
G1 X151.317 Y173.358 E0.0226
G1 X150.488 Y173.547 E0.02475
G1 X150.09 Y173.675 E0.01216
G1 X149.377 Y173.972 E0.02248
G1 X148.974 Y174.182 E0.01322
G1 X148.318 Y174.598 E0.0226
G1 X147.681 Y175.11 E0.02379
G1 X147.133 Y175.661 E0.0226
G1 X146.841 Y176.009 E0.01323
G1 X146.376 Y176.673 E0.02358
G1 X146.167 Y177.034 E0.01214
G1 X145.835 Y177.736 E0.02261
G1 X145.559 Y178.545 E0.02486
G1 X145.393 Y179.307 E0.02269
G1 X145.307 Y180.123 E0.02388
G1 X145.316 Y180.939 E0.02376
G1 X145.41 Y181.71 E0.0226
G1 X145.502 Y182.156 E0.01323
G1 X145.731 Y182.9 E0.02266
G1 X145.916 Y183.298 E0.01277
G1 X146.142 Y183.645 E0.01204
G1 X146.265 Y183.982 E0.01043
G1 X146.339 Y184.128 E0.00477
G1 X146.293 Y184.173 E0.00187
G1 X146.047 Y184.053 E0.00798
G1 X145.298 Y183.453 E0.02792
G1 X144.893 Y183.17 E0.01439
G1 X133.7 Y175.73 E0.39107
G1 X133.7 Y136.957 E1.12818
G1 X137.997 Y132.66 E0.17682
G1 X151.2 Y132.66 E0.38417
;WIPE_START
M204 S3000
G1 X151.6 Y132.66 F9000
;WIPE_END
M204 S1000
G1 X151.45 Y131.981
;TYPE:Gap fill
;WIDTH:0.221842
G1 F1800
G1 X151.45 Y131.892 E0.0013
G1 X151.45 Y128.44 E0.05033
G1 X151.45 Y124.988 E0.05033
;WIDTH:0.251903
G1 X151.427 Y124.898 E0.0016
G1 X151.288 Y124.855 E0.00247
;WIDTH:0.219204
G1 X151.116 Y124.793 E0.00263
G1 X150.945 Y124.732 E0.00261
G1 X150.574 Y124.576 E0.00579
G1 X150.467 Y124.526 E0.0017
G1 X150.36 Y124.475 E0.0017
G1 X150.321 Y124.453 E0.00064
G1 X149.812 Y124.13 E0.00867
G1 X149.782 Y124.107 E0.00055
G1 X149.553 Y123.912 E0.00432
G1 X149.325 Y123.716 E0.00432
G1 X149.205 Y123.592 E0.00248
G1 X149.133 Y123.513 E0.00153
G1 X148.997 Y123.349 E0.00306
G1 X148.861 Y123.185 E0.00306
G1 X148.776 Y123.07 E0.00205
G1 X148.719 Y122.982 E0.00151
G1 X148.657 Y122.886 E0.00164
G1 X148.556 Y122.708 E0.00294
G1 X148.454 Y122.53 E0.00294
G1 X148.403 Y122.423 E0.00169
G1 X148.352 Y122.317 E0.00169
G1 X148.347 Y122.306 E0.00017
G1 X148.278 Y122.129 E0.00274
G1 X148.208 Y121.951 E0.00274
G1 X148.166 Y121.821 E0.00196
G1 X148.124 Y121.691 E0.00196
G1 X148.088 Y121.541 E0.00221
G1 X148.055 Y121.404 E0.00204
G1 X148.029 Y121.266 E0.00201
G1 X148.002 Y121.128 E0.00201
G1 X147.988 Y121.02 E0.00157
G1 X147.971 Y120.769 E0.00361
G1 X147.954 Y120.518 E0.00361
G1 X147.952 Y120.373 E0.00208
G1 X147.961 Y120.204 E0.00244
G1 X147.988 Y119.957 E0.00357
G1 X148.015 Y119.71 E0.00357
G1 X148.029 Y119.631 E0.00116
G1 X148.065 Y119.473 E0.00232
G1 X148.102 Y119.316 E0.00232
G1 X148.136 Y119.189 E0.00189
G1 X148.171 Y119.062 E0.00189
G1 X148.19 Y119.006 E0.00085
G1 X148.409 Y118.47 E0.00831
G1 X148.485 Y118.328 E0.00231
G1 X148.543 Y118.224 E0.00171
G1 X148.763 Y117.872 E0.00597
G1 X148.874 Y117.719 E0.00272
G1 X149.028 Y117.536 E0.00343
G1 X149.181 Y117.353 E0.00343
G1 X149.285 Y117.246 E0.00215
G1 X149.477 Y117.073 E0.00371
G1 X149.67 Y116.9 E0.00371
G1 X149.679 Y116.891 E0.00018
G1 X149.843 Y116.778 E0.00285
G1 E-0.8 F3000
G1 X155.158 Y116.777 F9000
G1 E0.8 F1800
;WIDTH:0.220761
G1 X155.321 Y116.893 E0.0029
G1 X155.451 Y117.005 E0.00249
G1 X155.588 Y117.124 E0.00263
G1 X155.713 Y117.246 E0.00253
G1 X155.871 Y117.42 E0.00341
G1 X156.029 Y117.595 E0.00341
G1 X156.127 Y117.72 E0.00229
G1 X156.269 Y117.93 E0.00368
G1 X156.412 Y118.141 E0.00368
G1 X156.455 Y118.215 E0.00125
G1 X156.71 Y118.736 E0.00841
G1 X156.716 Y118.75 E0.00022
G1 X156.813 Y119.049 E0.00455
G1 X156.91 Y119.347 E0.00455
G1 X156.919 Y119.383 E0.00054
G1 X156.966 Y119.646 E0.00387
G1 X157.013 Y119.908 E0.00387
G1 X157.03 Y120.041 E0.00193
G1 X157.038 Y120.187 E0.00213
G1 X157.039 Y120.441 E0.00367
G1 X157.041 Y120.694 E0.00367
G1 X157.035 Y120.79 E0.00139
G1 X156.997 Y121.073 E0.00413
G1 X156.959 Y121.356 E0.00413
G1 X156.947 Y121.414 E0.00086
G1 X156.866 Y121.7 E0.00431
G1 X156.786 Y121.986 E0.00431
G1 X156.777 Y122.01 E0.00037
G1 X156.655 Y122.285 E0.00436
G1 X156.534 Y122.56 E0.00436
G1 X156.503 Y122.618 E0.00094
G1 X156.37 Y122.833 E0.00367
G1 X156.237 Y123.048 E0.00367
G1 X156.153 Y123.171 E0.00217
G1 X156.073 Y123.275 E0.0019
G1 X156.004 Y123.356 E0.00154
G1 X155.928 Y123.444 E0.00168
G1 X155.797 Y123.582 E0.00276
G1 X155.666 Y123.72 E0.00276
G1 X155.571 Y123.807 E0.00187
G1 X155.466 Y123.903 E0.00205
G1 X155.185 Y124.126 E0.0052
G1 X155.064 Y124.209 E0.00214
G1 X154.932 Y124.3 E0.00232
G1 X154.804 Y124.374 E0.00214
G1 X154.677 Y124.449 E0.00214
G1 X154.552 Y124.514 E0.00204
G1 X154.428 Y124.579 E0.00204
G1 X154.345 Y124.617 E0.00131
G1 X154.039 Y124.732 E0.00474
G1 X153.733 Y124.848 E0.00474
;WIDTH:0.249881
G1 X153.573 Y124.898 E0.00283
G1 X153.55 Y124.988 E0.00158
;WIDTH:0.22184
G1 X153.55 Y131.892 E0.10065
G1 X153.55 Y131.981 E0.0013
G1 X152.5 Y132.835 F9000
;WIDTH:0.493528
G1 F1800
G1 X152.5 Y133.771 E0.03437
G1 E-0.8 F3000
G1 X170.376 Y137.669 F9000
G1 E0.8 F1800
;TYPE:Solid infill
;WIDTH:0.550229
G1 F2400
G1 X166.514 Y133.806 E0.22616
G1 X165.782 Y133.806 E0.03027
G1 X170.154 Y138.178 E0.25596
G1 X170.154 Y138.909 E0.03027
G1 X167.928 Y136.683 E0.1303
G1 X167.928 Y136.014 E0.02772
G1 X167.259 Y136.014 E0.02772
G1 X165.051 Y133.806 E0.12927
G1 X164.32 Y133.806 E0.03027
G1 X166.528 Y136.014 E0.12927
G1 X165.796 Y136.014 E0.03027
G1 X163.589 Y133.806 E0.12927
G1 X162.857 Y133.806 E0.03027
G1 X165.065 Y136.014 E0.12927
G1 X164.334 Y136.014 E0.03027
G1 X162.126 Y133.806 E0.12927
G1 X161.395 Y133.806 E0.03027
G1 X163.603 Y136.014 E0.12927
G1 X162.871 Y136.014 E0.03027
G1 X160.663 Y133.806 E0.12927
G1 X159.932 Y133.806 E0.03027
G1 X162.14 Y136.014 E0.12927
G1 X161.409 Y136.014 E0.03027
G1 X159.201 Y133.806 E0.12927
G1 X158.47 Y133.806 E0.03027
G1 X160.678 Y136.014 E0.12927
G1 X159.946 Y136.014 E0.03027
G1 X157.738 Y133.806 E0.12927
G1 X157.007 Y133.806 E0.03027
G1 X159.215 Y136.014 E0.12927
G1 X158.484 Y136.014 E0.03027
G1 X156.276 Y133.806 E0.12927
M73 P2 R37
G1 X155.545 Y133.806 E0.03027
G1 X157.753 Y136.014 E0.12927
G1 X157.021 Y136.014 E0.03027
G1 X154.813 Y133.806 E0.12927
G1 X154.082 Y133.806 E0.03027
G1 X156.29 Y136.014 E0.12927
G1 X155.559 Y136.014 E0.03027
G1 X153.351 Y133.806 E0.12927
G1 X152.973 Y133.806 E0.01562
G1 X152.973 Y134.019 E0.00881
G1 X152.832 Y134.019 E0.00584
G1 X154.828 Y136.014 E0.11681
G1 X154.096 Y136.014 E0.03027
G1 X151.888 Y133.806 E0.12927
G1 X151.157 Y133.806 E0.03027
