; generated by SuperSlicer 2.3.55 on 2021-05-08 at 05:55:49 UTC

; 

; external perimeters extrusion width = 0.40mm
; perimeters extrusion width = 0.40mm
; infill extrusion width = 0.40mm
; solid infill extrusion width = 0.40mm
; top infill extrusion width = 0.40mm
; support material extrusion width = 0.40mm
; first layer extrusion width = 0.40mm


M140 S70 ; set bed temperature
M104 S245 ; set temperature
;TYPE:Custom
START_PRINT T_BED=70 T_EXTRUDER=245
M107
G21 ; set units to millimeters
G90 ; use absolute coordinates
M82 ; use absolute distances for extrusion
G92 E0
; Filament gcode
M109 S245 ; set temperature and wait for it to be reached
M190 S70 ; set bed temperature and wait for it to be reached
M107
;LAYER_CHANGE
;Z:0.24
;HEIGHT:0.24
G1 Z0.240000 F9000.000
G1 E-1.00000 F2100.000
G1 X125.273 Y130.697 F9000.000
G1 E0.00000 F2100.000
;TYPE:Skirt
;WIDTH:0.4
G1 F900.000
M204 P500
G1 X126.060 Y130.163 E0.03307
G1 X132.669 Y126.843 E0.29025
G1 X133.693 Y126.452 E0.32834
G1 X134.773 Y126.271 E0.36643
G1 X201.249 Y126.259 E2.67801
G1 X202.162 Y126.336 E2.70988
G1 X203.050 Y126.563 E2.74174
G1 X203.883 Y126.931 E2.77340
G1 X204.649 Y127.434 E2.80526
G1 X205.321 Y128.057 E2.83712
G1 X205.881 Y128.782 E2.86898
G1 X206.313 Y129.590 E2.90084
G1 X206.604 Y130.453 E2.93251
G1 X206.766 Y131.734 E2.97742
G1 X206.751 Y148.425 E3.55779
G1 X196.912 Y199.338 E5.36097
G1 X196.453 Y200.668 E5.40989
G1 X195.670 Y201.844 E5.45902
G1 X194.751 Y202.685 E5.50233
G1 X193.667 Y203.299 E5.54564
G1 X191.938 Y203.777 E5.60804
G1 X190.855 Y203.897 E5.64593
G1 X138.381 Y203.896 E7.47060
G1 X137.430 Y203.790 E7.50387
G1 X136.517 Y203.524 E7.53694
G1 X135.663 Y203.105 E7.57001
G1 X134.890 Y202.542 E7.60328
G1 X134.269 Y201.907 E7.63413
G1 X133.758 Y201.182 E7.66499
G1 X133.370 Y200.384 E7.69585
G1 X133.115 Y199.534 E7.72670
G1 X123.291 Y148.652 E9.52872
G1 X123.234 Y147.876 E9.55575
G1 X123.249 Y134.570 E10.01843
G1 X123.385 Y133.699 E10.04909
G1 X123.660 Y132.856 E10.07994
G1 X124.063 Y132.072 E10.11060
G1 X124.590 Y131.358 E10.14145
G1 X125.230 Y130.738 E10.17244
G1 X125.472 Y130.989 F9000.000
G1 F900.000
G1 X126.247 Y130.458 E10.20512
G1 X132.830 Y127.152 E10.46128
G1 X133.790 Y126.787 E10.49698
G1 X134.803 Y126.619 E10.53269
G1 X201.249 Y126.608 E12.84323
G1 X202.110 Y126.681 E12.87329
G1 X202.948 Y126.896 E12.90335
G1 X203.737 Y127.248 E12.93341
G1 X204.457 Y127.727 E12.96347
G1 X205.087 Y128.318 E12.99353
G1 X205.610 Y129.007 E13.02358
G1 X206.011 Y129.772 E13.05364
G1 X206.280 Y130.594 E13.08370
G1 X206.418 Y131.747 E13.12407
G1 X206.402 Y148.423 E13.70394
G1 X196.571 Y199.264 E15.50460
G1 X196.138 Y200.520 E15.55078
G1 X195.399 Y201.623 E15.59697
G1 X194.537 Y202.410 E15.63753
G1 X193.516 Y202.985 E15.67828
G1 X191.859 Y203.437 E15.73804
G1 X190.844 Y203.549 E15.77354
G1 X138.396 Y203.548 E17.59729
G1 X137.504 Y203.449 E17.62852
G1 X136.642 Y203.198 E17.65974
G1 X135.836 Y202.802 E17.69097
G1 X135.111 Y202.272 E17.72220
G1 X134.531 Y201.677 E17.75109
G1 X134.057 Y201.002 E17.77978
G1 X133.694 Y200.254 E17.80867
G1 X133.455 Y199.458 E17.83756
G1 X123.636 Y148.605 E19.63856
G1 X123.582 Y147.877 E19.66394
G1 X123.596 Y134.612 E20.12521
G1 X123.723 Y133.785 E20.15429
G1 X123.981 Y132.990 E20.18338
G1 X124.365 Y132.246 E20.21246
G1 X124.859 Y131.579 E20.24135
G1 X125.428 Y131.031 E20.26882
G92 E0
G1 E-1.00000 F2100.000
G1 X198.556 Y145.018 F9000.000
G1 E0.00000 F2100.000
;TYPE:Support material interface
G1 F900.000
G1 X198.556 Y141.500 E0.12233
G1 X197.999 Y141.500 E0.14170
G1 X197.999 Y144.858 E0.25843
G1 X197.442 Y144.858 E0.27781
G1 X197.442 Y141.500 E0.39454
G1 X196.885 Y141.500 E0.41391
G1 X196.885 Y144.858 E0.53065
G1 X196.328 Y144.858 E0.55002
G1 X196.328 Y141.500 E0.66676
G1 X195.771 Y141.500 E0.68613
G1 X195.771 Y145.018 E0.80846
G92 E0
G1 E-1.00000 F2100.000
G1 X195.214 Y148.375 F9000.000
G1 E0.00000 F2100.000
G1 F900.000
G1 X195.214 Y145.371 E0.10448
G1 X194.657 Y145.659 E0.12629
G1 X194.657 Y148.215 E0.21516
G1 X194.100 Y148.215 E0.23454
G1 X194.100 Y145.809 E0.31819
G1 X193.542 Y145.884 E0.33774
G1 X193.542 Y148.215 E0.41877
G1 X192.985 Y148.215 E0.43814
G1 X192.985 Y145.914 E0.51813
G1 X192.428 Y145.916 E0.53750
G1 X192.428 Y148.215 E0.61742
G1 X191.871 Y148.215 E0.63679
G1 X191.871 Y145.756 E0.72229
G92 E0
G1 E-1.00000 F2100.000
G1 X195.214 Y142.132 F9000.000
G1 E0.00000 F2100.000
G1 F900.000
G1 X195.214 Y141.500 E0.02197
G1 X194.657 Y141.500 E0.04134
G1 X194.657 Y141.971 E0.05772
G1 X194.100 Y141.971 E0.07709
G1 X194.100 Y141.500 E0.09347
G1 X193.542 Y141.500 E0.11284
G1 X193.542 Y141.971 E0.12922
G1 X192.985 Y141.971 E0.14859
G1 X192.985 Y141.500 E0.16497
G1 X192.428 Y141.500 E0.18435
G1 X192.428 Y141.971 E0.20073
G1 X191.871 Y141.971 E0.22010
G1 X191.871 Y141.340 E0.24207
G92 E0
G1 E-1.00000 F2100.000
G1 X198.556 Y138.304 F9000.000
G1 E0.00000 F2100.000
G1 F900.000
G1 X198.556 Y134.786 E0.12233
G1 X197.999 Y134.786 E0.14170
G1 X197.999 Y138.143 E0.25843
G1 X197.442 Y138.143 E0.27781
G1 X197.442 Y134.786 E0.39454
G1 X196.885 Y134.786 E0.41391
G1 X196.885 Y138.143 E0.53065
G1 X196.328 Y138.143 E0.55002
G1 X196.328 Y134.786 E0.66676
G1 X195.771 Y134.786 E0.68613
G1 X195.771 Y138.304 E0.80846
G92 E0
G1 E-1.00000 F2100.000
G1 X195.214 Y135.332 F9000.000
G1 E0.00000 F2100.000
G1 F900.000
G1 X195.214 Y134.786 E0.01899
G1 X194.657 Y134.786 E0.03836
G1 X194.657 Y135.012 E0.04623
G1 X201.243 Y148.019 F9000.000
;TYPE:Support material
G1 F900.000
G1 X201.243 Y131.782 E0.61082
G1 X200.546 Y131.782 E0.63506
G1 X200.546 Y147.862 E1.19420
G1 X199.850 Y147.862 E1.21843
G1 X199.850 Y131.782 E1.77757
G1 X199.153 Y131.782 E1.80181
G1 X199.153 Y147.862 E2.36095
G1 X198.456 Y147.862 E2.38518
G1 X198.456 Y145.210 E2.47738
G1 X197.759 Y145.210 E2.50162
G1 X197.759 Y151.219 E2.71055
G1 X197.062 Y151.219 E2.73479
G1 X197.062 Y145.210 E2.94372
G1 X196.365 Y145.210 E2.96796
G1 X196.365 Y151.219 E3.17689
G1 X195.668 Y151.219 E3.20113
G1 X195.668 Y145.210 E3.41006
G1 X195.566 Y145.210 E3.41358
G1 X195.566 Y148.567 E3.53031
G1 X194.971 Y148.567 E3.55103
G1 X194.971 Y151.219 E3.64323
G1 X194.274 Y151.219 E3.66747
G1 X194.274 Y148.567 E3.75967
G1 X193.577 Y148.567 E3.78390
G1 X193.577 Y151.219 E3.87610
G1 X192.880 Y151.219 E3.90034
G1 X192.880 Y148.567 E3.99253
G1 X192.183 Y148.567 E4.01677
G1 X192.183 Y151.219 E4.10897
G1 X191.504 Y151.219 E4.13257
G1 X191.486 Y198.218 E5.76688
G1 X191.486 Y145.499 E7.60007
G1 X192.880 Y145.563 E7.64859
G1 X192.880 Y145.496 E7.65090
G1 X193.577 Y145.401 E7.67536
G1 X193.577 Y145.527 E7.67974
G1 X194.274 Y145.408 E7.70433
G1 X194.274 Y145.053 E7.71670
G1 X194.512 Y144.777 E7.72938
G1 X194.653 Y144.395 E7.74353
G1 X194.662 Y142.429 E7.81188
G1 X194.557 Y142.324 E7.81704
G1 X194.971 Y142.324 E7.83141
G1 X194.971 Y145.297 E7.93476
G1 X198.456 Y141.304 F9000.000
G1 F900.000
G1 X198.456 Y138.496 E8.03242
G1 X197.759 Y138.496 E8.05665
G1 X197.759 Y141.148 E8.14885
G1 X197.062 Y141.148 E8.17309
G1 X197.062 Y138.496 E8.26529
G1 X196.365 Y138.496 E8.28953
G1 X196.365 Y141.148 E8.38173
G1 X195.668 Y141.148 E8.40596
G1 X195.668 Y138.339 E8.50362
G1 X198.456 Y134.590 F9000.000
G1 F900.000
G1 X198.456 Y131.782 E8.60127
G1 X197.759 Y131.782 E8.62550
G1 X197.759 Y134.433 E8.71770
G1 X197.062 Y134.433 E8.74194
G1 X197.062 Y131.782 E8.83414
G1 X196.365 Y131.782 E8.85837
G1 X196.365 Y134.433 E8.95057
G1 X195.668 Y134.433 E8.97481
G1 X195.668 Y131.782 E9.06700
G1 X194.971 Y131.782 E9.09124
G1 X194.971 Y134.433 E9.18344
G1 X194.274 Y134.433 E9.20767
G1 X194.274 Y131.782 E9.29987
G1 X193.577 Y131.782 E9.32411
G1 X193.577 Y134.433 E9.41631
G1 X192.880 Y134.433 E9.44054
G1 X192.880 Y131.782 E9.53274
G1 X192.183 Y131.782 E9.55698
G1 X192.183 Y134.433 E9.64917
G1 X191.504 Y134.433 E9.67278
G1 X191.504 Y134.936 E9.69027
G1 X192.183 Y134.936 E9.71387
G1 X192.183 Y135.001 E9.71612
G1 X191.486 Y135.001 E9.74036
G1 X191.486 Y131.782 E9.85230
G1 X190.789 Y131.782 E9.87654
G1 X190.789 Y135.001 E9.98848
G1 X190.092 Y135.001 E10.01271
G1 X190.092 Y131.782 E10.12465
G1 X189.395 Y131.782 E10.14889
G1 X189.395 Y135.001 E10.26083
G1 X188.698 Y135.001 E10.28507
G1 X188.698 Y131.782 E10.39700
G1 X188.001 Y131.782 E10.42124
G1 X188.001 Y135.001 E10.53318
G1 X187.304 Y135.001 E10.55742
G1 X187.304 Y131.782 E10.66936
G1 X186.607 Y131.782 E10.69359
G1 X186.607 Y135.001 E10.80553
G1 X185.910 Y135.001 E10.82977
G1 X185.910 Y131.782 E10.94171
G1 X185.213 Y131.782 E10.96595
G1 X185.213 Y135.001 E11.07789
G1 X184.516 Y135.001 E11.10212
G1 X184.516 Y131.782 E11.21406
G1 X183.819 Y131.782 E11.23830
G1 X183.819 Y135.001 E11.35024
G1 X183.122 Y135.001 E11.37447
G1 X183.122 Y131.782 E11.48641
G1 X182.425 Y131.782 E11.51065
G1 X182.425 Y135.158 E11.62804
G92 E0
G1 E-1.00000 F2100.000
G1 X194.971 Y141.304 F9000.000
G1 E0.00000 F2100.000
G1 F900.000
G1 X194.971 Y135.390 E0.20566
G1 X194.274 Y135.092 E0.23203
G1 X194.274 Y135.447 E0.24438
G1 X193.997 Y135.257 E0.25603
G1 X193.577 Y135.099 E0.27167
G1 X193.577 Y134.973 E0.27604
G1 X192.880 Y134.937 E0.30031
G1 X192.880 Y135.161 E0.30808
G92 E0
G1 E-1.00000 F2100.000
G1 X194.274 Y141.304 F9000.000
G1 E0.00000 F2100.000
G1 F900.000
G1 X194.274 Y138.460 E0.09893
G1 X194.209 Y138.524 E0.10211
G1 X193.577 Y138.524 E0.12409
G1 X193.577 Y141.148 E0.21532
G1 X192.880 Y141.148 E0.23955
G1 X192.880 Y138.524 E0.33078
G1 X192.183 Y138.524 E0.35501
G1 X192.183 Y141.148 E0.44623
G1 X191.504 Y141.148 E0.46984
G1 X191.486 Y141.976 E0.49864
G1 X191.486 Y138.524 E0.61866
G1 X190.789 Y138.524 E0.64290
G1 X190.789 Y141.976 E0.76292
G1 X190.092 Y141.976 E0.78715
G1 X190.092 Y138.524 E0.90717
G1 X189.395 Y138.524 E0.93141
G1 X189.395 Y141.976 E1.05143
G1 X188.698 Y141.976 E1.07567
G1 X188.698 Y138.524 E1.19568
G1 X188.001 Y138.524 E1.21992
G1 X188.001 Y141.976 E1.33994
G1 X187.304 Y141.976 E1.36418
G1 X187.304 Y138.524 E1.48420
G1 X186.607 Y138.524 E1.50843
G1 X186.607 Y141.976 E1.62845
G1 X185.910 Y141.976 E1.65269
G1 X185.910 Y138.524 E1.77271
G1 X185.213 Y138.524 E1.79694
G1 X185.213 Y141.976 E1.91696
G1 X184.516 Y141.976 E1.94120
G1 X184.516 Y138.524 E2.06122
G1 X183.819 Y138.524 E2.08546
G1 X183.819 Y141.976 E2.20547
G1 X183.122 Y141.976 E2.22971
G1 X183.122 Y138.524 E2.34973
G1 X182.425 Y138.524 E2.37397
G1 X182.425 Y142.133 E2.49944
G92 E0
G1 E-1.00000 F2100.000
G1 X190.789 Y198.375 F9000.000
G1 E0.00000 F2100.000
G1 F900.000
G1 X190.789 Y145.499 E1.83865
G1 X190.092 Y145.499 E1.86288
G1 X190.092 Y198.218 E3.69608
G1 X189.395 Y198.218 E3.72032
G1 X189.395 Y145.499 E5.55351
G1 X188.698 Y145.499 E5.57775
G1 X188.698 Y198.218 E7.41094
G1 X188.001 Y198.218 E7.43518
G1 X188.001 Y145.499 E9.26837
G1 X187.304 Y145.499 E9.29261
G1 X187.304 Y198.218 E11.12581
G1 X186.607 Y198.218 E11.15004
G1 X186.607 Y145.499 E12.98324
G1 X185.910 Y145.499 E13.00747
G1 X185.910 Y198.218 E14.84067
G1 X185.213 Y198.218 E14.86491
G1 X185.213 Y145.499 E16.69810
G1 X184.516 Y145.499 E16.72234
G1 X184.516 Y198.218 E18.55553
G1 X183.819 Y198.218 E18.57977
G1 X183.819 Y145.499 E20.41296
G1 X183.122 Y145.499 E20.43720
G1 X183.122 Y198.218 E22.27040
G1 X182.425 Y198.218 E22.29463
G1 X182.425 Y145.499 E24.12783
G1 X181.728 Y145.499 E24.15206
G1 X181.728 Y198.218 E25.98526
G1 X181.031 Y198.218 E26.00949
G1 X181.031 Y145.499 E27.84269
G1 X180.334 Y145.499 E27.86693
G1 X180.334 Y198.218 E29.70012
G1 X179.637 Y198.218 E29.72436
G1 X179.637 Y145.499 E31.55755
G1 X178.940 Y145.499 E31.58179
G1 X178.940 Y198.218 E33.41498
G1 X178.243 Y198.218 E33.43922
G1 X178.243 Y185.495 E33.88162
G1 X177.546 Y185.495 E33.90586
G1 X177.546 Y198.218 E34.34826
G1 X176.849 Y198.218 E34.37250
G1 X176.849 Y185.495 E34.81490
G1 X176.152 Y185.495 E34.83914
G1 X176.152 Y198.218 E35.28154
G1 X175.455 Y198.218 E35.30578
G1 X175.455 Y185.495 E35.74818
G1 X174.758 Y185.495 E35.77242
G1 X174.758 Y198.218 E36.21482
G1 X174.061 Y198.218 E36.23906
G1 X174.061 Y185.495 E36.68146
G1 X173.364 Y185.495 E36.70570
G1 X173.364 Y198.218 E37.14810
G1 X172.667 Y198.218 E37.17234
G1 X172.667 Y185.495 E37.61474
G1 X171.970 Y185.495 E37.63898
G1 X171.970 Y198.218 E38.08138
G1 X171.273 Y198.218 E38.10562
G1 X171.273 Y185.495 E38.54802
G1 X170.576 Y185.495 E38.57226
G1 X170.576 Y198.218 E39.01466
G1 X169.879 Y198.218 E39.03889
G1 X169.879 Y185.495 E39.48130
G1 X169.182 Y185.495 E39.50553
G1 X169.182 Y198.218 E39.94794
G1 X168.485 Y198.218 E39.97217
G1 X168.485 Y185.495 E40.41458
G1 X167.788 Y185.495 E40.43881
G1 X167.788 Y198.218 E40.88122
G1 X167.091 Y198.218 E40.90545
G1 X167.091 Y185.495 E41.34786
G1 X166.394 Y185.495 E41.37209
G1 X166.394 Y198.218 E41.81450
G1 X165.697 Y198.218 E41.83873
G1 X165.697 Y185.495 E42.28113
G1 X165.000 Y185.495 E42.30537
G1 X165.000 Y198.218 E42.74777
G1 X164.303 Y198.218 E42.77201
G1 X164.303 Y185.495 E43.21441
G1 X163.606 Y185.495 E43.23865
G1 X163.606 Y198.218 E43.68105
G1 X162.909 Y198.218 E43.70529
G1 X162.909 Y185.495 E44.14769
G1 X162.212 Y185.495 E44.17193
G1 X162.212 Y198.218 E44.61433
G1 X161.515 Y198.218 E44.63857
G1 X161.515 Y185.495 E45.08097
G1 X160.818 Y185.495 E45.10521
G1 X160.818 Y198.218 E45.54761
G1 X160.121 Y198.218 E45.57185
G1 X160.121 Y185.495 E46.01425
G1 X159.424 Y185.495 E46.03849
G1 X159.424 Y198.218 E46.48089
G1 X158.727 Y198.218 E46.50513
G1 X158.727 Y185.495 E46.94753
G1 X158.030 Y185.495 E46.97177
G1 X158.030 Y198.218 E47.41417
G1 X157.333 Y198.218 E47.43841
G1 X157.333 Y185.495 E47.88081
G1 X156.636 Y185.495 E47.90505
G1 X156.636 Y198.218 E48.34745
G1 X155.939 Y198.218 E48.37169
G1 X155.939 Y185.495 E48.81409
G1 X155.242 Y185.495 E48.83832
G1 X155.242 Y198.218 E49.28073
G1 X154.545 Y198.218 E49.30496
G1 X154.545 Y185.495 E49.74737
G1 X153.848 Y185.495 E49.77160
G1 X153.848 Y198.218 E50.21401
G1 X153.151 Y198.218 E50.23824
G1 X153.151 Y185.495 E50.68065
G1 X152.454 Y185.495 E50.70488
G1 X152.454 Y198.218 E51.14729
G1 X151.757 Y198.218 E51.17152
G1 X151.757 Y185.495 E51.61393
G1 X151.219 Y185.495 E51.63265
G1 X151.219 Y145.499 E53.02345
G1 X151.060 Y145.499 E53.02896
G1 X151.060 Y198.218 E54.86217
G1 X150.363 Y198.218 E54.88640
G1 X150.363 Y145.499 E56.71961
G1 X149.666 Y145.499 E56.74384
G1 X149.666 Y198.218 E58.57705
G1 X148.969 Y198.218 E58.60128
G1 X148.969 Y145.499 E60.43449
G1 X148.272 Y145.499 E60.45872
G1 X148.272 Y198.218 E62.29193
G1 X147.575 Y198.218 E62.31616
G1 X147.575 Y145.499 E64.14937
G1 X146.878 Y145.499 E64.17360
G1 X146.878 Y198.218 E66.00681
G1 X146.181 Y198.218 E66.03104
G1 X146.181 Y145.499 E67.86424
G1 X145.484 Y145.499 E67.88848
G1 X145.484 Y198.218 E69.72168
G1 X144.787 Y198.218 E69.74592
G1 X144.787 Y145.499 E71.57912
G1 X144.090 Y145.499 E71.60336
G1 X144.090 Y198.218 E73.43656
G1 X143.393 Y198.218 E73.46080
G1 X143.393 Y145.499 E75.29400
G1 X142.696 Y145.499 E75.31824
G1 X142.696 Y198.218 E77.15144
G1 X141.999 Y198.218 E77.17568
G1 X141.999 Y145.499 E79.00888
G1 X141.302 Y145.499 E79.03312
G1 X141.302 Y198.218 E80.86632
G1 X140.605 Y198.218 E80.89056
G1 X140.605 Y145.499 E82.72376
G1 X139.908 Y145.499 E82.74800
G1 X139.908 Y198.218 E84.58120
G1 X139.211 Y198.218 E84.60544
G1 X139.211 Y145.331 E86.44448
G1 X138.926 Y145.045 E86.45853
G1 X138.926 Y142.429 E86.54949
G1 X139.211 Y142.144 E86.56354
G1 X139.211 Y138.356 E86.69524
G1 X139.379 Y138.524 E86.70350
G1 X139.908 Y138.524 E86.72189
G1 X139.908 Y141.976 E86.84191
G1 X140.605 Y141.976 E86.86615
G1 X140.605 Y138.524 E86.98617
G1 X141.302 Y138.524 E87.01040
G1 X141.302 Y141.976 E87.13042
G1 X141.999 Y141.976 E87.15466
G1 X141.999 Y138.524 E87.27468
G1 X142.696 Y138.524 E87.29892
G1 X142.696 Y141.976 E87.41894
G1 X143.393 Y141.976 E87.44317
G1 X143.393 Y138.524 E87.56319
G1 X144.090 Y138.524 E87.58743
G1 X144.090 Y142.133 E87.71290
G92 E0
G1 E-1.00000 F2100.000
G1 X144.090 Y135.158 F9000.000
G1 E0.00000 F2100.000
G1 F900.000
G1 X144.090 Y131.782 E0.11739
G1 X143.393 Y131.782 E0.14163
G1 X143.393 Y135.001 E0.25357
G1 X142.696 Y135.001 E0.27781
G1 X142.696 Y131.782 E0.38975
G1 X141.999 Y131.782 E0.41398
G1 X141.999 Y135.001 E0.52592
G1 X141.302 Y135.001 E0.55016
G1 X141.302 Y131.782 E0.66210
G1 X140.605 Y131.782 E0.68633
G1 X140.605 Y135.001 E0.79827
