; generated by SuperSlicer 2.3.56 on 2021-09-03 at 17:54:35 UTC


;
;

;
;
; 

; external perimeters extrusion width = 0.40mm
; perimeters extrusion width = 0.40mm
; infill extrusion width = 0.40mm
; solid infill extrusion width = 0.40mm
; top infill extrusion width = 0.40mm
; support material extrusion width = 0.40mm
; first layer extrusion width = 0.48mm


;TYPE:Custom
START_PRINT T_BED=70 T_EXTRUDER=235
M107
G21 ; set units to millimeters
G90 ; use absolute coordinates
M83 ; use relative distances for extrusion
M104 S235 ; set temperature
M109 S235 ; set temperature and wait for it to be reached
M190 S70 ; set bed temperature and wait for it to be reached
M107
;LAYER_CHANGE
;Z:0.24
;HEIGHT:0.24
G1 Z0.240000 F6000.000
G1 E-1.50000 F3000.000
G1 X69.213 Y79.274 F6000.000
G1 E1.50000 F1800.000
;TYPE:Skirt
;WIDTH:0.48
G1 F1200.000
G1 X70.336 Y78.457 E0.05937
G1 X71.741 Y77.692 E0.06840
G1 X73.722 Y76.987 E0.08990
G1 X75.082 Y76.708 E0.05937
G1 X76.566 Y76.593 E0.06364
G1 X186.193 Y76.589 E4.68717
G1 X187.879 Y76.709 E0.07224
G1 X189.501 Y77.056 E0.07091
G1 X191.091 Y77.638 E0.07241
G1 X192.397 Y78.327 E0.06313
G1 X193.912 Y79.410 E0.07964
G1 X194.977 Y80.434 E0.06312
G1 X195.489 Y81.022 E0.03335
G1 X196.447 Y82.381 E0.07112
G1 X197.210 Y83.866 E0.07138
G1 X211.675 Y120.849 E1.69785
G1 X211.924 Y121.668 E0.03660
G1 X212.046 Y122.515 E0.03660
G1 X212.059 Y162.597 E1.71373
G1 X211.960 Y163.636 E0.04460
G1 X211.774 Y164.357 E0.03184
G1 X197.604 Y207.078 E1.92442
G1 X197.101 Y208.391 E0.06014
G1 X196.451 Y209.612 E0.05913
G1 X195.257 Y211.264 E0.08715
G1 X193.734 Y212.730 E0.09039
G1 X192.610 Y213.546 E0.05937
G1 X191.184 Y214.320 E0.06940
G1 X189.189 Y215.022 E0.09039
G1 X187.828 Y215.298 E0.05937
G1 X186.244 Y215.410 E0.06790
G1 X76.623 Y215.409 E4.68691
G1 X74.708 Y215.227 E0.08223
G1 X73.388 Y214.926 E0.05787
G1 X72.126 Y214.471 E0.05737
G1 X70.362 Y213.559 E0.08489
G1 X68.917 Y212.488 E0.07691
G1 X67.452 Y210.964 E0.09039
G1 X66.636 Y209.841 E0.05937
G1 X65.861 Y208.414 E0.06941
G1 X65.160 Y206.420 E0.09039
G1 X64.884 Y205.059 E0.05937
G1 X64.771 Y203.469 E0.06815
G1 X64.772 Y88.447 E4.91781
G1 X64.954 Y86.526 E0.08248
G1 X65.255 Y85.207 E0.05787
G1 X65.711 Y83.945 E0.05737
G1 X66.622 Y82.181 E0.08489
G1 X67.694 Y80.736 E0.07691
G1 X69.170 Y79.315 E0.08758
G1 X69.465 Y79.622 F6000.000
G1 F1200.000
G1 X69.471 Y79.615 E0.00040
G1 X70.564 Y78.820 E0.05777
G1 X71.924 Y78.079 E0.06621
G1 X73.822 Y77.404 E0.08615
G1 X75.146 Y77.132 E0.05777
G1 X76.589 Y77.021 E0.06188
G1 X186.193 Y77.018 E4.68619
G1 X187.822 Y77.134 E0.06982
G1 X189.386 Y77.469 E0.06838
G1 X190.925 Y78.033 E0.07006
G1 X192.189 Y78.702 E0.06115
G1 X193.648 Y79.748 E0.07678
G1 X194.678 Y80.741 E0.06114
G1 X195.151 Y81.285 E0.03085
G1 X196.081 Y82.606 E0.06906
G1 X196.813 Y84.027 E0.06835
G1 X211.276 Y121.004 E1.69762
G1 X211.507 Y121.765 E0.03398
G1 X211.619 Y122.552 E0.03398
G1 X211.630 Y162.597 E1.71215
G1 X211.540 Y163.550 E0.04095
G1 X197.202 Y206.929 E1.95336
G1 X196.709 Y208.217 E0.05898
G1 X196.079 Y209.399 E0.05730
G1 X194.927 Y210.991 E0.08399
G1 X193.475 Y212.388 E0.08615
G1 X192.382 Y213.183 E0.05777
G1 X191.002 Y213.933 E0.06717
G1 X189.096 Y214.603 E0.08639
G1 X187.777 Y214.872 E0.05753
G1 X186.238 Y214.982 E0.06597
G1 X76.639 Y214.981 E4.68595
G1 X74.796 Y214.808 E0.07918
G1 X73.511 Y214.515 E0.05633
G1 X72.277 Y214.070 E0.05609
G1 X70.583 Y213.192 E0.08158
G1 X69.190 Y212.158 E0.07415
G1 X67.790 Y210.701 E0.08638
G1 X66.999 Y209.613 E0.05753
G1 X66.249 Y208.232 E0.06718
G1 X65.578 Y206.326 E0.08639
G1 X65.309 Y205.008 E0.05753
G1 X65.199 Y203.463 E0.06621
G1 X65.201 Y88.464 E4.91686
G1 X65.374 Y86.614 E0.07942
G1 X65.668 Y85.324 E0.05657
G1 X66.112 Y84.096 E0.05585
G1 X66.990 Y82.401 E0.08158
G1 X68.024 Y81.009 E0.07415
G1 X69.421 Y79.664 E0.08294
G1 E-1.50000 F3000.000
G1 X206.416 Y162.585 F6000.000
G1 E1.50000 F1800.000
;TYPE:Support material
G1 F1200.000
G1 X206.416 Y122.893 E1.69705
G1 X205.559 Y122.893 E0.03664
G1 X205.559 Y162.393 E1.68881
G1 X204.702 Y162.393 E0.03664
G1 X204.702 Y122.893 E1.68881
G1 X203.845 Y122.893 E0.03664
G1 X203.845 Y162.393 E1.68881
G1 X202.988 Y162.393 E0.03664
G1 X202.988 Y122.893 E1.68881
G1 X202.131 Y122.893 E0.03664
G1 X202.131 Y162.393 E1.68881
G1 X201.274 Y162.393 E0.03664
G1 X201.274 Y122.893 E1.68881
G1 X200.417 Y122.893 E0.03664
G1 X200.417 Y162.393 E1.68881
G1 X199.560 Y162.393 E0.03664
G1 X199.560 Y122.893 E1.68881
G1 X198.703 Y122.893 E0.03664
G1 X198.703 Y162.393 E1.68881
G1 X197.846 Y162.393 E0.03664
G1 X197.846 Y122.893 E1.68881
G1 X196.989 Y122.893 E0.03664
G1 X196.989 Y162.393 E1.68881
G1 X196.132 Y162.393 E0.03664
G1 X196.132 Y122.893 E1.68881
G1 X195.275 Y122.893 E0.03664
G1 X195.275 Y162.393 E1.68881
G1 X194.418 Y162.393 E0.03664
G1 X194.418 Y122.893 E1.68881
G1 X193.561 Y122.893 E0.03664
G1 X193.561 Y162.585 E1.69705
G1 E-1.50000 F3000.000
G1 X179.111 Y194.453 F6000.000
G1 E1.50000 F1800.000
;TYPE:Internal perimeter
G1 F1200.000
G1 X178.707 Y194.170 E0.02108
G1 X178.413 Y194.033 E0.01389
G1 X178.099 Y193.949 E0.01389
G1 X177.823 Y193.924 E0.01184
G1 X176.236 Y193.925 E0.06788
G1 X169.996 Y193.925 E0.26678
G1 X168.755 Y192.684 E0.07502
G1 X166.539 Y190.469 E0.13399
G1 X166.492 Y190.426 E0.00271
G1 X166.437 Y190.374 E0.00324
G1 X166.304 Y190.273 E0.00715
G1 X166.167 Y190.186 E0.00693
G1 X166.021 Y190.109 E0.00705
G1 X165.869 Y190.047 E0.00702
G1 X165.713 Y189.997 E0.00700
G1 X165.553 Y189.962 E0.00699
G1 X165.392 Y189.941 E0.00697
G1 X165.253 Y189.935 E0.00594
G1 X152.441 Y189.935 E0.54779
G1 X152.441 Y203.629 E0.58549
G1 X165.253 Y203.629 E0.54781
G1 X165.392 Y203.623 E0.00594
G1 X165.554 Y203.602 E0.00698
G1 X165.713 Y203.566 E0.00699
G1 X165.870 Y203.517 E0.00700
G1 X166.021 Y203.454 E0.00702
G1 X166.165 Y203.379 E0.00692
G1 X166.301 Y203.293 E0.00689
G1 X166.383 Y203.231 E0.00443
G1 X166.436 Y203.190 E0.00282
G1 X166.507 Y203.125 E0.00412
G1 X166.547 Y203.087 E0.00236
G1 X169.996 Y199.639 E0.20854
G1 X177.823 Y199.639 E0.33467
G1 X178.099 Y199.615 E0.01183
G1 X178.413 Y199.531 E0.01389
G1 X178.707 Y199.394 E0.01389
G1 X178.973 Y199.208 E0.01389
G1 X179.203 Y198.978 E0.01389
G1 X179.389 Y198.712 E0.01388
G1 X179.526 Y198.418 E0.01389
G1 X179.714 Y197.717 E0.03103
G1 X180.068 Y198.223 E0.02641
G1 X180.623 Y198.777 E0.03352
G1 X181.265 Y199.227 E0.03352
G1 X181.975 Y199.558 E0.03352
G1 X182.733 Y199.761 E0.03352
G1 X183.514 Y199.829 E0.03352
G1 X184.294 Y199.761 E0.03352
G1 X185.052 Y199.558 E0.03352
G1 X185.762 Y199.227 E0.03352
G1 X186.404 Y198.777 E0.03352
G1 X186.959 Y198.223 E0.03352
G1 X187.408 Y197.581 E0.03352
G1 X187.739 Y196.870 E0.03352
G1 X187.942 Y196.113 E0.03352
G1 X188.011 Y195.332 E0.03352
G1 X187.942 Y194.551 E0.03352
G1 X187.739 Y193.794 E0.03352
G1 X187.408 Y193.083 E0.03352
G1 X186.959 Y192.441 E0.03352
G1 X186.404 Y191.887 E0.03352
G1 X185.762 Y191.437 E0.03352
G1 X185.052 Y191.106 E0.03352
G1 X184.294 Y190.903 E0.03352
G1 X183.514 Y190.835 E0.03352
G1 X182.733 Y190.903 E0.03352
G1 X181.975 Y191.106 E0.03352
G1 X181.265 Y191.437 E0.03352
G1 X180.623 Y191.887 E0.03352
G1 X180.068 Y192.441 E0.03352
G1 X179.619 Y193.083 E0.03352
G1 X179.288 Y193.794 E0.03352
G1 X179.127 Y194.395 E0.02660
G1 E-1.50000 F3000.000
G1 X179.560 Y196.231 F6000.000
G1 E1.50000 F1800.000
G1 F1200.000
G1 X179.692 Y196.723 E0.02177
G1 X179.991 Y197.366 E0.03031
G1 X180.398 Y197.946 E0.03031
G1 X180.899 Y198.448 E0.03031
G1 X181.480 Y198.854 E0.03031
G1 X182.122 Y199.154 E0.03031
G1 X182.807 Y199.337 E0.03031
G1 X183.514 Y199.399 E0.03031
G1 X184.220 Y199.337 E0.03031
G1 X184.905 Y199.154 E0.03031
G1 X185.547 Y198.854 E0.03031
G1 X186.128 Y198.448 E0.03031
G1 X186.629 Y197.946 E0.03031
G1 X187.036 Y197.366 E0.03031
G1 X187.335 Y196.723 E0.03031
G1 X187.519 Y196.038 E0.03031
G1 X187.581 Y195.332 E0.03031
G1 X187.519 Y194.626 E0.03031
G1 X187.335 Y193.941 E0.03031
G1 X187.036 Y193.298 E0.03031
G1 X186.629 Y192.718 E0.03031
G1 X186.128 Y192.216 E0.03031
G1 X185.547 Y191.810 E0.03031
G1 X184.905 Y191.510 E0.03031
G1 X184.220 Y191.327 E0.03031
G1 X183.514 Y191.265 E0.03031
G1 X182.807 Y191.327 E0.03031
G1 X182.123 Y191.510 E0.03031
G1 X181.480 Y191.810 E0.03031
G1 X180.899 Y192.216 E0.03031
G1 X180.398 Y192.718 E0.03031
G1 X179.991 Y193.298 E0.03031
G1 X179.692 Y193.941 E0.03031
G1 X179.508 Y194.626 E0.03031
G1 X179.451 Y195.284 E0.02825
G1 X179.143 Y195.338 E0.01335
G1 X179.017 Y195.067 E0.01280
G1 X178.873 Y194.862 E0.01068
G1 X178.697 Y194.686 E0.01068
G1 X178.492 Y194.542 E0.01068
G1 X178.266 Y194.437 E0.01068
G1 X178.024 Y194.372 E0.01068
G1 X177.805 Y194.353 E0.00943
G1 X176.236 Y194.354 E0.06708
G1 X169.818 Y194.354 E0.27437
G1 X168.452 Y192.987 E0.08261
G1 X166.243 Y190.778 E0.13357
G1 X166.202 Y190.741 E0.00236
G1 X166.161 Y190.703 E0.00243
G1 X166.058 Y190.624 E0.00552
G1 X165.952 Y190.557 E0.00537
G1 X165.840 Y190.498 E0.00543
G1 X165.723 Y190.450 E0.00541
G1 X165.602 Y190.412 E0.00540
G1 X165.479 Y190.385 E0.00539
G1 X165.354 Y190.368 E0.00538
G1 X165.243 Y190.363 E0.00475
G1 X152.869 Y190.363 E0.52907
G1 X152.869 Y203.200 E0.54885
G1 X165.244 Y203.200 E0.52910
G1 X165.355 Y203.196 E0.00475
G1 X165.480 Y203.179 E0.00538
G1 X165.602 Y203.152 E0.00538
G1 X165.723 Y203.114 E0.00540
G1 X165.840 Y203.066 E0.00541
G1 X165.951 Y203.008 E0.00535
G1 X166.056 Y202.941 E0.00535
G1 X166.123 Y202.890 E0.00356
G1 X166.160 Y202.862 E0.00201
G1 X166.215 Y202.812 E0.00319
G1 X166.248 Y202.781 E0.00191
G1 X169.818 Y199.210 E0.21590
G1 X177.805 Y199.211 E0.34146
G1 X178.024 Y199.192 E0.00943
G1 X178.266 Y199.127 E0.01068
G1 X178.492 Y199.022 E0.01068
G1 X178.697 Y198.878 E0.01068
G1 X178.873 Y198.702 E0.01068
G1 X179.017 Y198.497 E0.01068
G1 X179.122 Y198.271 E0.01068
G1 X179.187 Y198.029 E0.01068
G1 X179.206 Y197.810 E0.00943
G1 X179.206 Y196.278 E0.06550
G1 X179.500 Y196.239 E0.01270
G1 E-1.50000 F3000.000
G1 X169.641 Y194.782 F6000.000
G1 E1.50000 F1800.000
;TYPE:External perimeter
G1 F1200.000
G1 X168.149 Y193.290 E0.09020
G1 X165.947 Y191.088 E0.13315
G1 X165.912 Y191.057 E0.00201
G1 X165.885 Y191.031 E0.00162
G1 X165.812 Y190.976 E0.00388
G1 X165.737 Y190.928 E0.00380
G1 X165.658 Y190.887 E0.00382
G1 X165.576 Y190.853 E0.00381
G1 X165.491 Y190.826 E0.00380
G1 X165.405 Y190.807 E0.00379
G1 X165.317 Y190.796 E0.00378
G1 X165.234 Y190.792 E0.00355
G1 X153.298 Y190.792 E0.51036
G1 X153.298 Y202.772 E0.51221
G1 X165.235 Y202.772 E0.51038
G1 X165.318 Y202.768 E0.00355
G1 X165.405 Y202.757 E0.00378
G1 X165.492 Y202.738 E0.00378
G1 X165.576 Y202.711 E0.00379
G1 X165.658 Y202.677 E0.00380
G1 X165.737 Y202.636 E0.00378
G1 X165.812 Y202.588 E0.00381
G1 X165.885 Y202.533 E0.00391
G1 X165.924 Y202.498 E0.00226
G1 X165.948 Y202.474 E0.00147
G1 X169.641 Y198.782 E0.22326
G1 X177.786 Y198.782 E0.34825
G1 X177.950 Y198.768 E0.00702
G1 X178.119 Y198.723 E0.00747
G1 X178.277 Y198.649 E0.00747
G1 X178.420 Y198.549 E0.00747
G1 X178.544 Y198.425 E0.00748
G1 X178.644 Y198.282 E0.00747
G1 X178.718 Y198.124 E0.00747
G1 X178.763 Y197.955 E0.00747
G1 X178.778 Y197.791 E0.00702
G1 X178.778 Y195.773 E0.08628
G1 X178.763 Y195.609 E0.00702
G1 X178.718 Y195.440 E0.00747
G1 X178.644 Y195.282 E0.00747
G1 X178.544 Y195.139 E0.00747
G1 X178.420 Y195.015 E0.00747
G1 X178.277 Y194.915 E0.00747
G1 X178.119 Y194.841 E0.00747
G1 X177.950 Y194.796 E0.00747
G1 X177.786 Y194.781 E0.00703
G1 X176.236 Y194.782 E0.06628
G1 X169.701 Y194.782 E0.27940
G1 X169.641 Y194.382 F6000.000
G1 E-1.50000 F3000.000
G1 X179.877 Y195.332 F6000.000
G1 E1.50000 F1800.000
G1 F1200.000
G1 X179.932 Y195.964 E0.02711
G1 X180.096 Y196.576 E0.02710
G1 X180.364 Y197.150 E0.02710
G1 X180.727 Y197.670 E0.02711
G1 X181.176 Y198.118 E0.02710
G1 X181.695 Y198.482 E0.02711
G1 X182.270 Y198.750 E0.02711
G1 X182.882 Y198.914 E0.02710
G1 X183.514 Y198.969 E0.02711
G1 X184.145 Y198.914 E0.02711
G1 X184.757 Y198.750 E0.02710
G1 X185.332 Y198.482 E0.02711
G1 X185.851 Y198.118 E0.02711
G1 X186.300 Y197.670 E0.02710
G1 X186.663 Y197.150 E0.02711
G1 X186.931 Y196.576 E0.02711
G1 X187.095 Y195.964 E0.02710
G1 X187.150 Y195.332 E0.02711
G1 X187.095 Y194.700 E0.02711
G1 X186.931 Y194.088 E0.02710
G1 X186.663 Y193.514 E0.02711
G1 X186.300 Y192.994 E0.02711
G1 X185.851 Y192.546 E0.02710
G1 X185.332 Y192.182 E0.02711
G1 X184.757 Y191.914 E0.02711
G1 X184.145 Y191.750 E0.02710
G1 X183.514 Y191.695 E0.02711
G1 X182.882 Y191.750 E0.02711
G1 X182.270 Y191.914 E0.02710
G1 X181.695 Y192.182 E0.02711
G1 X181.176 Y192.546 E0.02711
G1 X180.727 Y192.994 E0.02711
G1 X180.364 Y193.514 E0.02711
G1 X180.096 Y194.088 E0.02711
G1 X179.932 Y194.700 E0.02710
G1 X179.882 Y195.272 E0.02454
G1 X179.536 Y195.542 F6000.000
G1 E-1.50000 F3000.000
G1 X102.102 Y193.925 F6000.000
G1 E1.50000 F1800.000
;TYPE:Internal perimeter
G1 F1200.000
G1 X100.861 Y192.684 E0.07502
G1 X98.647 Y190.470 E0.13388
G1 X98.607 Y190.433 E0.00234
G1 X98.555 Y190.385 E0.00304
G1 X98.435 Y190.291 E0.00650
G1 X98.316 Y190.211 E0.00613
G1 X98.186 Y190.139 E0.00635
G1 X98.052 Y190.077 E0.00633
G1 X97.913 Y190.025 E0.00631
G1 X97.772 Y189.986 E0.00629
G1 X97.627 Y189.957 E0.00628
G1 X97.482 Y189.940 E0.00627
G1 X97.357 Y189.935 E0.00535
G1 X84.547 Y189.935 E0.54769
G1 X84.547 Y203.629 E0.58549
G1 X97.360 Y203.629 E0.54781
G1 X97.499 Y203.623 E0.00594
G1 X97.660 Y203.602 E0.00698
G1 X97.820 Y203.566 E0.00699
G1 X97.976 Y203.517 E0.00700
G1 X98.128 Y203.454 E0.00702
G1 X98.271 Y203.379 E0.00692
G1 X98.407 Y203.293 E0.00689
G1 X98.490 Y203.230 E0.00443
G1 X98.542 Y203.190 E0.00282
G1 X98.613 Y203.125 E0.00412
G1 X98.653 Y203.087 E0.00236
G1 X102.102 Y199.639 E0.20854
G1 X109.923 Y199.639 E0.33440
G1 X110.199 Y199.615 E0.01183
G1 X110.513 Y199.531 E0.01389
G1 X110.807 Y199.394 E0.01389
G1 X111.073 Y199.208 E0.01389
G1 X111.303 Y198.978 E0.01389
G1 X111.489 Y198.712 E0.01389
G1 X111.626 Y198.418 E0.01389
G1 X111.710 Y198.104 E0.01389
G1 X111.734 Y197.828 E0.01183
G1 X111.734 Y195.736 E0.08948
G1 X111.710 Y195.460 E0.01183
G1 X111.626 Y195.146 E0.01389
G1 X111.489 Y194.852 E0.01389
G1 X111.303 Y194.586 E0.01389
G1 X111.073 Y194.356 E0.01388
G1 X110.807 Y194.170 E0.01389
G1 X110.513 Y194.033 E0.01389
G1 X110.199 Y193.949 E0.01389
G1 X109.923 Y193.924 E0.01184
G1 X108.337 Y193.925 E0.06782
G1 X102.162 Y193.925 E0.26399
G1 X101.925 Y194.354 F6000.000
G1 F1200.000
G1 X100.558 Y192.987 E0.08261
G1 X98.350 Y190.780 E0.13351
G1 X98.316 Y190.747 E0.00203
G1 X98.276 Y190.711 E0.00229
G1 X98.184 Y190.638 E0.00502
G1 X98.091 Y190.577 E0.00475
G1 X97.992 Y190.521 E0.00490
G1 X97.888 Y190.473 E0.00488
G1 X97.781 Y190.433 E0.00487
G1 X97.672 Y190.403 E0.00485
G1 X97.561 Y190.381 E0.00485
G1 X97.448 Y190.367 E0.00484
G1 X97.348 Y190.363 E0.00427
G1 X84.975 Y190.363 E0.52901
G1 X84.975 Y203.200 E0.54885
G1 X97.350 Y203.200 E0.52910
G1 X97.461 Y203.196 E0.00475
G1 X97.586 Y203.179 E0.00538
G1 X97.709 Y203.152 E0.00538
G1 X97.829 Y203.114 E0.00540
G1 X97.946 Y203.066 E0.00541
G1 X98.057 Y203.008 E0.00535
G1 X98.163 Y202.941 E0.00535
G1 X98.229 Y202.890 E0.00356
G1 X98.266 Y202.862 E0.00201
G1 X98.322 Y202.812 E0.00319
G1 X98.354 Y202.781 E0.00191
G1 X101.925 Y199.210 E0.21590
G1 X109.905 Y199.211 E0.34119
G1 X110.124 Y199.192 E0.00943
G1 X110.366 Y199.127 E0.01068
G1 X110.592 Y199.022 E0.01068
G1 X110.797 Y198.878 E0.01068
G1 X110.973 Y198.702 E0.01068
G1 X111.117 Y198.497 E0.01068
G1 X111.222 Y198.271 E0.01068
G1 X111.287 Y198.029 E0.01068
G1 X111.306 Y197.810 E0.00943
G1 X111.306 Y195.754 E0.08788
G1 X111.287 Y195.535 E0.00943
G1 X111.222 Y195.293 E0.01068
G1 X111.117 Y195.067 E0.01068
G1 X110.973 Y194.862 E0.01068
G1 X110.797 Y194.686 E0.01068
G1 X110.592 Y194.542 E0.01068
G1 X110.366 Y194.437 E0.01068
G1 X110.124 Y194.372 E0.01068
G1 X109.905 Y194.353 E0.00943
G1 X108.337 Y194.354 E0.06702
G1 X101.985 Y194.354 E0.27159
G1 X101.747 Y194.782 F6000.000
;TYPE:External perimeter
G1 F1200.000
G1 X100.255 Y193.290 E0.09020
G1 X98.054 Y191.089 E0.13313
G1 X98.024 Y191.061 E0.00173
G1 X97.998 Y191.037 E0.00154
G1 X97.932 Y190.986 E0.00355
G1 X97.867 Y190.942 E0.00337
G1 X97.797 Y190.903 E0.00344
G1 X97.724 Y190.869 E0.00343
G1 X97.649 Y190.841 E0.00342
