; generated by SuperSlicer 2.3.55 on 2021-05-02 at 17:51:12 UTC

; 

; external perimeters extrusion width = 0.40mm
; perimeters extrusion width = 0.40mm
; infill extrusion width = 0.40mm
; solid infill extrusion width = 0.40mm
; top infill extrusion width = 0.40mm
; support material extrusion width = 0.40mm
; first layer extrusion width = 0.40mm


M140 S60 ; set bed temperature
;TYPE:Custom
START_PRINT T_BED=60 T_EXTRUDER=225
M107
G21 ; set units to millimeters
G90 ; use absolute coordinates
M82 ; use absolute distances for extrusion
G92 E0
; Filament gcode
M109 S225 ; set temperature and wait for it to be reached
M190 S60 ; set bed temperature and wait for it to be reached
;LAYER_CHANGE
;Z:0.24
;HEIGHT:0.24
G1 Z0.240000 F9000.000
G1 E-0.80000 F2100.000
G1 X151.436 Y150.781 F9000.000
G1 E0.00000 F2100.000
;TYPE:Skirt
;WIDTH:0.4
G1 F900.000
G1 X152.370 Y150.144 E0.03930
G1 X153.413 Y149.710 E0.07860
G1 X154.523 Y149.498 E0.11790
G1 X175.006 Y149.477 E0.83013
G1 X175.982 Y149.565 E0.86421
G1 X176.927 Y149.824 E0.89828
G1 X177.811 Y150.246 E0.93236
G1 X178.607 Y150.818 E0.96643
G1 X179.289 Y151.521 E1.00050
G1 X179.837 Y152.334 E1.03458
G1 X180.232 Y153.231 E1.06865
G1 X180.462 Y154.183 E1.10273
G1 X180.523 Y154.987 E1.13076
G1 X180.517 Y175.255 E1.83555
G1 X180.412 Y176.101 E1.86520
G1 X180.178 Y176.921 E1.89484
G1 X179.820 Y177.695 E1.92449
G1 X179.348 Y178.405 E1.95414
G1 X178.510 Y179.264 E1.99585
G1 X177.502 Y179.924 E2.03776
G1 X176.374 Y180.349 E2.07967
G1 X175.187 Y180.520 E2.12137
G1 X154.727 Y180.516 E2.83282
G1 X153.881 Y180.408 E2.86247
G1 X153.068 Y180.174 E2.89191
G1 X152.300 Y179.817 E2.92136
G1 X151.595 Y179.348 E2.95081
G1 X150.736 Y178.510 E2.99252
G1 X150.076 Y177.502 E3.03442
G1 X149.651 Y176.374 E3.07633
G1 X149.480 Y175.187 E3.11804
G1 X149.484 Y154.727 E3.82949
G1 X149.592 Y153.881 E3.85913
G1 X149.826 Y153.068 E3.88858
G1 X150.183 Y152.300 E3.91803
G1 X150.652 Y151.595 E3.94747
G1 X151.395 Y150.824 E3.98469
G1 X151.645 Y151.069 F9000.000
G1 F900.000
G1 X152.564 Y150.435 E4.02351
G1 X153.541 Y150.036 E4.06019
G1 X154.583 Y149.843 E4.09706
G1 X175.006 Y149.826 E4.80721
G1 X175.922 Y149.909 E4.83922
G1 X176.815 Y150.155 E4.87142
G1 X177.650 Y150.556 E4.90362
G1 X178.395 Y151.095 E4.93563
G1 X179.033 Y151.759 E4.96763
G1 X179.546 Y152.530 E4.99983
G1 X179.912 Y153.374 E5.03184
G1 X180.123 Y154.270 E5.06384
G1 X180.174 Y154.987 E5.08884
G1 X180.169 Y175.230 E5.79275
G1 X180.070 Y176.033 E5.82086
G1 X179.845 Y176.815 E5.84917
G1 X179.504 Y177.548 E5.87728
G1 X179.052 Y178.218 E5.90539
G1 X178.263 Y179.016 E5.94440
G1 X177.321 Y179.624 E5.98340
G1 X176.270 Y180.016 E6.02241
G1 X175.159 Y180.172 E6.06141
G1 X154.753 Y180.168 E6.77100
G1 X153.951 Y180.067 E6.79911
G1 X153.180 Y179.843 E6.82702
G1 X152.447 Y179.501 E6.85513
G1 X151.782 Y179.052 E6.88305
G1 X150.984 Y178.263 E6.92206
G1 X150.376 Y177.321 E6.96106
G1 X149.984 Y176.270 E7.00007
G1 X149.828 Y175.159 E7.03907
G1 X149.832 Y154.753 E7.74866
G1 X149.933 Y153.951 E7.77677
G1 X150.157 Y153.180 E7.80468
G1 X150.499 Y152.447 E7.83279
G1 X150.948 Y151.782 E7.86071
G1 X151.603 Y151.112 E7.89329
G92 E0
G1 E-0.80000 F2100.000
G1 X155.897 Y155.897 F9000.000
G1 E0.00000 F2100.000
;TYPE:Perimeter
G1 F900.000
G1 X174.103 Y155.897 E0.63308
G1 X174.103 Y174.103 E1.26616
G1 X155.897 Y174.103 E1.89924
G1 X155.897 Y155.957 E2.53023
G1 X155.548 Y155.548 F9000.000
G1 F900.000
G1 X174.452 Y155.548 E3.18754
G1 X174.452 Y174.452 E3.84486
G1 X155.548 Y174.452 E4.50217
G1 X155.548 Y155.608 E5.15740
G1 X155.200 Y155.200 F9000.000
;TYPE:External perimeter
G1 F900.000
G1 X174.800 Y155.200 E5.83895
G1 X174.800 Y174.800 E6.52050
G1 X155.200 Y174.800 E7.20205
G1 X155.200 Y155.260 E7.88152
G1 X155.546 Y155.400 F9000.000
G92 E0
G1 E-0.80000 F2100.000
G1 X173.277 Y156.019 F9000.000
G1 E0.00000 F2100.000
;TYPE:Solid infill
;WIDTH:0.403555
G1 F1800.000
G1 X173.824 Y156.567 E0.02717
G1 X173.824 Y157.059 E0.04446
G1 X172.941 Y156.176 E0.08830
G1 X172.448 Y156.176 E0.10559
G1 X173.824 Y157.552 E0.17389
G1 X173.824 Y158.045 E0.19118
G1 X171.955 Y156.176 E0.28393
G1 X171.462 Y156.176 E0.30122
G1 X173.824 Y158.538 E0.41842
G1 X173.824 Y159.031 E0.43571
G1 X170.969 Y156.176 E0.57736
G1 X170.476 Y156.176 E0.59465
G1 X173.824 Y159.524 E0.76075
G1 X173.824 Y160.017 E0.77804
G1 X169.983 Y156.176 E0.96859
G1 X169.491 Y156.176 E0.98588
G1 X173.824 Y160.509 E1.20089
G1 X173.824 Y161.002 E1.21818
G1 X168.998 Y156.176 E1.45764
G1 X168.505 Y156.176 E1.47493
G1 X173.824 Y161.495 E1.73884
G1 X173.824 Y161.988 E1.75613
G1 X168.012 Y156.176 E2.04449
G1 X167.519 Y156.176 E2.06178
G1 X173.824 Y162.481 E2.37459
G1 X173.824 Y162.974 E2.39188
G1 X167.026 Y156.176 E2.72915
G1 X166.534 Y156.176 E2.74644
G1 X173.824 Y163.466 E3.10815
G1 X173.824 Y163.959 E3.12544
G1 X166.041 Y156.176 E3.51161
G1 X165.548 Y156.176 E3.52890
G1 X173.824 Y164.452 E3.93952
G1 X173.824 Y164.945 E3.95681
G1 X165.055 Y156.176 E4.39188
G1 X164.562 Y156.176 E4.40918
G1 X173.824 Y165.438 E4.86870
G1 X173.824 Y165.931 E4.88599
G1 X164.069 Y156.176 E5.36997
G1 X163.576 Y156.176 E5.38726
G1 X173.824 Y166.424 E5.89568
G1 X173.824 Y166.916 E5.91297
G1 X163.084 Y156.176 E6.44585
G1 X162.591 Y156.176 E6.46314
G1 X173.824 Y167.409 E7.02048
G1 X173.824 Y167.902 E7.03777
G1 X162.098 Y156.176 E7.61955
G1 X161.605 Y156.176 E7.63684
G1 X173.824 Y168.395 E8.24307
G1 X173.824 Y168.888 E8.26036
G1 X161.112 Y156.176 E8.89105
G1 X160.619 Y156.176 E8.90834
G1 X173.824 Y169.381 E9.56348
G1 X173.824 Y169.873 E9.58077
G1 X160.127 Y156.176 E10.26036
G1 X159.634 Y156.176 E10.27765
G1 X173.824 Y170.366 E10.98169
G1 X173.824 Y170.859 E10.99898
G1 X159.141 Y156.176 E11.72748
G1 X158.648 Y156.176 E11.74477
G1 X173.824 Y171.352 E12.49772
G1 X173.824 Y171.845 E12.51501
G1 X158.155 Y156.176 E13.29240
G1 X157.662 Y156.176 E13.30969
G1 X173.824 Y172.338 E14.11154
G1 X173.824 Y172.831 E14.12883
G1 X157.169 Y156.176 E14.95514
G1 X156.677 Y156.176 E14.97243
G1 X173.824 Y173.323 E15.82318
G1 X173.824 Y173.816 E15.84047
G1 X156.176 Y156.176 E16.71587
G1 X156.176 Y156.661 E16.73288
G1 X173.339 Y173.824 E17.58443
G1 X172.847 Y173.824 E17.60172
G1 X156.176 Y157.153 E18.42881
G1 X156.176 Y157.646 E18.44610
G1 X172.354 Y173.824 E19.24874
G1 X171.861 Y173.824 E19.26603
G1 X156.176 Y158.139 E20.04422
G1 X156.176 Y158.632 E20.06151
G1 X171.368 Y173.824 E20.81525
G1 X170.875 Y173.824 E20.83254
G1 X156.176 Y159.125 E21.56183
G1 X156.176 Y159.618 E21.57912
G1 X170.382 Y173.824 E22.28395
G1 X169.889 Y173.824 E22.30124
G1 X156.176 Y160.111 E22.98163
G1 X156.176 Y160.603 E22.99892
G1 X169.397 Y173.824 E23.65485
G1 X168.904 Y173.824 E23.67214
G1 X156.176 Y161.096 E24.30362
G1 X156.176 Y161.589 E24.32091
G1 X168.411 Y173.824 E24.92794
G1 X167.918 Y173.824 E24.94523
G1 X156.176 Y162.082 E25.52780
G1 X156.176 Y162.575 E25.54509
G1 X167.425 Y173.824 E26.10321
G1 X166.932 Y173.824 E26.12050
G1 X156.176 Y163.068 E26.65418
G1 X156.176 Y163.560 E26.67147
G1 X166.440 Y173.824 E27.18069
G1 X165.947 Y173.824 E27.19798
G1 X156.176 Y164.053 E27.68274
G1 X156.176 Y164.546 E27.70003
G1 X165.454 Y173.824 E28.16035
G1 X164.961 Y173.824 E28.17764
G1 X156.176 Y165.039 E28.61351
G1 X156.176 Y165.532 E28.63080
G1 X164.468 Y173.824 E29.04221
G1 X163.975 Y173.824 E29.05950
G1 X156.176 Y166.025 E29.44646
G1 X156.176 Y166.518 E29.46375
G1 X163.482 Y173.824 E29.82626
G1 X162.990 Y173.824 E29.84355
G1 X156.176 Y167.010 E30.18161
G1 X156.176 Y167.503 E30.19890
G1 X162.497 Y173.824 E30.51250
G1 X162.004 Y173.824 E30.52979
G1 X156.176 Y167.996 E30.81894
G1 X156.176 Y168.489 E30.83623
G1 X161.511 Y173.824 E31.10094
G1 X161.018 Y173.824 E31.11823
G1 X156.176 Y168.982 E31.35848
G1 X156.176 Y169.475 E31.37577
G1 X160.525 Y173.824 E31.59156
G1 X160.033 Y173.824 E31.60885
G1 X156.176 Y169.967 E31.80020
G1 X156.176 Y170.460 E31.81749
G1 X159.540 Y173.824 E31.98438
G1 X159.047 Y173.824 E32.00167
G1 X156.176 Y170.953 E32.14412
G1 X156.176 Y171.446 E32.16141
G1 X158.554 Y173.824 E32.27940
G1 X158.061 Y173.824 E32.29669
G1 X156.176 Y171.939 E32.39023
G1 X156.176 Y172.432 E32.40752
G1 X157.568 Y173.824 E32.47660
G1 X157.075 Y173.824 E32.49389
G1 X156.176 Y172.925 E32.53853
G1 X156.176 Y173.417 E32.55582
G1 X156.739 Y173.981 E32.58378
;LAYER_CHANGE
;Z:0.44
;HEIGHT:0.2
G1 Z0.440000 F9000.000
G1 X155.914 Y174.086
;TYPE:Perimeter
;WIDTH:0.4
G1 F4800.000
M204 P400
G1 X155.914 Y155.914 E33.12332
G1 X174.086 Y155.914 E33.66286
G1 X174.086 Y174.086 E34.20240
G1 X155.974 Y174.086 E34.74016
M204 P500
G1 X155.557 Y174.443 F9000.000
G1 F4800.000
M204 P400
G1 X155.557 Y155.557 E35.30091
G1 X174.443 Y155.557 E35.86165
G1 X174.443 Y174.443 E36.42240
G1 X155.617 Y174.443 E36.98136
M204 P500
G1 X155.200 Y174.800 F9000.000
;TYPE:External perimeter
G1 F4200.000
M204 P400
G1 X155.200 Y155.200 E37.56331
G1 X174.800 Y155.200 E38.14526
G1 X174.800 Y174.800 E38.72721
G1 X155.260 Y174.800 E39.30738
M204 P500
G1 X155.400 Y174.454 F9000.000
G92 E0
G1 E-0.80000 F2100.000
G1 X173.961 Y173.239 F9000.000
G1 E0.00000 F2100.000
;TYPE:Solid infill
;WIDTH:0.403466
G1 F3600.000
G1 X173.400 Y173.800 E0.02377
G1 X172.895 Y173.800 E0.03889
G1 X173.800 Y172.895 E0.07724
G1 X173.800 Y172.390 E0.09236
G1 X172.390 Y173.800 E0.15210
G1 X171.885 Y173.800 E0.16722
G1 X173.800 Y171.885 E0.24835
G1 X173.800 Y171.380 E0.26347
G1 X171.380 Y173.800 E0.36599
G1 X170.875 Y173.800 E0.38111
G1 X173.800 Y170.875 E0.50501
G1 X173.800 Y170.370 E0.52014
G1 X170.370 Y173.800 E0.66542
G1 X169.865 Y173.800 E0.68055
G1 X173.800 Y169.865 E0.84723
G1 X173.800 Y169.360 E0.86235
G1 X169.360 Y173.800 E1.05041
G1 X168.855 Y173.800 E1.06554
G1 X173.800 Y168.855 E1.27499
G1 X173.800 Y168.350 E1.29012
G1 X168.350 Y173.800 E1.52096
G1 X167.845 Y173.800 E1.53608
G1 X173.800 Y167.845 E1.78831
G1 X173.800 Y167.340 E1.80343
G1 X167.340 Y173.800 E2.07705
G1 X166.835 Y173.800 E2.09217
G1 X173.800 Y166.835 E2.38718
G1 X173.800 Y166.330 E2.40230
G1 X166.330 Y173.800 E2.71870
G1 X165.825 Y173.800 E2.73382
G1 X173.800 Y165.825 E3.07160
G1 X173.800 Y165.320 E3.08673
G1 X165.320 Y173.800 E3.44589
G1 X164.815 Y173.800 E3.46102
G1 X173.800 Y164.815 E3.84158
G1 X173.800 Y164.310 E3.85670
G1 X164.310 Y173.800 E4.25864
G1 X163.805 Y173.800 E4.27377
G1 X173.800 Y163.805 E4.69710
G1 X173.800 Y163.300 E4.71222
G1 X163.300 Y173.800 E5.15695
G1 X162.795 Y173.800 E5.17207
G1 X173.800 Y162.795 E5.63818
G1 X173.800 Y162.290 E5.65330
G1 X162.290 Y173.800 E6.14080
G1 X161.785 Y173.800 E6.15592
G1 X173.800 Y161.785 E6.66481
G1 X173.800 Y161.280 E6.67993
G1 X161.280 Y173.800 E7.21021
G1 X160.775 Y173.800 E7.22533
G1 X173.800 Y160.775 E7.77699
G1 X173.800 Y160.270 E7.79211
G1 X160.270 Y173.800 E8.36516
G1 X159.765 Y173.800 E8.38029
G1 X173.800 Y159.765 E8.97472
G1 X173.800 Y159.260 E8.98985
G1 X159.260 Y173.800 E9.60567
G1 X158.755 Y173.800 E9.62080
G1 X173.800 Y158.755 E10.25801
G1 X173.800 Y158.250 E10.27313
G1 X158.250 Y173.800 E10.93173
G1 X157.745 Y173.800 E10.94686
G1 X173.800 Y157.745 E11.62685
G1 X173.800 Y157.240 E11.64197
G1 X157.240 Y173.800 E12.34335
G1 X156.735 Y173.800 E12.35847
G1 X173.800 Y156.735 E13.08124
G1 X173.800 Y156.230 E13.09636
G1 X156.230 Y173.800 E13.84051
G1 X156.200 Y173.326 E13.85476
G1 X173.326 Y156.200 E14.58010
G1 X172.821 Y156.200 E14.59522
G1 X156.200 Y172.821 E15.29917
G1 X156.200 Y172.316 E15.31429
G1 X172.316 Y156.200 E15.99686
G1 X171.811 Y156.200 E16.01198
G1 X156.200 Y171.811 E16.67316
G1 X156.200 Y171.306 E16.68828
G1 X171.306 Y156.200 E17.32807
G1 X170.801 Y156.200 E17.34319
G1 X156.200 Y170.801 E17.96159
G1 X156.200 Y170.296 E17.97671
G1 X170.296 Y156.200 E18.57372
G1 X169.791 Y156.200 E18.58885
G1 X156.200 Y169.791 E19.16447
G1 X156.200 Y169.286 E19.17959
G1 X169.286 Y156.200 E19.73383
G1 X168.781 Y156.200 E19.74895
G1 X156.200 Y168.781 E20.28180
G1 X156.200 Y168.276 E20.29692
G1 X168.276 Y156.200 E20.80838
G1 X167.771 Y156.200 E20.82351
G1 X156.200 Y167.771 E21.31358
G1 X156.200 Y167.266 E21.32870
G1 X167.266 Y156.200 E21.79738
G1 X166.761 Y156.200 E21.81251
G1 X156.200 Y166.761 E22.25980
G1 X156.200 Y166.256 E22.27493
G1 X166.256 Y156.200 E22.70083
G1 X165.751 Y156.200 E22.71596
G1 X156.200 Y165.751 E23.12047
G1 X156.200 Y165.246 E23.13560
G1 X165.246 Y156.200 E23.51873
G1 X164.741 Y156.200 E23.53385
G1 X156.200 Y164.741 E23.89560
G1 X156.200 Y164.236 E23.91072
G1 X164.236 Y156.200 E24.25107
G1 X163.731 Y156.200 E24.26620
G1 X156.200 Y163.731 E24.58517
G1 X156.200 Y163.226 E24.60029
G1 X163.226 Y156.200 E24.89787
G1 X162.721 Y156.200 E24.91299
G1 X156.200 Y162.721 E25.18918
G1 X156.200 Y162.216 E25.20431
G1 X162.216 Y156.200 E25.45911
G1 X161.711 Y156.200 E25.47423
G1 X156.200 Y161.711 E25.70765
G1 X156.200 Y161.206 E25.72277
G1 X161.206 Y156.200 E25.93480
G1 X160.701 Y156.200 E25.94992
G1 X156.200 Y160.701 E26.14056
G1 X156.200 Y160.196 E26.15569
G1 X160.196 Y156.200 E26.32494
G1 X159.691 Y156.200 E26.34006
G1 X156.200 Y159.691 E26.48792
G1 X156.200 Y159.186 E26.50305
G1 X159.186 Y156.200 E26.62952
G1 X158.681 Y156.200 E26.64465
G1 X156.200 Y158.681 E26.74973
G1 X156.200 Y158.176 E26.76486
G1 X158.176 Y156.200 E26.84856
G1 X157.671 Y156.200 E26.86368
G1 X156.200 Y157.671 E26.92599
G1 X156.200 Y157.166 E26.94111
G1 X157.166 Y156.200 E26.98204
G1 X156.661 Y156.200 E26.99716
G1 X156.039 Y156.822 E27.02350
;LAYER_CHANGE
;Z:0.64
;HEIGHT:0.2
G1 Z0.640000 F9000.000
G1 X155.914 Y155.914
;TYPE:Perimeter
;WIDTH:0.4
G1 F4800.000
M204 P400
G1 X174.086 Y155.914 E27.56304
G1 X174.086 Y174.086 E28.10258
G1 X155.914 Y174.086 E28.64212
G1 X155.914 Y155.974 E29.17988
M204 P500
G1 X155.557 Y155.557 F9000.000
G1 F4800.000
M204 P400
G1 X174.443 Y155.557 E29.74063
G1 X174.443 Y174.443 E30.30137
G1 X155.557 Y174.443 E30.86212
G1 X155.557 Y155.617 E31.42108
M204 P500
G1 X155.200 Y155.200 F9000.000
;TYPE:External perimeter
G1 F4200.000
M204 P400
G1 X174.800 Y155.200 E32.00303
G1 X174.800 Y174.800 E32.58498
G1 X155.200 Y174.800 E33.16693
G1 X155.200 Y155.260 E33.74710
M204 P500
G1 X155.546 Y155.400 F9000.000
G92 E0
G1 E-0.80000 F2100.000
G1 X173.239 Y156.039 F9000.000
G1 E0.00000 F2100.000
;TYPE:Solid infill
;WIDTH:0.403466
G1 F3600.000
G1 X173.800 Y156.600 E0.02377
G1 X173.800 Y157.105 E0.03889
G1 X172.895 Y156.200 E0.07724
G1 X172.390 Y156.200 E0.09236
G1 X173.800 Y157.610 E0.15210
G1 X173.800 Y158.115 E0.16722
G1 X171.885 Y156.200 E0.24835
G1 X171.380 Y156.200 E0.26347
G1 X173.800 Y158.620 E0.36599
G1 X173.800 Y159.125 E0.38111
G1 X170.875 Y156.200 E0.50501
G1 X170.370 Y156.200 E0.52014
G1 X173.800 Y159.630 E0.66542
G1 X173.800 Y160.135 E0.68055
G1 X169.865 Y156.200 E0.84723
G1 X169.360 Y156.200 E0.86235
G1 X173.800 Y160.640 E1.05041
G1 X173.800 Y161.145 E1.06554
G1 X168.855 Y156.200 E1.27499
G1 X168.350 Y156.200 E1.29012
G1 X173.800 Y161.650 E1.52096
G1 X173.800 Y162.155 E1.53608
G1 X167.845 Y156.200 E1.78831
G1 X167.340 Y156.200 E1.80343
G1 X173.800 Y162.660 E2.07705
G1 X173.800 Y163.165 E2.09217
G1 X166.835 Y156.200 E2.38718
G1 X166.330 Y156.200 E2.40230
G1 X173.800 Y163.670 E2.71870
G1 X173.800 Y164.175 E2.73382
G1 X165.825 Y156.200 E3.07160
G1 X165.320 Y156.200 E3.08673
G1 X173.800 Y164.680 E3.44589
G1 X173.800 Y165.185 E3.46102
G1 X164.815 Y156.200 E3.84158
G1 X164.310 Y156.200 E3.85670
G1 X173.800 Y165.690 E4.25864
G1 X173.800 Y166.195 E4.27377
G1 X163.805 Y156.200 E4.69710
G1 X163.300 Y156.200 E4.71222
G1 X173.800 Y166.700 E5.15695
G1 X173.800 Y167.205 E5.17207
G1 X162.795 Y156.200 E5.63818
G1 X162.290 Y156.200 E5.65330
G1 X173.800 Y167.710 E6.14080
G1 X173.800 Y168.215 E6.15592
G1 X161.785 Y156.200 E6.66481
G1 X161.280 Y156.200 E6.67993
G1 X173.800 Y168.720 E7.21021
G1 X173.800 Y169.225 E7.22533
G1 X160.775 Y156.200 E7.77699
G1 X160.270 Y156.200 E7.79211
G1 X173.800 Y169.730 E8.36516
G1 X173.800 Y170.235 E8.38029
G1 X159.765 Y156.200 E8.97472
G1 X159.260 Y156.200 E8.98985
G1 X173.800 Y170.740 E9.60567
G1 X173.800 Y171.245 E9.62080
G1 X158.755 Y156.200 E10.25801
G1 X158.250 Y156.200 E10.27313
G1 X173.800 Y171.750 E10.93173
G1 X173.800 Y172.255 E10.94686
G1 X157.745 Y156.200 E11.62685
G1 X157.240 Y156.200 E11.64197
G1 X173.800 Y172.760 E12.34335
