; generated by SuperSlicer 2.3.56 on 2021-05-29 at 06:06:16 UTC

; 

; external perimeters extrusion width = 0.40mm
; perimeters extrusion width = 0.40mm
; infill extrusion width = 0.40mm
; solid infill extrusion width = 0.40mm
; top infill extrusion width = 0.40mm
; first layer extrusion width = 0.40mm


M140 S70 ; set bed temperature
M104 S245 ; set temperature
;TYPE:Custom
START_PRINT T_BED=70 T_EXTRUDER=245
M107
G21 ; set units to millimeters
G90 ; use absolute coordinates
M82 ; use absolute distances for extrusion
G92 E0
; Filament gcode
M109 S245 ; set temperature and wait for it to be reached
M190 S70 ; set bed temperature and wait for it to be reached
M107
;LAYER_CHANGE
;Z:0.24
;HEIGHT:0.24
G1 Z0.240000 F9000.000
G1 E-1.00000 F2100.000
G1 X151.436 Y150.781 F9000.000
G1 E0.00000 F2100.000
;TYPE:Skirt
;WIDTH:0.4
G1 F900.000
G1 X152.370 Y150.144 E0.03930
G1 X153.413 Y149.710 E0.07860
G1 X154.523 Y149.498 E0.11790
G1 X175.006 Y149.477 E0.83013
G1 X175.982 Y149.565 E0.86421
G1 X176.927 Y149.824 E0.89828
G1 X177.811 Y150.246 E0.93236
G1 X178.607 Y150.818 E0.96643
G1 X179.289 Y151.521 E1.00050
G1 X179.837 Y152.334 E1.03458
G1 X180.232 Y153.231 E1.06865
G1 X180.462 Y154.183 E1.10273
G1 X180.523 Y154.987 E1.13076
G1 X180.517 Y175.255 E1.83555
G1 X180.412 Y176.101 E1.86520
G1 X180.178 Y176.921 E1.89484
G1 X179.820 Y177.695 E1.92449
G1 X179.348 Y178.405 E1.95414
G1 X178.510 Y179.264 E1.99585
G1 X177.502 Y179.924 E2.03776
G1 X176.374 Y180.349 E2.07967
G1 X175.187 Y180.520 E2.12137
G1 X154.727 Y180.516 E2.83282
G1 X153.881 Y180.408 E2.86247
G1 X153.068 Y180.174 E2.89191
G1 X152.300 Y179.817 E2.92136
G1 X151.595 Y179.348 E2.95081
G1 X150.736 Y178.510 E2.99252
G1 X150.076 Y177.502 E3.03442
G1 X149.651 Y176.374 E3.07633
G1 X149.480 Y175.187 E3.11804
G1 X149.484 Y154.727 E3.82949
G1 X149.592 Y153.881 E3.85913
G1 X149.826 Y153.068 E3.88858
G1 X150.183 Y152.300 E3.91803
G1 X150.652 Y151.595 E3.94747
G1 X151.395 Y150.824 E3.98469
G1 X151.645 Y151.069 F9000.000
G1 F900.000
G1 X151.689 Y151.024 E3.98688
G1 X152.564 Y150.435 E4.02356
G1 X153.541 Y150.036 E4.06023
G1 X154.583 Y149.843 E4.09710
G1 X175.006 Y149.826 E4.80726
G1 X175.922 Y149.909 E4.83926
G1 X176.815 Y150.155 E4.87146
G1 X177.650 Y150.556 E4.90366
G1 X178.395 Y151.095 E4.93567
G1 X179.033 Y151.759 E4.96767
G1 X179.546 Y152.530 E4.99987
G1 X179.912 Y153.374 E5.03188
G1 X180.123 Y154.270 E5.06389
G1 X180.174 Y154.987 E5.08888
G1 X180.169 Y175.230 E5.79279
G1 X180.070 Y176.033 E5.82091
G1 X179.845 Y176.815 E5.84921
G1 X179.504 Y177.548 E5.87732
G1 X179.052 Y178.218 E5.90543
G1 X178.263 Y179.016 E5.94444
G1 X177.321 Y179.624 E5.98345
G1 X176.270 Y180.016 E6.02245
G1 X175.159 Y180.172 E6.06146
G1 X154.753 Y180.168 E6.77104
G1 X153.951 Y180.067 E6.79915
G1 X153.180 Y179.843 E6.82707
G1 X152.447 Y179.501 E6.85518
G1 X151.782 Y179.052 E6.88309
G1 X150.984 Y178.263 E6.92210
G1 X150.376 Y177.321 E6.96111
G1 X149.984 Y176.270 E7.00011
G1 X149.828 Y175.159 E7.03912
G1 X149.832 Y154.753 E7.74870
G1 X149.933 Y153.951 E7.77681
G1 X150.157 Y153.180 E7.80473
G1 X150.499 Y152.447 E7.83284
G1 X150.948 Y151.782 E7.86075
G1 X151.603 Y151.112 E7.89334
G92 E0
G1 E-1.00000 F2100.000
G1 X155.548 Y155.548 F9000.000
G1 E0.00000 F2100.000
;TYPE:Perimeter
G1 F900.000
G1 X174.452 Y155.548 E0.65731
G1 X174.452 Y174.452 E1.31463
G1 X155.548 Y174.452 E1.97194
G1 X155.548 Y155.608 E2.62717
G1 X155.200 Y155.200 F9000.000
;TYPE:External perimeter
G1 F900.000
G1 X174.800 Y155.200 E3.30872
G1 X174.800 Y174.800 E3.99028
G1 X155.200 Y174.800 E4.67183
G1 X155.200 Y155.260 E5.35129
G1 X155.546 Y155.400 F9000.000
G92 E0
G1 E-1.00000 F2100.000
G1 X173.625 Y155.670 F9000.000
G1 E0.00000 F2100.000
;TYPE:Solid infill
;WIDTH:0.403433
G1 F1800.000
G1 X174.173 Y156.218 E0.02716
G1 X174.173 Y156.711 E0.04445
G1 X173.289 Y155.827 E0.08828
G1 X172.796 Y155.827 E0.10556
G1 X174.173 Y157.204 E0.17384
G1 X174.173 Y157.697 E0.19112
G1 X172.303 Y155.827 E0.28384
G1 X171.810 Y155.827 E0.30113
G1 X174.173 Y158.190 E0.41829
G1 X174.173 Y158.682 E0.43557
G1 X171.318 Y155.827 E0.57718
G1 X170.825 Y155.827 E0.59447
G1 X174.173 Y159.175 E0.76052
G1 X174.173 Y159.668 E0.77780
G1 X170.332 Y155.827 E0.96830
G1 X169.839 Y155.827 E0.98559
G1 X174.173 Y160.161 E1.20053
G1 X174.173 Y160.654 E1.21781
G1 X169.346 Y155.827 E1.45720
G1 X168.853 Y155.827 E1.47448
G1 X174.173 Y161.147 E1.73831
G1 X174.173 Y161.639 E1.75560
G1 X168.361 Y155.827 E2.04387
G1 X167.868 Y155.827 E2.06116
G1 X174.173 Y162.132 E2.37388
G1 X174.173 Y162.625 E2.39116
G1 X167.375 Y155.827 E2.72832
G1 X166.882 Y155.827 E2.74561
G1 X174.173 Y163.118 E3.10722
G1 X174.173 Y163.611 E3.12450
G1 X166.389 Y155.827 E3.51055
G1 X165.896 Y155.827 E3.52784
G1 X174.173 Y164.104 E3.93834
G1 X174.173 Y164.597 E3.95562
G1 X165.403 Y155.827 E4.39056
G1 X164.911 Y155.827 E4.40785
G1 X174.173 Y165.089 E4.86723
G1 X174.173 Y165.582 E4.88452
G1 X164.418 Y155.827 E5.36835
G1 X163.925 Y155.827 E5.38563
G1 X174.173 Y166.075 E5.89391
G1 X174.173 Y166.568 E5.91119
G1 X163.432 Y155.827 E6.44391
G1 X162.939 Y155.827 E6.46120
G1 X174.173 Y167.061 E7.01836
G1 X174.173 Y167.554 E7.03565
G1 X162.446 Y155.827 E7.61725
G1 X161.954 Y155.827 E7.63454
G1 X174.173 Y168.046 E8.24059
G1 X174.173 Y168.539 E8.25788
G1 X161.461 Y155.827 E8.88837
G1 X160.968 Y155.827 E8.90566
G1 X174.173 Y169.032 E9.56060
G1 X174.173 Y169.525 E9.57789
G1 X160.475 Y155.827 E10.25727
G1 X159.982 Y155.827 E10.27456
G1 X174.173 Y170.018 E10.97839
G1 X174.173 Y170.511 E10.99567
G1 X159.489 Y155.827 E11.72395
G1 X158.996 Y155.827 E11.74123
G1 X174.173 Y171.004 E12.49395
G1 X174.173 Y171.496 E12.51124
G1 X158.504 Y155.827 E13.28840
G1 X158.011 Y155.827 E13.30568
G1 X174.173 Y171.989 E14.10729
G1 X174.173 Y172.482 E14.12458
G1 X157.518 Y155.827 E14.95063
G1 X157.025 Y155.827 E14.96792
G1 X174.173 Y172.975 E15.81841
G1 X174.173 Y173.468 E15.83570
G1 X156.532 Y155.827 E16.71064
G1 X156.039 Y155.827 E16.72793
G1 X174.173 Y173.961 E17.62731
G1 X174.173 Y174.173 E17.63475
G1 X173.892 Y174.173 E17.64460
G1 X155.827 Y156.108 E18.54058
G1 X155.827 Y156.601 E18.55787
G1 X173.399 Y174.173 E19.42941
G1 X172.906 Y174.173 E19.44669
G1 X155.827 Y157.094 E20.29379
G1 X155.827 Y157.587 E20.31107
G1 X172.413 Y174.173 E21.13372
G1 X171.921 Y174.173 E21.15101
G1 X155.827 Y158.079 E21.94921
G1 X155.827 Y158.572 E21.96650
G1 X171.428 Y174.173 E22.74026
G1 X170.935 Y174.173 E22.75754
G1 X155.827 Y159.065 E23.50686
G1 X155.827 Y159.558 E23.52415
G1 X170.442 Y174.173 E24.24902
G1 X169.949 Y174.173 E24.26630
G1 X155.827 Y160.051 E24.96673
G1 X155.827 Y160.544 E24.98402
G1 X169.456 Y174.173 E25.66000
G1 X168.964 Y174.173 E25.67728
G1 X155.827 Y161.036 E26.32882
G1 X155.827 Y161.529 E26.34611
G1 X168.471 Y174.173 E26.97320
G1 X167.978 Y174.173 E26.99049
G1 X155.827 Y162.022 E27.59314
G1 X155.827 Y162.515 E27.61042
G1 X167.485 Y174.173 E28.18863
G1 X166.992 Y174.173 E28.20592
G1 X155.827 Y163.008 E28.75968
G1 X155.827 Y163.501 E28.77696
G1 X166.499 Y174.173 E29.30628
G1 X166.006 Y174.173 E29.32356
G1 X155.827 Y163.994 E29.82844
G1 X155.827 Y164.486 E29.84572
G1 X165.514 Y174.173 E30.32615
G1 X165.021 Y174.173 E30.34343
G1 X155.827 Y164.979 E30.79942
G1 X155.827 Y165.472 E30.81670
G1 X164.528 Y174.173 E31.24824
G1 X164.035 Y174.173 E31.26553
G1 X155.827 Y165.965 E31.67262
G1 X155.827 Y166.458 E31.68991
G1 X163.542 Y174.173 E32.07256
G1 X163.049 Y174.173 E32.08984
G1 X155.827 Y166.951 E32.44805
G1 X155.827 Y167.443 E32.46533
G1 X162.557 Y174.173 E32.79909
G1 X162.064 Y174.173 E32.81638
G1 X155.827 Y167.936 E33.12569
G1 X155.827 Y168.429 E33.14298
G1 X161.571 Y174.173 E33.42785
G1 X161.078 Y174.173 E33.44514
G1 X155.827 Y168.922 E33.70556
G1 X155.827 Y169.415 E33.72285
G1 X160.585 Y174.173 E33.95883
G1 X160.092 Y174.173 E33.97612
G1 X155.827 Y169.908 E34.18766
G1 X155.827 Y170.401 E34.20494
G1 X159.599 Y174.173 E34.39204
G1 X159.107 Y174.173 E34.40932
G1 X155.827 Y170.893 E34.57197
G1 X155.827 Y171.386 E34.58926
G1 X158.614 Y174.173 E34.72746
G1 X158.121 Y174.173 E34.74475
G1 X155.827 Y171.879 E34.85851
G1 X155.827 Y172.372 E34.87579
G1 X157.628 Y174.173 E34.96511
G1 X157.135 Y174.173 E34.98239
G1 X155.827 Y172.865 E35.04726
G1 X155.827 Y173.358 E35.06455
G1 X156.642 Y174.173 E35.10498
G1 X156.150 Y174.173 E35.12226
G1 X155.670 Y173.694 E35.14602
;LAYER_CHANGE
;Z:0.44
;HEIGHT:0.2
G1 Z0.440000 F9000.000
G1 X155.557 Y174.443
;TYPE:Perimeter
;WIDTH:0.4
G1 F2400.000
G1 X155.557 Y155.557 E35.70677
G1 X174.443 Y155.557 E36.26751
G1 X174.443 Y174.443 E36.82826
G1 X155.617 Y174.443 E37.38722
G1 X155.200 Y174.800 F9000.000
;TYPE:External perimeter
G1 F1800.000
G1 X155.200 Y155.200 E37.96917
G1 X174.800 Y155.200 E38.55112
G1 X174.800 Y174.800 E39.13307
G1 X155.260 Y174.800 E39.71324
G1 X155.400 Y174.454 F9000.000
G92 E0
G1 E-1.00000 F2100.000
G1 X173.596 Y174.318 F9000.000
G1 E0.00000 F2100.000
;TYPE:Solid infill
;WIDTH:0.403328
G1 F1800.000
G1 X174.157 Y173.757 E0.02376
G1 X174.157 Y173.252 E0.03888
G1 X173.252 Y174.157 E0.07721
G1 X172.747 Y174.157 E0.09233
G1 X174.157 Y172.747 E0.15205
G1 X174.157 Y172.242 E0.16717
G1 X172.242 Y174.157 E0.24826
G1 X171.737 Y174.157 E0.26338
G1 X174.157 Y171.737 E0.36586
G1 X174.157 Y171.232 E0.38098
G1 X171.232 Y174.157 E0.50484
G1 X170.727 Y174.157 E0.51996
G1 X174.157 Y170.727 E0.66520
G1 X174.157 Y170.222 E0.68032
G1 X170.222 Y174.157 E0.84694
G1 X169.717 Y174.157 E0.86205
G1 X174.157 Y169.717 E1.05006
G1 X174.157 Y169.212 E1.06517
G1 X169.212 Y174.157 E1.27456
G1 X168.707 Y174.157 E1.28967
G1 X174.157 Y168.707 E1.52044
G1 X174.157 Y168.202 E1.53555
G1 X168.202 Y174.157 E1.78770
G1 X167.697 Y174.157 E1.80282
G1 X174.157 Y167.697 E2.07634
G1 X174.157 Y167.192 E2.09146
G1 X167.192 Y174.157 E2.38636
G1 X166.687 Y174.157 E2.40148
G1 X174.157 Y166.687 E2.71777
G1 X174.157 Y166.182 E2.73288
G1 X166.182 Y174.157 E3.07055
G1 X165.677 Y174.157 E3.08567
G1 X174.157 Y165.677 E3.44471
G1 X174.157 Y165.172 E3.45983
G1 X165.172 Y174.157 E3.84026
G1 X164.667 Y174.157 E3.85538
G1 X174.157 Y164.667 E4.25719
G1 X174.157 Y164.162 E4.27230
G1 X164.162 Y174.157 E4.69549
G1 X163.657 Y174.157 E4.71061
G1 X174.157 Y163.657 E5.15518
G1 X174.157 Y163.152 E5.17030
G1 X163.152 Y174.157 E5.63625
G1 X162.647 Y174.157 E5.65137
G1 X174.157 Y162.647 E6.13870
G1 X174.157 Y162.142 E6.15382
G1 X162.142 Y174.157 E6.66253
G1 X161.637 Y174.157 E6.67765
G1 X174.157 Y161.637 E7.20774
G1 X174.157 Y161.132 E7.22286
G1 X161.132 Y174.157 E7.77433
G1 X160.627 Y174.157 E7.78945
G1 X174.157 Y160.627 E8.36230
G1 X174.157 Y160.122 E8.37742
G1 X160.122 Y174.157 E8.97165
G1 X159.617 Y174.157 E8.98677
G1 X174.157 Y159.617 E9.60238
G1 X174.157 Y159.112 E9.61750
G1 X159.112 Y174.157 E10.25450
G1 X158.607 Y174.157 E10.26962
G1 X174.157 Y158.607 E10.92799
G1 X174.157 Y158.102 E10.94311
G1 X158.102 Y174.157 E11.62287
G1 X157.597 Y174.157 E11.63799
G1 X174.157 Y157.597 E12.33912
G1 X174.157 Y157.092 E12.35424
G1 X157.092 Y174.157 E13.07676
G1 X156.587 Y174.157 E13.09188
G1 X174.157 Y156.587 E13.83578
G1 X174.157 Y156.082 E13.85089
G1 X156.082 Y174.157 E14.61617
G1 X155.843 Y174.157 E14.62335
G1 X155.843 Y173.892 E14.63129
G1 X173.892 Y155.843 E15.39548
G1 X173.387 Y155.843 E15.41059
G1 X155.843 Y173.387 E16.15340
G1 X155.843 Y172.882 E16.16852
G1 X172.882 Y155.843 E16.88994
G1 X172.377 Y155.843 E16.90506
G1 X155.843 Y172.377 E17.60510
G1 X155.843 Y171.872 E17.62022
G1 X171.872 Y155.843 E18.29888
G1 X171.367 Y155.843 E18.31400
G1 X155.843 Y171.367 E18.97128
G1 X155.843 Y170.862 E18.98639
G1 X170.862 Y155.843 E19.62229
G1 X170.357 Y155.843 E19.63741
G1 X155.843 Y170.357 E20.25193
G1 X155.843 Y169.852 E20.26705
G1 X169.852 Y155.843 E20.86019
G1 X169.347 Y155.843 E20.87531
G1 X155.843 Y169.347 E21.44706
G1 X155.843 Y168.842 E21.46218
G1 X168.842 Y155.843 E22.01256
G1 X168.337 Y155.843 E22.02768
G1 X155.843 Y168.337 E22.55667
G1 X155.843 Y167.832 E22.57179
G1 X167.832 Y155.843 E23.07941
G1 X167.327 Y155.843 E23.09453
G1 X155.843 Y167.327 E23.58076
G1 X155.843 Y166.822 E23.59588
G1 X166.822 Y155.843 E24.06073
G1 X166.317 Y155.843 E24.07585
G1 X155.843 Y166.317 E24.51933
G1 X155.843 Y165.812 E24.53444
G1 X165.812 Y155.843 E24.95654
G1 X165.307 Y155.843 E24.97166
G1 X155.843 Y165.307 E25.37237
G1 X155.843 Y164.802 E25.38749
G1 X164.802 Y155.843 E25.76682
G1 X164.297 Y155.843 E25.78194
G1 X155.843 Y164.297 E26.13989
G1 X155.843 Y163.792 E26.15501
G1 X163.792 Y155.843 E26.49158
G1 X163.287 Y155.843 E26.50669
G1 X155.843 Y163.287 E26.82188
G1 X155.843 Y162.782 E26.83700
G1 X162.782 Y155.843 E27.13081
G1 X162.277 Y155.843 E27.14593
G1 X155.843 Y162.277 E27.41836
G1 X155.843 Y161.772 E27.43348
G1 X161.772 Y155.843 E27.68452
G1 X161.267 Y155.843 E27.69964
G1 X155.843 Y161.267 E27.92931
G1 X155.843 Y160.762 E27.94443
G1 X160.762 Y155.843 E28.15271
G1 X160.257 Y155.843 E28.16783
G1 X155.843 Y160.257 E28.35474
G1 X155.843 Y159.752 E28.36986
G1 X159.752 Y155.843 E28.53538
G1 X159.247 Y155.843 E28.55050
G1 X155.843 Y159.247 E28.69464
G1 X155.843 Y158.742 E28.70976
G1 X158.742 Y155.843 E28.83253
G1 X158.237 Y155.843 E28.84764
G1 X155.843 Y158.237 E28.94903
G1 X155.843 Y157.732 E28.96415
G1 X157.732 Y155.843 E29.04415
G1 X157.227 Y155.843 E29.05927
G1 X155.843 Y157.227 E29.11789
G1 X155.843 Y156.722 E29.13301
G1 X156.722 Y155.843 E29.17025
G1 X156.217 Y155.843 E29.18537
G1 X155.682 Y156.378 E29.20803
;LAYER_CHANGE
;Z:0.64
;HEIGHT:0.2
G1 Z0.640000 F9000.000
G1 X155.557 Y155.557
;TYPE:Perimeter
;WIDTH:0.4
G1 F2400.000
G1 X174.443 Y155.557 E29.76877
G1 X174.443 Y174.443 E30.32952
G1 X155.557 Y174.443 E30.89026
G1 X155.557 Y155.617 E31.44923
G1 X155.200 Y155.200 F9000.000
;TYPE:External perimeter
G1 F1800.000
G1 X174.800 Y155.200 E32.03118
G1 X174.800 Y174.800 E32.61313
G1 X155.200 Y174.800 E33.19508
G1 X155.200 Y155.260 E33.77524
G1 X155.546 Y155.400 F9000.000
G92 E0
G1 E-1.00000 F2100.000
G1 X174.318 Y156.399 F9000.000
G1 E0.00000 F2100.000
;TYPE:Internal infill
G1 F1800.000
G1 X173.762 Y155.843 E0.02336
G1 X172.133 Y155.843 E0.07173
G1 X174.157 Y157.867 E0.15674
G1 X174.157 Y159.496 E0.20511
G1 X170.504 Y155.843 E0.35853
G1 X168.875 Y155.843 E0.40689
G1 X174.157 Y161.125 E0.62871
G1 X174.157 Y162.754 E0.67708
G1 X167.246 Y155.843 E0.96729
G1 X165.617 Y155.843 E1.01566
G1 X174.157 Y164.383 E1.37428
G1 X174.157 Y166.012 E1.42265
G1 X163.988 Y155.843 E1.84966
G1 X162.359 Y155.843 E1.89803
G1 X174.157 Y167.641 E2.39345
G1 X174.157 Y169.270 E2.44182
G1 X160.730 Y155.843 E3.00564
G1 X159.101 Y155.843 E3.05401
G1 X174.157 Y170.899 E3.68623
G1 X174.157 Y172.528 E3.73459
G1 X157.472 Y155.843 E4.43522
G1 X155.843 Y155.843 E4.48358
G1 X174.157 Y174.157 E5.25261
G1 X172.528 Y174.157 E5.30097
G1 X155.843 Y157.472 E6.00160
G1 X155.843 Y159.101 E6.04996
G1 X170.899 Y174.157 E6.68218
G1 X169.270 Y174.157 E6.73055
G1 X155.843 Y160.730 E7.29437
G1 X155.843 Y162.359 E7.34274
G1 X167.641 Y174.157 E7.83816
G1 X166.012 Y174.157 E7.88653
G1 X155.843 Y163.988 E8.31354
G1 X155.843 Y165.617 E8.36191
G1 X164.383 Y174.157 E8.72053
G1 X162.754 Y174.157 E8.76890
G1 X155.843 Y167.246 E9.05911
G1 X155.843 Y168.875 E9.10748
G1 X161.125 Y174.157 E9.32930
G1 X159.496 Y174.157 E9.37766
G1 X155.843 Y170.504 E9.53108
G1 X155.843 Y172.133 E9.57945
G1 X157.867 Y174.157 E9.66446
G1 X156.238 Y174.157 E9.71283
G1 X155.682 Y173.601 E9.73619
;LAYER_CHANGE
;Z:0.84
;HEIGHT:0.2
G1 Z0.840000 F9000.000
G1 X155.557 Y174.443
;TYPE:Perimeter
G1 F2400.000
G1 X155.557 Y155.557 E10.29693
G1 X174.443 Y155.557 E10.85768
G1 X174.443 Y174.443 E11.41842
G1 X155.617 Y174.443 E11.97739
G1 X155.200 Y174.800 F9000.000
;TYPE:External perimeter
G1 F1800.000
G1 X155.200 Y155.200 E12.55934
G1 X174.800 Y155.200 E13.14129
G1 X174.800 Y174.800 E13.72324
G1 X155.260 Y174.800 E14.30340
G1 X155.400 Y174.454 F9000.000
G92 E0
G1 E-1.00000 F2100.000
G1 X156.399 Y155.682 F9000.000
G1 E0.00000 F2100.000
;TYPE:Internal infill
G1 F1800.000
G1 X155.843 Y156.238 E0.02336
G1 X155.843 Y157.867 E0.07173
G1 X157.867 Y155.843 E0.15674
G1 X159.496 Y155.843 E0.20511
G1 X155.843 Y159.496 E0.35853
G1 X155.843 Y161.125 E0.40689
G1 X161.125 Y155.843 E0.62871
G1 X162.754 Y155.843 E0.67708
