; generated by SuperSlicer 2.3.56 on 2021-06-25 at 06:59:15 UTC


;
;

;
;
; 

; external perimeters extrusion width = 0.40mm
; perimeters extrusion width = 0.40mm
; infill extrusion width = 0.40mm
; solid infill extrusion width = 0.40mm
; top infill extrusion width = 0.40mm
; support material extrusion width = 0.40mm
; first layer extrusion width = 0.48mm


;TYPE:Custom
START_PRINT T_BED=60 T_EXTRUDER=200
M107
G21 ; set units to millimeters
G90 ; use absolute coordinates
M83 ; use relative distances for extrusion
; Filament gcode
M109 S200 ; set temperature and wait for it to be reached
M190 S60 ; set bed temperature and wait for it to be reached
;LAYER_CHANGE
;Z:0.24
;HEIGHT:0.24
G1 Z0.240000 F6000.000
TIMELAPSE_TAKE_FRAME
G1 E-0.80000 F3000.000
G1 X150.051 Y142.029 F6000.000
G1 E0.80000 F1800.000
;TYPE:Skirt
;WIDTH:0.48
G1 F1200.000
G1 X150.850 Y141.197 E0.04934
G1 X151.802 Y140.544 E0.04934
G1 X152.867 Y140.099 E0.04934
G1 X154.000 Y139.879 E0.04934
G1 X174.506 Y139.857 E0.87675
G1 X175.498 Y139.946 E0.04260
G1 X176.465 Y140.210 E0.04285
G1 X177.370 Y140.642 E0.04285
G1 X178.180 Y141.222 E0.04260
G1 X178.875 Y141.936 E0.04260
G1 X179.436 Y142.766 E0.04285
G1 X179.840 Y143.677 E0.04260
G1 X180.078 Y144.650 E0.04285
G1 X180.143 Y145.486 E0.03585
G1 X180.137 Y165.764 E0.86698
G1 X180.029 Y166.625 E0.03710
G1 X179.792 Y167.460 E0.03710
G1 X179.429 Y168.248 E0.03710
G1 X178.949 Y168.971 E0.03710
G1 X178.091 Y169.852 E0.05259
G1 X177.063 Y170.527 E0.05259
G1 X175.913 Y170.963 E0.05259
G1 X174.696 Y171.139 E0.05259
G1 X154.218 Y171.136 E0.87551
G1 X153.363 Y171.027 E0.03685
G1 X152.535 Y170.790 E0.03685
G1 X151.747 Y170.426 E0.03710
G1 X151.029 Y169.949 E0.03685
G1 X150.148 Y169.091 E0.05259
G1 X149.473 Y168.063 E0.05259
G1 X149.037 Y166.913 E0.05259
G1 X148.861 Y165.696 E0.05259
G1 X148.864 Y145.218 E0.87551
G1 X148.973 Y144.363 E0.03685
G1 X149.210 Y143.535 E0.03685
G1 X149.574 Y142.747 E0.03710
G1 X150.018 Y142.079 E0.03428
G1 X150.375 Y142.320 F6000.000
G1 F1200.000
G1 X150.416 Y142.259 E0.00313
G1 X151.159 Y141.497 E0.04551
G1 X152.041 Y140.902 E0.04551
G1 X153.026 Y140.498 E0.04551
G1 X154.073 Y140.303 E0.04551
G1 X174.506 Y140.286 E0.87363
G1 X175.431 Y140.370 E0.03975
G1 X176.322 Y140.615 E0.03950
G1 X177.161 Y141.016 E0.03975
G1 X177.915 Y141.560 E0.03975
G1 X178.560 Y142.229 E0.03975
G1 X179.077 Y143.002 E0.03975
G1 X179.448 Y143.854 E0.03975
G1 X179.661 Y144.759 E0.03975
G1 X179.714 Y145.489 E0.03133
G1 X179.709 Y165.737 E0.86569
G1 X179.608 Y166.548 E0.03494
G1 X179.383 Y167.328 E0.03470
G1 X179.041 Y168.063 E0.03470
G1 X178.584 Y168.741 E0.03494
G1 X177.789 Y169.546 E0.04839
G1 X176.839 Y170.160 E0.04839
G1 X175.783 Y170.554 E0.04815
G1 X174.663 Y170.712 E0.04839
G1 X154.252 Y170.708 E0.87268
G1 X153.447 Y170.607 E0.03470
G1 X152.667 Y170.381 E0.03470
G1 X151.932 Y170.038 E0.03470
G1 X151.259 Y169.584 E0.03470
G1 X150.454 Y168.789 E0.04839
G1 X149.840 Y167.839 E0.04839
G1 X149.446 Y166.783 E0.04815
G1 X149.288 Y165.663 E0.04839
G1 X149.292 Y145.252 E0.87268
G1 X149.393 Y144.447 E0.03470
G1 X149.619 Y143.667 E0.03470
G1 X149.962 Y142.932 E0.03470
G1 X150.341 Y142.369 E0.02900
G1 E-0.80000 F3000.000
G1 X155.168 Y146.168 F6000.000
G1 E0.80000 F1800.000
;TYPE:Internal perimeter
G1 F1200.000
G1 X173.832 Y146.168 E0.79795
G1 X173.832 Y164.832 E0.79795
G1 X155.168 Y164.832 E0.79795
G1 X155.168 Y146.228 E0.79538
G1 X154.740 Y145.740 F6000.000
;TYPE:External perimeter
G1 F1200.000
G1 X174.260 Y145.740 E0.83459
G1 X174.260 Y165.260 E0.83459
G1 X154.740 Y165.260 E0.83459
G1 X154.740 Y145.800 E0.83202
G1 X155.086 Y145.940 F6000.000
G1 E-0.80000 F3000.000
G1 X173.682 Y147.185 F6000.000
G1 E0.80000 F1800.000
;TYPE:Solid infill
;WIDTH:0.482561
G1 X173.008 Y146.511 E0.04093
G1 X172.402 Y146.511 E0.02605
G1 X173.489 Y147.598 E0.06605
G1 X173.489 Y148.204 E0.02605
G1 X171.796 Y146.511 E0.10288
G1 X171.190 Y146.511 E0.02605
G1 X173.489 Y148.810 E0.13972
G1 X173.489 Y149.416 E0.02605
G1 X170.584 Y146.511 E0.17656
G1 X169.978 Y146.511 E0.02605
G1 X173.489 Y150.022 E0.21339
G1 X173.489 Y150.628 E0.02605
G1 X169.372 Y146.511 E0.25023
G1 X168.766 Y146.511 E0.02605
G1 X173.489 Y151.234 E0.28707
G1 X173.489 Y151.840 E0.02605
G1 X168.160 Y146.511 E0.32390
G1 X167.554 Y146.511 E0.02605
G1 X173.489 Y152.446 E0.36074
G1 X173.489 Y153.052 E0.02605
G1 X166.948 Y146.511 E0.39758
G1 X166.342 Y146.511 E0.02605
G1 X173.489 Y153.658 E0.43441
G1 X173.489 Y154.264 E0.02605
G1 X165.736 Y146.511 E0.47125
G1 X165.130 Y146.511 E0.02605
G1 X173.489 Y154.870 E0.50809
G1 X173.489 Y155.476 E0.02605
G1 X164.524 Y146.511 E0.54492
G1 X163.918 Y146.511 E0.02605
G1 X173.489 Y156.082 E0.58176
G1 X173.489 Y156.688 E0.02605
G1 X163.312 Y146.511 E0.61860
G1 X162.706 Y146.511 E0.02605
G1 X173.489 Y157.294 E0.65543
G1 X173.489 Y157.900 E0.02605
G1 X162.100 Y146.511 E0.69227
G1 X161.494 Y146.511 E0.02605
G1 X173.489 Y158.506 E0.72910
G1 X173.489 Y159.112 E0.02605
G1 X160.888 Y146.511 E0.76594
G1 X160.283 Y146.511 E0.02605
G1 X173.489 Y159.717 E0.80278
G1 X173.489 Y160.323 E0.02605
G1 X159.677 Y146.511 E0.83961
G1 X159.071 Y146.511 E0.02605
G1 X173.489 Y160.929 E0.87645
G1 X173.489 Y161.535 E0.02605
G1 X158.465 Y146.511 E0.91329
G1 X157.859 Y146.511 E0.02605
G1 X173.489 Y162.141 E0.95012
G1 X173.489 Y162.747 E0.02605
G1 X157.253 Y146.511 E0.98696
G1 X156.647 Y146.511 E0.02605
G1 X173.489 Y163.353 E1.02380
G1 X173.489 Y163.959 E0.02605
G1 X156.041 Y146.511 E1.06063
G1 X155.511 Y146.511 E0.02275
G1 X155.511 Y146.588 E0.00329
G1 X173.412 Y164.489 E1.08815
G1 X172.806 Y164.489 E0.02605
G1 X155.511 Y147.194 E1.05132
G1 X155.511 Y147.800 E0.02605
G1 X172.200 Y164.489 E1.01448
G1 X171.594 Y164.489 E0.02605
G1 X155.511 Y148.406 E0.97764
G1 X155.511 Y149.012 E0.02605
G1 X170.988 Y164.489 E0.94081
G1 X170.382 Y164.489 E0.02605
G1 X155.511 Y149.618 E0.90397
G1 X155.511 Y150.224 E0.02605
G1 X169.776 Y164.489 E0.86713
G1 X169.170 Y164.489 E0.02605
G1 X155.511 Y150.830 E0.83030
G1 X155.511 Y151.436 E0.02605
G1 X168.564 Y164.489 E0.79346
G1 X167.958 Y164.489 E0.02605
G1 X155.511 Y152.042 E0.75662
G1 X155.511 Y152.648 E0.02605
G1 X167.352 Y164.489 E0.71979
G1 X166.746 Y164.489 E0.02605
G1 X155.511 Y153.254 E0.68295
G1 X155.511 Y153.860 E0.02605
G1 X166.140 Y164.489 E0.64612
G1 X165.534 Y164.489 E0.02605
G1 X155.511 Y154.466 E0.60928
G1 X155.511 Y155.072 E0.02605
G1 X164.928 Y164.489 E0.57244
G1 X164.322 Y164.489 E0.02605
G1 X155.511 Y155.678 E0.53561
G1 X155.511 Y156.284 E0.02605
G1 X163.716 Y164.489 E0.49877
G1 X163.110 Y164.489 E0.02605
G1 X155.511 Y156.890 E0.46193
G1 X155.511 Y157.496 E0.02605
G1 X162.504 Y164.489 E0.42510
G1 X161.898 Y164.489 E0.02605
G1 X155.511 Y158.102 E0.38826
G1 X155.511 Y158.708 E0.02605
G1 X161.292 Y164.489 E0.35142
G1 X160.686 Y164.489 E0.02605
G1 X155.511 Y159.314 E0.31459
G1 X155.511 Y159.920 E0.02605
G1 X160.080 Y164.489 E0.27775
G1 X159.474 Y164.489 E0.02605
G1 X155.511 Y160.526 E0.24091
G1 X155.511 Y161.132 E0.02605
G1 X158.868 Y164.489 E0.20408
G1 X158.262 Y164.489 E0.02605
G1 X155.511 Y161.738 E0.16724
G1 X155.511 Y162.343 E0.02605
G1 X157.657 Y164.489 E0.13040
G1 X157.051 Y164.489 E0.02605
G1 X155.511 Y162.949 E0.09357
G1 X155.511 Y163.555 E0.02605
G1 X156.445 Y164.489 E0.05673
G1 X155.839 Y164.489 E0.02605
G1 X155.318 Y163.969 E0.03162
;LAYER_CHANGE
;Z:0.44
;HEIGHT:0.2
G1 Z0.440000 F6000.000
TIMELAPSE_TAKE_FRAME
G1 E-0.80000 F3000.000
G1 X155.057 Y146.057 F6000.000
G1 E0.80000 F1800.000
;TYPE:Internal perimeter
;WIDTH:0.4
G1 F4200.000
G1 X173.943 Y146.057 E0.56075
G1 X173.943 Y164.943 E0.56075
G1 X155.057 Y164.943 E0.56075
G1 X155.057 Y146.117 E0.55896
G1 X154.700 Y145.740 F6000.000
;TYPE:External perimeter
G1 F3600.000
G1 X154.700 Y145.700 E0.00119
G1 X174.300 Y145.700 E0.58195
G1 X174.300 Y165.300 E0.58195
G1 X154.700 Y165.300 E0.58195
G1 X154.700 Y145.800 E0.57898
G1 X154.735 Y145.720 F6000.000
G1 E-0.80000 F3000.000
G1 X173.096 Y164.818 F6000.000
G1 E0.80000 F1800.000
;TYPE:Solid infill
;WIDTH:0.403328
G1 F4200.000
G1 X173.657 Y164.257 E0.02376
G1 X173.657 Y163.752 E0.01512
G1 X172.752 Y164.657 E0.03834
G1 X172.247 Y164.657 E0.01512
G1 X173.657 Y163.247 E0.05972
G1 X173.657 Y162.742 E0.01512
G1 X171.742 Y164.657 E0.08110
G1 X171.237 Y164.657 E0.01512
G1 X173.657 Y162.237 E0.10248
G1 X173.657 Y161.732 E0.01512
G1 X170.732 Y164.657 E0.12386
G1 X170.227 Y164.657 E0.01512
G1 X173.657 Y161.227 E0.14524
G1 X173.657 Y160.722 E0.01512
G1 X169.722 Y164.657 E0.16662
G1 X169.217 Y164.657 E0.01512
G1 X173.657 Y160.217 E0.18800
G1 X173.657 Y159.712 E0.01512
G1 X168.712 Y164.657 E0.20938
G1 X168.207 Y164.657 E0.01512
G1 X173.657 Y159.207 E0.23076
G1 X173.657 Y158.702 E0.01512
G1 X167.702 Y164.657 E0.25214
G1 X167.197 Y164.657 E0.01512
G1 X173.657 Y158.197 E0.27352
G1 X173.657 Y157.692 E0.01512
G1 X166.692 Y164.657 E0.29490
G1 X166.187 Y164.657 E0.01512
G1 X173.657 Y157.187 E0.31629
G1 X173.657 Y156.682 E0.01512
G1 X165.682 Y164.657 E0.33767
G1 X165.177 Y164.657 E0.01512
G1 X173.657 Y156.177 E0.35905
G1 X173.657 Y155.672 E0.01512
G1 X164.672 Y164.657 E0.38043
G1 X164.167 Y164.657 E0.01512
G1 X173.657 Y155.167 E0.40181
G1 X173.657 Y154.662 E0.01512
G1 X163.662 Y164.657 E0.42319
G1 X163.157 Y164.657 E0.01512
G1 X173.657 Y154.157 E0.44457
G1 X173.657 Y153.652 E0.01512
G1 X162.652 Y164.657 E0.46595
G1 X162.147 Y164.657 E0.01512
G1 X173.657 Y153.147 E0.48733
G1 X173.657 Y152.642 E0.01512
G1 X161.642 Y164.657 E0.50871
G1 X161.137 Y164.657 E0.01512
G1 X173.657 Y152.137 E0.53009
G1 X173.657 Y151.632 E0.01512
G1 X160.632 Y164.657 E0.55147
G1 X160.127 Y164.657 E0.01512
G1 X173.657 Y151.127 E0.57285
G1 X173.657 Y150.622 E0.01512
G1 X159.622 Y164.657 E0.59423
G1 X159.117 Y164.657 E0.01512
G1 X173.657 Y150.117 E0.61561
G1 X173.657 Y149.612 E0.01512
G1 X158.612 Y164.657 E0.63700
G1 X158.107 Y164.657 E0.01512
G1 X173.657 Y149.107 E0.65838
G1 X173.657 Y148.602 E0.01512
G1 X157.602 Y164.657 E0.67976
G1 X157.097 Y164.657 E0.01512
G1 X173.657 Y148.097 E0.70114
G1 X173.657 Y147.592 E0.01512
G1 X156.592 Y164.657 E0.72252
G1 X156.087 Y164.657 E0.01512
G1 X173.657 Y147.087 E0.74390
G1 X173.657 Y146.582 E0.01512
G1 X155.582 Y164.657 E0.76528
G1 X155.343 Y164.657 E0.00717
G1 X155.343 Y164.392 E0.00795
G1 X173.392 Y146.343 E0.76418
G1 X172.887 Y146.343 E0.01512
G1 X155.343 Y163.887 E0.74280
G1 X155.343 Y163.382 E0.01512
G1 X172.382 Y146.343 E0.72142
G1 X171.877 Y146.343 E0.01512
G1 X155.343 Y162.877 E0.70004
G1 X155.343 Y162.372 E0.01512
G1 X171.372 Y146.343 E0.67866
G1 X170.867 Y146.343 E0.01512
G1 X155.343 Y161.867 E0.65728
G1 X155.343 Y161.362 E0.01512
G1 X170.362 Y146.343 E0.63590
G1 X169.857 Y146.343 E0.01512
G1 X155.343 Y160.857 E0.61452
G1 X155.343 Y160.352 E0.01512
G1 X169.352 Y146.343 E0.59314
G1 X168.847 Y146.343 E0.01512
G1 X155.343 Y159.847 E0.57176
G1 X155.343 Y159.342 E0.01512
G1 X168.342 Y146.343 E0.55038
G1 X167.837 Y146.343 E0.01512
G1 X155.343 Y158.837 E0.52900
G1 X155.343 Y158.332 E0.01512
G1 X167.332 Y146.343 E0.50762
G1 X166.827 Y146.343 E0.01512
G1 X155.343 Y157.827 E0.48623
G1 X155.343 Y157.322 E0.01512
G1 X166.322 Y146.343 E0.46485
G1 X165.817 Y146.343 E0.01512
G1 X155.343 Y156.817 E0.44347
G1 X155.343 Y156.312 E0.01512
G1 X165.312 Y146.343 E0.42209
G1 X164.807 Y146.343 E0.01512
G1 X155.343 Y155.807 E0.40071
G1 X155.343 Y155.302 E0.01512
G1 X164.302 Y146.343 E0.37933
G1 X163.797 Y146.343 E0.01512
G1 X155.343 Y154.797 E0.35795
G1 X155.343 Y154.292 E0.01512
G1 X163.292 Y146.343 E0.33657
G1 X162.787 Y146.343 E0.01512
G1 X155.343 Y153.787 E0.31519
G1 X155.343 Y153.282 E0.01512
G1 X162.282 Y146.343 E0.29381
G1 X161.777 Y146.343 E0.01512
G1 X155.343 Y152.777 E0.27243
G1 X155.343 Y152.272 E0.01512
G1 X161.272 Y146.343 E0.25105
G1 X160.767 Y146.343 E0.01512
G1 X155.343 Y151.767 E0.22967
G1 X155.343 Y151.262 E0.01512
G1 X160.262 Y146.343 E0.20829
G1 X159.757 Y146.343 E0.01512
G1 X155.343 Y150.757 E0.18691
G1 X155.343 Y150.252 E0.01512
G1 X159.252 Y146.343 E0.16552
G1 X158.747 Y146.343 E0.01512
G1 X155.343 Y149.747 E0.14414
G1 X155.343 Y149.242 E0.01512
G1 X158.242 Y146.343 E0.12276
G1 X157.737 Y146.343 E0.01512
G1 X155.343 Y148.737 E0.10138
G1 X155.343 Y148.232 E0.01512
G1 X157.232 Y146.343 E0.08000
G1 X156.727 Y146.343 E0.01512
G1 X155.343 Y147.727 E0.05862
G1 X155.343 Y147.222 E0.01512
G1 X156.222 Y146.343 E0.03724
G1 X155.717 Y146.343 E0.01512
G1 X155.182 Y146.878 E0.02266
;LAYER_CHANGE
;Z:0.64
;HEIGHT:0.2
G1 Z0.640000 F6000.000
TIMELAPSE_TAKE_FRAME
G1 X155.057 Y146.057
;TYPE:Internal perimeter
;WIDTH:0.4
G1 F4200.000
G1 X173.943 Y146.057 E0.56075
G1 X173.943 Y164.943 E0.56075
G1 X155.057 Y164.943 E0.56075
G1 X155.057 Y146.117 E0.55896
G1 X154.700 Y145.740 F6000.000
;TYPE:External perimeter
G1 F3600.000
G1 X154.700 Y145.700 E0.00119
G1 X174.300 Y145.700 E0.58195
G1 X174.300 Y165.300 E0.58195
G1 X154.700 Y165.300 E0.58195
G1 X154.700 Y145.800 E0.57898
G1 X154.735 Y145.720 F6000.000
G1 E-0.80000 F3000.000
G1 X173.818 Y149.668 F6000.000
G1 E0.80000 F1800.000
;TYPE:Internal infill
G1 F4200.000
G1 X170.492 Y146.343 E0.13964
G1 X165.442 Y146.343 E0.14994
G1 X173.657 Y154.558 E0.34494
G1 X173.657 Y159.607 E0.14994
G1 X160.393 Y146.343 E0.55698
G1 X155.343 Y146.343 E0.14994
G1 X173.657 Y164.657 E0.76902
G1 X168.607 Y164.657 E0.14994
G1 X155.343 Y151.393 E0.55698
G1 X155.343 Y156.442 E0.14994
G1 X163.558 Y164.657 E0.34494
G1 X158.508 Y164.657 E0.14994
G1 X155.182 Y161.332 E0.13964
;LAYER_CHANGE
;Z:0.84
;HEIGHT:0.2
G1 Z0.840000 F6000.000
TIMELAPSE_TAKE_FRAME
G1 E-0.80000 F3000.000
G1 X155.057 Y146.057 F6000.000
G1 E0.80000 F1800.000
;TYPE:Internal perimeter
G1 F1757
G1 X173.943 Y146.057 E0.56075
G1 X173.943 Y164.943 E0.56075
G1 X155.057 Y164.943 E0.56075
G1 X155.057 Y146.117 E0.55896
G1 X154.700 Y145.740 F6000.000
;TYPE:External perimeter
G1 F1757
G1 X154.700 Y145.700 E0.00119
G1 X174.300 Y145.700 E0.58195
G1 X174.300 Y165.300 E0.58195
G1 X154.700 Y165.300 E0.58195
G1 X154.700 Y145.800 E0.57898
G1 X154.735 Y145.720 F6000.000
G1 E-0.80000 F3000.000
G1 X170.332 Y164.818 F6000.000
G1 E0.80000 F1800.000
;TYPE:Internal infill
G1 F1757
G1 X173.657 Y161.492 E0.13964
G1 X173.657 Y156.442 E0.14994
G1 X165.442 Y164.657 E0.34494
G1 X160.393 Y164.657 E0.14994
G1 X173.657 Y151.393 E0.55698
G1 X173.657 Y146.343 E0.14994
G1 X155.343 Y164.657 E0.76902
G1 X155.343 Y159.607 E0.14994
G1 X168.607 Y146.343 E0.55698
G1 X163.558 Y146.343 E0.14994
G1 X155.343 Y154.558 E0.34494
G1 X155.343 Y149.508 E0.14994
G1 X158.668 Y146.182 E0.13964
;LAYER_CHANGE
;Z:1.04
;HEIGHT:0.2
G1 Z1.040000 F6000.000
TIMELAPSE_TAKE_FRAME
G1 E-0.80000 F3000.000
G1 X155.057 Y146.057 F6000.000
G1 E0.80000 F1800.000
;TYPE:Internal perimeter
G1 F1764
G1 X173.943 Y146.057 E0.56075
G1 X173.943 Y164.943 E0.56075
G1 X155.057 Y164.943 E0.56075
G1 X155.057 Y146.117 E0.55896
G1 X154.700 Y145.740 F6000.000
;TYPE:External perimeter
G1 F1764
G1 X154.700 Y145.700 E0.00119
G1 X174.300 Y145.700 E0.58195
G1 X174.300 Y165.300 E0.58195
G1 X154.700 Y165.300 E0.58195
G1 X154.700 Y145.800 E0.57898
G1 X154.735 Y145.720 F6000.000
G1 E-0.80000 F3000.000
G1 X173.818 Y149.668 F6000.000
G1 E0.80000 F1800.000
;TYPE:Internal infill
G1 F1764
G1 X170.492 Y146.343 E0.13964
G1 X165.442 Y146.343 E0.14994
G1 X173.657 Y154.558 E0.34494
G1 X173.657 Y159.607 E0.14994
G1 X160.393 Y146.343 E0.55698
G1 X155.343 Y146.343 E0.14994
G1 X173.657 Y164.657 E0.76902
G1 X168.607 Y164.657 E0.14994
G1 X155.343 Y151.393 E0.55698
G1 X155.343 Y156.442 E0.14994
G1 X163.558 Y164.657 E0.34494
G1 X158.508 Y164.657 E0.14994
G1 X155.182 Y161.332 E0.13964
M106 S201.45
;LAYER_CHANGE
;Z:1.24
;HEIGHT:0.2
G1 Z1.240000 F6000.000
TIMELAPSE_TAKE_FRAME
G1 E-0.80000 F3000.000
G1 X155.057 Y146.057 F6000.000
G1 E0.80000 F1800.000
;TYPE:Internal perimeter
G1 F1764
G1 X173.943 Y146.057 E0.56075
G1 X173.943 Y164.943 E0.56075
G1 X155.057 Y164.943 E0.56075
G1 X155.057 Y146.117 E0.55896
G1 X154.700 Y145.740 F6000.000
;TYPE:External perimeter
G1 F1764
G1 X154.700 Y145.700 E0.00119
G1 X174.300 Y145.700 E0.58195
G1 X174.300 Y165.300 E0.58195
G1 X154.700 Y165.300 E0.58195
G1 X154.700 Y145.800 E0.57898
G1 X154.735 Y145.720 F6000.000
G1 E-0.80000 F3000.000
